(1001)
(Machine)
(  vendor: Autodesk)
(  description: Generic 3-axis)
(T3  D=3.1 CR=0 - ZMIN=-5.4 - flat end mill)
G90 G94
G17
G21

(Drill3)
T3
S1000 M3
G54
M8
G0 X0 Y0
Z16
Z6
Z-0.4
G1 Z-5.4 F200
G0 Z6
X-75 Y-50
Z5
G1 Z0 F200
G0 Z6
Y50
Z5
G1 Z0 F200
G0 Z6
X75
Z5
G1 Z0 F200
G0 Z6
Y-50
Z5
G1 Z0 F200
G0 Z6
Z16

(2D Adaptive5)
X-51.978 Y20.109
Z16
Z6
Z3.5
G3 X-53.445 Y17.555 Z3.338 I-0.734 J-1.277 F333.3
X-51.978 Y20.109 Z3.177 I0.734 J1.277
X-53.445 Y17.555 Z3.015 I-0.734 J-1.277
X-51.978 Y20.109 Z2.854 I0.734 J1.277
X-53.445 Y17.555 Z2.692 I-0.734 J-1.277
X-51.978 Y20.109 Z2.531 I0.734 J1.277
X-53.445 Y17.555 Z2.369 I-0.734 J-1.277
X-51.978 Y20.109 Z2.208 I0.734 J1.277
X-53.445 Y17.555 Z2.046 I-0.734 J-1.277
X-51.978 Y20.109 Z1.885 I0.734 J1.277
X-53.445 Y17.555 Z1.723 I-0.734 J-1.277
X-51.978 Y20.109 Z1.561 I0.734 J1.277
X-53.445 Y17.555 Z1.4 I-0.734 J-1.277
X-51.978 Y20.109 Z1.238 I0.734 J1.277
X-53.445 Y17.555 Z1.077 I-0.734 J-1.277
X-51.978 Y20.109 Z0.915 I0.734 J1.277
X-53.445 Y17.555 Z0.754 I-0.734 J-1.277
X-51.978 Y20.109 Z0.592 I0.734 J1.277
X-53.445 Y17.555 Z0.431 I-0.734 J-1.277
X-51.978 Y20.109 Z0.269 I0.734 J1.277
X-53.445 Y17.555 Z0.108 I-0.734 J-1.277
X-51.239 Y18.832 Z0 I0.734 J1.277
X-54.184 Y18.832 I-1.472 J0
X-51.239 Y18.832 I1.472 J0
G1 X-51.202 Y19.562 F450
X-51.184 Y19.652
X-51.173 Y19.801
X-51.189 Y19.95
X-51.228 Y20.095
X-51.287 Y20.233
X-51.361 Y20.364
X-51.45 Y20.485
X-51.551 Y20.596
X-51.662 Y20.696
X-51.782 Y20.786
X-51.91 Y20.865
X-52.044 Y20.933
X-52.183 Y20.989
X-52.329 Y21.035
X-52.482 Y21.07
X-52.641 Y21.092
X-52.804 Y21.103
X-52.97 Y21.1
X-53.138 Y21.083
X-53.306 Y21.053
X-53.473 Y21.009
X-53.638 Y20.951
X-53.8 Y20.879
X-53.956 Y20.793
X-54.106 Y20.695
X-54.249 Y20.584
X-54.383 Y20.462
X-54.507 Y20.328
X-54.621 Y20.184
X-54.723 Y20.031
X-54.813 Y19.87
X-54.89 Y19.701
X-54.954 Y19.526
X-55.003 Y19.347
X-55.038 Y19.163
X-55.058 Y18.977
X-55.063 Y18.79
X-55.053 Y18.603
X-55.028 Y18.417
X-54.988 Y18.233
X-54.933 Y18.053
X-54.864 Y17.878
X-54.781 Y17.708
X-54.685 Y17.546
X-54.576 Y17.392
X-54.455 Y17.247
X-54.323 Y17.112
X-54.18 Y16.989
X-54.028 Y16.877
X-53.867 Y16.778
X-53.698 Y16.691
X-53.524 Y16.619
X-53.344 Y16.561
X-53.159 Y16.518
X-52.972 Y16.489
X-52.784 Y16.476
X-52.594 Y16.477
X-52.406 Y16.494
X-52.219 Y16.526
X-52.036 Y16.573
X-51.857 Y16.635
X-51.683 Y16.71
X-51.516 Y16.8
X-51.357 Y16.902
X-51.207 Y17.017
X-51.066 Y17.144
X-50.936 Y17.281
X-50.817 Y17.429
X-50.71 Y17.585
X-50.601 Y17.778
X-50.481 Y18.034
X-50.335 Y18.427
X-50.252 Y18.721
X-50.201 Y18.976
X-50.173 Y19.215
X-50.166 Y19.442
X-50.175 Y19.657
X-50.201 Y19.862
X-50.243 Y20.061
X-50.3 Y20.256
X-50.373 Y20.446
X-50.461 Y20.631
X-50.564 Y20.807
X-50.681 Y20.976
X-50.813 Y21.135
X-50.958 Y21.286
X-51.117 Y21.426
X-51.289 Y21.554
X-51.474 Y21.67
X-51.67 Y21.773
X-51.877 Y21.86
X-52.093 Y21.932
X-52.317 Y21.987
X-52.548 Y22.024
X-52.784 Y22.043
X-53.024
X-53.265 Y22.023
X-53.507 Y21.984
X-53.746 Y21.924
X-53.982 Y21.846
X-54.212 Y21.747
X-54.436 Y21.63
X-54.65 Y21.495
X-54.855 Y21.341
X-55.047 Y21.171
X-55.226 Y20.986
X-55.39 Y20.785
X-55.538 Y20.571
X-55.669 Y20.345
X-55.782 Y20.109
X-55.876 Y19.863
X-55.949 Y19.61
X-56.003 Y19.351
X-56.036 Y19.089
X-56.047 Y18.824
X-56.037 Y18.558
X-56.006 Y18.294
X-55.954 Y18.033
X-55.88 Y17.776
X-55.787 Y17.526
X-55.673 Y17.285
X-55.541 Y17.052
X-55.39 Y16.832
X-55.221 Y16.623
X-55.037 Y16.429
X-54.837 Y16.251
X-54.624 Y16.088
X-54.398 Y15.944
X-54.161 Y15.818
X-53.915 Y15.711
X-53.661 Y15.624
X-53.401 Y15.558
X-53.136 Y15.514
X-52.869 Y15.49
X-52.6 Y15.488
X-52.332 Y15.508
X-52.067 Y15.549
X-51.805 Y15.611
X-51.55 Y15.694
X-51.302 Y15.797
X-51.063 Y15.92
X-50.835 Y16.062
X-50.618 Y16.221
X-50.411 Y16.402
X-50.206 Y16.611
X-49.996 Y16.863
X-49.803 Y17.138
X-49.626 Y17.437
X-49.474 Y17.749
X-49.35 Y18.065
X-49.255 Y18.382
X-49.187 Y18.696
X-49.146 Y19.007
X-49.13 Y19.314
X-49.139 Y19.617
X-49.172 Y19.914
X-49.228 Y20.206
X-49.306 Y20.49
X-49.407 Y20.766
X-49.529 Y21.032
X-49.672 Y21.288
X-49.836 Y21.531
X-50.019 Y21.762
X-50.222 Y21.978
X-50.442 Y22.179
X-50.68 Y22.363
X-50.933 Y22.528
X-51.201 Y22.674
X-51.483 Y22.798
X-51.776 Y22.901
X-52.079 Y22.981
X-52.391 Y23.036
X-52.708 Y23.066
X-53.029 Y23.071
X-53.351 Y23.05
X-53.673 Y23.003
X-53.993 Y22.93
X-54.307 Y22.831
X-54.614 Y22.706
X-54.912 Y22.555
X-55.199 Y22.381
X-55.472 Y22.183
X-55.729 Y21.963
X-55.969 Y21.722
X-56.19 Y21.461
X-56.39 Y21.182
X-56.567 Y20.888
X-56.721 Y20.579
X-56.849 Y20.257
X-56.952 Y19.926
X-57.028 Y19.587
X-57.077 Y19.242
X-57.097 Y18.894
X-57.09 Y18.544
X-57.055 Y18.196
X-56.992 Y17.852
X-56.901 Y17.513
X-56.783 Y17.182
X-56.639 Y16.861
X-56.47 Y16.553
X-56.276 Y16.26
X-56.059 Y15.982
X-55.821 Y15.723
X-55.562 Y15.484
X-55.285 Y15.266
X-54.991 Y15.071
X-54.683 Y14.9
X-54.361 Y14.754
X-54.029 Y14.635
X-53.688 Y14.543
X-53.341 Y14.478
X-52.99 Y14.441
X-52.637 Y14.433
X-52.285 Y14.453
X-51.935 Y14.501
X-51.59 Y14.577
X-51.252 Y14.681
X-50.924 Y14.811
X-50.605 Y14.968
X-50.296 Y15.153
X-49.992 Y15.37
X-49.698 Y15.618
X-49.416 Y15.896
X-49.151 Y16.204
X-48.909 Y16.536
X-48.694 Y16.887
X-48.507 Y17.254
X-48.352 Y17.632
X-48.229 Y18.018
X-48.138 Y18.41
X-48.079 Y18.803
X-48.052 Y19.197
X-48.057 Y19.588
X-48.093 Y19.975
X-48.16 Y20.355
X-48.256 Y20.727
X-48.382 Y21.09
X-48.536 Y21.44
X-48.717 Y21.777
X-48.925 Y22.098
X-49.159 Y22.402
X-49.417 Y22.687
X-49.699 Y22.952
X-50.002 Y23.195
X-50.326 Y23.413
X-50.667 Y23.606
X-51.026 Y23.772
X-51.399 Y23.91
X-51.784 Y24.018
X-52.179 Y24.095
X-52.581 Y24.14
X-52.988 Y24.153
X-53.397 Y24.133
X-53.805 Y24.08
X-54.21 Y23.994
X-54.609 Y23.875
X-54.999 Y23.724
X-55.377 Y23.541
X-55.741 Y23.328
X-56.088 Y23.085
X-56.416 Y22.814
X-56.722 Y22.516
X-57.004 Y22.194
X-57.26 Y21.849
X-57.488 Y21.483
X-57.687 Y21.1
X-57.854 Y20.7
X-57.99 Y20.288
X-58.092 Y19.865
X-58.16 Y19.435
X-58.193 Y19
X-58.191 Y18.563
X-58.154 Y18.127
X-58.082 Y17.694
X-57.976 Y17.269
X-57.835 Y16.853
X-57.662 Y16.45
X-57.456 Y16.061
X-57.22 Y15.69
X-56.955 Y15.339
X-56.662 Y15.01
X-56.344 Y14.705
X-56.002 Y14.427
X-55.639 Y14.177
X-55.256 Y13.957
X-54.858 Y13.769
X-54.445 Y13.613
X-54.021 Y13.49
X-53.588 Y13.402
X-53.15 Y13.349
X-52.709 Y13.331
X-52.268 Y13.349
X-51.829 Y13.402
X-51.396 Y13.49
X-50.971 Y13.613
X-50.553 Y13.771
X-50.145 Y13.964
X-49.749 Y14.192
X-49.366 Y14.456
X-48.999 Y14.755
X-48.65 Y15.089
X-48.325 Y15.453
X-48.029 Y15.846
X-47.763 Y16.264
X-47.532 Y16.701
X-47.337 Y17.155
X-47.18 Y17.62
X-47.061 Y18.095
X-46.982 Y18.575
X-46.941 Y19.058
X-46.939 Y19.539
X-46.975 Y20.017
X-47.05 Y20.488
X-47.161 Y20.95
X-47.309 Y21.401
X-47.493 Y21.837
X-47.711 Y22.258
X-47.962 Y22.66
X-48.244 Y23.04
X-48.558 Y23.398
X-48.899 Y23.73
X-49.268 Y24.035
X-49.662 Y24.311
X-50.078 Y24.555
X-50.514 Y24.766
X-50.968 Y24.942
X-51.437 Y25.081
X-51.918 Y25.183
X-52.408 Y25.247
X-52.904 Y25.27
X-53.402 Y25.255
X-53.9 Y25.198
X-54.394 Y25.102
X-54.88 Y24.966
X-55.357 Y24.79
X-55.819 Y24.576
X-56.264 Y24.324
X-56.689 Y24.037
X-57.091 Y23.715
X-57.467 Y23.361
X-57.815 Y22.977
X-58.131 Y22.565
X-58.414 Y22.128
X-58.662 Y21.669
X-58.872 Y21.19
X-59.044 Y20.695
X-59.175 Y20.187
X-59.266 Y19.669
X-59.314 Y19.145
X-59.321 Y18.618
X-59.285 Y18.092
X-59.207 Y17.569
X-59.087 Y17.054
X-58.926 Y16.55
X-58.725 Y16.06
X-58.485 Y15.587
X-58.207 Y15.135
X-57.895 Y14.707
X-57.548 Y14.304
X-57.171 Y13.931
X-56.764 Y13.589
X-56.331 Y13.281
X-55.875 Y13.008
X-55.398 Y12.773
X-54.904 Y12.577
X-54.395 Y12.421
X-53.876 Y12.306
X-53.349 Y12.234
X-52.818 Y12.204
X-52.286 Y12.216
X-51.756 Y12.272
X-51.231 Y12.37
X-50.713 Y12.51
X-50.205 Y12.693
X-49.708 Y12.918
X-49.226 Y13.185
X-48.761 Y13.494
X-48.317 Y13.843
X-47.898 Y14.231
X-47.508 Y14.655
X-47.152 Y15.111
X-46.832 Y15.596
X-46.552 Y16.106
X-46.313 Y16.637
X-46.119 Y17.184
X-45.969 Y17.743
X-45.865 Y18.311
X-45.807 Y18.883
X-45.795 Y19.456
X-45.829 Y20.026
X-45.909 Y20.59
X-46.033 Y21.145
X-46.201 Y21.686
X-46.412 Y22.212
X-46.664 Y22.719
X-46.957 Y23.204
X-47.287 Y23.665
X-47.654 Y24.098
X-48.055 Y24.502
X-48.489 Y24.873
X-48.953 Y25.209
X-49.443 Y25.507
X-49.958 Y25.766
X-50.494 Y25.984
X-51.048 Y26.159
X-51.616 Y26.289
X-52.195 Y26.374
X-52.782 Y26.412
X-53.372 Y26.403
X-53.962 Y26.346
X-54.547 Y26.242
X-55.124 Y26.09
X-55.689 Y25.892
X-56.239 Y25.649
X-56.769 Y25.361
X-57.275 Y25.031
X-57.755 Y24.66
X-58.204 Y24.25
X-58.621 Y23.805
X-59.001 Y23.327
X-59.342 Y22.818
X-59.642 Y22.283
X-59.899 Y21.724
X-60.11 Y21.145
X-60.274 Y20.551
X-60.391 Y19.944
X-60.458 Y19.329
X-60.476 Y18.71
X-60.444 Y18.091
X-60.362 Y17.476
X-60.231 Y16.869
X-60.052 Y16.273
X-59.825 Y15.694
X-59.553 Y15.135
X-59.236 Y14.598
X-58.877 Y14.089
X-58.478 Y13.61
X-58.042 Y13.164
X-57.571 Y12.755
X-57.069 Y12.385
X-56.538 Y12.056
X-55.983 Y11.771
X-55.406 Y11.531
X-54.812 Y11.338
X-54.205 Y11.193
X-53.587 Y11.098
X-52.964 Y11.052
X-52.338 Y11.057
X-51.714 Y11.112
X-51.094 Y11.217
X-50.482 Y11.372
X-49.88 Y11.577
X-49.293 Y11.832
X-48.723 Y12.135
X-48.175 Y12.487
X-47.652 Y12.884
X-47.16 Y13.325
X-46.701 Y13.807
X-46.281 Y14.328
X-45.902 Y14.882
X-45.569 Y15.466
X-45.283 Y16.075
X-45.047 Y16.705
X-44.863 Y17.351
X-44.731 Y18.008
X-44.653 Y18.672
X-44.628 Y19.339
X-44.657 Y20.003
X-44.739 Y20.662
X-44.873 Y21.31
X-45.059 Y21.945
X-45.295 Y22.563
X-45.579 Y23.159
X-45.911 Y23.731
X-46.287 Y24.274
X-46.707 Y24.787
X-47.167 Y25.264
X-47.665 Y25.704
X-48.197 Y26.104
X-48.762 Y26.461
X-49.355 Y26.772
X-49.974 Y27.035
X-50.613 Y27.249
X-51.27 Y27.411
X-51.939 Y27.52
X-52.618 Y27.575
X-53.301 Y27.576
X-53.985 Y27.521
X-54.664 Y27.412
X-55.334 Y27.248
X-55.991 Y27.03
X-56.63 Y26.759
X-57.247 Y26.436
X-57.838 Y26.065
X-58.398 Y25.646
X-58.925 Y25.182
X-59.413 Y24.676
X-59.861 Y24.132
X-60.264 Y23.552
X-60.62 Y22.941
X-60.926 Y22.302
X-61.18 Y21.639
X-61.381 Y20.958
X-61.526 Y20.261
X-61.616 Y19.554
X-61.648 Y18.842
X-61.623 Y18.128
X-61.54 Y17.419
X-61.401 Y16.717
X-61.206 Y16.029
X-60.956 Y15.358
X-60.653 Y14.709
X-60.298 Y14.086
X-59.895 Y13.493
X-59.445 Y12.934
X-58.951 Y12.413
X-58.418 Y11.933
X-57.847 Y11.498
X-57.243 Y11.109
X-56.609 Y10.77
X-55.95 Y10.483
X-55.271 Y10.25
X-54.574 Y10.072
X-53.866 Y9.951
X-53.149 Y9.886
X-52.429 Y9.88
X-51.71 Y9.931
X-50.995 Y10.041
X-50.288 Y10.207
X-49.593 Y10.432
X-48.918 Y10.711
X-48.267 Y11.044
X-47.644 Y11.428
X-47.054 Y11.859
X-46.499 Y12.335
X-45.982 Y12.852
X-45.508 Y13.408
X-45.077 Y13.999
X-44.693 Y14.621
X-44.357 Y15.27
X-44.072 Y15.944
X-43.84 Y16.637
X-43.661 Y17.346
X-43.537 Y18.066
X-43.468 Y18.794
X-43.456 Y19.525
X-43.466 Y19.682
X-43.506 Y20.087
X-43.613 Y20.81
X-43.721 Y21.439
X-43.891 Y22.104
X-44.124 Y22.779
X-44.416 Y23.45
X-44.761 Y24.094
X-45.156 Y24.709
X-45.597 Y25.292
X-46.083 Y25.838
X-46.61 Y26.345
X-47.174 Y26.81
X-47.772 Y27.23
X-48.401 Y27.603
X-49.057 Y27.927
X-49.735 Y28.199
X-50.432 Y28.419
X-51.144 Y28.586
X-51.867 Y28.698
X-52.595 Y28.754
X-53.327 Y28.755
X-54.056 Y28.7
X-54.778 Y28.59
X-55.491 Y28.426
X-56.189 Y28.209
X-56.869 Y27.941
X-57.528 Y27.623
X-58.161 Y27.258
X-58.765 Y26.847
X-59.338 Y26.393
X-59.877 Y25.898
X-60.377 Y25.365
X-60.837 Y24.797
X-61.254 Y24.196
X-61.486 Y23.8
X-61.532 Y23.706
X-61.565 Y23.607
X-61.582 Y23.504
X-62.227 Y16.932
X-62.243 Y16.598
X-62.232 Y16.263
X-62.193 Y15.919
X-62.106 Y15.478
X-61.978 Y15.021
X-61.784 Y14.495
X-61.513 Y13.912
X-61.169 Y13.304
X-60.763 Y12.704
X-60.306 Y12.134
X-59.806 Y11.601
X-59.266 Y11.108
X-58.692 Y10.655
X-58.087 Y10.245
X-57.453 Y9.88
X-56.915 Y9.619
X-56.814 Y9.579
X-56.708 Y9.554
X-56.6 Y9.546
X-49.894
X-49.516 Y9.565
X-49.194 Y9.607
X-48.839 Y9.683
X-48.417 Y9.81
X-47.967 Y9.985
X-47.436 Y10.242
X-46.867 Y10.578
X-46.306 Y10.972
X-45.743 Y11.439
X-45.219 Y11.948
X-44.733 Y12.494
X-44.286 Y13.073
X-43.88 Y13.681
X-43.516 Y14.315
X-43.195 Y14.972
X-43.109 Y15.185
X-43.074 Y15.296
X-43.057 Y15.411
X-43.059 Y15.528
X-43.466 Y19.682
G3 X-44.02 Y19.841 I-0.309 J-0.03
G1 X-44.048 Y19.805
X-44.178 Y19.636
G3 X-44.095 Y19.182 I0.245 J-0.19
X-43.652 Y19.315 I0.162 J0.265
X-43.506 Y20.087 I-1.433 J0.672
G1 X-43.88 Y23.905
X-43.916 Y24.145
X-43.973 Y24.393
X-44.073 Y24.705
X-44.203 Y25.023
X-44.405 Y25.421
X-44.648 Y25.819
X-44.99 Y26.288
X-45.422 Y26.79
X-45.922 Y27.285
X-46.481 Y27.756
X-47.076 Y28.182
X-47.7 Y28.563
X-48.349 Y28.899
X-49.019 Y29.19
X-49.708 Y29.435
X-50.412 Y29.633
X-51.127 Y29.784
X-51.851 Y29.887
X-52.58 Y29.939
X-53.311 Y29.94
X-54.041 Y29.891
X-54.765 Y29.793
X-55.482 Y29.646
X-56.187 Y29.453
X-56.878 Y29.214
X-57.551 Y28.93
X-58.205 Y28.604
X-58.836 Y28.234
X-59.44 Y27.823
X-60.016 Y27.372
X-60.56 Y26.884
X-61.072 Y26.362
X-61.183 Y26.233
X-61.267 Y26.112
X-61.325 Y25.976
X-61.354 Y25.832
X-61.582 Y23.504
G3 X-61.03 Y23.292 I0.309 J-0.019
G1 X-60.987 Y23.346 Z0.008
X-60.946 Y23.397 Z0.031
X-60.91 Y23.443 Z0.068
X-60.879 Y23.482 Z0.117
X-60.856 Y23.511 Z0.175
X-60.842 Y23.529 Z0.241
X-60.837 Y23.535 Z0.31
G0 Z6
X-44.158 Y22.852
Z0.62
G1 Z0.31 F450
X-44.155 Y22.859 Z0.241
X-44.145 Y22.88 Z0.175
X-44.13 Y22.914 Z0.117
X-44.109 Y22.958 Z0.068
X-44.084 Y23.011 Z0.031
X-44.056 Y23.071 Z0.008
X-44.027 Y23.133 Z0
G3 X-43.88 Y23.905 I-1.433 J0.672
G1 X-44.075 Y25.897
X-44.112 Y26.143
X-44.158 Y26.343
X-44.224 Y26.548
X-44.326 Y26.797
X-44.466 Y27.073
X-44.648 Y27.371
X-44.901 Y27.718
X-45.216 Y28.084
X-45.61 Y28.475
X-46.116 Y28.901
X-46.711 Y29.325
X-47.338 Y29.702
X-47.989 Y30.034
X-48.661 Y30.323
X-49.349 Y30.568
X-50.052 Y30.769
X-50.766 Y30.926
X-51.489 Y31.039
X-52.216 Y31.107
X-52.947 Y31.131
X-53.678 Y31.109
X-54.406 Y31.044
X-55.129 Y30.935
X-55.844 Y30.783
X-56.549 Y30.588
X-57.24 Y30.35
X-57.916 Y30.072
X-58.574 Y29.753
X-59.212 Y29.396
X-59.827 Y29.002
X-60.418 Y28.571
X-60.913 Y28.164
X-61.042 Y28.027
X-61.131 Y27.86
X-61.173 Y27.676
X-61.354 Y25.832
G3 X-60.802 Y25.62 I0.309 J-0.019
G1 X-60.759 Y25.674 Z0.008
X-60.718 Y25.725 Z0.031
X-60.682 Y25.771 Z0.068
X-60.651 Y25.81 Z0.117
X-60.628 Y25.839 Z0.175
X-60.614 Y25.857 Z0.241
X-60.609 Y25.863 Z0.31
G0 Z6
X-44.354 Y24.844
Z0.62
G1 Z0.31 F450
X-44.35 Y24.852 Z0.241
X-44.341 Y24.872 Z0.175
X-44.325 Y24.906 Z0.117
X-44.304 Y24.95 Z0.068
X-44.279 Y25.003 Z0.031
X-44.251 Y25.063 Z0.008
X-44.222 Y25.125 Z0
G3 X-44.075 Y25.897 I-1.433 J0.672
G1 X-44.248 Y27.663
X-44.272 Y27.823
X-44.312 Y27.993
X-44.37 Y28.177
X-44.452 Y28.376
X-44.574 Y28.616
X-44.723 Y28.86
X-44.929 Y29.143
X-45.193 Y29.45
X-45.537 Y29.791
X-45.95 Y30.138
X-46.487 Y30.521
X-47.114 Y30.897
X-47.768 Y31.223
X-48.443 Y31.505
X-49.134 Y31.744
X-49.837 Y31.943
X-50.551 Y32.1
X-51.273 Y32.214
X-52.001 Y32.288
X-52.731 Y32.32
X-53.462 Y32.312
X-54.192 Y32.264
X-54.917 Y32.177
X-55.637 Y32.05
X-56.349 Y31.884
X-57.051 Y31.68
X-57.741 Y31.438
X-58.416 Y31.157
X-59.075 Y30.84
X-59.715 Y30.486
X-60.335 Y30.099
X-60.755 Y29.803
X-60.89 Y29.68
X-60.989 Y29.528
X-61.048 Y29.355
X-61.061 Y29.174
X-61.055 Y29.051
X-61.06 Y28.885
X-61.071 Y28.719
X-61.173 Y27.676
G3 X-60.621 Y27.464 I0.309 J-0.019
G1 X-60.578 Y27.518 Z0.008
X-60.537 Y27.57 Z0.031
X-60.501 Y27.616 Z0.068
X-60.47 Y27.654 Z0.117
X-60.447 Y27.683 Z0.175
X-60.433 Y27.701 Z0.241
X-60.428 Y27.707 Z0.31
G0 Z6
X-44.527 Y26.611
Z0.62
G1 Z0.31 F450
X-44.524 Y26.618 Z0.241
X-44.514 Y26.639 Z0.175
X-44.498 Y26.672 Z0.117
X-44.477 Y26.717 Z0.068
X-44.452 Y26.77 Z0.031
X-44.425 Y26.829 Z0.008
X-44.395 Y26.892 Z0
G3 X-44.248 Y27.663 I-1.433 J0.672
G1 X-44.352 Y28.719
X-44.363 Y28.885
X-44.368 Y29.051
X-44.372 Y29.201
X-44.396 Y29.349
X-44.432 Y29.5
X-44.488 Y29.67
X-44.573 Y29.871
X-44.676 Y30.069
X-44.823 Y30.305
X-45.013 Y30.559
X-45.252 Y30.831
X-45.566 Y31.137
X-45.961 Y31.462
X-46.165 Y31.605
X-46.294 Y31.677
X-46.436 Y31.721
X-46.584 Y31.735
X-46.739 Y31.734
X-46.905 Y31.752
X-47.071 Y31.778
X-49.063 Y32.176
X-49.201 Y32.205
X-49.396 Y32.255
X-49.562 Y32.315
X-49.686 Y32.371
X-49.894 Y32.486
X-49.963 Y32.537
X-50.06 Y32.61
X-50.214 Y32.723
X-50.415 Y32.846
X-50.671 Y32.975
X-50.97 Y33.098
X-51.37 Y33.225
X-51.843 Y33.335
X-52.442 Y33.424
X-53.172 Y33.473
X-53.903 Y33.464
X-54.363 Y33.429
X-54.577 Y33.38
X-54.766 Y33.268
X-54.913 Y33.104
X-54.959 Y33.035
X-55.041 Y32.924
X-55.088 Y32.869
X-55.207 Y32.745
X-55.252 Y32.703
X-55.373 Y32.599
X-55.456 Y32.537
X-55.539 Y32.481
X-55.705 Y32.386
X-55.737 Y32.371
X-55.871 Y32.31
X-56.037 Y32.257
X-56.369 Y32.179
X-56.535 Y32.141
X-58.195 Y31.809
X-58.361 Y31.78
X-58.528 Y31.756
X-58.694 Y31.735
X-58.785
X-58.935 Y31.727
X-59.186 Y31.694
X-59.499 Y31.626
X-59.864 Y31.516
X-60.278 Y31.354
X-60.601 Y31.196
X-60.824 Y31.064
X-61.027 Y30.921
X-61.112 Y30.85
X-61.245 Y30.705
X-61.333 Y30.53
X-61.371 Y30.337
X-61.356 Y30.141
X-61.288 Y29.956
X-61.248 Y29.881
X-61.175 Y29.715
X-61.126 Y29.549
X-61.088 Y29.383
X-61.064 Y29.217
X-61.061 Y29.174
G3 X-60.52 Y28.996 I0.309 J0.027
G1 X-60.479 Y29.043
X-58.619 Y31.156
X-58.563 Y31.22
G3 X-58.785 Y31.735 I-0.233 J0.205
G1 X-58.86
X-59.026 Y31.749
X-59.192 Y31.772
X-59.358 Y31.814
X-59.532 Y31.873
X-59.619 Y31.912
X-59.758 Y31.966
X-59.904 Y32.005
X-60.052 Y32.028
X-60.201 Y32.038
X-60.361 Y32.036
X-60.532 Y32.02
X-60.699 Y31.99
X-60.863 Y31.947
X-61.023 Y31.892
X-61.16 Y31.831
X-61.297 Y31.756
X-61.423 Y31.673
X-61.542 Y31.582
X-61.652 Y31.479
X-61.673 Y31.456
X-61.792 Y31.279
X-61.854 Y31.074
Y30.861
X-61.791 Y30.656
X-61.671 Y30.479
X-61.579 Y30.379
X-61.441 Y30.213
X-61.336 Y30.047
X-61.288 Y29.956
G3 X-60.781 Y29.913 I0.269 J0.155
G1 X-60.661 Y30.057
X-59.661 Y31.262
X-59.517 Y31.436
G3 X-59.619 Y31.912 I-0.239 J0.198
G1 X-59.69 Y31.944
X-59.868 Y32.039
X-60.098 Y32.205
X-60.143 Y32.242
X-60.168 Y32.266
X-60.28 Y32.366
X-60.41 Y32.44
X-60.55 Y32.494
X-60.695 Y32.531
X-60.844 Y32.552
X-60.994 Y32.557
X-61.144 Y32.548
X-61.292 Y32.526
X-61.438 Y32.491
X-61.58 Y32.443
X-61.717 Y32.383
X-61.849 Y32.311
X-61.973 Y32.227
X-62.089 Y32.131
X-62.196 Y32.026
X-62.292 Y31.911
X-62.376 Y31.787
X-62.381 Y31.779
X-62.458 Y31.568
X-62.466 Y31.343
X-62.405 Y31.126
X-62.281 Y30.939
X-62.105 Y30.799
G3 X-61.797 Y30.811 I0.143 J0.275
G1 X-61.404 Y31.056
X-60.428 Y31.665
X-60.228 Y31.789
G3 X-60.168 Y32.266 I-0.164 J0.263
G1 X-60.188 Y32.286
X-60.354 Y32.464
X-60.415 Y32.537
X-60.52 Y32.69
X-60.611 Y32.81
X-60.722 Y32.91
X-60.848 Y32.991
X-60.985 Y33.053
X-61.128 Y33.098
X-61.276 Y33.126
X-61.425 Y33.139
X-61.575 Y33.137
X-61.724 Y33.122
X-61.872 Y33.094
X-62.017 Y33.053
X-62.161 Y33
X-62.3 Y32.935
X-62.43 Y32.861
X-62.555 Y32.775
X-62.672 Y32.681
X-62.78 Y32.577
X-62.878 Y32.463
X-62.965 Y32.341
X-63.042 Y32.212
X-63.106 Y32.077
X-63.157 Y31.936
X-63.166 Y31.899
X-63.189 Y31.678
X-63.144 Y31.461
X-63.035 Y31.267
X-62.872 Y31.116
X-62.672 Y31.021
X-62.512 Y30.974
X-62.421 Y30.944
G3 X-62.137 Y31.003 I0.087 J0.298
G1 X-61.764 Y31.311
X-60.844 Y32.071
X-60.584 Y32.285
G3 X-60.52 Y32.69 I-0.197 J0.239
G1 X-60.581 Y32.786
X-60.743 Y33.167
X-60.809 Y33.302
X-60.901 Y33.42
X-61.013 Y33.521
X-61.137 Y33.605
X-61.27 Y33.673
X-61.411 Y33.726
X-61.556 Y33.764
X-61.704 Y33.788
X-61.854 Y33.799
X-62.005 Y33.797
X-62.163 Y33.783
X-62.324 Y33.755
X-62.484 Y33.714
X-62.646 Y33.658
X-62.808 Y33.587
X-62.968 Y33.501
X-63.12 Y33.403
X-63.264 Y33.293
X-63.402 Y33.168
X-63.516 Y33.047
X-63.623 Y32.914
X-63.719 Y32.772
X-63.793 Y32.642
X-63.856 Y32.506
X-63.911 Y32.356
X-63.951 Y32.212
X-63.978 Y32.064
X-63.983 Y32.018
X-63.974 Y31.821
X-63.912 Y31.633
X-63.802 Y31.469
X-63.651 Y31.341
X-63.509 Y31.25
X-63.478 Y31.236
X-63.448 Y31.225
X-62.672 Y31.021
G3 X-62.364 Y31.114 I0.077 J0.3
G1 X-62.064 Y31.447
X-61.1 Y32.518
X-60.802 Y32.849
G3 X-60.743 Y33.167 I-0.23 J0.207
G1 X-60.758 Y33.201
X-60.822 Y33.367
X-60.979 Y33.79
X-61.038 Y33.928
X-61.126 Y34.05
X-61.232 Y34.156
X-61.35 Y34.248
X-61.478 Y34.326
X-61.614 Y34.39
X-61.755 Y34.441
X-61.9 Y34.479
X-62.055 Y34.506
X-62.219 Y34.521
X-62.389 Y34.523
X-62.569 Y34.51
X-62.758 Y34.482
X-62.952 Y34.437
X-63.145 Y34.375
X-63.337 Y34.296
X-63.527 Y34.2
X-63.713 Y34.085
X-63.89 Y33.956
X-64.056 Y33.813
X-64.212 Y33.655
X-64.354 Y33.486
X-64.481 Y33.307
X-64.506 Y33.266
X-64.566 Y33.137
X-64.601 Y32.999
X-64.607 Y32.857
G3 X-64.218 Y32.585 I0.309 J0.027
G1 X-63.982 Y32.648
X-61.464 Y33.321
X-61.193 Y33.393
G3 X-60.979 Y33.79 I-0.08 J0.299
G1 X-61.018 Y33.895
X-61.034 Y33.929
X-61.054 Y33.963
X-61.107 Y34.031
X-61.37 Y34.363
X-61.407 Y34.403
X-61.443 Y34.435
X-61.584 Y34.529
X-61.848 Y34.704
X-61.89 Y34.73
X-61.931 Y34.749
X-62.014 Y34.775
X-62.429 Y34.89
X-62.471 Y34.899
X-62.512 Y34.905
X-62.678 Y34.9
X-63.01 Y34.885
X-63.082 Y34.88
X-63.118 Y34.873
X-63.153 Y34.861
X-63.592 Y34.695
X-63.633 Y34.679
X-63.675 Y34.656
X-63.841 Y34.527
X-64.044 Y34.363
X-64.121 Y34.299
X-64.15 Y34.267
X-64.173 Y34.234
X-64.414 Y33.865
X-64.463 Y33.782
X-64.49 Y33.699
X-64.58 Y33.367
X-64.62 Y33.201
X-64.623 Y33.159
X-64.599 Y32.703
X-64.594 Y32.62
X-64.585 Y32.578
X-64.571 Y32.537
X-64.443 Y32.205
X-64.376 Y32.039
X-64.339 Y31.985
X-64.112 Y31.707
X-64.007 Y31.58
X-63.984 Y31.559
X-63.961 Y31.541
X-63.651 Y31.341
G3 X-63.212 Y31.738 I0.157 J0.267
G1 X-63.241 Y31.8 Z0.008
X-63.268 Y31.86 Z0.031
X-63.293 Y31.913 Z0.068
X-63.313 Y31.958 Z0.117
X-63.329 Y31.992 Z0.175
X-63.338 Y32.012 Z0.241
X-63.341 Y32.019 Z0.31
G0 Z6
X-44.8 Y28.052
Z0.62
G1 Z0.31 F450
X-44.796 Y28.058 Z0.241
X-44.783 Y28.077 Z0.175
X-44.763 Y28.108 Z0.117
X-44.735 Y28.149 Z0.068
X-44.703 Y28.198 Z0.031
X-44.666 Y28.252 Z0.008
X-44.628 Y28.31 Z0
G3 X-44.368 Y29.051 I-1.317 J0.878
G1 X-44.359 Y29.217
X-44.334 Y29.383
X-44.297 Y29.549
X-44.247 Y29.715
X-44.235 Y29.742
X-44.183 Y29.883
X-44.162 Y30.031
X-44.158 Y30.181
X-44.17 Y30.331
X-44.194 Y30.479
X-44.237 Y30.651
X-44.3 Y30.84
X-44.386 Y31.041
X-44.508 Y31.274
X-44.654 Y31.503
X-44.812 Y31.714
X-44.876 Y31.786
X-45.019 Y31.909
X-45.19 Y31.991
X-45.377 Y32.023
X-45.566 Y32.005
X-45.743 Y31.938
X-45.909 Y31.868
X-46.075 Y31.81
X-46.241 Y31.775
X-46.407 Y31.75
X-46.573 Y31.735
X-46.584
G3 X-46.757 Y31.178 I0.013 J-0.31
G1 X-46.738 Y31.163
X-44.89 Y29.77
X-44.702 Y29.628
G3 X-44.235 Y29.742 I0.187 J0.248
G1 X-44.175 Y29.881
X-44.082 Y30.055
X-43.983 Y30.213
X-43.963 Y30.237
X-43.873 Y30.357
X-43.808 Y30.492
X-43.763 Y30.636
X-43.736 Y30.783
X-43.724 Y30.933
X-43.725 Y31.083
X-43.74 Y31.242
X-43.767 Y31.397
X-43.807 Y31.55
X-43.859 Y31.701
X-43.919 Y31.838
X-43.991 Y31.97
X-44.073 Y32.095
X-44.166 Y32.213
X-44.224 Y32.274
X-44.405 Y32.412
X-44.62 Y32.484
X-44.848 Y32.485
X-45.063 Y32.412
X-45.245 Y32.275
X-45.334 Y32.205
X-45.411 Y32.147
X-45.557 Y32.039
X-45.743 Y31.938
G3 X-45.79 Y31.438 I0.158 J-0.267
G1 X-45.639 Y31.305
X-44.624 Y30.409
X-44.399 Y30.211
G3 X-43.963 Y30.237 I0.205 J0.232
G1 X-43.845 Y30.379
X-43.75 Y30.482
X-43.684 Y30.545
X-43.584 Y30.627
X-43.549 Y30.653
X-43.431 Y30.745
X-43.34 Y30.864
X-43.268 Y30.996
X-43.213 Y31.136
X-43.176 Y31.281
X-43.153 Y31.429
X-43.146 Y31.579
X-43.152 Y31.729
X-43.171 Y31.878
X-43.203 Y32.024
X-43.248 Y32.168
X-43.304 Y32.307
X-43.372 Y32.44
X-43.453 Y32.567
X-43.545 Y32.685
X-43.647 Y32.795
X-43.759 Y32.895
X-43.822 Y32.94
X-44.034 Y33.046
X-44.268 Y33.079
X-44.501 Y33.035
X-44.708 Y32.92
X-44.867 Y32.744
G3 X-44.875 Y32.44 I0.266 J-0.16
G1 X-44.658 Y32.027
X-44.119 Y31.004
X-43.993 Y30.767
G3 X-43.549 Y30.653 I0.274 J0.145
G1 X-43.467 Y30.711
X-43.418 Y30.741
X-43.252 Y30.839
X-43.086 Y30.914
X-42.95 Y30.976
X-42.836 Y31.074
X-42.741 Y31.19
X-42.662 Y31.318
X-42.6 Y31.454
X-42.553 Y31.597
X-42.521 Y31.743
X-42.503 Y31.892
X-42.498 Y32.042
X-42.507 Y32.192
X-42.528 Y32.344
X-42.561 Y32.494
X-42.608 Y32.647
X-42.665 Y32.791
X-42.732 Y32.925
X-42.817 Y33.067
X-42.904 Y33.189
X-43.001 Y33.303
X-43.108 Y33.408
X-43.223 Y33.504
X-43.346 Y33.59
X-43.477 Y33.664
X-43.614 Y33.725
X-43.755 Y33.775
X-43.765 Y33.777
X-43.971 Y33.798
X-44.175 Y33.759
X-44.359 Y33.664
X-44.508 Y33.52
X-44.611 Y33.341
X-44.666 Y33.201
X-44.867 Y32.744
X-45.012 Y32.537
X-45.079 Y32.449
X-45.245 Y32.275
G3 X-45.144 Y31.788 I0.232 J-0.206
G1 X-44.955 Y31.7
X-43.814 Y31.169
X-43.302 Y30.931
X-43.25 Y30.912
X-43.196 Y30.903
X-43.14 Y30.904
X-43.086 Y30.914
X-42.92 Y30.968
X-42.588 Y31.063
X-42.445 Y31.109
X-42.316 Y31.184
X-42.201 Y31.281
X-42.1 Y31.392
X-42.015 Y31.515
X-41.943 Y31.647
X-41.886 Y31.786
X-41.841 Y31.929
X-41.81 Y32.076
X-41.79 Y32.228
X-41.782 Y32.389
X-41.787 Y32.555
X-41.807 Y32.725
X-41.84 Y32.899
X-41.889 Y33.073
X-41.954 Y33.248
X-42.033 Y33.42
X-42.126 Y33.585
X-42.233 Y33.742
X-42.354 Y33.893
X-42.488 Y34.036
X-42.614 Y34.15
X-42.754 Y34.258
X-42.896 Y34.35
X-43.028 Y34.421
X-43.173 Y34.484
X-43.318 Y34.534
X-43.375 Y34.549
X-43.577 Y34.572
X-43.777 Y34.537
X-43.96 Y34.449
X-43.985 Y34.432
X-44.023 Y34.397
X-44.053 Y34.363
X-44.316 Y34.031
X-44.376 Y33.95
X-44.399 Y33.91
X-44.416 Y33.865
X-44.601 Y33.367
X-44.611 Y33.341
G3 X-44.551 Y33.031 I0.292 J-0.104
G1 X-44.249 Y32.691
X-43.191 Y31.497
X-42.891 Y31.159
G3 X-42.588 Y31.063 I0.232 J0.206
G1 X-42.422 Y31.108
X-41.979 Y31.224
X-41.952 Y31.233
X-41.924 Y31.246
X-41.719 Y31.375
X-41.649 Y31.42
X-41.527 Y31.507
X-41.421 Y31.613
X-41.328 Y31.731
X-41.249 Y31.858
X-41.182 Y31.993
X-41.128 Y32.132
X-41.085 Y32.278
X-41.051 Y32.439
X-41.029 Y32.612
X-41.02 Y32.791
X-41.027 Y32.981
X-41.049 Y33.18
X-41.09 Y33.386
X-41.148 Y33.593
X-41.225 Y33.801
X-41.32 Y34.004
X-41.433 Y34.204
X-41.563 Y34.395
X-41.667 Y34.526
X-41.756 Y34.618
X-41.86 Y34.694
X-41.975 Y34.749
G3 X-42.383 Y34.426 I-0.1 J-0.294
G1 X-42.367 Y34.26
X-42.132 Y31.818
X-42.116 Y31.657
G3 X-41.649 Y31.42 I0.309 J0.03
G1 X-41.463 Y31.541
X-41.426 Y31.571
X-41.311 Y31.707
X-41.094 Y31.973
X-41.048 Y32.039
X-40.98 Y32.205
X-40.852 Y32.537
X-40.838 Y32.578
X-40.829 Y32.62
X-40.824 Y32.703
X-40.8 Y33.159
X-40.803 Y33.201
X-40.843 Y33.367
X-40.933 Y33.699
X-40.961 Y33.782
X-41.009 Y33.865
X-41.26 Y34.249
X-41.285 Y34.282
X-41.319 Y34.314
X-41.426 Y34.401
X-41.592 Y34.534
X-41.758 Y34.662
X-41.831 Y34.695
X-42.27 Y34.861
X-42.308 Y34.872
X-42.346 Y34.88
X-42.422 Y34.885
X-42.754 Y34.901
X-42.92 Y34.904
X-42.962 Y34.898
X-43.418 Y34.773
X-43.501 Y34.747
X-43.543 Y34.725
X-43.96 Y34.449
G3 X-43.771 Y33.888 I0.182 J-0.251
G1 X-43.703 Y33.889 Z0.008
X-43.637 Y33.89 Z0.031
X-43.578 Y33.891 Z0.068
X-43.529 Y33.892 Z0.117
X-43.492 Y33.893 Z0.175
X-43.469 Y33.894 Z0.241
X-43.462 Z0.31
G0 Z6
X-50.914 Y9.926
Z0.62
G1 Z0.31 F450
X-50.907 Y9.922 Z0.241
X-50.887 Y9.91 Z0.175
X-50.856 Y9.891 Z0.117
X-50.813 Y9.866 Z0.068
X-50.763 Y9.836 Z0.031
X-50.707 Y9.803 Z0.008
X-50.647 Y9.768 Z0
G3 X-49.894 Y9.546 I0.809 J1.36
G1 X-47.569
X-47.324 Y9.558
X-47.111 Y9.586
X-46.86 Y9.64
X-46.602 Y9.717
X-46.277 Y9.844
X-45.94 Y10.007
X-45.525 Y10.252
X-45.109 Y10.544
X-44.627 Y10.944
X-44.111 Y11.447
X-43.631 Y11.998
X-43.191 Y12.582
X-42.964 Y12.928
X-42.891 Y13.073
X-42.852 Y13.231
X-42.85 Y13.394
X-43.059 Y15.528
G3 X-43.615 Y15.672 I-0.307 J-0.041
G1 X-43.645 Y15.631
X-47.741 Y10.13
X-47.807 Y10.041
X-47.84 Y9.984
X-47.861 Y9.922
X-47.868 Y9.857
Y9.856
G3 X-47.569 Y9.546 I0.31 J0
G1 X-45.743
X-45.551 Y9.556
X-45.378 Y9.579
X-45.168 Y9.623
X-44.954 Y9.687
X-44.703 Y9.785
X-44.405 Y9.93
X-44.104 Y10.107
X-43.735 Y10.366
X-43.351 Y10.685
X-42.922 Y11.103
X-42.86 Y11.174
X-42.752 Y11.338
X-42.693 Y11.525
X-42.685 Y11.721
X-42.85 Y13.394
G3 X-43.407 Y13.537 I-0.307 J-0.041
G1 X-43.436 Y13.498
X-45.915 Y10.13
X-45.982 Y10.04
G3 X-45.743 Y9.546 I0.25 J-0.184
G1 X-44.414
X-44.248 Y9.545
X-44.157 Y9.542
X-44.007 Y9.543
X-43.845 Y9.562
X-43.679 Y9.594
X-43.481 Y9.65
X-43.255 Y9.734
X-43.049 Y9.83
X-42.86 Y9.937
X-42.819 Y9.964
X-42.649 Y10.124
X-42.538 Y10.329
X-42.496 Y10.559
X-42.529 Y10.79
X-42.58 Y10.956
X-42.619 Y11.122
X-42.675 Y11.62
X-42.685 Y11.721
G3 X-43.256 Y11.844 I-0.307 J-0.041
G1 X-43.269 Y11.822
X-44.319 Y10.141
X-44.397 Y10.015
G3 X-44.157 Y9.542 I0.263 J-0.164
G1 X-44.082 Y9.539
X-43.916 Y9.521
X-43.75 Y9.492
X-43.584 Y9.445
X-43.418 Y9.381
X-43.278 Y9.328
X-43.13 Y9.303
X-42.98 Y9.3
X-42.831 Y9.317
X-42.781 Y9.329
X-42.572 Y9.42
X-42.401 Y9.571
X-42.286 Y9.769
X-42.238 Y9.992
X-42.262 Y10.219
X-42.355 Y10.427
G3 X-42.813 Y10.481 I-0.253 J-0.179
G1 X-43.013 Y10.306
X-43.351 Y10.009
X-43.485 Y9.892
G3 X-43.59 Y9.659 I0.204 J-0.233
X-43.418 Y9.381 I0.31 J0
G1 X-43.252 Y9.306
X-43.235 Y9.296
X-43.086 Y9.207
X-42.976 Y9.13
X-42.853 Y9.045
X-42.709 Y9.001
X-42.56 Y8.989
X-42.545 Y8.991
X-42.342 Y9.05
X-42.167 Y9.169
X-42.038 Y9.337
X-41.967 Y9.537
X-41.961 Y9.749
X-42.021 Y9.952
X-42.142 Y10.126
X-42.267 Y10.292
X-42.355 Y10.427
G3 X-42.913 Y10.303 I-0.253 J-0.179
G1 X-42.924 Y10.246
X-42.991 Y9.878
X-43.074 Y9.417
G3 X-42.976 Y9.13 I0.305 J-0.055
G1 X-42.92 Y9.084
X-42.784 Y8.964
X-42.754 Y8.933
X-42.691 Y8.864
X-42.584 Y8.758
X-42.446 Y8.7
X-42.298 Y8.676
X-42.148 Y8.685
X-41.945 Y8.773
X-41.781 Y8.922
X-41.672 Y9.115
X-41.631 Y9.333
X-41.66 Y9.552
X-41.759 Y9.75
X-41.915 Y9.907
G3 X-42.35 Y9.815 I-0.173 J-0.257
G1 X-42.504 Y9.57
X-42.509 Y9.562
X-42.718 Y9.23
G3 X-42.691 Y8.864 I0.262 J-0.165
G1 X-42.631 Y8.798
X-42.588 Y8.743
X-42.507 Y8.632
X-42.481 Y8.591
X-42.396 Y8.467
X-42.272 Y8.383
X-42.13 Y8.334
X-41.981 Y8.317
X-41.832 Y8.331
X-41.687 Y8.369
X-41.55 Y8.431
X-41.53 Y8.445
X-41.371 Y8.588
X-41.262 Y8.77
X-41.21 Y8.977
X-41.221 Y9.189
X-41.293 Y9.39
X-41.42 Y9.561
X-41.592 Y9.687
G3 X-41.977 Y9.591 I-0.135 J-0.279
G1 X-42.186 Y9.305
X-42.21 Y9.273
X-42.463 Y8.928
G3 X-42.481 Y8.591 I0.25 J-0.183
G1 X-42.422 Y8.495
X-42.407 Y8.466
X-42.327 Y8.3
X-42.317 Y8.273
X-42.259 Y8.134
X-42.153 Y8.028
X-42.025 Y7.95
X-41.884 Y7.897
X-41.736 Y7.873
X-41.586 Y7.871
X-41.438 Y7.894
X-41.294 Y7.938
X-41.158 Y8.001
X-41.032 Y8.083
X-40.917 Y8.179
X-40.816 Y8.289
X-40.729 Y8.411
X-40.703 Y8.458
X-40.628 Y8.659
X-40.616 Y8.872
X-40.666 Y9.08
X-40.775 Y9.264
X-40.933 Y9.408
X-41.126 Y9.5
G3 X-41.427 Y9.417 I-0.08 J-0.3
G1 X-41.748 Y9.09
X-41.929 Y8.905
X-42.243 Y8.585
G3 X-42.317 Y8.273 I0.221 J-0.217
G1 X-42.266 Y8.134
X-42.219 Y7.968
X-42.209 Y7.918
X-42.174 Y7.772
X-42.094 Y7.645
X-41.987 Y7.54
X-41.862 Y7.457
X-41.725 Y7.395
X-41.581 Y7.354
X-41.433 Y7.332
X-41.283 Y7.329
X-41.134 Y7.343
X-40.987 Y7.374
X-40.844 Y7.42
X-40.706 Y7.48
X-40.576 Y7.554
X-40.453 Y7.64
X-40.34 Y7.738
X-40.237 Y7.848
X-40.146 Y7.967
X-40.067 Y8.094
X-40.002 Y8.23
X-39.95 Y8.37
X-39.914 Y8.516
X-39.893 Y8.664
X-39.892 Y8.672
X-39.917 Y8.893
X-40.007 Y9.097
X-40.155 Y9.263
X-40.347 Y9.376
X-40.564 Y9.426
X-40.762 Y9.44
X-40.812 Y9.445
G3 X-41.059 Y9.345 I-0.018 J-0.309
G1 X-41.404 Y8.968
X-41.788 Y8.549
X-42.131 Y8.175
G3 X-42.209 Y7.918 I0.228 J-0.21
G1 X-42.187 Y7.802
X-42.159 Y7.636
X-42.134 Y7.47
X-42.104 Y7.323
X-42.042 Y7.187
X-41.953 Y7.066
X-41.845 Y6.962
X-41.722 Y6.876
X-41.589 Y6.806
X-41.449 Y6.753
X-41.304 Y6.715
X-41.156 Y6.693
X-41.006 Y6.686
X-40.856 Y6.692
X-40.707 Y6.711
X-40.561 Y6.743
X-40.415 Y6.788
X-40.274 Y6.844
X-40.131 Y6.914
X-39.992 Y6.997
X-39.859 Y7.091
X-39.732 Y7.198
X-39.61 Y7.319
X-39.498 Y7.448
X-39.402 Y7.581
X-39.323 Y7.709
X-39.249 Y7.855
X-39.191 Y7.997
X-39.146 Y8.14
X-39.113 Y8.286
X-39.093 Y8.435
X-39.085 Y8.584
X-39.087 Y8.638
X-39.127 Y8.846
X-39.225 Y9.033
X-39.374 Y9.185
X-39.56 Y9.286
X-39.766 Y9.362
X-39.807 Y9.376
X-39.849 Y9.384
X-39.932 Y9.389
X-40.264 Y9.406
X-40.43 Y9.416
X-40.564 Y9.426
G3 X-40.82 Y9.306 I-0.011 J-0.31
G1 X-41.122 Y8.918
X-41.737 Y8.126
X-42.071 Y7.696
X-42.103 Y7.645
X-42.125 Y7.589
X-42.135 Y7.53
X-42.134 Y7.47
X-42.059 Y6.972
X-42.048 Y6.931
X-42.033 Y6.889
X-41.924 Y6.662
X-41.852 Y6.53
X-41.76 Y6.412
X-41.651 Y6.308
X-41.53 Y6.22
X-41.4 Y6.146
X-41.262 Y6.086
X-41.12 Y6.039
X-40.973 Y6.006
X-40.824 Y5.985
X-40.665 Y5.976
X-40.502 Y5.98
X-40.332 Y5.998
X-40.156 Y6.031
X-39.974 Y6.08
X-39.791 Y6.146
X-39.61 Y6.228
X-39.433 Y6.326
X-39.262 Y6.44
X-39.096 Y6.57
X-38.94 Y6.715
X-38.796 Y6.871
X-38.664 Y7.04
X-38.546 Y7.219
X-38.442 Y7.407
X-38.404 Y7.492
X-38.352 Y7.662
X-38.342 Y7.839
X-38.376 Y8.013
G3 X-38.777 Y8.197 I-0.291 J-0.106
G1 X-39.053 Y8.093
X-41.487 Y7.176
X-41.75 Y7.077
G3 X-41.924 Y6.662 I0.109 J-0.29
G1 X-41.833 Y6.474
X-41.803 Y6.418
X-41.783 Y6.389
X-41.758 Y6.361
X-41.553 Y6.142
X-41.426 Y6.008
X-41.387 Y5.976
X-41.26 Y5.901
X-41.094 Y5.806
X-40.928 Y5.714
X-40.886 Y5.697
X-40.845 Y5.685
X-40.43 Y5.593
X-40.347 Y5.578
X-40.264 Y5.58
X-39.932 Y5.608
X-39.766 Y5.626
X-39.711 Y5.644
X-39.267 Y5.824
X-39.226 Y5.846
X-39.184 Y5.876
X-38.814 Y6.178
X-38.789 Y6.202
X-38.769 Y6.226
X-38.714 Y6.308
X-38.494 Y6.64
X-38.474 Y6.675
X-38.458 Y6.709
X-38.429 Y6.806
X-38.331 Y7.138
X-38.31 Y7.221
X-38.304 Y7.263
Y7.304
X-38.309 Y7.636
X-38.314 Y7.802
X-38.362 Y7.968
X-38.47 Y8.3
X-38.486 Y8.342
X-38.507 Y8.383
X-38.603 Y8.521
X-38.8 Y8.798
X-38.829 Y8.832
X-38.867 Y8.866
X-39.212 Y9.13
X-39.267 Y9.171
X-39.309 Y9.193
X-39.56 Y9.286
G3 X-39.905 Y8.806 I-0.097 J-0.294
G1 X-39.863 Y8.75 Z0.008
X-39.824 Y8.698 Z0.031
X-39.789 Y8.651 Z0.068
X-39.759 Y8.612 Z0.117
X-39.737 Y8.582 Z0.175
X-39.723 Y8.564 Z0.241
X-39.719 Y8.558 Z0.31
G0 Z6
X-61.749 Y17.911
Z0.62
G1 Z0.31 F450
X-61.754 Y17.904 Z0.241
X-61.767 Y17.886 Z0.175
X-61.789 Y17.856 Z0.117
X-61.818 Y17.817 Z0.068
X-61.853 Y17.769 Z0.031
X-61.892 Y17.716 Z0.008
X-61.933 Y17.661 Z0
G3 X-62.227 Y16.932 I1.275 J-0.938
G1 X-62.454 Y14.608
X-62.463 Y14.431
X-62.456 Y14.216
X-62.427 Y13.966
X-62.376 Y13.702
X-62.281 Y13.366
X-62.155 Y13.024
X-61.955 Y12.593
X-61.715 Y12.168
X-61.378 Y11.671
X-60.949 Y11.135
X-60.448 Y10.603
X-59.907 Y10.112
X-59.385 Y9.701
X-59.249 Y9.616
X-59.097 Y9.564
X-58.938 Y9.546
X-56.6
G3 X-56.41 Y10.092 I-0.011 J0.31
G1 X-56.441 Y10.119
X-61.854 Y14.725
X-61.946 Y14.803
G3 X-62.454 Y14.608 I-0.201 J-0.236
G1 X-62.633 Y12.782
X-62.641 Y12.633
X-62.63 Y12.447
X-62.6 Y12.234
X-62.551 Y12.01
X-62.465 Y11.732
X-62.348 Y11.439
X-62.179 Y11.096
X-61.954 Y10.721
X-61.639 Y10.28
X-61.267 Y9.839
X-61.19 Y9.76
X-61.039 Y9.644
X-60.864 Y9.571
X-60.676 Y9.546
X-58.938
G3 X-58.747 Y10.092 I-0.011 J0.31
G1 X-58.779 Y10.119
X-62.033 Y12.899
X-62.125 Y12.977
G3 X-62.633 Y12.782 I-0.201 J-0.236
G1 X-62.748 Y11.62
X-62.785 Y11.288
X-62.795 Y11.139
X-62.791 Y10.977
X-62.772 Y10.798
X-62.736 Y10.605
X-62.671 Y10.369
X-62.586 Y10.132
X-62.493 Y9.927
X-62.45 Y9.849
X-62.311 Y9.671
X-62.124 Y9.544
X-61.908 Y9.482
X-61.682 Y9.488
X-61.516 Y9.519
X-61.35 Y9.538
X-60.852 Y9.546
X-60.676
G3 X-60.497 Y10.101 I-0.011 J0.31
G1 X-60.518 Y10.117
X-62.178 Y11.402
X-62.289 Y11.488
G3 X-62.785 Y11.288 I-0.19 J-0.245
G1 X-62.804 Y11.122
X-62.841 Y10.956
X-62.892 Y10.79
X-62.958 Y10.624
X-62.987 Y10.571
X-63.051 Y10.435
X-63.095 Y10.292
X-63.117 Y10.144
X-63.121 Y9.994
X-63.105 Y9.844
X-63.1 Y9.824
X-63.019 Y9.626
X-62.883 Y9.461
X-62.706 Y9.342
X-62.501 Y9.28
X-62.287 Y9.281
X-62.083 Y9.344
G3 X-61.964 Y9.782 I-0.144 J0.274
G1 X-62.109 Y10.017
X-62.378 Y10.451
X-62.456 Y10.577
G3 X-62.987 Y10.571 I-0.264 J-0.163
G1 X-63.048 Y10.458
X-63.156 Y10.292
X-63.28 Y10.126
X-63.314 Y10.092
X-63.415 Y9.981
X-63.468 Y9.841
X-63.464 Y9.613
X-63.386 Y9.399
X-63.243 Y9.222
X-63.05 Y9.101
X-62.828 Y9.05
X-62.601 Y9.073
X-62.395 Y9.169
G3 X-62.378 Y9.655 I-0.184 J0.249
G1 X-62.551 Y9.802
X-62.647 Y9.883
X-62.903 Y10.101
G3 X-63.314 Y10.092 I-0.201 J-0.236
G1 X-63.343 Y10.064
X-63.509 Y9.908
X-63.587 Y9.85
X-63.702 Y9.754
X-63.773 Y9.621
X-63.807 Y9.475
X-63.81 Y9.325
X-63.805 Y9.3
X-63.735 Y9.097
X-63.605 Y8.927
X-63.428 Y8.806
X-63.222 Y8.746
X-63.008 Y8.755
X-62.807 Y8.83
X-62.64 Y8.964
X-62.476 Y9.105
X-62.447 Y9.13
X-62.395 Y9.169
G3 X-62.515 Y9.722 I-0.184 J0.249
G1 X-62.586 Y9.737
X-62.825 Y9.788
X-63.346 Y9.898
X-63.409 Y9.905
X-63.471 Y9.899
X-63.532 Y9.88
X-63.587 Y9.85
X-63.661 Y9.794
X-63.841 Y9.677
X-63.872 Y9.663
X-64.004 Y9.591
X-64.099 Y9.475
X-64.162 Y9.339
X-64.193 Y9.193
X-64.195 Y9.043
X-64.171 Y8.895
X-64.123 Y8.752
X-64.119 Y8.746
X-63.994 Y8.576
X-63.825 Y8.449
X-63.627 Y8.377
X-63.416 Y8.365
X-63.211 Y8.415
X-63.028 Y8.521
X-62.885 Y8.676
G3 X-62.94 Y9.074 I-0.261 J0.167
G1 X-63.2 Y9.306
X-63.219 Y9.322
X-63.541 Y9.61
G3 X-63.872 Y9.663 I-0.206 J-0.231
G1 X-63.943 Y9.628
X-64.007 Y9.599
X-64.173 Y9.536
X-64.2 Y9.528
X-64.342 Y9.48
X-64.46 Y9.386
X-64.551 Y9.267
X-64.617 Y9.132
X-64.656 Y8.987
X-64.671 Y8.838
X-64.661 Y8.688
X-64.63 Y8.542
X-64.578 Y8.401
X-64.508 Y8.268
X-64.421 Y8.146
X-64.319 Y8.036
X-64.205 Y7.939
X-64.177 Y7.921
X-63.983 Y7.831
X-63.771 Y7.802
X-63.56 Y7.837
X-63.368 Y7.931
X-63.212 Y8.078
X-63.106 Y8.264
G3 X-63.162 Y8.566 I-0.293 J0.102
G1 X-63.461 Y8.92
X-63.605 Y9.09
X-63.889 Y9.427
G3 X-64.2 Y9.528 I-0.237 J-0.2
G1 X-64.339 Y9.488
X-64.505 Y9.452
X-64.555 Y9.447
X-64.703 Y9.425
X-64.839 Y9.361
X-64.955 Y9.266
X-65.05 Y9.15
X-65.126 Y9.02
X-65.181 Y8.881
X-65.216 Y8.735
X-65.233 Y8.586
X-65.232 Y8.436
X-65.215 Y8.287
X-65.182 Y8.141
X-65.134 Y7.998
X-65.071 Y7.862
X-64.995 Y7.733
X-64.906 Y7.612
X-64.805 Y7.502
X-64.693 Y7.401
X-64.572 Y7.313
X-64.441 Y7.239
X-64.305 Y7.177
X-64.162 Y7.13
X-64.115 Y7.12
X-63.883 Y7.109
X-63.659 Y7.173
X-63.467 Y7.304
X-63.326 Y7.489
X-63.252 Y7.709
X-63.236 Y7.802
X-63.219 Y7.894
G3 X-63.288 Y8.141 I-0.306 J0.048
G1 X-63.624 Y8.539
X-63.978 Y8.959
X-64.299 Y9.338
G3 X-64.555 Y9.447 I-0.237 J-0.2
G1 X-64.671 Y9.436
X-64.837 Y9.423
X-65.031 Y9.413
X-65.18 Y9.398
X-65.32 Y9.345
X-65.447 Y9.265
X-65.558 Y9.164
X-65.654 Y9.049
X-65.733 Y8.921
X-65.797 Y8.786
X-65.846 Y8.644
X-65.879 Y8.498
X-65.899 Y8.349
X-65.904 Y8.199
X-65.896 Y8.049
X-65.875 Y7.901
X-65.842 Y7.753
X-65.797 Y7.609
X-65.738 Y7.462
X-65.666 Y7.319
X-65.583 Y7.181
X-65.487 Y7.047
X-65.376 Y6.917
X-65.263 Y6.804
X-65.149 Y6.707
X-65.015 Y6.61
X-64.884 Y6.531
X-64.75 Y6.464
X-64.61 Y6.409
X-64.466 Y6.366
X-64.319 Y6.335
X-64.17 Y6.318
X-64.133 Y6.317
X-63.929 Y6.343
X-63.741 Y6.424
X-63.583 Y6.555
X-63.468 Y6.725
X-63.39 Y6.889
X-63.375 Y6.931
X-63.364 Y6.972
X-63.264 Y7.636
X-63.252 Y7.709
G3 X-63.349 Y7.977 I-0.307 J0.04
G1 X-63.708 Y8.309
X-64.412 Y8.959
X-64.815 Y9.331
X-64.862 Y9.367
X-64.915 Y9.393
X-64.972 Y9.409
X-65.031 Y9.413
X-65.501 Y9.389
X-65.584 Y9.382
X-65.667 Y9.359
X-65.833 Y9.297
X-65.971 Y9.238
X-66.098 Y9.158
X-66.211 Y9.06
X-66.311 Y8.948
X-66.397 Y8.825
X-66.47 Y8.694
X-66.529 Y8.556
X-66.576 Y8.413
X-66.61 Y8.266
X-66.634 Y8.112
X-66.645 Y7.951
X-66.643 Y7.779
X-66.627 Y7.6
X-66.595 Y7.417
X-66.548 Y7.232
X-66.485 Y7.048
X-66.405 Y6.866
X-66.308 Y6.685
X-66.195 Y6.51
X-66.068 Y6.343
X-65.927 Y6.187
X-65.774 Y6.042
X-65.608 Y5.909
X-65.433 Y5.79
X-65.264 Y5.694
X-65.253 Y5.689
X-65.104 Y5.638
X-64.947 Y5.621
X-64.791 Y5.638
G3 X-64.57 Y6.023 I-0.078 J0.3
G1 X-64.649 Y6.303
X-65.36 Y8.813
X-65.438 Y9.087
G3 X-65.833 Y9.297 I-0.298 J-0.084
G1 X-66.082 Y9.205
X-66.124 Y9.188
X-66.165 Y9.165
X-66.497 Y8.911
X-66.56 Y8.862
X-66.595 Y8.83
X-66.623 Y8.798
X-66.859 Y8.466
X-66.915 Y8.383
X-66.938 Y8.342
X-66.953 Y8.3
X-67.088 Y7.885
X-67.101 Y7.844
X-67.109 Y7.802
X-67.115 Y7.636
X-67.12 Y7.304
X-67.119 Y7.263
X-67.113 Y7.221
X-67.092 Y7.138
X-66.97 Y6.723
X-66.953 Y6.682
X-66.929 Y6.64
X-66.663 Y6.239
X-66.642 Y6.211
X-66.614 Y6.184
X-66.565 Y6.142
X-66.248 Y5.884
X-66.207 Y5.852
X-66.165 Y5.828
X-66.124 Y5.81
X-65.712 Y5.644
X-65.667 Y5.629
X-65.626 Y5.62
X-65.501 Y5.609
X-65.169 Y5.581
X-65.086 Y5.578
X-65.044 Y5.583
X-64.588 Y5.683
X-64.546 Y5.694
X-64.505 Y5.709
X-64.323 Y5.81
X-64.173 Y5.896
X-64.036 Y5.976
X-64.007 Y6
X-63.87 Y6.142
X-63.675 Y6.351
X-63.623 Y6.413
X-63.59 Y6.474
X-63.468 Y6.725
G3 X-63.913 Y7.115 I-0.284 J0.125
G1 X-63.972 Y7.08 Z0.008
X-64.028 Y7.046 Z0.031
X-64.078 Y7.015 Z0.068
X-64.12 Y6.989 Z0.117
X-64.152 Y6.97 Z0.175
X-64.171 Y6.958 Z0.241
X-64.178 Y6.954 Z0.31
G0 Z6
X-49.505 Y31.674
Z0.62
G1 Z0.31 F450
X-49.508 Y31.681 Z0.241
X-49.515 Y31.703 Z0.175
X-49.528 Y31.737 Z0.117
X-49.545 Y31.783 Z0.068
X-49.566 Y31.839 Z0.031
X-49.589 Y31.9 Z0.008
X-49.613 Y31.965 Z0
G3 X-50.06 Y32.61 I-1.484 J-0.55
G1 X-50.174 Y32.703
X-50.226 Y32.753
X-50.331 Y32.869
X-50.466 Y33.035
X-50.567 Y33.201
X-50.614 Y33.292
X-50.69 Y33.422
X-50.781 Y33.541
X-50.883 Y33.651
X-51.006 Y33.761
X-51.166 Y33.883
X-51.338 Y33.994
X-51.561 Y34.113
X-51.846 Y34.237
X-52.154 Y34.343
X-52.57 Y34.448
X-53.033 Y34.528
X-53.426 Y34.563
X-53.733 Y34.566
X-53.968 Y34.549
X-54.001 Y34.544
X-54.22 Y34.473
X-54.406 Y34.337
X-54.54 Y34.15
X-54.608 Y33.931
G3 X-54.366 Y33.595 I0.308 J-0.033
G1 X-54.042 Y33.524
X-51.053 Y32.877
X-50.96 Y32.856
X-50.895 Y32.849
X-50.894
G3 X-50.614 Y33.292 I0 J0.31
G1 X-50.653 Y33.367
X-50.724 Y33.537
X-50.771 Y33.699
X-50.806 Y33.865
X-50.813 Y33.915
X-50.841 Y34.062
X-50.894 Y34.203
X-50.963 Y34.336
X-51.046 Y34.461
X-51.139 Y34.578
X-51.26 Y34.705
X-51.398 Y34.829
X-51.57 Y34.959
X-51.774 Y35.09
X-52.012 Y35.217
X-52.273 Y35.33
X-52.562 Y35.429
X-52.857 Y35.504
X-53.092 Y35.544
X-53.338 Y35.566
X-53.538 Y35.567
X-53.717 Y35.554
X-53.91 Y35.525
X-54.071 Y35.486
X-54.109 Y35.474
X-54.279 Y35.393
X-54.423 Y35.271
X-54.53 Y35.116
X-54.593 Y34.938
X-54.608 Y34.751
X-54.59 Y34.363
X-54.588 Y34.272
G3 X-54.318 Y33.981 I0.31 J0.017
G1 X-53.966 Y33.936
X-51.384 Y33.603
X-51.161 Y33.575
G3 X-50.813 Y33.915 I0.04 J0.307
G1 X-50.829 Y34.031
X-50.836 Y34.197
X-50.833 Y34.363
X-50.823 Y34.579
Y34.729
X-50.847 Y34.877
X-50.889 Y35.021
X-50.948 Y35.159
X-51.02 Y35.291
X-51.106 Y35.421
X-51.21 Y35.554
X-51.336 Y35.69
X-51.488 Y35.831
X-51.658 Y35.963
X-51.851 Y36.09
X-52.067 Y36.209
X-52.296 Y36.313
X-52.534 Y36.398
X-52.78 Y36.464
X-53.031 Y36.51
X-53.259 Y36.533
X-53.479 Y36.538
X-53.676 Y36.526
X-53.816 Y36.492
X-53.946 Y36.431
X-54.062 Y36.346
G3 X-53.997 Y35.853 I0.216 J-0.222
G1 X-53.815 Y35.751
X-51.428 Y34.415
X-51.283 Y34.334
G3 X-50.823 Y34.579 I0.151 J0.271
G1 X-50.801 Y35.027
X-50.799 Y35.193
X-50.837 Y35.359
X-50.92 Y35.691
X-50.934 Y35.732
X-50.955 Y35.774
X-51.104 Y36.023
X-51.205 Y36.189
X-51.222 Y36.213
X-51.388 Y36.37
X-51.555 Y36.521
X-51.637 Y36.592
X-51.679 Y36.617
X-52.052 Y36.794
X-52.135 Y36.831
X-52.177 Y36.843
X-52.235 Y36.853
X-52.55 Y36.9
X-52.716 Y36.92
X-52.882 Y36.898
X-53.214 Y36.849
X-53.256 Y36.841
X-53.297 Y36.827
X-53.38 Y36.789
X-53.712 Y36.632
X-53.751 Y36.613
X-53.79 Y36.589
X-53.879 Y36.512
X-54.176 Y36.242
X-54.211 Y36.2
X-54.219 Y36.189
X-54.418 Y35.857
X-54.468 Y35.774
X-54.489 Y35.732
X-54.503 Y35.691
X-54.586 Y35.359
X-54.624 Y35.193
X-54.622 Y35.027
X-54.608 Y34.751
G3 X-54.285 Y34.467 I0.309 J0.026
G1 X-54.234 Y34.483 Z0.005
X-54.184 Y34.498 Z0.019
X-54.137 Y34.512 Z0.042
X-54.101 Y34.549 Z0.081
X-54.072 Y34.58 Z0.129
X-54.049 Y34.602 Z0.184
X-54.036 Y34.616 Z0.246
X-54.031 Y34.621 Z0.31
G0 Z6
X-51.978 Y20.109
Z2.5
G3 X-53.445 Y17.555 Z2.338 I-0.734 J-1.277 F333.3
X-51.978 Y20.109 Z2.177 I0.734 J1.277
X-53.445 Y17.555 Z2.015 I-0.734 J-1.277
X-51.978 Y20.109 Z1.854 I0.734 J1.277
X-53.445 Y17.555 Z1.692 I-0.734 J-1.277
X-51.978 Y20.109 Z1.531 I0.734 J1.277
X-53.445 Y17.555 Z1.369 I-0.734 J-1.277
X-51.978 Y20.109 Z1.208 I0.734 J1.277
X-53.445 Y17.555 Z1.046 I-0.734 J-1.277
X-51.978 Y20.109 Z0.885 I0.734 J1.277
X-53.445 Y17.555 Z0.723 I-0.734 J-1.277
X-51.978 Y20.109 Z0.561 I0.734 J1.277
X-53.445 Y17.555 Z0.4 I-0.734 J-1.277
X-51.978 Y20.109 Z0.238 I0.734 J1.277
X-53.445 Y17.555 Z0.077 I-0.734 J-1.277
X-51.978 Y20.109 Z-0.085 I0.734 J1.277
X-53.445 Y17.555 Z-0.246 I-0.734 J-1.277
X-51.978 Y20.109 Z-0.408 I0.734 J1.277
X-53.445 Y17.555 Z-0.569 I-0.734 J-1.277
X-51.978 Y20.109 Z-0.731 I0.734 J1.277
X-53.445 Y17.555 Z-0.892 I-0.734 J-1.277
X-51.239 Y18.832 Z-1 I0.734 J1.277
X-54.184 Y18.832 I-1.472 J0
X-51.239 Y18.832 I1.472 J0
G1 X-51.202 Y19.562 F450
X-51.184 Y19.652
X-51.173 Y19.801
X-51.189 Y19.95
X-51.228 Y20.095
X-51.287 Y20.233
X-51.361 Y20.364
X-51.45 Y20.485
X-51.551 Y20.596
X-51.662 Y20.696
X-51.782 Y20.786
X-51.91 Y20.865
X-52.044 Y20.933
X-52.183 Y20.989
X-52.329 Y21.035
X-52.482 Y21.07
X-52.641 Y21.092
X-52.804 Y21.103
X-52.97 Y21.1
X-53.138 Y21.083
X-53.306 Y21.053
X-53.473 Y21.009
X-53.638 Y20.951
X-53.8 Y20.879
X-53.956 Y20.793
X-54.106 Y20.695
X-54.249 Y20.584
X-54.383 Y20.462
X-54.507 Y20.328
X-54.621 Y20.184
X-54.723 Y20.031
X-54.813 Y19.87
X-54.89 Y19.701
X-54.954 Y19.526
X-55.003 Y19.347
X-55.038 Y19.163
X-55.058 Y18.977
X-55.063 Y18.79
X-55.053 Y18.603
X-55.028 Y18.417
X-54.988 Y18.233
X-54.933 Y18.053
X-54.864 Y17.878
X-54.781 Y17.708
X-54.685 Y17.546
X-54.576 Y17.392
X-54.455 Y17.247
X-54.323 Y17.112
X-54.18 Y16.989
X-54.028 Y16.877
X-53.867 Y16.778
X-53.698 Y16.691
X-53.524 Y16.619
X-53.344 Y16.561
X-53.159 Y16.518
X-52.972 Y16.489
X-52.784 Y16.476
X-52.594 Y16.477
X-52.406 Y16.494
X-52.219 Y16.526
X-52.036 Y16.573
X-51.857 Y16.635
X-51.683 Y16.71
X-51.516 Y16.8
X-51.357 Y16.902
X-51.207 Y17.017
X-51.066 Y17.144
X-50.936 Y17.281
X-50.817 Y17.429
X-50.71 Y17.585
X-50.601 Y17.778
X-50.481 Y18.034
X-50.335 Y18.427
X-50.252 Y18.721
X-50.201 Y18.976
X-50.173 Y19.215
X-50.166 Y19.442
X-50.175 Y19.657
X-50.201 Y19.862
X-50.243 Y20.061
X-50.3 Y20.256
X-50.373 Y20.446
X-50.461 Y20.631
X-50.564 Y20.807
X-50.681 Y20.976
X-50.813 Y21.135
X-50.958 Y21.286
X-51.117 Y21.426
X-51.289 Y21.554
X-51.474 Y21.67
X-51.67 Y21.773
X-51.877 Y21.86
X-52.093 Y21.932
X-52.317 Y21.987
X-52.548 Y22.024
X-52.784 Y22.043
X-53.024
X-53.265 Y22.023
X-53.507 Y21.984
X-53.746 Y21.924
X-53.982 Y21.846
X-54.212 Y21.747
X-54.436 Y21.63
X-54.65 Y21.495
X-54.855 Y21.341
X-55.047 Y21.171
X-55.226 Y20.986
X-55.39 Y20.785
X-55.538 Y20.571
X-55.669 Y20.345
X-55.782 Y20.109
X-55.876 Y19.863
X-55.949 Y19.61
X-56.003 Y19.351
X-56.036 Y19.089
X-56.047 Y18.824
X-56.037 Y18.558
X-56.006 Y18.294
X-55.954 Y18.033
X-55.88 Y17.776
X-55.787 Y17.526
X-55.673 Y17.285
X-55.541 Y17.052
X-55.39 Y16.832
X-55.221 Y16.623
X-55.037 Y16.429
X-54.837 Y16.251
X-54.624 Y16.088
X-54.398 Y15.944
X-54.161 Y15.818
X-53.915 Y15.711
X-53.661 Y15.624
X-53.401 Y15.558
X-53.136 Y15.514
X-52.869 Y15.49
X-52.6 Y15.488
X-52.332 Y15.508
X-52.067 Y15.549
X-51.805 Y15.611
X-51.55 Y15.694
X-51.302 Y15.797
X-51.063 Y15.92
X-50.835 Y16.062
X-50.618 Y16.221
X-50.411 Y16.402
X-50.206 Y16.611
X-49.996 Y16.863
X-49.803 Y17.138
X-49.626 Y17.437
X-49.474 Y17.749
X-49.35 Y18.065
X-49.255 Y18.382
X-49.187 Y18.696
X-49.146 Y19.007
X-49.13 Y19.314
X-49.139 Y19.617
X-49.172 Y19.914
X-49.228 Y20.206
X-49.306 Y20.49
X-49.407 Y20.766
X-49.529 Y21.032
X-49.672 Y21.288
X-49.836 Y21.531
X-50.019 Y21.762
X-50.222 Y21.978
X-50.442 Y22.179
X-50.68 Y22.363
X-50.933 Y22.528
X-51.201 Y22.674
X-51.483 Y22.798
X-51.776 Y22.901
X-52.079 Y22.981
X-52.391 Y23.036
X-52.708 Y23.066
X-53.029 Y23.071
X-53.351 Y23.05
X-53.673 Y23.003
X-53.993 Y22.93
X-54.307 Y22.831
X-54.614 Y22.706
X-54.912 Y22.555
X-55.199 Y22.381
X-55.472 Y22.183
X-55.729 Y21.963
X-55.969 Y21.722
X-56.19 Y21.461
X-56.39 Y21.182
X-56.567 Y20.888
X-56.721 Y20.579
X-56.849 Y20.257
X-56.952 Y19.926
X-57.028 Y19.587
X-57.077 Y19.242
X-57.097 Y18.894
X-57.09 Y18.544
X-57.055 Y18.196
X-56.992 Y17.852
X-56.901 Y17.513
X-56.783 Y17.182
X-56.639 Y16.861
X-56.47 Y16.553
X-56.276 Y16.26
X-56.059 Y15.982
X-55.821 Y15.723
X-55.562 Y15.484
X-55.285 Y15.266
X-54.991 Y15.071
X-54.683 Y14.9
X-54.361 Y14.754
X-54.029 Y14.635
X-53.688 Y14.543
X-53.341 Y14.478
X-52.99 Y14.441
X-52.637 Y14.433
X-52.285 Y14.453
X-51.935 Y14.501
X-51.59 Y14.577
X-51.252 Y14.681
X-50.924 Y14.811
X-50.605 Y14.968
X-50.296 Y15.153
X-49.992 Y15.37
X-49.698 Y15.618
X-49.416 Y15.896
X-49.151 Y16.204
X-48.909 Y16.536
X-48.694 Y16.887
X-48.507 Y17.254
X-48.352 Y17.632
X-48.229 Y18.018
X-48.138 Y18.41
X-48.079 Y18.803
X-48.052 Y19.197
X-48.057 Y19.588
X-48.093 Y19.975
X-48.16 Y20.355
X-48.256 Y20.727
X-48.382 Y21.09
X-48.536 Y21.44
X-48.717 Y21.777
X-48.925 Y22.098
X-49.159 Y22.402
X-49.417 Y22.687
X-49.699 Y22.952
X-50.002 Y23.195
X-50.326 Y23.413
X-50.667 Y23.606
X-51.026 Y23.772
X-51.399 Y23.91
X-51.784 Y24.018
X-52.179 Y24.095
X-52.581 Y24.14
X-52.988 Y24.153
X-53.397 Y24.133
X-53.805 Y24.08
X-54.21 Y23.994
X-54.609 Y23.875
X-54.999 Y23.724
X-55.377 Y23.541
X-55.741 Y23.328
X-56.088 Y23.085
X-56.416 Y22.814
X-56.722 Y22.516
X-57.004 Y22.194
X-57.26 Y21.849
X-57.488 Y21.483
X-57.687 Y21.1
X-57.854 Y20.7
X-57.99 Y20.288
X-58.092 Y19.865
X-58.16 Y19.435
X-58.193 Y19
X-58.191 Y18.563
X-58.154 Y18.127
X-58.082 Y17.694
X-57.976 Y17.269
X-57.835 Y16.853
X-57.662 Y16.45
X-57.456 Y16.061
X-57.22 Y15.69
X-56.955 Y15.339
X-56.662 Y15.01
X-56.344 Y14.705
X-56.002 Y14.427
X-55.639 Y14.177
X-55.256 Y13.957
X-54.858 Y13.769
X-54.445 Y13.613
X-54.021 Y13.49
X-53.588 Y13.402
X-53.15 Y13.349
X-52.709 Y13.331
X-52.268 Y13.349
X-51.829 Y13.402
X-51.396 Y13.49
X-50.971 Y13.613
X-50.553 Y13.771
X-50.145 Y13.964
X-49.749 Y14.192
X-49.366 Y14.456
X-48.999 Y14.755
X-48.65 Y15.089
X-48.325 Y15.453
X-48.029 Y15.846
X-47.763 Y16.264
X-47.532 Y16.701
X-47.337 Y17.155
X-47.18 Y17.62
X-47.061 Y18.095
X-46.982 Y18.575
X-46.941 Y19.058
X-46.939 Y19.539
X-46.975 Y20.017
X-47.05 Y20.488
X-47.161 Y20.95
X-47.309 Y21.401
X-47.493 Y21.837
X-47.711 Y22.258
X-47.962 Y22.66
X-48.244 Y23.04
X-48.558 Y23.398
X-48.899 Y23.73
X-49.268 Y24.035
X-49.662 Y24.311
X-50.078 Y24.555
X-50.514 Y24.766
X-50.968 Y24.942
X-51.437 Y25.081
X-51.918 Y25.183
X-52.408 Y25.247
X-52.904 Y25.27
X-53.402 Y25.255
X-53.9 Y25.198
X-54.394 Y25.102
X-54.88 Y24.966
X-55.357 Y24.79
X-55.819 Y24.576
X-56.264 Y24.324
X-56.689 Y24.037
X-57.091 Y23.715
X-57.467 Y23.361
X-57.815 Y22.977
X-58.131 Y22.565
X-58.414 Y22.128
X-58.662 Y21.669
X-58.872 Y21.19
X-59.044 Y20.695
X-59.175 Y20.187
X-59.266 Y19.669
X-59.314 Y19.145
X-59.321 Y18.618
X-59.285 Y18.092
X-59.207 Y17.569
X-59.087 Y17.054
X-58.926 Y16.55
X-58.725 Y16.06
X-58.485 Y15.587
X-58.207 Y15.135
X-57.895 Y14.707
X-57.548 Y14.304
X-57.171 Y13.931
X-56.764 Y13.589
X-56.331 Y13.281
X-55.875 Y13.008
X-55.398 Y12.773
X-54.904 Y12.577
X-54.395 Y12.421
X-53.876 Y12.306
X-53.349 Y12.234
X-52.818 Y12.204
X-52.286 Y12.216
X-51.756 Y12.272
X-51.231 Y12.37
X-50.713 Y12.51
X-50.205 Y12.693
X-49.708 Y12.918
X-49.226 Y13.185
X-48.761 Y13.494
X-48.317 Y13.843
X-47.898 Y14.231
X-47.508 Y14.655
X-47.152 Y15.111
X-46.832 Y15.596
X-46.552 Y16.106
X-46.313 Y16.637
X-46.119 Y17.184
X-45.969 Y17.743
X-45.865 Y18.311
X-45.807 Y18.883
X-45.795 Y19.456
X-45.829 Y20.026
X-45.909 Y20.59
X-46.033 Y21.145
X-46.201 Y21.686
X-46.412 Y22.212
X-46.664 Y22.719
X-46.957 Y23.204
X-47.287 Y23.665
X-47.654 Y24.098
X-48.055 Y24.502
X-48.489 Y24.873
X-48.953 Y25.209
X-49.443 Y25.507
X-49.958 Y25.766
X-50.494 Y25.984
X-51.048 Y26.159
X-51.616 Y26.289
X-52.195 Y26.374
X-52.782 Y26.412
X-53.372 Y26.403
X-53.962 Y26.346
X-54.547 Y26.242
X-55.124 Y26.09
X-55.689 Y25.892
X-56.239 Y25.649
X-56.769 Y25.361
X-57.275 Y25.031
X-57.755 Y24.66
X-58.204 Y24.25
X-58.621 Y23.805
X-59.001 Y23.327
X-59.342 Y22.818
X-59.642 Y22.283
X-59.899 Y21.724
X-60.11 Y21.145
X-60.274 Y20.551
X-60.391 Y19.944
X-60.458 Y19.329
X-60.476 Y18.71
X-60.444 Y18.091
X-60.362 Y17.476
X-60.231 Y16.869
X-60.052 Y16.273
X-59.825 Y15.694
X-59.553 Y15.135
X-59.236 Y14.598
X-58.877 Y14.089
X-58.478 Y13.61
X-58.042 Y13.164
X-57.571 Y12.755
X-57.069 Y12.385
X-56.538 Y12.056
X-55.983 Y11.771
X-55.406 Y11.531
X-54.812 Y11.338
X-54.205 Y11.193
X-53.587 Y11.098
X-52.964 Y11.052
X-52.338 Y11.057
X-51.714 Y11.112
X-51.094 Y11.217
X-50.482 Y11.372
X-49.88 Y11.577
X-49.293 Y11.832
X-48.723 Y12.135
X-48.175 Y12.487
X-47.652 Y12.884
X-47.16 Y13.325
X-46.701 Y13.807
X-46.281 Y14.328
X-45.902 Y14.882
X-45.569 Y15.466
X-45.283 Y16.075
X-45.047 Y16.705
X-44.863 Y17.351
X-44.731 Y18.008
X-44.653 Y18.672
X-44.628 Y19.339
X-44.657 Y20.003
X-44.739 Y20.662
X-44.873 Y21.31
X-45.059 Y21.945
X-45.295 Y22.563
X-45.579 Y23.159
X-45.911 Y23.731
X-46.287 Y24.274
X-46.707 Y24.787
X-47.167 Y25.264
X-47.665 Y25.704
X-48.197 Y26.104
X-48.762 Y26.461
X-49.355 Y26.772
X-49.974 Y27.035
X-50.613 Y27.249
X-51.27 Y27.411
X-51.939 Y27.52
X-52.618 Y27.575
X-53.301 Y27.576
X-53.985 Y27.521
X-54.664 Y27.412
X-55.334 Y27.248
X-55.991 Y27.03
X-56.63 Y26.759
X-57.247 Y26.436
X-57.838 Y26.065
X-58.398 Y25.646
X-58.925 Y25.182
X-59.413 Y24.676
X-59.861 Y24.132
X-60.264 Y23.552
X-60.62 Y22.941
X-60.926 Y22.302
X-61.18 Y21.639
X-61.381 Y20.958
X-61.526 Y20.261
X-61.616 Y19.554
X-61.648 Y18.842
X-61.623 Y18.128
X-61.54 Y17.419
X-61.401 Y16.717
X-61.206 Y16.029
X-60.956 Y15.358
X-60.653 Y14.709
X-60.298 Y14.086
X-59.895 Y13.493
X-59.445 Y12.934
X-58.951 Y12.413
X-58.418 Y11.933
X-57.847 Y11.498
X-57.243 Y11.109
X-56.609 Y10.77
X-55.95 Y10.483
X-55.271 Y10.25
X-54.574 Y10.072
X-53.866 Y9.951
X-53.149 Y9.886
X-52.429 Y9.88
X-51.71 Y9.931
X-50.995 Y10.041
X-50.288 Y10.207
X-49.593 Y10.432
X-48.918 Y10.711
X-48.267 Y11.044
X-47.644 Y11.428
X-47.054 Y11.859
X-46.499 Y12.335
X-45.982 Y12.852
X-45.508 Y13.408
X-45.077 Y13.999
X-44.693 Y14.621
X-44.357 Y15.27
X-44.072 Y15.944
X-43.84 Y16.637
X-43.661 Y17.346
X-43.537 Y18.066
X-43.468 Y18.794
X-43.456 Y19.525
X-43.466 Y19.682
X-43.506 Y20.087
X-43.613 Y20.81
X-43.721 Y21.439
X-43.891 Y22.104
X-44.124 Y22.779
X-44.416 Y23.45
X-44.761 Y24.094
X-45.156 Y24.709
X-45.597 Y25.292
X-46.083 Y25.838
X-46.61 Y26.345
X-47.174 Y26.81
X-47.772 Y27.23
X-48.401 Y27.603
X-49.057 Y27.927
X-49.735 Y28.199
X-50.432 Y28.419
X-51.144 Y28.586
X-51.867 Y28.698
X-52.595 Y28.754
X-53.327 Y28.755
X-54.056 Y28.7
X-54.778 Y28.59
X-55.491 Y28.426
X-56.189 Y28.209
X-56.869 Y27.941
X-57.528 Y27.623
X-58.161 Y27.258
X-58.765 Y26.847
X-59.338 Y26.393
X-59.877 Y25.898
X-60.377 Y25.365
X-60.837 Y24.797
X-61.254 Y24.196
X-61.486 Y23.8
X-61.532 Y23.706
X-61.565 Y23.607
X-61.582 Y23.504
X-62.227 Y16.932
X-62.243 Y16.598
X-62.232 Y16.263
X-62.193 Y15.919
X-62.106 Y15.478
X-61.978 Y15.021
X-61.784 Y14.495
X-61.513 Y13.912
X-61.169 Y13.304
X-60.763 Y12.704
X-60.306 Y12.134
X-59.806 Y11.601
X-59.266 Y11.108
X-58.692 Y10.655
X-58.087 Y10.245
X-57.453 Y9.88
X-56.915 Y9.619
X-56.814 Y9.579
X-56.708 Y9.554
X-56.6 Y9.546
X-49.894
X-49.516 Y9.565
X-49.194 Y9.607
X-48.839 Y9.683
X-48.417 Y9.81
X-47.967 Y9.985
X-47.436 Y10.242
X-46.867 Y10.578
X-46.306 Y10.972
X-45.743 Y11.439
X-45.219 Y11.948
X-44.733 Y12.494
X-44.286 Y13.073
X-43.88 Y13.681
X-43.516 Y14.315
X-43.195 Y14.972
X-43.109 Y15.185
X-43.074 Y15.296
X-43.057 Y15.411
X-43.059 Y15.528
X-43.466 Y19.682
G3 X-44.02 Y19.841 I-0.309 J-0.03
G1 X-44.048 Y19.805
X-44.178 Y19.636
G3 X-44.095 Y19.182 I0.245 J-0.19
X-43.652 Y19.315 I0.162 J0.265
X-43.506 Y20.087 I-1.433 J0.672
G1 X-43.88 Y23.905
X-43.916 Y24.145
X-43.973 Y24.393
X-44.073 Y24.705
X-44.203 Y25.023
X-44.405 Y25.421
X-44.648 Y25.819
X-44.99 Y26.288
X-45.422 Y26.79
X-45.922 Y27.285
X-46.481 Y27.756
X-47.076 Y28.182
X-47.7 Y28.563
X-48.349 Y28.899
X-49.019 Y29.19
X-49.708 Y29.435
X-50.412 Y29.633
X-51.127 Y29.784
X-51.851 Y29.887
X-52.58 Y29.939
X-53.311 Y29.94
X-54.041 Y29.891
X-54.765 Y29.793
X-55.482 Y29.646
X-56.187 Y29.453
X-56.878 Y29.214
X-57.551 Y28.93
X-58.205 Y28.604
X-58.836 Y28.234
X-59.44 Y27.823
X-60.016 Y27.372
X-60.56 Y26.884
X-61.072 Y26.362
X-61.183 Y26.233
X-61.267 Y26.112
X-61.325 Y25.976
X-61.354 Y25.832
X-61.582 Y23.504
G3 X-61.03 Y23.292 I0.309 J-0.019
G1 X-60.987 Y23.346 Z-0.992
X-60.946 Y23.397 Z-0.969
X-60.91 Y23.443 Z-0.932
X-60.879 Y23.482 Z-0.883
X-60.856 Y23.511 Z-0.825
X-60.842 Y23.529 Z-0.759
X-60.837 Y23.535 Z-0.69
G0 Z6
X-44.158 Y22.852
Z-0.38
G1 Z-0.69 F450
X-44.155 Y22.859 Z-0.759
X-44.145 Y22.88 Z-0.825
X-44.13 Y22.914 Z-0.883
X-44.109 Y22.958 Z-0.932
X-44.084 Y23.011 Z-0.969
X-44.056 Y23.071 Z-0.992
X-44.027 Y23.133 Z-1
G3 X-43.88 Y23.905 I-1.433 J0.672
G1 X-44.075 Y25.897
X-44.112 Y26.143
X-44.158 Y26.343
X-44.224 Y26.548
X-44.326 Y26.797
X-44.466 Y27.073
X-44.648 Y27.371
X-44.901 Y27.718
X-45.216 Y28.084
X-45.61 Y28.475
X-46.116 Y28.901
X-46.711 Y29.325
X-47.338 Y29.702
X-47.989 Y30.034
X-48.661 Y30.323
X-49.349 Y30.568
X-50.052 Y30.769
X-50.766 Y30.926
X-51.489 Y31.039
X-52.216 Y31.107
X-52.947 Y31.131
X-53.678 Y31.109
X-54.406 Y31.044
X-55.129 Y30.935
X-55.844 Y30.783
X-56.549 Y30.588
X-57.24 Y30.35
X-57.916 Y30.072
X-58.574 Y29.753
X-59.212 Y29.396
X-59.827 Y29.002
X-60.418 Y28.571
X-60.913 Y28.164
X-61.042 Y28.027
X-61.131 Y27.86
X-61.173 Y27.676
X-61.354 Y25.832
G3 X-60.802 Y25.62 I0.309 J-0.019
G1 X-60.759 Y25.674 Z-0.992
X-60.718 Y25.725 Z-0.969
X-60.682 Y25.771 Z-0.932
X-60.651 Y25.81 Z-0.883
X-60.628 Y25.839 Z-0.825
X-60.614 Y25.857 Z-0.759
X-60.609 Y25.863 Z-0.69
G0 Z6
X-44.354 Y24.844
Z-0.38
G1 Z-0.69 F450
X-44.35 Y24.852 Z-0.759
X-44.341 Y24.872 Z-0.825
X-44.325 Y24.906 Z-0.883
X-44.304 Y24.95 Z-0.932
X-44.279 Y25.003 Z-0.969
X-44.251 Y25.063 Z-0.992
X-44.222 Y25.125 Z-1
G3 X-44.075 Y25.897 I-1.433 J0.672
G1 X-44.248 Y27.663
X-44.272 Y27.823
X-44.312 Y27.993
X-44.37 Y28.177
X-44.452 Y28.376
X-44.574 Y28.616
X-44.723 Y28.86
X-44.929 Y29.143
X-45.193 Y29.45
X-45.537 Y29.791
X-45.95 Y30.138
X-46.487 Y30.521
X-47.114 Y30.897
X-47.768 Y31.223
X-48.443 Y31.505
X-49.134 Y31.744
X-49.837 Y31.943
X-50.551 Y32.1
X-51.273 Y32.214
X-52.001 Y32.288
X-52.731 Y32.32
X-53.462 Y32.312
X-54.192 Y32.264
X-54.917 Y32.177
X-55.637 Y32.05
X-56.349 Y31.884
X-57.051 Y31.68
X-57.741 Y31.438
X-58.416 Y31.157
X-59.075 Y30.84
X-59.715 Y30.486
X-60.335 Y30.099
X-60.755 Y29.803
X-60.89 Y29.68
X-60.989 Y29.528
X-61.048 Y29.355
X-61.061 Y29.174
X-61.055 Y29.051
X-61.06 Y28.885
X-61.071 Y28.719
X-61.173 Y27.676
G3 X-60.621 Y27.464 I0.309 J-0.019
G1 X-60.578 Y27.518 Z-0.992
X-60.537 Y27.57 Z-0.969
X-60.501 Y27.616 Z-0.932
X-60.47 Y27.654 Z-0.883
X-60.447 Y27.683 Z-0.825
X-60.433 Y27.701 Z-0.759
X-60.428 Y27.707 Z-0.69
G0 Z6
X-44.527 Y26.611
Z-0.38
G1 Z-0.69 F450
X-44.524 Y26.618 Z-0.759
X-44.514 Y26.639 Z-0.825
X-44.498 Y26.672 Z-0.883
X-44.477 Y26.717 Z-0.932
X-44.452 Y26.77 Z-0.969
X-44.425 Y26.829 Z-0.992
X-44.395 Y26.892 Z-1
G3 X-44.248 Y27.663 I-1.433 J0.672
G1 X-44.352 Y28.719
X-44.363 Y28.885
X-44.368 Y29.051
X-44.372 Y29.201
X-44.396 Y29.349
X-44.432 Y29.5
X-44.488 Y29.67
X-44.573 Y29.871
X-44.676 Y30.069
X-44.823 Y30.305
X-45.013 Y30.559
X-45.252 Y30.831
X-45.566 Y31.137
X-45.961 Y31.462
X-46.165 Y31.605
X-46.294 Y31.677
X-46.436 Y31.721
X-46.584 Y31.735
X-46.739 Y31.734
X-46.905 Y31.752
X-47.071 Y31.778
X-49.063 Y32.176
X-49.201 Y32.205
X-49.396 Y32.255
X-49.562 Y32.315
X-49.686 Y32.371
X-49.894 Y32.486
X-49.963 Y32.537
X-50.06 Y32.61
X-50.214 Y32.723
X-50.415 Y32.846
X-50.671 Y32.975
X-50.97 Y33.098
X-51.37 Y33.225
X-51.843 Y33.335
X-52.442 Y33.424
X-53.172 Y33.473
X-53.903 Y33.464
X-54.363 Y33.429
X-54.577 Y33.38
X-54.766 Y33.268
X-54.913 Y33.104
X-54.959 Y33.035
X-55.041 Y32.924
X-55.088 Y32.869
X-55.207 Y32.745
X-55.252 Y32.703
X-55.373 Y32.599
X-55.456 Y32.537
X-55.539 Y32.481
X-55.705 Y32.386
X-55.737 Y32.371
X-55.871 Y32.31
X-56.037 Y32.257
X-56.369 Y32.179
X-56.535 Y32.141
X-58.195 Y31.809
X-58.361 Y31.78
X-58.528 Y31.756
X-58.694 Y31.735
X-58.785
X-58.935 Y31.727
X-59.186 Y31.694
X-59.499 Y31.626
X-59.864 Y31.516
X-60.278 Y31.354
X-60.601 Y31.196
X-60.824 Y31.064
X-61.027 Y30.921
X-61.112 Y30.85
X-61.245 Y30.705
X-61.333 Y30.53
X-61.371 Y30.337
X-61.356 Y30.141
X-61.288 Y29.956
X-61.248 Y29.881
X-61.175 Y29.715
X-61.126 Y29.549
X-61.088 Y29.383
X-61.064 Y29.217
X-61.061 Y29.174
G3 X-60.52 Y28.996 I0.309 J0.027
G1 X-60.479 Y29.043
X-58.619 Y31.156
X-58.563 Y31.22
G3 X-58.785 Y31.735 I-0.233 J0.205
G1 X-58.86
X-59.026 Y31.749
X-59.192 Y31.772
X-59.358 Y31.814
X-59.532 Y31.873
X-59.619 Y31.912
X-59.758 Y31.966
X-59.904 Y32.005
X-60.052 Y32.028
X-60.201 Y32.038
X-60.361 Y32.036
X-60.532 Y32.02
X-60.699 Y31.99
X-60.863 Y31.947
X-61.023 Y31.892
X-61.16 Y31.831
X-61.297 Y31.756
X-61.423 Y31.673
X-61.542 Y31.582
X-61.652 Y31.479
X-61.673 Y31.456
X-61.792 Y31.279
X-61.854 Y31.074
Y30.861
X-61.791 Y30.656
X-61.671 Y30.479
X-61.579 Y30.379
X-61.441 Y30.213
X-61.336 Y30.047
X-61.288 Y29.956
G3 X-60.781 Y29.913 I0.269 J0.155
G1 X-60.661 Y30.057
X-59.661 Y31.262
X-59.517 Y31.436
G3 X-59.619 Y31.912 I-0.239 J0.198
G1 X-59.69 Y31.944
X-59.868 Y32.039
X-60.098 Y32.205
X-60.143 Y32.242
X-60.168 Y32.266
X-60.28 Y32.366
X-60.41 Y32.44
X-60.55 Y32.494
X-60.695 Y32.531
X-60.844 Y32.552
X-60.994 Y32.557
X-61.144 Y32.548
X-61.292 Y32.526
X-61.438 Y32.491
X-61.58 Y32.443
X-61.717 Y32.383
X-61.849 Y32.311
X-61.973 Y32.227
X-62.089 Y32.131
X-62.196 Y32.026
X-62.292 Y31.911
X-62.376 Y31.787
X-62.381 Y31.779
X-62.458 Y31.568
X-62.466 Y31.343
X-62.405 Y31.126
X-62.281 Y30.939
X-62.105 Y30.799
G3 X-61.797 Y30.811 I0.143 J0.275
G1 X-61.404 Y31.056
X-60.428 Y31.665
X-60.228 Y31.789
G3 X-60.168 Y32.266 I-0.164 J0.263
G1 X-60.188 Y32.286
X-60.354 Y32.464
X-60.415 Y32.537
X-60.52 Y32.69
X-60.611 Y32.81
X-60.722 Y32.91
X-60.848 Y32.991
X-60.985 Y33.053
X-61.128 Y33.098
X-61.276 Y33.126
X-61.425 Y33.139
X-61.575 Y33.137
X-61.724 Y33.122
X-61.872 Y33.094
X-62.017 Y33.053
X-62.161 Y33
X-62.3 Y32.935
X-62.43 Y32.861
X-62.555 Y32.775
X-62.672 Y32.681
X-62.78 Y32.577
X-62.878 Y32.463
X-62.965 Y32.341
X-63.042 Y32.212
X-63.106 Y32.077
X-63.157 Y31.936
X-63.166 Y31.899
X-63.189 Y31.678
X-63.144 Y31.461
X-63.035 Y31.267
X-62.872 Y31.116
X-62.672 Y31.021
X-62.512 Y30.974
X-62.421 Y30.944
G3 X-62.137 Y31.003 I0.087 J0.298
G1 X-61.764 Y31.311
X-60.844 Y32.071
X-60.584 Y32.285
G3 X-60.52 Y32.69 I-0.197 J0.239
G1 X-60.581 Y32.786
X-60.743 Y33.167
X-60.809 Y33.302
X-60.901 Y33.42
X-61.013 Y33.521
X-61.137 Y33.605
X-61.27 Y33.673
X-61.411 Y33.726
X-61.556 Y33.764
X-61.704 Y33.788
X-61.854 Y33.799
X-62.005 Y33.797
X-62.163 Y33.783
X-62.324 Y33.755
X-62.484 Y33.714
X-62.646 Y33.658
X-62.808 Y33.587
X-62.968 Y33.501
X-63.12 Y33.403
X-63.264 Y33.293
X-63.402 Y33.168
X-63.516 Y33.047
X-63.623 Y32.914
X-63.719 Y32.772
X-63.793 Y32.642
X-63.856 Y32.506
X-63.911 Y32.356
X-63.951 Y32.212
X-63.978 Y32.064
X-63.983 Y32.018
X-63.974 Y31.821
X-63.912 Y31.633
X-63.802 Y31.469
X-63.651 Y31.341
X-63.509 Y31.25
X-63.478 Y31.236
X-63.448 Y31.225
X-62.672 Y31.021
G3 X-62.364 Y31.114 I0.077 J0.3
G1 X-62.064 Y31.447
X-61.1 Y32.518
X-60.802 Y32.849
G3 X-60.743 Y33.167 I-0.23 J0.207
G1 X-60.758 Y33.201
X-60.822 Y33.367
X-60.979 Y33.79
X-61.038 Y33.928
X-61.126 Y34.05
X-61.232 Y34.156
X-61.35 Y34.248
X-61.478 Y34.326
X-61.614 Y34.39
X-61.755 Y34.441
X-61.9 Y34.479
X-62.055 Y34.506
X-62.219 Y34.521
X-62.389 Y34.523
X-62.569 Y34.51
X-62.758 Y34.482
X-62.952 Y34.437
X-63.145 Y34.375
X-63.337 Y34.296
X-63.527 Y34.2
X-63.713 Y34.085
X-63.89 Y33.956
X-64.056 Y33.813
X-64.212 Y33.655
X-64.354 Y33.486
X-64.481 Y33.307
X-64.506 Y33.266
X-64.566 Y33.137
X-64.601 Y32.999
X-64.607 Y32.857
G3 X-64.218 Y32.585 I0.309 J0.027
G1 X-63.982 Y32.648
X-61.464 Y33.321
X-61.193 Y33.393
G3 X-60.979 Y33.79 I-0.08 J0.299
G1 X-61.018 Y33.895
X-61.034 Y33.929
X-61.054 Y33.963
X-61.107 Y34.031
X-61.37 Y34.363
X-61.407 Y34.403
X-61.443 Y34.435
X-61.584 Y34.529
X-61.848 Y34.704
X-61.89 Y34.73
X-61.931 Y34.749
X-62.014 Y34.775
X-62.429 Y34.89
X-62.471 Y34.899
X-62.512 Y34.905
X-62.678 Y34.9
X-63.01 Y34.885
X-63.082 Y34.88
X-63.118 Y34.873
X-63.153 Y34.861
X-63.592 Y34.695
X-63.633 Y34.679
X-63.675 Y34.656
X-63.841 Y34.527
X-64.044 Y34.363
X-64.121 Y34.299
X-64.15 Y34.267
X-64.173 Y34.234
X-64.414 Y33.865
X-64.463 Y33.782
X-64.49 Y33.699
X-64.58 Y33.367
X-64.62 Y33.201
X-64.623 Y33.159
X-64.599 Y32.703
X-64.594 Y32.62
X-64.585 Y32.578
X-64.571 Y32.537
X-64.443 Y32.205
X-64.376 Y32.039
X-64.339 Y31.985
X-64.112 Y31.707
X-64.007 Y31.58
X-63.984 Y31.559
X-63.961 Y31.541
X-63.651 Y31.341
G3 X-63.212 Y31.738 I0.157 J0.267
G1 X-63.241 Y31.8 Z-0.992
X-63.268 Y31.86 Z-0.969
X-63.293 Y31.913 Z-0.932
X-63.313 Y31.958 Z-0.883
X-63.329 Y31.992 Z-0.825
X-63.338 Y32.012 Z-0.759
X-63.341 Y32.019 Z-0.69
G0 Z6
X-44.8 Y28.052
Z-0.38
G1 Z-0.69 F450
X-44.796 Y28.058 Z-0.759
X-44.783 Y28.077 Z-0.825
X-44.763 Y28.108 Z-0.883
X-44.735 Y28.149 Z-0.932
X-44.703 Y28.198 Z-0.969
X-44.666 Y28.252 Z-0.992
X-44.628 Y28.31 Z-1
G3 X-44.368 Y29.051 I-1.317 J0.878
G1 X-44.359 Y29.217
X-44.334 Y29.383
X-44.297 Y29.549
X-44.247 Y29.715
X-44.235 Y29.742
X-44.183 Y29.883
X-44.162 Y30.031
X-44.158 Y30.181
X-44.17 Y30.331
X-44.194 Y30.479
X-44.237 Y30.651
X-44.3 Y30.84
X-44.386 Y31.041
X-44.508 Y31.274
X-44.654 Y31.503
X-44.812 Y31.714
X-44.876 Y31.786
X-45.019 Y31.909
X-45.19 Y31.991
X-45.377 Y32.023
X-45.566 Y32.005
X-45.743 Y31.938
X-45.909 Y31.868
X-46.075 Y31.81
X-46.241 Y31.775
X-46.407 Y31.75
X-46.573 Y31.735
X-46.584
G3 X-46.757 Y31.178 I0.013 J-0.31
G1 X-46.738 Y31.163
X-44.89 Y29.77
X-44.702 Y29.628
G3 X-44.235 Y29.742 I0.187 J0.248
G1 X-44.175 Y29.881
X-44.082 Y30.055
X-43.983 Y30.213
X-43.963 Y30.237
X-43.873 Y30.357
X-43.808 Y30.492
X-43.763 Y30.636
X-43.736 Y30.783
X-43.724 Y30.933
X-43.725 Y31.083
X-43.74 Y31.242
X-43.767 Y31.397
X-43.807 Y31.55
X-43.859 Y31.701
X-43.919 Y31.838
X-43.991 Y31.97
X-44.073 Y32.095
X-44.166 Y32.213
X-44.224 Y32.274
X-44.405 Y32.412
X-44.62 Y32.484
X-44.848 Y32.485
X-45.063 Y32.412
X-45.245 Y32.275
X-45.334 Y32.205
X-45.411 Y32.147
X-45.557 Y32.039
X-45.743 Y31.938
G3 X-45.79 Y31.438 I0.158 J-0.267
G1 X-45.639 Y31.305
X-44.624 Y30.409
X-44.399 Y30.211
G3 X-43.963 Y30.237 I0.205 J0.232
G1 X-43.845 Y30.379
X-43.75 Y30.482
X-43.684 Y30.545
X-43.584 Y30.627
X-43.549 Y30.653
X-43.431 Y30.745
X-43.34 Y30.864
X-43.268 Y30.996
X-43.213 Y31.136
X-43.176 Y31.281
X-43.153 Y31.429
X-43.146 Y31.579
X-43.152 Y31.729
X-43.171 Y31.878
X-43.203 Y32.024
X-43.248 Y32.168
X-43.304 Y32.307
X-43.372 Y32.44
X-43.453 Y32.567
X-43.545 Y32.685
X-43.647 Y32.795
X-43.759 Y32.895
X-43.822 Y32.94
X-44.034 Y33.046
X-44.268 Y33.079
X-44.501 Y33.035
X-44.708 Y32.92
X-44.867 Y32.744
G3 X-44.875 Y32.44 I0.266 J-0.16
G1 X-44.658 Y32.027
X-44.119 Y31.004
X-43.993 Y30.767
G3 X-43.549 Y30.653 I0.274 J0.145
G1 X-43.467 Y30.711
X-43.418 Y30.741
X-43.252 Y30.839
X-43.086 Y30.914
X-42.95 Y30.976
X-42.836 Y31.074
X-42.741 Y31.19
X-42.662 Y31.318
X-42.6 Y31.454
X-42.553 Y31.597
X-42.521 Y31.743
X-42.503 Y31.892
X-42.498 Y32.042
X-42.507 Y32.192
X-42.528 Y32.344
X-42.561 Y32.494
X-42.608 Y32.647
X-42.665 Y32.791
X-42.732 Y32.925
X-42.817 Y33.067
X-42.904 Y33.189
X-43.001 Y33.303
X-43.108 Y33.408
X-43.223 Y33.504
X-43.346 Y33.59
X-43.477 Y33.664
X-43.614 Y33.725
X-43.755 Y33.775
X-43.765 Y33.777
X-43.971 Y33.798
X-44.175 Y33.759
X-44.359 Y33.664
X-44.508 Y33.52
X-44.611 Y33.341
X-44.666 Y33.201
X-44.867 Y32.744
X-45.012 Y32.537
X-45.079 Y32.449
X-45.245 Y32.275
G3 X-45.144 Y31.788 I0.232 J-0.206
G1 X-44.955 Y31.7
X-43.814 Y31.169
X-43.302 Y30.931
X-43.25 Y30.912
X-43.196 Y30.903
X-43.14 Y30.904
X-43.086 Y30.914
X-42.92 Y30.968
X-42.588 Y31.063
X-42.445 Y31.109
X-42.316 Y31.184
X-42.201 Y31.281
X-42.1 Y31.392
X-42.015 Y31.515
X-41.943 Y31.647
X-41.886 Y31.786
X-41.841 Y31.929
X-41.81 Y32.076
X-41.79 Y32.228
X-41.782 Y32.389
X-41.787 Y32.555
X-41.807 Y32.725
X-41.84 Y32.899
X-41.889 Y33.073
X-41.954 Y33.248
X-42.033 Y33.42
X-42.126 Y33.585
X-42.233 Y33.742
X-42.354 Y33.893
X-42.488 Y34.036
X-42.614 Y34.15
X-42.754 Y34.258
X-42.896 Y34.35
X-43.028 Y34.421
X-43.173 Y34.484
X-43.318 Y34.534
X-43.375 Y34.549
X-43.577 Y34.572
X-43.777 Y34.537
X-43.96 Y34.449
X-43.985 Y34.432
X-44.023 Y34.397
X-44.053 Y34.363
X-44.316 Y34.031
X-44.376 Y33.95
X-44.399 Y33.91
X-44.416 Y33.865
X-44.601 Y33.367
X-44.611 Y33.341
G3 X-44.551 Y33.031 I0.292 J-0.104
G1 X-44.249 Y32.691
X-43.191 Y31.497
X-42.891 Y31.159
G3 X-42.588 Y31.063 I0.232 J0.206
G1 X-42.422 Y31.108
X-41.979 Y31.224
X-41.952 Y31.233
X-41.924 Y31.246
X-41.719 Y31.375
X-41.649 Y31.42
X-41.527 Y31.507
X-41.421 Y31.613
X-41.328 Y31.731
X-41.249 Y31.858
X-41.182 Y31.993
X-41.128 Y32.132
X-41.085 Y32.278
X-41.051 Y32.439
X-41.029 Y32.612
X-41.02 Y32.791
X-41.027 Y32.981
X-41.049 Y33.18
X-41.09 Y33.386
X-41.148 Y33.593
X-41.225 Y33.801
X-41.32 Y34.004
X-41.433 Y34.204
X-41.563 Y34.395
X-41.667 Y34.526
X-41.756 Y34.618
X-41.86 Y34.694
X-41.975 Y34.749
G3 X-42.383 Y34.426 I-0.1 J-0.294
G1 X-42.367 Y34.26
X-42.132 Y31.818
X-42.116 Y31.657
G3 X-41.649 Y31.42 I0.309 J0.03
G1 X-41.463 Y31.541
X-41.426 Y31.571
X-41.311 Y31.707
X-41.094 Y31.973
X-41.048 Y32.039
X-40.98 Y32.205
X-40.852 Y32.537
X-40.838 Y32.578
X-40.829 Y32.62
X-40.824 Y32.703
X-40.8 Y33.159
X-40.803 Y33.201
X-40.843 Y33.367
X-40.933 Y33.699
X-40.961 Y33.782
X-41.009 Y33.865
X-41.26 Y34.249
X-41.285 Y34.282
X-41.319 Y34.314
X-41.426 Y34.401
X-41.592 Y34.534
X-41.758 Y34.662
X-41.831 Y34.695
X-42.27 Y34.861
X-42.308 Y34.872
X-42.346 Y34.88
X-42.422 Y34.885
X-42.754 Y34.901
X-42.92 Y34.904
X-42.962 Y34.898
X-43.418 Y34.773
X-43.501 Y34.747
X-43.543 Y34.725
X-43.96 Y34.449
G3 X-43.771 Y33.888 I0.182 J-0.251
G1 X-43.703 Y33.889 Z-0.992
X-43.637 Y33.89 Z-0.969
X-43.578 Y33.891 Z-0.932
X-43.529 Y33.892 Z-0.883
X-43.492 Y33.893 Z-0.825
X-43.469 Y33.894 Z-0.759
X-43.462 Z-0.69
G0 Z6
X-50.914 Y9.926
Z-0.38
G1 Z-0.69 F450
X-50.907 Y9.922 Z-0.759
X-50.887 Y9.91 Z-0.825
X-50.856 Y9.891 Z-0.883
X-50.813 Y9.866 Z-0.932
X-50.763 Y9.836 Z-0.969
X-50.707 Y9.803 Z-0.992
X-50.647 Y9.768 Z-1
G3 X-49.894 Y9.546 I0.809 J1.36
G1 X-47.569
X-47.324 Y9.558
X-47.111 Y9.586
X-46.86 Y9.64
X-46.602 Y9.717
X-46.277 Y9.844
X-45.94 Y10.007
X-45.525 Y10.252
X-45.109 Y10.544
X-44.627 Y10.944
X-44.111 Y11.447
X-43.631 Y11.998
X-43.191 Y12.582
X-42.964 Y12.928
X-42.891 Y13.073
X-42.852 Y13.231
X-42.85 Y13.394
X-43.059 Y15.528
G3 X-43.615 Y15.672 I-0.307 J-0.041
G1 X-43.645 Y15.631
X-47.741 Y10.13
X-47.807 Y10.041
X-47.84 Y9.984
X-47.861 Y9.922
X-47.868 Y9.857
Y9.856
G3 X-47.569 Y9.546 I0.31 J0
G1 X-45.743
X-45.551 Y9.556
X-45.378 Y9.579
X-45.168 Y9.623
X-44.954 Y9.687
X-44.703 Y9.785
X-44.405 Y9.93
X-44.104 Y10.107
X-43.735 Y10.366
X-43.351 Y10.685
X-42.922 Y11.103
X-42.86 Y11.174
X-42.752 Y11.338
X-42.693 Y11.525
X-42.685 Y11.721
X-42.85 Y13.394
G3 X-43.407 Y13.537 I-0.307 J-0.041
G1 X-43.436 Y13.498
X-45.915 Y10.13
X-45.982 Y10.04
G3 X-45.743 Y9.546 I0.25 J-0.184
G1 X-44.414
X-44.248 Y9.545
X-44.157 Y9.542
X-44.007 Y9.543
X-43.845 Y9.562
X-43.679 Y9.594
X-43.481 Y9.65
X-43.255 Y9.734
X-43.049 Y9.83
X-42.86 Y9.937
X-42.819 Y9.964
X-42.649 Y10.124
X-42.538 Y10.329
X-42.496 Y10.559
X-42.529 Y10.79
X-42.58 Y10.956
X-42.619 Y11.122
X-42.675 Y11.62
X-42.685 Y11.721
G3 X-43.256 Y11.844 I-0.307 J-0.041
G1 X-43.269 Y11.822
X-44.319 Y10.141
X-44.397 Y10.015
G3 X-44.157 Y9.542 I0.263 J-0.164
G1 X-44.082 Y9.539
X-43.916 Y9.521
X-43.75 Y9.492
X-43.584 Y9.445
X-43.418 Y9.381
X-43.278 Y9.328
X-43.13 Y9.303
X-42.98 Y9.3
X-42.831 Y9.317
X-42.781 Y9.329
X-42.572 Y9.42
X-42.401 Y9.571
X-42.286 Y9.769
X-42.238 Y9.992
X-42.262 Y10.219
X-42.355 Y10.427
G3 X-42.813 Y10.481 I-0.253 J-0.179
G1 X-43.013 Y10.306
X-43.351 Y10.009
X-43.485 Y9.892
G3 X-43.59 Y9.659 I0.204 J-0.233
X-43.418 Y9.381 I0.31 J0
G1 X-43.252 Y9.306
X-43.235 Y9.296
X-43.086 Y9.207
X-42.976 Y9.13
X-42.853 Y9.045
X-42.709 Y9.001
X-42.56 Y8.989
X-42.545 Y8.991
X-42.342 Y9.05
X-42.167 Y9.169
X-42.038 Y9.337
X-41.967 Y9.537
X-41.961 Y9.749
X-42.021 Y9.952
X-42.142 Y10.126
X-42.267 Y10.292
X-42.355 Y10.427
G3 X-42.913 Y10.303 I-0.253 J-0.179
G1 X-42.924 Y10.246
X-42.991 Y9.878
X-43.074 Y9.417
G3 X-42.976 Y9.13 I0.305 J-0.055
G1 X-42.92 Y9.084
X-42.784 Y8.964
X-42.754 Y8.933
X-42.691 Y8.864
X-42.584 Y8.758
X-42.446 Y8.7
X-42.298 Y8.676
X-42.148 Y8.685
X-41.945 Y8.773
X-41.781 Y8.922
X-41.672 Y9.115
X-41.631 Y9.333
X-41.66 Y9.552
X-41.759 Y9.75
X-41.915 Y9.907
G3 X-42.35 Y9.815 I-0.173 J-0.257
G1 X-42.504 Y9.57
X-42.509 Y9.562
X-42.718 Y9.23
G3 X-42.691 Y8.864 I0.262 J-0.165
G1 X-42.631 Y8.798
X-42.588 Y8.743
X-42.507 Y8.632
X-42.481 Y8.591
X-42.396 Y8.467
X-42.272 Y8.383
X-42.13 Y8.334
X-41.981 Y8.317
X-41.832 Y8.331
X-41.687 Y8.369
X-41.55 Y8.431
X-41.53 Y8.445
X-41.371 Y8.588
X-41.262 Y8.77
X-41.21 Y8.977
X-41.221 Y9.189
X-41.293 Y9.39
X-41.42 Y9.561
X-41.592 Y9.687
G3 X-41.977 Y9.591 I-0.135 J-0.279
G1 X-42.186 Y9.305
X-42.21 Y9.273
X-42.463 Y8.928
G3 X-42.481 Y8.591 I0.25 J-0.183
G1 X-42.422 Y8.495
X-42.407 Y8.466
X-42.327 Y8.3
X-42.317 Y8.273
X-42.259 Y8.134
X-42.153 Y8.028
X-42.025 Y7.95
X-41.884 Y7.897
X-41.736 Y7.873
X-41.586 Y7.871
X-41.438 Y7.894
X-41.294 Y7.938
X-41.158 Y8.001
X-41.032 Y8.083
X-40.917 Y8.179
X-40.816 Y8.289
X-40.729 Y8.411
X-40.703 Y8.458
X-40.628 Y8.659
X-40.616 Y8.872
X-40.666 Y9.08
X-40.775 Y9.264
X-40.933 Y9.408
X-41.126 Y9.5
G3 X-41.427 Y9.417 I-0.08 J-0.3
G1 X-41.748 Y9.09
X-41.929 Y8.905
X-42.243 Y8.585
G3 X-42.317 Y8.273 I0.221 J-0.217
G1 X-42.266 Y8.134
X-42.219 Y7.968
X-42.209 Y7.918
X-42.174 Y7.772
X-42.094 Y7.645
X-41.987 Y7.54
X-41.862 Y7.457
X-41.725 Y7.395
X-41.581 Y7.354
X-41.433 Y7.332
X-41.283 Y7.329
X-41.134 Y7.343
X-40.987 Y7.374
X-40.844 Y7.42
X-40.706 Y7.48
X-40.576 Y7.554
X-40.453 Y7.64
X-40.34 Y7.738
X-40.237 Y7.848
X-40.146 Y7.967
X-40.067 Y8.094
X-40.002 Y8.23
X-39.95 Y8.37
X-39.914 Y8.516
X-39.893 Y8.664
X-39.892 Y8.672
X-39.917 Y8.893
X-40.007 Y9.097
X-40.155 Y9.263
X-40.347 Y9.376
X-40.564 Y9.426
X-40.762 Y9.44
X-40.812 Y9.445
G3 X-41.059 Y9.345 I-0.018 J-0.309
G1 X-41.404 Y8.968
X-41.788 Y8.549
X-42.131 Y8.175
G3 X-42.209 Y7.918 I0.228 J-0.21
G1 X-42.187 Y7.802
X-42.159 Y7.636
X-42.134 Y7.47
X-42.104 Y7.323
X-42.042 Y7.187
X-41.953 Y7.066
X-41.845 Y6.962
X-41.722 Y6.876
X-41.589 Y6.806
X-41.449 Y6.753
X-41.304 Y6.715
X-41.156 Y6.693
X-41.006 Y6.686
X-40.856 Y6.692
X-40.707 Y6.711
X-40.561 Y6.743
X-40.415 Y6.788
X-40.274 Y6.844
X-40.131 Y6.914
X-39.992 Y6.997
X-39.859 Y7.091
X-39.732 Y7.198
X-39.61 Y7.319
X-39.498 Y7.448
X-39.402 Y7.581
X-39.323 Y7.709
X-39.249 Y7.855
X-39.191 Y7.997
X-39.146 Y8.14
X-39.113 Y8.286
X-39.093 Y8.435
X-39.085 Y8.584
X-39.087 Y8.638
X-39.127 Y8.846
X-39.225 Y9.033
X-39.374 Y9.185
X-39.56 Y9.286
X-39.766 Y9.362
X-39.807 Y9.376
X-39.849 Y9.384
X-39.932 Y9.389
X-40.264 Y9.406
X-40.43 Y9.416
X-40.564 Y9.426
G3 X-40.82 Y9.306 I-0.011 J-0.31
G1 X-41.122 Y8.918
X-41.737 Y8.126
X-42.071 Y7.696
X-42.103 Y7.645
X-42.125 Y7.589
X-42.135 Y7.53
X-42.134 Y7.47
X-42.059 Y6.972
X-42.048 Y6.931
X-42.033 Y6.889
X-41.924 Y6.662
X-41.852 Y6.53
X-41.76 Y6.412
X-41.651 Y6.308
X-41.53 Y6.22
X-41.4 Y6.146
X-41.262 Y6.086
X-41.12 Y6.039
X-40.973 Y6.006
X-40.824 Y5.985
X-40.665 Y5.976
X-40.502 Y5.98
X-40.332 Y5.998
X-40.156 Y6.031
X-39.974 Y6.08
X-39.791 Y6.146
X-39.61 Y6.228
X-39.433 Y6.326
X-39.262 Y6.44
X-39.096 Y6.57
X-38.94 Y6.715
X-38.796 Y6.871
X-38.664 Y7.04
X-38.546 Y7.219
X-38.442 Y7.407
X-38.404 Y7.492
X-38.352 Y7.662
X-38.342 Y7.839
X-38.376 Y8.013
G3 X-38.777 Y8.197 I-0.291 J-0.106
G1 X-39.053 Y8.093
X-41.487 Y7.176
X-41.75 Y7.077
G3 X-41.924 Y6.662 I0.109 J-0.29
G1 X-41.833 Y6.474
X-41.803 Y6.418
X-41.783 Y6.389
X-41.758 Y6.361
X-41.553 Y6.142
X-41.426 Y6.008
X-41.387 Y5.976
X-41.26 Y5.901
X-41.094 Y5.806
X-40.928 Y5.714
X-40.886 Y5.697
X-40.845 Y5.685
X-40.43 Y5.593
X-40.347 Y5.578
X-40.264 Y5.58
X-39.932 Y5.608
X-39.766 Y5.626
X-39.711 Y5.644
X-39.267 Y5.824
X-39.226 Y5.846
X-39.184 Y5.876
X-38.814 Y6.178
X-38.789 Y6.202
X-38.769 Y6.226
X-38.714 Y6.308
X-38.494 Y6.64
X-38.474 Y6.675
X-38.458 Y6.709
X-38.429 Y6.806
X-38.331 Y7.138
X-38.31 Y7.221
X-38.304 Y7.263
Y7.304
X-38.309 Y7.636
X-38.314 Y7.802
X-38.362 Y7.968
X-38.47 Y8.3
X-38.486 Y8.342
X-38.507 Y8.383
X-38.603 Y8.521
X-38.8 Y8.798
X-38.829 Y8.832
X-38.867 Y8.866
X-39.212 Y9.13
X-39.267 Y9.171
X-39.309 Y9.193
X-39.56 Y9.286
G3 X-39.905 Y8.806 I-0.097 J-0.294
G1 X-39.863 Y8.75 Z-0.992
X-39.824 Y8.698 Z-0.969
X-39.789 Y8.651 Z-0.932
X-39.759 Y8.612 Z-0.883
X-39.737 Y8.582 Z-0.825
X-39.723 Y8.564 Z-0.759
X-39.719 Y8.558 Z-0.69
G0 Z6
X-61.749 Y17.911
Z-0.38
G1 Z-0.69 F450
X-61.754 Y17.904 Z-0.759
X-61.767 Y17.886 Z-0.825
X-61.789 Y17.856 Z-0.883
X-61.818 Y17.817 Z-0.932
X-61.853 Y17.769 Z-0.969
X-61.892 Y17.716 Z-0.992
X-61.933 Y17.661 Z-1
G3 X-62.227 Y16.932 I1.275 J-0.938
G1 X-62.454 Y14.608
X-62.463 Y14.431
X-62.456 Y14.216
X-62.427 Y13.966
X-62.376 Y13.702
X-62.281 Y13.366
X-62.155 Y13.024
X-61.955 Y12.593
X-61.715 Y12.168
X-61.378 Y11.671
X-60.949 Y11.135
X-60.448 Y10.603
X-59.907 Y10.112
X-59.385 Y9.701
X-59.249 Y9.616
X-59.097 Y9.564
X-58.938 Y9.546
X-56.6
G3 X-56.41 Y10.092 I-0.011 J0.31
G1 X-56.441 Y10.119
X-61.854 Y14.725
X-61.946 Y14.803
G3 X-62.454 Y14.608 I-0.201 J-0.236
G1 X-62.633 Y12.782
X-62.641 Y12.633
X-62.63 Y12.447
X-62.6 Y12.234
X-62.551 Y12.01
X-62.465 Y11.732
X-62.348 Y11.439
X-62.179 Y11.096
X-61.954 Y10.721
X-61.639 Y10.28
X-61.267 Y9.839
X-61.19 Y9.76
X-61.039 Y9.644
X-60.864 Y9.571
X-60.676 Y9.546
X-58.938
G3 X-58.747 Y10.092 I-0.011 J0.31
G1 X-58.779 Y10.119
X-62.033 Y12.899
X-62.125 Y12.977
G3 X-62.633 Y12.782 I-0.201 J-0.236
G1 X-62.748 Y11.62
X-62.785 Y11.288
X-62.795 Y11.139
X-62.791 Y10.977
X-62.772 Y10.798
X-62.736 Y10.605
X-62.671 Y10.369
X-62.586 Y10.132
X-62.493 Y9.927
X-62.45 Y9.849
X-62.311 Y9.671
X-62.124 Y9.544
X-61.908 Y9.482
X-61.682 Y9.488
X-61.516 Y9.519
X-61.35 Y9.538
X-60.852 Y9.546
X-60.676
G3 X-60.497 Y10.101 I-0.011 J0.31
G1 X-60.518 Y10.117
X-62.178 Y11.402
X-62.289 Y11.488
G3 X-62.785 Y11.288 I-0.19 J-0.245
G1 X-62.804 Y11.122
X-62.841 Y10.956
X-62.892 Y10.79
X-62.958 Y10.624
X-62.987 Y10.571
X-63.051 Y10.435
X-63.095 Y10.292
X-63.117 Y10.144
X-63.121 Y9.994
X-63.105 Y9.844
X-63.1 Y9.824
X-63.019 Y9.626
X-62.883 Y9.461
X-62.706 Y9.342
X-62.501 Y9.28
X-62.287 Y9.281
X-62.083 Y9.344
G3 X-61.964 Y9.782 I-0.144 J0.274
G1 X-62.109 Y10.017
X-62.378 Y10.451
X-62.456 Y10.577
G3 X-62.987 Y10.571 I-0.264 J-0.163
G1 X-63.048 Y10.458
X-63.156 Y10.292
X-63.28 Y10.126
X-63.314 Y10.092
X-63.415 Y9.981
X-63.468 Y9.841
X-63.464 Y9.613
X-63.386 Y9.399
X-63.243 Y9.222
X-63.05 Y9.101
X-62.828 Y9.05
X-62.601 Y9.073
X-62.395 Y9.169
G3 X-62.378 Y9.655 I-0.184 J0.249
G1 X-62.551 Y9.802
X-62.647 Y9.883
X-62.903 Y10.101
G3 X-63.314 Y10.092 I-0.201 J-0.236
G1 X-63.343 Y10.064
X-63.509 Y9.908
X-63.587 Y9.85
X-63.702 Y9.754
X-63.773 Y9.621
X-63.807 Y9.475
X-63.81 Y9.325
X-63.805 Y9.3
X-63.735 Y9.097
X-63.605 Y8.927
X-63.428 Y8.806
X-63.222 Y8.746
X-63.008 Y8.755
X-62.807 Y8.83
X-62.64 Y8.964
X-62.476 Y9.105
X-62.447 Y9.13
X-62.395 Y9.169
G3 X-62.515 Y9.722 I-0.184 J0.249
G1 X-62.586 Y9.737
X-62.825 Y9.788
X-63.346 Y9.898
X-63.409 Y9.905
X-63.471 Y9.899
X-63.532 Y9.88
X-63.587 Y9.85
X-63.661 Y9.794
X-63.841 Y9.677
X-63.872 Y9.663
X-64.004 Y9.591
X-64.099 Y9.475
X-64.162 Y9.339
X-64.193 Y9.193
X-64.195 Y9.043
X-64.171 Y8.895
X-64.123 Y8.752
X-64.119 Y8.746
X-63.994 Y8.576
X-63.825 Y8.449
X-63.627 Y8.377
X-63.416 Y8.365
X-63.211 Y8.415
X-63.028 Y8.521
X-62.885 Y8.676
G3 X-62.94 Y9.074 I-0.261 J0.167
G1 X-63.2 Y9.306
X-63.219 Y9.322
X-63.541 Y9.61
G3 X-63.872 Y9.663 I-0.206 J-0.231
G1 X-63.943 Y9.628
X-64.007 Y9.599
X-64.173 Y9.536
X-64.2 Y9.528
X-64.342 Y9.48
X-64.46 Y9.386
X-64.551 Y9.267
X-64.617 Y9.132
X-64.656 Y8.987
X-64.671 Y8.838
X-64.661 Y8.688
X-64.63 Y8.542
X-64.578 Y8.401
X-64.508 Y8.268
X-64.421 Y8.146
X-64.319 Y8.036
X-64.205 Y7.939
X-64.177 Y7.921
X-63.983 Y7.831
X-63.771 Y7.802
X-63.56 Y7.837
X-63.368 Y7.931
X-63.212 Y8.078
X-63.106 Y8.264
G3 X-63.162 Y8.566 I-0.293 J0.102
G1 X-63.461 Y8.92
X-63.605 Y9.09
X-63.889 Y9.427
G3 X-64.2 Y9.528 I-0.237 J-0.2
G1 X-64.339 Y9.488
X-64.505 Y9.452
X-64.555 Y9.447
X-64.703 Y9.425
X-64.839 Y9.361
X-64.955 Y9.266
X-65.05 Y9.15
X-65.126 Y9.02
X-65.181 Y8.881
X-65.216 Y8.735
X-65.233 Y8.586
X-65.232 Y8.436
X-65.215 Y8.287
X-65.182 Y8.141
X-65.134 Y7.998
X-65.071 Y7.862
X-64.995 Y7.733
X-64.906 Y7.612
X-64.805 Y7.502
X-64.693 Y7.401
X-64.572 Y7.313
X-64.441 Y7.239
X-64.305 Y7.177
X-64.162 Y7.13
X-64.115 Y7.12
X-63.883 Y7.109
X-63.659 Y7.173
X-63.467 Y7.304
X-63.326 Y7.489
X-63.252 Y7.709
X-63.236 Y7.802
X-63.219 Y7.894
G3 X-63.288 Y8.141 I-0.306 J0.048
G1 X-63.624 Y8.539
X-63.978 Y8.959
X-64.299 Y9.338
G3 X-64.555 Y9.447 I-0.237 J-0.2
G1 X-64.671 Y9.436
X-64.837 Y9.423
X-65.031 Y9.413
X-65.18 Y9.398
X-65.32 Y9.345
X-65.447 Y9.265
X-65.558 Y9.164
X-65.654 Y9.049
X-65.733 Y8.921
X-65.797 Y8.786
X-65.846 Y8.644
X-65.879 Y8.498
X-65.899 Y8.349
X-65.904 Y8.199
X-65.896 Y8.049
X-65.875 Y7.901
X-65.842 Y7.753
X-65.797 Y7.609
X-65.738 Y7.462
X-65.666 Y7.319
X-65.583 Y7.181
X-65.487 Y7.047
X-65.376 Y6.917
X-65.263 Y6.804
X-65.149 Y6.707
X-65.015 Y6.61
X-64.884 Y6.531
X-64.75 Y6.464
X-64.61 Y6.409
X-64.466 Y6.366
X-64.319 Y6.335
X-64.17 Y6.318
X-64.133 Y6.317
X-63.929 Y6.343
X-63.741 Y6.424
X-63.583 Y6.555
X-63.468 Y6.725
X-63.39 Y6.889
X-63.375 Y6.931
X-63.364 Y6.972
X-63.264 Y7.636
X-63.252 Y7.709
G3 X-63.349 Y7.977 I-0.307 J0.04
G1 X-63.708 Y8.309
X-64.412 Y8.959
X-64.815 Y9.331
X-64.862 Y9.367
X-64.915 Y9.393
X-64.972 Y9.409
X-65.031 Y9.413
X-65.501 Y9.389
X-65.584 Y9.382
X-65.667 Y9.359
X-65.833 Y9.297
X-65.971 Y9.238
X-66.098 Y9.158
X-66.211 Y9.06
X-66.311 Y8.948
X-66.397 Y8.825
X-66.47 Y8.694
X-66.529 Y8.556
X-66.576 Y8.413
X-66.61 Y8.266
X-66.634 Y8.112
X-66.645 Y7.951
X-66.643 Y7.779
X-66.627 Y7.6
X-66.595 Y7.417
X-66.548 Y7.232
X-66.485 Y7.048
X-66.405 Y6.866
X-66.308 Y6.685
X-66.195 Y6.51
X-66.068 Y6.343
X-65.927 Y6.187
X-65.774 Y6.042
X-65.608 Y5.909
X-65.433 Y5.79
X-65.264 Y5.694
X-65.253 Y5.689
X-65.104 Y5.638
X-64.947 Y5.621
X-64.791 Y5.638
G3 X-64.57 Y6.023 I-0.078 J0.3
G1 X-64.649 Y6.303
X-65.36 Y8.813
X-65.438 Y9.087
G3 X-65.833 Y9.297 I-0.298 J-0.084
G1 X-66.082 Y9.205
X-66.124 Y9.188
X-66.165 Y9.165
X-66.497 Y8.911
X-66.56 Y8.862
X-66.595 Y8.83
X-66.623 Y8.798
X-66.859 Y8.466
X-66.915 Y8.383
X-66.938 Y8.342
X-66.953 Y8.3
X-67.088 Y7.885
X-67.101 Y7.844
X-67.109 Y7.802
X-67.115 Y7.636
X-67.12 Y7.304
X-67.119 Y7.263
X-67.113 Y7.221
X-67.092 Y7.138
X-66.97 Y6.723
X-66.953 Y6.682
X-66.929 Y6.64
X-66.663 Y6.239
X-66.642 Y6.211
X-66.614 Y6.184
X-66.565 Y6.142
X-66.248 Y5.884
X-66.207 Y5.852
X-66.165 Y5.828
X-66.124 Y5.81
X-65.712 Y5.644
X-65.667 Y5.629
X-65.626 Y5.62
X-65.501 Y5.609
X-65.169 Y5.581
X-65.086 Y5.578
X-65.044 Y5.583
X-64.588 Y5.683
X-64.546 Y5.694
X-64.505 Y5.709
X-64.323 Y5.81
X-64.173 Y5.896
X-64.036 Y5.976
X-64.007 Y6
X-63.87 Y6.142
X-63.675 Y6.351
X-63.623 Y6.413
X-63.59 Y6.474
X-63.468 Y6.725
G3 X-63.913 Y7.115 I-0.284 J0.125
G1 X-63.972 Y7.08 Z-0.992
X-64.028 Y7.046 Z-0.969
X-64.078 Y7.015 Z-0.932
X-64.12 Y6.989 Z-0.883
X-64.152 Y6.97 Z-0.825
X-64.171 Y6.958 Z-0.759
X-64.178 Y6.954 Z-0.69
G0 Z6
X-49.505 Y31.674
Z-0.38
G1 Z-0.69 F450
X-49.508 Y31.681 Z-0.759
X-49.515 Y31.703 Z-0.825
X-49.528 Y31.737 Z-0.883
X-49.545 Y31.783 Z-0.932
X-49.566 Y31.839 Z-0.969
X-49.589 Y31.9 Z-0.992
X-49.613 Y31.965 Z-1
G3 X-50.06 Y32.61 I-1.484 J-0.55
G1 X-50.174 Y32.703
X-50.226 Y32.753
X-50.331 Y32.869
X-50.466 Y33.035
X-50.567 Y33.201
X-50.614 Y33.292
X-50.69 Y33.422
X-50.781 Y33.541
X-50.883 Y33.651
X-51.006 Y33.761
X-51.166 Y33.883
X-51.338 Y33.994
X-51.561 Y34.113
X-51.846 Y34.237
X-52.154 Y34.343
X-52.57 Y34.448
X-53.033 Y34.528
X-53.426 Y34.563
X-53.733 Y34.566
X-53.968 Y34.549
X-54.001 Y34.544
X-54.22 Y34.473
X-54.406 Y34.337
X-54.54 Y34.15
X-54.608 Y33.931
G3 X-54.366 Y33.595 I0.308 J-0.033
G1 X-54.042 Y33.524
X-51.053 Y32.877
X-50.96 Y32.856
X-50.895 Y32.849
X-50.894
G3 X-50.614 Y33.292 I0 J0.31
G1 X-50.653 Y33.367
X-50.724 Y33.537
X-50.771 Y33.699
X-50.806 Y33.865
X-50.813 Y33.915
X-50.841 Y34.062
X-50.894 Y34.203
X-50.963 Y34.336
X-51.046 Y34.461
X-51.139 Y34.578
X-51.26 Y34.705
X-51.398 Y34.829
X-51.57 Y34.959
X-51.774 Y35.09
X-52.012 Y35.217
X-52.273 Y35.33
X-52.562 Y35.429
X-52.857 Y35.504
X-53.092 Y35.544
X-53.338 Y35.566
X-53.538 Y35.567
X-53.717 Y35.554
X-53.91 Y35.525
X-54.071 Y35.486
X-54.109 Y35.474
X-54.279 Y35.393
X-54.423 Y35.271
X-54.53 Y35.116
X-54.593 Y34.938
X-54.608 Y34.751
X-54.59 Y34.363
X-54.588 Y34.272
G3 X-54.318 Y33.981 I0.31 J0.017
G1 X-53.966 Y33.936
X-51.384 Y33.603
X-51.161 Y33.575
G3 X-50.813 Y33.915 I0.04 J0.307
G1 X-50.829 Y34.031
X-50.836 Y34.197
X-50.833 Y34.363
X-50.823 Y34.579
Y34.729
X-50.847 Y34.877
X-50.889 Y35.021
X-50.948 Y35.159
X-51.02 Y35.291
X-51.106 Y35.421
X-51.21 Y35.554
X-51.336 Y35.69
X-51.488 Y35.831
X-51.658 Y35.963
X-51.851 Y36.09
X-52.067 Y36.209
X-52.296 Y36.313
X-52.534 Y36.398
X-52.78 Y36.464
X-53.031 Y36.51
X-53.259 Y36.533
X-53.479 Y36.538
X-53.676 Y36.526
X-53.816 Y36.492
X-53.946 Y36.431
X-54.062 Y36.346
G3 X-53.997 Y35.853 I0.216 J-0.222
G1 X-53.815 Y35.751
X-51.428 Y34.415
X-51.283 Y34.334
G3 X-50.823 Y34.579 I0.151 J0.271
G1 X-50.801 Y35.027
X-50.799 Y35.193
X-50.837 Y35.359
X-50.92 Y35.691
X-50.934 Y35.732
X-50.955 Y35.774
X-51.104 Y36.023
X-51.205 Y36.189
X-51.222 Y36.213
X-51.388 Y36.37
X-51.555 Y36.521
X-51.637 Y36.592
X-51.679 Y36.617
X-52.052 Y36.794
X-52.135 Y36.831
X-52.177 Y36.843
X-52.235 Y36.853
X-52.55 Y36.9
X-52.716 Y36.92
X-52.882 Y36.898
X-53.214 Y36.849
X-53.256 Y36.841
X-53.297 Y36.827
X-53.38 Y36.789
X-53.712 Y36.632
X-53.751 Y36.613
X-53.79 Y36.589
X-53.879 Y36.512
X-54.176 Y36.242
X-54.211 Y36.2
X-54.219 Y36.189
X-54.418 Y35.857
X-54.468 Y35.774
X-54.489 Y35.732
X-54.503 Y35.691
X-54.586 Y35.359
X-54.624 Y35.193
X-54.622 Y35.027
X-54.608 Y34.751
G3 X-54.285 Y34.467 I0.309 J0.026
G1 X-54.234 Y34.483 Z-0.995
X-54.184 Y34.498 Z-0.981
X-54.137 Y34.512 Z-0.958
X-54.101 Y34.549 Z-0.919
X-54.072 Y34.58 Z-0.871
X-54.049 Y34.602 Z-0.816
X-54.036 Y34.616 Z-0.754
X-54.031 Y34.621 Z-0.69
G0 Z6
X-51.978 Y20.109
Z1.5
G3 X-53.445 Y17.555 Z1.338 I-0.734 J-1.277 F333.3
X-51.978 Y20.109 Z1.177 I0.734 J1.277
X-53.445 Y17.555 Z1.015 I-0.734 J-1.277
X-51.978 Y20.109 Z0.854 I0.734 J1.277
X-53.445 Y17.555 Z0.692 I-0.734 J-1.277
X-51.978 Y20.109 Z0.531 I0.734 J1.277
X-53.445 Y17.555 Z0.369 I-0.734 J-1.277
X-51.978 Y20.109 Z0.208 I0.734 J1.277
X-53.445 Y17.555 Z0.046 I-0.734 J-1.277
X-51.978 Y20.109 Z-0.115 I0.734 J1.277
X-53.445 Y17.555 Z-0.277 I-0.734 J-1.277
X-51.978 Y20.109 Z-0.439 I0.734 J1.277
X-53.445 Y17.555 Z-0.6 I-0.734 J-1.277
X-51.978 Y20.109 Z-0.762 I0.734 J1.277
X-53.445 Y17.555 Z-0.923 I-0.734 J-1.277
X-51.978 Y20.109 Z-1.085 I0.734 J1.277
X-53.445 Y17.555 Z-1.246 I-0.734 J-1.277
X-51.978 Y20.109 Z-1.408 I0.734 J1.277
X-53.445 Y17.555 Z-1.569 I-0.734 J-1.277
X-51.978 Y20.109 Z-1.731 I0.734 J1.277
X-53.445 Y17.555 Z-1.892 I-0.734 J-1.277
X-51.239 Y18.832 Z-2 I0.734 J1.277
X-54.184 Y18.832 I-1.472 J0
X-51.239 Y18.832 I1.472 J0
G1 X-51.202 Y19.562 F450
X-51.184 Y19.652
X-51.173 Y19.801
X-51.189 Y19.95
X-51.228 Y20.095
X-51.287 Y20.233
X-51.361 Y20.364
X-51.45 Y20.485
X-51.551 Y20.596
X-51.662 Y20.696
X-51.782 Y20.786
X-51.91 Y20.865
X-52.044 Y20.933
X-52.183 Y20.989
X-52.329 Y21.035
X-52.482 Y21.07
X-52.641 Y21.092
X-52.804 Y21.103
X-52.97 Y21.1
X-53.138 Y21.083
X-53.306 Y21.053
X-53.473 Y21.009
X-53.638 Y20.951
X-53.8 Y20.879
X-53.956 Y20.793
X-54.106 Y20.695
X-54.249 Y20.584
X-54.383 Y20.462
X-54.507 Y20.328
X-54.621 Y20.184
X-54.723 Y20.031
X-54.813 Y19.87
X-54.89 Y19.701
X-54.954 Y19.526
X-55.003 Y19.347
X-55.038 Y19.163
X-55.058 Y18.977
X-55.063 Y18.79
X-55.053 Y18.603
X-55.028 Y18.417
X-54.988 Y18.233
X-54.933 Y18.053
X-54.864 Y17.878
X-54.781 Y17.708
X-54.685 Y17.546
X-54.576 Y17.392
X-54.455 Y17.247
X-54.323 Y17.112
X-54.18 Y16.989
X-54.028 Y16.877
X-53.867 Y16.778
X-53.698 Y16.691
X-53.524 Y16.619
X-53.344 Y16.561
X-53.159 Y16.518
X-52.972 Y16.489
X-52.784 Y16.476
X-52.594 Y16.477
X-52.406 Y16.494
X-52.219 Y16.526
X-52.036 Y16.573
X-51.857 Y16.635
X-51.683 Y16.71
X-51.516 Y16.8
X-51.357 Y16.902
X-51.207 Y17.017
X-51.066 Y17.144
X-50.936 Y17.281
X-50.817 Y17.429
X-50.71 Y17.585
X-50.601 Y17.778
X-50.481 Y18.034
X-50.335 Y18.427
X-50.252 Y18.721
X-50.201 Y18.976
X-50.173 Y19.215
X-50.166 Y19.442
X-50.175 Y19.657
X-50.201 Y19.862
X-50.243 Y20.061
X-50.3 Y20.256
X-50.373 Y20.446
X-50.461 Y20.631
X-50.564 Y20.807
X-50.681 Y20.976
X-50.813 Y21.135
X-50.958 Y21.286
X-51.117 Y21.426
X-51.289 Y21.554
X-51.474 Y21.67
X-51.67 Y21.773
X-51.877 Y21.86
X-52.093 Y21.932
X-52.317 Y21.987
X-52.548 Y22.024
X-52.784 Y22.043
X-53.024
X-53.265 Y22.023
X-53.507 Y21.984
X-53.746 Y21.924
X-53.982 Y21.846
X-54.212 Y21.747
X-54.436 Y21.63
X-54.65 Y21.495
X-54.855 Y21.341
X-55.047 Y21.171
X-55.226 Y20.986
X-55.39 Y20.785
X-55.538 Y20.571
X-55.669 Y20.345
X-55.782 Y20.109
X-55.876 Y19.863
X-55.949 Y19.61
X-56.003 Y19.351
X-56.036 Y19.089
X-56.047 Y18.824
X-56.037 Y18.558
X-56.006 Y18.294
X-55.954 Y18.033
X-55.88 Y17.776
X-55.787 Y17.526
X-55.673 Y17.285
X-55.541 Y17.052
X-55.39 Y16.832
X-55.221 Y16.623
X-55.037 Y16.429
X-54.837 Y16.251
X-54.624 Y16.088
X-54.398 Y15.944
X-54.161 Y15.818
X-53.915 Y15.711
X-53.661 Y15.624
X-53.401 Y15.558
X-53.136 Y15.514
X-52.869 Y15.49
X-52.6 Y15.488
X-52.332 Y15.508
X-52.067 Y15.549
X-51.805 Y15.611
X-51.55 Y15.694
X-51.302 Y15.797
X-51.063 Y15.92
X-50.835 Y16.062
X-50.618 Y16.221
X-50.411 Y16.402
X-50.206 Y16.611
X-49.996 Y16.863
X-49.803 Y17.138
X-49.626 Y17.437
X-49.474 Y17.749
X-49.35 Y18.065
X-49.255 Y18.382
X-49.187 Y18.696
X-49.146 Y19.007
X-49.13 Y19.314
X-49.139 Y19.617
X-49.172 Y19.914
X-49.228 Y20.206
X-49.306 Y20.49
X-49.407 Y20.766
X-49.529 Y21.032
X-49.672 Y21.288
X-49.836 Y21.531
X-50.019 Y21.762
X-50.222 Y21.978
X-50.442 Y22.179
X-50.68 Y22.363
X-50.933 Y22.528
X-51.201 Y22.674
X-51.483 Y22.798
X-51.776 Y22.901
X-52.079 Y22.981
X-52.391 Y23.036
X-52.708 Y23.066
X-53.029 Y23.071
X-53.351 Y23.05
X-53.673 Y23.003
X-53.993 Y22.93
X-54.307 Y22.831
X-54.614 Y22.706
X-54.912 Y22.555
X-55.199 Y22.381
X-55.472 Y22.183
X-55.729 Y21.963
X-55.969 Y21.722
X-56.19 Y21.461
X-56.39 Y21.182
X-56.567 Y20.888
X-56.721 Y20.579
X-56.849 Y20.257
X-56.952 Y19.926
X-57.028 Y19.587
X-57.077 Y19.242
X-57.097 Y18.894
X-57.09 Y18.544
X-57.055 Y18.196
X-56.992 Y17.852
X-56.901 Y17.513
X-56.783 Y17.182
X-56.639 Y16.861
X-56.47 Y16.553
X-56.276 Y16.26
X-56.059 Y15.982
X-55.821 Y15.723
X-55.562 Y15.484
X-55.285 Y15.266
X-54.991 Y15.071
X-54.683 Y14.9
X-54.361 Y14.754
X-54.029 Y14.635
X-53.688 Y14.543
X-53.341 Y14.478
X-52.99 Y14.441
X-52.637 Y14.433
X-52.285 Y14.453
X-51.935 Y14.501
X-51.59 Y14.577
X-51.252 Y14.681
X-50.924 Y14.811
X-50.605 Y14.968
X-50.296 Y15.153
X-49.992 Y15.37
X-49.698 Y15.618
X-49.416 Y15.896
X-49.151 Y16.204
X-48.909 Y16.536
X-48.694 Y16.887
X-48.507 Y17.254
X-48.352 Y17.632
X-48.229 Y18.018
X-48.138 Y18.41
X-48.079 Y18.803
X-48.052 Y19.197
X-48.057 Y19.588
X-48.093 Y19.975
X-48.16 Y20.355
X-48.256 Y20.727
X-48.382 Y21.09
X-48.536 Y21.44
X-48.717 Y21.777
X-48.925 Y22.098
X-49.159 Y22.402
X-49.417 Y22.687
X-49.699 Y22.952
X-50.002 Y23.195
X-50.326 Y23.413
X-50.667 Y23.606
X-51.026 Y23.772
X-51.399 Y23.91
X-51.784 Y24.018
X-52.179 Y24.095
X-52.581 Y24.14
X-52.988 Y24.153
X-53.397 Y24.133
X-53.805 Y24.08
X-54.21 Y23.994
X-54.609 Y23.875
X-54.999 Y23.724
X-55.377 Y23.541
X-55.741 Y23.328
X-56.088 Y23.085
X-56.416 Y22.814
X-56.722 Y22.516
X-57.004 Y22.194
X-57.26 Y21.849
X-57.488 Y21.483
X-57.687 Y21.1
X-57.854 Y20.7
X-57.99 Y20.288
X-58.092 Y19.865
X-58.16 Y19.435
X-58.193 Y19
X-58.191 Y18.563
X-58.154 Y18.127
X-58.082 Y17.694
X-57.976 Y17.269
X-57.835 Y16.853
X-57.662 Y16.45
X-57.456 Y16.061
X-57.22 Y15.69
X-56.955 Y15.339
X-56.662 Y15.01
X-56.344 Y14.705
X-56.002 Y14.427
X-55.639 Y14.177
X-55.256 Y13.957
X-54.858 Y13.769
X-54.445 Y13.613
X-54.021 Y13.49
X-53.588 Y13.402
X-53.15 Y13.349
X-52.709 Y13.331
X-52.268 Y13.349
X-51.829 Y13.402
X-51.396 Y13.49
X-50.971 Y13.613
X-50.553 Y13.771
X-50.145 Y13.964
X-49.749 Y14.192
X-49.366 Y14.456
X-48.999 Y14.755
X-48.65 Y15.089
X-48.325 Y15.453
X-48.029 Y15.846
X-47.763 Y16.264
X-47.532 Y16.701
X-47.337 Y17.155
X-47.18 Y17.62
X-47.061 Y18.095
X-46.982 Y18.575
X-46.941 Y19.058
X-46.939 Y19.539
X-46.975 Y20.017
X-47.05 Y20.488
X-47.161 Y20.95
X-47.309 Y21.401
X-47.493 Y21.837
X-47.711 Y22.258
X-47.962 Y22.66
X-48.244 Y23.04
X-48.558 Y23.398
X-48.899 Y23.73
X-49.268 Y24.035
X-49.662 Y24.311
X-50.078 Y24.555
X-50.514 Y24.766
X-50.968 Y24.942
X-51.437 Y25.081
X-51.918 Y25.183
X-52.408 Y25.247
X-52.904 Y25.27
X-53.402 Y25.255
X-53.9 Y25.198
X-54.394 Y25.102
X-54.88 Y24.966
X-55.357 Y24.79
X-55.819 Y24.576
X-56.264 Y24.324
X-56.689 Y24.037
X-57.091 Y23.715
X-57.467 Y23.361
X-57.815 Y22.977
X-58.131 Y22.565
X-58.414 Y22.128
X-58.662 Y21.669
X-58.872 Y21.19
X-59.044 Y20.695
X-59.175 Y20.187
X-59.266 Y19.669
X-59.314 Y19.145
X-59.321 Y18.618
X-59.285 Y18.092
X-59.207 Y17.569
X-59.087 Y17.054
X-58.926 Y16.55
X-58.725 Y16.06
X-58.485 Y15.587
X-58.207 Y15.135
X-57.895 Y14.707
X-57.548 Y14.304
X-57.171 Y13.931
X-56.764 Y13.589
X-56.331 Y13.281
X-55.875 Y13.008
X-55.398 Y12.773
X-54.904 Y12.577
X-54.395 Y12.421
X-53.876 Y12.306
X-53.349 Y12.234
X-52.818 Y12.204
X-52.286 Y12.216
X-51.756 Y12.272
X-51.231 Y12.37
X-50.713 Y12.51
X-50.205 Y12.693
X-49.708 Y12.918
X-49.226 Y13.185
X-48.761 Y13.494
X-48.317 Y13.843
X-47.898 Y14.231
X-47.508 Y14.655
X-47.152 Y15.111
X-46.832 Y15.596
X-46.552 Y16.106
X-46.313 Y16.637
X-46.119 Y17.184
X-45.969 Y17.743
X-45.865 Y18.311
X-45.807 Y18.883
X-45.795 Y19.456
X-45.829 Y20.026
X-45.909 Y20.59
X-46.033 Y21.145
X-46.201 Y21.686
X-46.412 Y22.212
X-46.664 Y22.719
X-46.957 Y23.204
X-47.287 Y23.665
X-47.654 Y24.098
X-48.055 Y24.502
X-48.489 Y24.873
X-48.953 Y25.209
X-49.443 Y25.507
X-49.958 Y25.766
X-50.494 Y25.984
X-51.048 Y26.159
X-51.616 Y26.289
X-52.195 Y26.374
X-52.782 Y26.412
X-53.372 Y26.403
X-53.962 Y26.346
X-54.547 Y26.242
X-55.124 Y26.09
X-55.689 Y25.892
X-56.239 Y25.649
X-56.769 Y25.361
X-57.275 Y25.031
X-57.755 Y24.66
X-58.204 Y24.25
X-58.621 Y23.805
X-59.001 Y23.327
X-59.342 Y22.818
X-59.642 Y22.283
X-59.899 Y21.724
X-60.11 Y21.145
X-60.274 Y20.551
X-60.391 Y19.944
X-60.458 Y19.329
X-60.476 Y18.71
X-60.444 Y18.091
X-60.362 Y17.476
X-60.231 Y16.869
X-60.052 Y16.273
X-59.825 Y15.694
X-59.553 Y15.135
X-59.236 Y14.598
X-58.877 Y14.089
X-58.478 Y13.61
X-58.042 Y13.164
X-57.571 Y12.755
X-57.069 Y12.385
X-56.538 Y12.056
X-55.983 Y11.771
X-55.406 Y11.531
X-54.812 Y11.338
X-54.205 Y11.193
X-53.587 Y11.098
X-52.964 Y11.052
X-52.338 Y11.057
X-51.714 Y11.112
X-51.094 Y11.217
X-50.482 Y11.372
X-49.88 Y11.577
X-49.293 Y11.832
X-48.723 Y12.135
X-48.175 Y12.487
X-47.652 Y12.884
X-47.16 Y13.325
X-46.701 Y13.807
X-46.281 Y14.328
X-45.902 Y14.882
X-45.569 Y15.466
X-45.283 Y16.075
X-45.047 Y16.705
X-44.863 Y17.351
X-44.731 Y18.008
X-44.653 Y18.672
X-44.628 Y19.339
X-44.657 Y20.003
X-44.739 Y20.662
X-44.873 Y21.31
X-45.059 Y21.945
X-45.295 Y22.563
X-45.579 Y23.159
X-45.911 Y23.731
X-46.287 Y24.274
X-46.707 Y24.787
X-47.167 Y25.264
X-47.665 Y25.704
X-48.197 Y26.104
X-48.762 Y26.461
X-49.355 Y26.772
X-49.974 Y27.035
X-50.613 Y27.249
X-51.27 Y27.411
X-51.939 Y27.52
X-52.618 Y27.575
X-53.301 Y27.576
X-53.985 Y27.521
X-54.664 Y27.412
X-55.334 Y27.248
X-55.991 Y27.03
X-56.63 Y26.759
X-57.247 Y26.436
X-57.838 Y26.065
X-58.398 Y25.646
X-58.925 Y25.182
X-59.413 Y24.676
X-59.861 Y24.132
X-60.264 Y23.552
X-60.62 Y22.941
X-60.926 Y22.302
X-61.18 Y21.639
X-61.381 Y20.958
X-61.526 Y20.261
X-61.616 Y19.554
X-61.648 Y18.842
X-61.623 Y18.128
X-61.54 Y17.419
X-61.401 Y16.717
X-61.206 Y16.029
X-60.956 Y15.358
X-60.653 Y14.709
X-60.298 Y14.086
X-59.895 Y13.493
X-59.445 Y12.934
X-58.951 Y12.413
X-58.418 Y11.933
X-57.847 Y11.498
X-57.243 Y11.109
X-56.609 Y10.77
X-55.95 Y10.483
X-55.271 Y10.25
X-54.574 Y10.072
X-53.866 Y9.951
X-53.149 Y9.886
X-52.429 Y9.88
X-51.71 Y9.931
X-50.995 Y10.041
X-50.288 Y10.207
X-49.593 Y10.432
X-48.918 Y10.711
X-48.267 Y11.044
X-47.644 Y11.428
X-47.054 Y11.859
X-46.499 Y12.335
X-45.982 Y12.852
X-45.508 Y13.408
X-45.077 Y13.999
X-44.693 Y14.621
X-44.357 Y15.27
X-44.072 Y15.944
X-43.84 Y16.637
X-43.661 Y17.346
X-43.537 Y18.066
X-43.468 Y18.794
X-43.456 Y19.525
X-43.466 Y19.682
X-43.506 Y20.087
X-43.613 Y20.81
X-43.721 Y21.439
X-43.891 Y22.104
X-44.124 Y22.779
X-44.416 Y23.45
X-44.761 Y24.094
X-45.156 Y24.709
X-45.597 Y25.292
X-46.083 Y25.838
X-46.61 Y26.345
X-47.174 Y26.81
X-47.772 Y27.23
X-48.401 Y27.603
X-49.057 Y27.927
X-49.735 Y28.199
X-50.432 Y28.419
X-51.144 Y28.586
X-51.867 Y28.698
X-52.595 Y28.754
X-53.327 Y28.755
X-54.056 Y28.7
X-54.778 Y28.59
X-55.491 Y28.426
X-56.189 Y28.209
X-56.869 Y27.941
X-57.528 Y27.623
X-58.161 Y27.258
X-58.765 Y26.847
X-59.338 Y26.393
X-59.877 Y25.898
X-60.377 Y25.365
X-60.837 Y24.797
X-61.254 Y24.196
X-61.486 Y23.8
X-61.532 Y23.706
X-61.565 Y23.607
X-61.582 Y23.504
X-62.227 Y16.932
X-62.243 Y16.598
X-62.232 Y16.263
X-62.193 Y15.919
X-62.106 Y15.478
X-61.978 Y15.021
X-61.784 Y14.495
X-61.513 Y13.912
X-61.169 Y13.304
X-60.763 Y12.704
X-60.306 Y12.134
X-59.806 Y11.601
X-59.266 Y11.108
X-58.692 Y10.655
X-58.087 Y10.245
X-57.453 Y9.88
X-56.915 Y9.619
X-56.814 Y9.579
X-56.708 Y9.554
X-56.6 Y9.546
X-49.894
X-49.516 Y9.565
X-49.194 Y9.607
X-48.839 Y9.683
X-48.417 Y9.81
X-47.967 Y9.985
X-47.436 Y10.242
X-46.867 Y10.578
X-46.306 Y10.972
X-45.743 Y11.439
X-45.219 Y11.948
X-44.733 Y12.494
X-44.286 Y13.073
X-43.88 Y13.681
X-43.516 Y14.315
X-43.195 Y14.972
X-43.109 Y15.185
X-43.074 Y15.296
X-43.057 Y15.411
X-43.059 Y15.528
X-43.466 Y19.682
G3 X-44.02 Y19.841 I-0.309 J-0.03
G1 X-44.048 Y19.805
X-44.178 Y19.636
G3 X-44.095 Y19.182 I0.245 J-0.19
X-43.652 Y19.315 I0.162 J0.265
X-43.506 Y20.087 I-1.433 J0.672
G1 X-43.88 Y23.905
X-43.916 Y24.145
X-43.973 Y24.393
X-44.073 Y24.705
X-44.203 Y25.023
X-44.405 Y25.421
X-44.648 Y25.819
X-44.99 Y26.288
X-45.422 Y26.79
X-45.922 Y27.285
X-46.481 Y27.756
X-47.076 Y28.182
X-47.7 Y28.563
X-48.349 Y28.899
X-49.019 Y29.19
X-49.708 Y29.435
X-50.412 Y29.633
X-51.127 Y29.784
X-51.851 Y29.887
X-52.58 Y29.939
X-53.311 Y29.94
X-54.041 Y29.891
X-54.765 Y29.793
X-55.482 Y29.646
X-56.187 Y29.453
X-56.878 Y29.214
X-57.551 Y28.93
X-58.205 Y28.604
X-58.836 Y28.234
X-59.44 Y27.823
X-60.016 Y27.372
X-60.56 Y26.884
X-61.072 Y26.362
X-61.183 Y26.233
X-61.267 Y26.112
X-61.325 Y25.976
X-61.354 Y25.832
X-61.582 Y23.504
G3 X-61.03 Y23.292 I0.309 J-0.019
G1 X-60.987 Y23.346 Z-1.992
X-60.946 Y23.397 Z-1.969
X-60.91 Y23.443 Z-1.932
X-60.879 Y23.482 Z-1.883
X-60.856 Y23.511 Z-1.825
X-60.842 Y23.529 Z-1.759
X-60.837 Y23.535 Z-1.69
G0 Z6
X-44.158 Y22.852
Z-1.38
G1 Z-1.69 F450
X-44.155 Y22.859 Z-1.759
X-44.145 Y22.88 Z-1.825
X-44.13 Y22.914 Z-1.883
X-44.109 Y22.958 Z-1.932
X-44.084 Y23.011 Z-1.969
X-44.056 Y23.071 Z-1.992
X-44.027 Y23.133 Z-2
G3 X-43.88 Y23.905 I-1.433 J0.672
G1 X-44.075 Y25.897
X-44.112 Y26.143
X-44.158 Y26.343
X-44.224 Y26.548
X-44.326 Y26.797
X-44.466 Y27.073
X-44.648 Y27.371
X-44.901 Y27.718
X-45.216 Y28.084
X-45.61 Y28.475
X-46.116 Y28.901
X-46.711 Y29.325
X-47.338 Y29.702
X-47.989 Y30.034
X-48.661 Y30.323
X-49.349 Y30.568
X-50.052 Y30.769
X-50.766 Y30.926
X-51.489 Y31.039
X-52.216 Y31.107
X-52.947 Y31.131
X-53.678 Y31.109
X-54.406 Y31.044
X-55.129 Y30.935
X-55.844 Y30.783
X-56.549 Y30.588
X-57.24 Y30.35
X-57.916 Y30.072
X-58.574 Y29.753
X-59.212 Y29.396
X-59.827 Y29.002
X-60.418 Y28.571
X-60.913 Y28.164
X-61.042 Y28.027
X-61.131 Y27.86
X-61.173 Y27.676
X-61.354 Y25.832
G3 X-60.802 Y25.62 I0.309 J-0.019
G1 X-60.759 Y25.674 Z-1.992
X-60.718 Y25.725 Z-1.969
X-60.682 Y25.771 Z-1.932
X-60.651 Y25.81 Z-1.883
X-60.628 Y25.839 Z-1.825
X-60.614 Y25.857 Z-1.759
X-60.609 Y25.863 Z-1.69
G0 Z6
X-44.354 Y24.844
Z-1.38
G1 Z-1.69 F450
X-44.35 Y24.852 Z-1.759
X-44.341 Y24.872 Z-1.825
X-44.325 Y24.906 Z-1.883
X-44.304 Y24.95 Z-1.932
X-44.279 Y25.003 Z-1.969
X-44.251 Y25.063 Z-1.992
X-44.222 Y25.125 Z-2
G3 X-44.075 Y25.897 I-1.433 J0.672
G1 X-44.248 Y27.663
X-44.272 Y27.823
X-44.312 Y27.993
X-44.37 Y28.177
X-44.452 Y28.376
X-44.574 Y28.616
X-44.723 Y28.86
X-44.929 Y29.143
X-45.193 Y29.45
X-45.537 Y29.791
X-45.95 Y30.138
X-46.487 Y30.521
X-47.114 Y30.897
X-47.768 Y31.223
X-48.443 Y31.505
X-49.134 Y31.744
X-49.837 Y31.943
X-50.551 Y32.1
X-51.273 Y32.214
X-52.001 Y32.288
X-52.731 Y32.32
X-53.462 Y32.312
X-54.192 Y32.264
X-54.917 Y32.177
X-55.637 Y32.05
X-56.349 Y31.884
X-57.051 Y31.68
X-57.741 Y31.438
X-58.416 Y31.157
X-59.075 Y30.84
X-59.715 Y30.486
X-60.335 Y30.099
X-60.755 Y29.803
X-60.89 Y29.68
X-60.989 Y29.528
X-61.048 Y29.355
X-61.061 Y29.174
X-61.055 Y29.051
X-61.06 Y28.885
X-61.071 Y28.719
X-61.173 Y27.676
G3 X-60.621 Y27.464 I0.309 J-0.019
G1 X-60.578 Y27.518 Z-1.992
X-60.537 Y27.57 Z-1.969
X-60.501 Y27.616 Z-1.932
X-60.47 Y27.654 Z-1.883
X-60.447 Y27.683 Z-1.825
X-60.433 Y27.701 Z-1.759
X-60.428 Y27.707 Z-1.69
G0 Z6
X-44.527 Y26.611
Z-1.38
G1 Z-1.69 F450
X-44.524 Y26.618 Z-1.759
X-44.514 Y26.639 Z-1.825
X-44.498 Y26.672 Z-1.883
X-44.477 Y26.717 Z-1.932
X-44.452 Y26.77 Z-1.969
X-44.425 Y26.829 Z-1.992
X-44.395 Y26.892 Z-2
G3 X-44.248 Y27.663 I-1.433 J0.672
G1 X-44.352 Y28.719
X-44.363 Y28.885
X-44.368 Y29.051
X-44.372 Y29.201
X-44.396 Y29.349
X-44.432 Y29.5
X-44.488 Y29.67
X-44.573 Y29.871
X-44.676 Y30.069
X-44.823 Y30.305
X-45.013 Y30.559
X-45.252 Y30.831
X-45.566 Y31.137
X-45.961 Y31.462
X-46.165 Y31.605
X-46.294 Y31.677
X-46.436 Y31.721
X-46.584 Y31.735
X-46.739 Y31.734
X-46.905 Y31.752
X-47.071 Y31.778
X-49.063 Y32.176
X-49.201 Y32.205
X-49.396 Y32.255
X-49.562 Y32.315
X-49.686 Y32.371
X-49.894 Y32.486
X-49.963 Y32.537
X-50.06 Y32.61
X-50.214 Y32.723
X-50.415 Y32.846
X-50.671 Y32.975
X-50.97 Y33.098
X-51.37 Y33.225
X-51.843 Y33.335
X-52.442 Y33.424
X-53.172 Y33.473
X-53.903 Y33.464
X-54.363 Y33.429
X-54.577 Y33.38
X-54.766 Y33.268
X-54.913 Y33.104
X-54.959 Y33.035
X-55.041 Y32.924
X-55.088 Y32.869
X-55.207 Y32.745
X-55.252 Y32.703
X-55.373 Y32.599
X-55.456 Y32.537
X-55.539 Y32.481
X-55.705 Y32.386
X-55.737 Y32.371
X-55.871 Y32.31
X-56.037 Y32.257
X-56.369 Y32.179
X-56.535 Y32.141
X-58.195 Y31.809
X-58.361 Y31.78
X-58.528 Y31.756
X-58.694 Y31.735
X-58.785
X-58.935 Y31.727
X-59.186 Y31.694
X-59.499 Y31.626
X-59.864 Y31.516
X-60.278 Y31.354
X-60.601 Y31.196
X-60.824 Y31.064
