(1001)
(Machine)
(  vendor: Autodesk)
(  description: Generic 3-axis)
(T4  D=0.1 CR=0 - ZMIN=0 - flat end mill)
G90 G94
G17
G21
G28 G91 Z0
G90

(2D Contour5)
T4
S1 M3
G54
M8
G0 X9.218 Y33.645
Z9.2
Z3.2
G1 Z1.2 F333.3
Z0.01
X9.217 Y33.648 Z0.003 F1000
X9.215 Y33.654 Z0
X9.212 Y33.664
X9.207 Y33.67
X9.199 Y33.671
X9.08 Y33.635
X8.913 Y33.583
X8.756 Y33.532
X8.61 Y33.481
X8.475 Y33.432
X8.354 Y33.383
X8.247 Y33.337
X8.155 Y33.293
X8.081 Y33.253
X8.026 Y33.216
X7.992 Y33.186
X7.978 Y33.165
X7.977 Y33.161
X7.976 Y33.151
X7.974 Y33.137
X7.971 Y33.12
X7.969 Y33.101
X7.966 Y33.08
X7.964 Y33.056
X7.961 Y33.029
X7.958 Y33.001
X7.955 Y32.971
X7.953 Y32.938
X7.95 Y32.905
X7.947 Y32.869
X7.944 Y32.832
X7.941 Y32.794
X7.938 Y32.754
X7.935 Y32.713
X7.931 Y32.671
X7.928 Y32.628
X7.926 Y32.584
X7.923 Y32.54
X7.92 Y32.495
X7.917 Y32.45
X7.876 Y31.783
X7.869 Y31.759
X7.85 Y31.742
X7.825 Y31.736
X7.297 Y31.748
X7.223 Y31.751
X7.149 Y31.754
X7.076 Y31.758
X7.004 Y31.764
X6.933 Y31.77
X6.863 Y31.777
X6.795 Y31.785
X6.728 Y31.794
X6.663 Y31.804
X6.6 Y31.814
X6.54 Y31.826
X6.481 Y31.837
X6.426 Y31.85
X6.424
X6.372 Y31.863
X6.371
X6.322 Y31.877
X6.321
X6.275 Y31.891
X6.273 Y31.892
X6.23 Y31.906
X6.229 Y31.907
X6.189 Y31.922
X6.187 Y31.923
X6.151 Y31.938
X6.149 Y31.939
X6.117 Y31.955
X6.115 Y31.956
X6.087 Y31.972
X6.083 Y31.974
X6.059 Y31.99
X6.055 Y31.994
X6.036 Y32.01
X6.031 Y32.015
X6.016 Y32.032
X6.012 Y32.036
X5.992 Y32.064
X5.99 Y32.067
X5.971 Y32.097
X5.97 Y32.099
X5.952 Y32.131
X5.951 Y32.134
X5.934 Y32.168
X5.933 Y32.171
X5.918 Y32.209
X5.917 Y32.212
X5.903 Y32.254
Y32.257
X5.89 Y32.304
Y32.306
X5.878 Y32.36
Y32.361
X5.867 Y32.421
Y32.423
X5.858 Y32.49
X5.857 Y32.491
X5.849 Y32.567
Y32.568
X5.841 Y32.652
X5.834 Y32.747
X5.828 Y32.852
X5.822 Y32.969
X5.817 Y33.097
X5.813 Y33.238
X5.809 Y33.393
X5.805 Y33.562
X5.802 Y33.746
X5.799 Y33.946
X5.796 Y34.163
X5.793 Y34.398
X5.79 Y34.65
X5.788 Y34.872
X5.786 Y35.078
X5.785 Y35.271
X5.784 Y35.449
X5.783 Y35.615
Y35.769
X5.782 Y35.912
X5.783 Y36.044
X5.784 Y36.165
X5.785 Y36.277
X5.787 Y36.38
X5.789 Y36.475
X5.791 Y36.563
X5.795 Y36.644
X5.798 Y36.718
X5.803 Y36.787
X5.808 Y36.851
X5.813 Y36.911
X5.819 Y36.968
X5.826 Y37.022
X5.834 Y37.073
X5.842 Y37.123
X5.85 Y37.171
X5.86 Y37.22
X5.877 Y37.3
X5.897 Y37.387
X5.92 Y37.483
X5.947 Y37.587
X5.976 Y37.698
X6.008 Y37.817
X6.044 Y37.942
X6.082 Y38.075
X6.123 Y38.215
X6.167 Y38.362
X6.213 Y38.515
X6.262 Y38.675
X6.314 Y38.841
X6.368 Y39.013
X6.424 Y39.191
X6.484 Y39.375
X6.545 Y39.564
X6.609 Y39.758
X6.675 Y39.958
X6.743 Y40.162
X6.813 Y40.372
X6.886 Y40.586
X6.96 Y40.804
X7.037 Y41.027
X7.337 Y41.9
X7.626 Y42.75
X7.906 Y43.576
X8.177 Y44.381
X8.438 Y45.165
X8.691 Y45.929
X8.934 Y46.674
X9.17 Y47.401
X9.398 Y48.111
X9.618 Y48.805
X9.831 Y49.484
X10.036 Y50.149
X10.235 Y50.801
X10.428 Y51.441
X10.614 Y52.07
X10.794 Y52.689
X10.969 Y53.299
X11.139 Y53.9
X11.303 Y54.495
X11.463 Y55.083
X11.619 Y55.666
X11.771 Y56.244
X11.918 Y56.82
X12.063 Y57.393
X12.137 Y57.692
X12.207 Y57.978
X12.272 Y58.251
X12.334 Y58.514
X12.392 Y58.765
X12.446 Y59.006
X12.496 Y59.238
X12.543 Y59.461
X12.587 Y59.675
X12.627 Y59.883
X12.664 Y60.083
X12.697 Y60.278
X12.728 Y60.467
X12.756 Y60.652
X12.782 Y60.832
X12.804 Y61.01
X12.824 Y61.184
X12.842 Y61.357
X12.858 Y61.529
X12.871 Y61.7
X12.883 Y61.872
X12.892 Y62.044
X12.9 Y62.218
X12.906 Y62.394
X12.912 Y62.669
Y62.935
X12.908 Y63.192
X12.897 Y63.442
X12.88 Y63.686
X12.857 Y63.925
X12.827 Y64.16
X12.789 Y64.392
X12.744 Y64.622
X12.691 Y64.852
X12.63 Y65.083
X12.56 Y65.315
X12.481 Y65.55
X12.393 Y65.789
X12.295 Y66.033
X12.187 Y66.284
X12.069 Y66.541
X11.94 Y66.808
X11.799 Y67.083
X11.648 Y67.369
X11.484 Y67.667
X11.308 Y67.978
X11.119 Y68.302
X10.918 Y68.641
X10.812 Y68.818
X10.709 Y68.986
X10.61 Y69.146
X10.514 Y69.298
X10.421 Y69.441
X10.331 Y69.578
X10.243 Y69.708
X10.158 Y69.832
X10.073 Y69.949
X9.991 Y70.061
X9.909 Y70.167
X9.828 Y70.269
X9.747 Y70.366
X9.666 Y70.46
X9.585 Y70.549
X9.504 Y70.636
X9.421 Y70.72
X9.337 Y70.801
X9.252 Y70.881
X9.164 Y70.959
X9.075 Y71.036
X8.982 Y71.112
X8.887 Y71.188
X8.788 Y71.264
X8.711 Y71.321
X8.632 Y71.378
X8.551 Y71.433
X8.47 Y71.487
X8.387 Y71.541
X8.303 Y71.593
X8.217 Y71.643
X8.131 Y71.693
X8.043 Y71.742
X7.954 Y71.789
X7.865 Y71.834
X7.774 Y71.879
X7.683 Y71.922
X7.59 Y71.964
X7.497 Y72.004
X7.404 Y72.043
X7.31 Y72.081
X7.215 Y72.117
X7.119 Y72.151
X7.024 Y72.184
X6.927 Y72.216
X6.831 Y72.245
X6.734 Y72.273
X6.637 Y72.3
X6.563 Y72.319
X6.495 Y72.337
X6.431 Y72.353
X6.371 Y72.368
X6.314 Y72.382
X6.259 Y72.394
X6.207 Y72.405
X6.155 Y72.414
X6.105 Y72.423
X6.054 Y72.431
X6.002 Y72.438
X5.948 Y72.443
X5.892 Y72.448
X5.834 Y72.453
X5.772 Y72.456
X5.706 Y72.459
X5.634 Y72.462
X5.558 Y72.464
X5.475 Y72.465
X5.385 Y72.466
X5.289 Y72.467
X5.184 Y72.468
X5.07
X4.947 Y72.469
X4.809
X4.678 Y72.468
X4.554 Y72.467
X4.436 Y72.465
X4.323 Y72.462
X4.216 Y72.458
X4.112 Y72.453
X4.013 Y72.447
X3.917 Y72.44
X3.824 Y72.432
X3.732 Y72.422
X3.643 Y72.411
X3.554 Y72.399
X3.466 Y72.385
X3.378 Y72.369
X3.289 Y72.352
X3.198 Y72.334
X3.106 Y72.313
X3.012 Y72.291
X2.914 Y72.266
X2.813 Y72.24
X2.708 Y72.211
X2.598 Y72.18
X2.484 Y72.148
X2.396 Y72.119
X2.271 Y72.074
X2.112 Y72.014
X1.922 Y71.94
X1.706 Y71.853
X1.466 Y71.756
X1.207 Y71.65
X0.931 Y71.536
X0.643 Y71.416
X0.346 Y71.292
X0.043 Y71.164
X-0.262 Y71.034
X-0.566 Y70.904
X-0.865 Y70.775
X-1.156 Y70.649
X-1.435 Y70.528
X-1.699 Y70.412
X-1.944 Y70.303
X-2.166 Y70.203
X-2.363 Y70.113
X-2.53 Y70.035
X-2.665 Y69.971
X-2.762 Y69.921
X-2.818 Y69.888
X-2.834 Y69.878
X-2.835 Y69.877
X-2.855 Y69.865
X-2.879 Y69.851
X-2.905 Y69.835
X-2.934 Y69.818
X-2.966 Y69.8
X-3 Y69.781
X-3.036 Y69.761
X-3.075 Y69.739
X-3.115 Y69.717
X-3.158 Y69.694
X-3.202 Y69.671
X-3.247 Y69.646
X-3.294 Y69.622
X-3.342 Y69.596
X-3.392 Y69.57
X-3.442 Y69.544
X-3.493 Y69.518
X-3.545 Y69.492
X-3.597 Y69.465
X-3.65 Y69.438
X-3.703 Y69.412
X-3.756 Y69.385
X-3.809 Y69.359
X-3.861 Y69.333
X-3.913 Y69.308
X-3.964 Y69.282
X-4.014 Y69.257
X-4.062 Y69.233
X-4.11 Y69.209
X-4.156 Y69.185
X-4.201 Y69.162
X-4.244 Y69.14
X-4.285 Y69.119
X-4.325 Y69.099
X-4.363 Y69.079
X-4.398 Y69.06
X-4.432 Y69.043
X-4.463 Y69.026
X-4.492 Y69.011
X-4.518 Y68.997
X-4.541 Y68.984
X-4.561 Y68.972
X-4.579 Y68.963
X-4.593 Y68.954
X-4.595 Y68.953
X-4.594 Y68.948
X-4.59 Y68.936
X-4.585 Y68.92
X-4.579 Y68.903
X-4.572 Y68.883
X-4.563 Y68.862
X-4.554 Y68.839
X-4.543 Y68.815
X-4.532 Y68.789
X-4.519 Y68.762
X-4.506 Y68.733
X-4.491 Y68.703
X-4.476 Y68.673
X-4.46 Y68.641
X-4.443 Y68.608
X-4.426 Y68.575
X-4.408 Y68.541
X-4.389 Y68.506
X-4.369 Y68.47
X-4.349 Y68.435
X-4.216 Y68.196
X-4.091 Y67.963
X-3.972 Y67.735
X-3.861 Y67.512
X-3.756 Y67.294
X-3.659 Y67.081
X-3.568 Y66.873
Y66.872
X-3.485 Y66.669
X-3.484 Y66.668
X-3.408 Y66.47
Y66.469
X-3.338 Y66.274
Y66.273
X-3.275 Y66.082
Y66.081
X-3.219 Y65.894
Y65.892
X-3.169 Y65.709
Y65.707
X-3.126 Y65.527
Y65.526
X-3.089 Y65.348
Y65.347
X-3.059 Y65.172
Y65.171
X-3.036 Y64.999
X-3.035 Y64.997
X-3.018 Y64.828
Y64.826
X-3.007 Y64.659
Y64.657
X-3.003 Y64.492
Y64.49
X-3.004 Y64.327
Y64.325
X-3.012 Y64.163
Y64.161
X-3.026 Y64.001
Y63.999
X-3.045 Y63.84
X-3.05 Y63.81
X-3.053 Y63.782
X-3.057 Y63.757
X-3.059 Y63.733
X-3.062 Y63.711
X-3.064 Y63.691
X-3.065 Y63.672
X-3.066 Y63.656
X-3.067 Y63.641
Y63.627
X-3.066 Y63.616
Y63.606
X-3.065 Y63.598
X-3.064 Y63.592
X-3.063 Y63.591
X-3.062
X-3.052 Y63.594
X-3.037 Y63.598
X-3.019 Y63.604
X-2.999 Y63.611
X-2.976 Y63.62
X-2.95 Y63.629
X-2.922 Y63.64
X-2.892 Y63.652
X-2.86 Y63.664
X-2.825 Y63.678
X-2.789 Y63.693
X-2.751 Y63.708
X-2.712 Y63.724
X-2.671 Y63.741
X-2.628 Y63.759
X-2.585 Y63.777
X-2.54 Y63.796
X-2.494 Y63.816
X-2.448 Y63.836
X-2.4 Y63.856
X-2.352 Y63.877
X-2.304 Y63.899
X-2.254 Y63.92
X-2.205 Y63.942
X-2.157 Y63.962
X-2.109 Y63.982
X-2.062 Y64.002
X-2.016 Y64.02
X-1.972 Y64.038
X-1.928 Y64.055
X-1.886 Y64.071
X-1.845 Y64.087
X-1.805 Y64.101
X-1.768 Y64.115
X-1.731 Y64.127
X-1.697 Y64.139
X-1.665 Y64.149
X-1.635 Y64.159
X-1.607 Y64.167
X-1.581 Y64.174
X-1.579 Y64.175
X-1.557 Y64.18
X-1.556 Y64.181
X-1.536 Y64.185
X-1.533
X-1.516 Y64.188
X-1.514 Y64.189
X-1.499 Y64.191
X-1.494
X-1.483
X-1.475
X-1.466 Y64.19
X-1.457 Y64.188
X-1.434 Y64.18
X-1.429 Y64.178
X-1.404 Y64.167
X-1.401 Y64.166
X-1.375 Y64.152
X-1.372 Y64.15
X-1.345 Y64.134
X-1.342 Y64.132
X-1.314 Y64.113
X-1.312 Y64.112
X-1.284 Y64.09
X-1.282 Y64.089
X-1.253 Y64.065
X-1.252 Y64.064
X-1.222 Y64.038
X-1.221 Y64.037
X-1.191 Y64.009
X-1.19 Y64.008
X-1.16 Y63.979
X-1.159 Y63.978
X-1.13 Y63.948
X-1.129 Y63.947
X-1.1 Y63.915
X-1.099 Y63.914
X-1.071 Y63.882
X-1.07 Y63.881
X-1.043 Y63.848
X-1.042 Y63.847
X-1.016 Y63.813
X-1.015 Y63.812
X-0.989 Y63.778
Y63.777
X-0.965 Y63.743
X-0.964 Y63.742
X-0.942 Y63.708
X-0.941 Y63.706
X-0.92 Y63.673
X-0.919 Y63.671
X-0.901 Y63.638
X-0.9 Y63.636
X-0.883 Y63.604
X-0.882 Y63.602
X-0.868 Y63.57
X-0.867 Y63.568
X-0.855 Y63.538
X-0.854 Y63.535
X-0.845 Y63.506
Y63.503
X-0.837 Y63.474
Y63.473
X-0.83 Y63.444
Y63.443
X-0.825 Y63.415
X-0.824 Y63.413
X-0.82 Y63.386
X-0.819 Y63.384
X-0.816 Y63.356
Y63.355
X-0.813 Y63.328
Y63.326
X-0.812 Y63.299
Y63.297
X-0.811 Y63.27
Y63.268
X-0.812 Y63.241
Y63.239
X-0.813 Y63.212
Y63.21
X-0.816 Y63.183
Y63.181
X-0.82 Y63.154
Y63.152
X-0.825 Y63.125
Y63.123
X-0.831 Y63.095
X-0.832 Y63.093
X-0.839 Y63.065
Y63.063
X-0.847 Y63.035
Y63.033
X-0.857 Y63.004
Y63.003
X-0.867 Y62.973
X-0.868 Y62.972
X-0.879 Y62.941
X-0.88 Y62.94
X-0.892 Y62.908
X-0.893 Y62.907
X-0.907 Y62.875
X-0.922 Y62.841
X-0.939 Y62.807
X-0.956 Y62.771
X-0.957 Y62.77
X-0.976 Y62.733
X-0.977 Y62.732
X-0.997 Y62.696
X-0.998 Y62.695
X-1.019 Y62.661
X-1.02 Y62.659
X-1.042 Y62.626
X-1.043 Y62.624
X-1.066 Y62.593
X-1.068 Y62.591
X-1.093 Y62.56
X-1.094 Y62.559
X-1.121 Y62.529
X-1.122 Y62.527
X-1.15 Y62.498
X-1.152 Y62.496
X-1.182 Y62.467
X-1.184 Y62.466
X-1.216 Y62.437
X-1.218 Y62.436
X-1.253 Y62.408
X-1.254 Y62.407
X-1.292 Y62.379
X-1.293 Y62.378
X-1.333 Y62.35
X-1.335 Y62.349
X-1.378 Y62.321
X-1.379 Y62.32
X-1.425 Y62.292
X-1.426
X-1.476 Y62.263
X-1.477 Y62.262
X-1.53 Y62.233
X-1.588 Y62.203
X-1.649 Y62.172
X-1.714 Y62.14
X-1.783 Y62.107
X-1.857 Y62.073
X-1.935 Y62.038
X-2.018 Y62.002
X-2.143 Y61.947
X-2.273 Y61.888
X-2.408 Y61.826
X-2.548 Y61.761
X-2.691 Y61.693
X-2.836 Y61.623
X-2.984 Y61.551
X-3.133 Y61.478
X-3.282 Y61.404
X-3.432 Y61.328
X-3.58 Y61.253
X-3.728 Y61.177
X-3.873 Y61.102
X-4.015 Y61.028
X-4.153 Y60.954
X-4.287 Y60.883
X-4.416 Y60.812
X-4.539 Y60.744
X-4.656 Y60.679
X-4.765 Y60.617
X-4.866 Y60.558
X-4.959 Y60.502
X-5.042 Y60.451
X-5.116 Y60.404
X-5.208 Y60.342
X-5.295 Y60.282
X-5.375 Y60.224
X-5.449 Y60.167
X-5.516 Y60.113
X-5.577 Y60.061
X-5.631 Y60.011
X-5.679 Y59.962
X-5.721 Y59.916
X-5.756 Y59.872
X-5.785 Y59.83
X-5.807 Y59.79
X-5.824 Y59.753
X-5.834 Y59.718
X-5.84 Y59.686
Y59.656
X-5.836 Y59.628
X-5.827 Y59.6
X-5.812 Y59.573
X-5.793 Y59.546
X-5.767 Y59.519
X-5.735 Y59.492
X-5.697 Y59.465
X-5.652 Y59.438
X-5.636 Y59.43
X-5.619 Y59.422
X-5.602 Y59.414
X-5.584 Y59.407
X-5.564 Y59.401
X-5.544 Y59.395
X-5.522 Y59.389
X-5.498 Y59.384
X-5.472 Y59.38
X-5.444 Y59.376
X-5.413 Y59.372
X-5.379 Y59.369
X-5.343 Y59.366
X-5.303 Y59.363
X-5.259 Y59.361
X-5.212 Y59.359
X-5.161 Y59.358
X-5.106 Y59.356
X-5.047
X-4.983 Y59.355
X-4.914
X-4.841
X-4.762
X-4.678 Y59.356
X-4.562 Y59.357
X-4.454 Y59.358
X-4.354 Y59.36
X-4.261 Y59.363
X-4.176 Y59.366
X-4.097 Y59.37
X-4.026 Y59.374
X-3.961 Y59.38
X-3.902 Y59.386
X-3.85 Y59.393
X-3.804 Y59.401
X-3.764 Y59.41
X-3.729 Y59.42
X-3.701 Y59.43
X-3.677 Y59.441
X-3.659 Y59.452
X-3.646 Y59.463
X-3.637 Y59.474
X-3.63 Y59.485
X-3.625 Y59.497
X-3.623 Y59.511
X-3.622 Y59.528
X-3.623 Y59.548
X-3.626 Y59.572
X-3.637 Y59.63
X-3.647 Y59.687
X-3.656 Y59.742
X-3.664 Y59.795
X-3.671 Y59.845
X-3.677 Y59.894
X-3.683 Y59.94
X-3.687 Y59.985
X-3.691 Y60.027
X-3.693 Y60.068
X-3.694 Y60.069
X-3.695 Y60.106
Y60.107
X-3.696 Y60.143
Y60.144
Y60.178
Y60.179
X-3.695 Y60.211
Y60.212
X-3.693 Y60.242
X-3.692 Y60.244
X-3.689 Y60.271
Y60.273
X-3.685 Y60.298
Y60.301
X-3.68 Y60.324
Y60.327
X-3.674 Y60.349
X-3.673 Y60.352
X-3.666 Y60.371
X-3.665 Y60.375
X-3.658 Y60.392
X-3.656 Y60.396
X-3.647 Y60.412
X-3.644 Y60.416
X-3.635 Y60.43
X-3.631 Y60.435
X-3.621 Y60.446
X-3.616 Y60.451
X-3.584 Y60.479
X-3.579 Y60.483
X-3.543 Y60.506
X-3.537 Y60.51
X-3.499 Y60.528
X-3.492 Y60.53
X-3.451 Y60.543
X-3.445 Y60.544
X-3.401 Y60.552
X-3.395 Y60.553
X-3.348 Y60.556
X-3.343
X-3.293 Y60.555
X-3.289 Y60.554
X-3.237 Y60.548
X-3.233 Y60.547
X-3.178 Y60.536
X-3.175 Y60.535
X-3.118 Y60.52
X-3.115 Y60.519
X-3.056 Y60.498
X-3.053 Y60.497
X-2.992 Y60.472
X-2.99 Y60.471
X-2.926 Y60.441
X-2.924
X-2.859 Y60.406
X-2.857 Y60.405
X-2.79 Y60.367
X-2.789 Y60.366
X-2.72 Y60.323
X-2.719 Y60.322
X-2.649 Y60.275
X-2.647 Y60.274
X-2.576 Y60.222
X-2.574 Y60.221
X-2.501 Y60.166
X-2.5 Y60.165
X-2.426 Y60.105
X-2.425 Y60.104
X-2.35 Y60.04
X-2.349 Y60.039
X-2.273 Y59.971
X-2.272 Y59.97
X-2.195 Y59.897
X-2.194
X-2.116 Y59.82
X-2.065 Y59.768
X-2.016 Y59.717
X-1.969 Y59.666
X-1.925 Y59.616
X-1.924 Y59.615
X-1.883 Y59.566
X-1.882 Y59.565
X-1.843 Y59.517
Y59.516
X-1.806 Y59.469
X-1.805 Y59.468
X-1.771 Y59.422
Y59.421
X-1.739 Y59.375
X-1.738 Y59.374
X-1.709 Y59.329
X-1.708 Y59.328
X-1.681 Y59.284
X-1.68 Y59.283
X-1.656 Y59.24
X-1.655 Y59.238
X-1.633 Y59.196
Y59.194
X-1.613 Y59.153
X-1.612 Y59.151
X-1.596 Y59.111
X-1.595 Y59.109
X-1.58 Y59.069
Y59.067
X-1.568 Y59.029
X-1.567 Y59.026
X-1.558 Y58.989
X-1.557 Y58.986
X-1.55 Y58.95
Y58.947
X-1.546 Y58.912
X-1.545 Y58.908
X-1.544 Y58.874
Y58.87
X-1.545 Y58.837
Y58.833
X-1.549 Y58.801
Y58.797
X-1.555 Y58.767
X-1.557 Y58.762
X-1.57 Y58.719
X-1.571 Y58.715
X-1.588 Y58.673
X-1.59 Y58.669
X-1.612 Y58.627
X-1.614 Y58.624
X-1.639 Y58.584
X-1.642 Y58.58
X-1.671 Y58.541
X-1.674 Y58.538
X-1.707 Y58.5
X-1.71 Y58.497
X-1.748 Y58.46
X-1.75 Y58.457
X-1.792 Y58.421
X-1.794 Y58.419
X-1.84 Y58.383
X-1.842 Y58.382
X-1.893 Y58.347
X-1.895 Y58.346
X-1.949 Y58.312
X-1.951 Y58.311
X-2.009 Y58.279
X-2.011 Y58.278
X-2.073 Y58.246
X-2.075 Y58.245
X-2.141 Y58.214
X-2.142
X-2.213 Y58.184
X-2.214 Y58.183
X-2.288 Y58.155
X-2.29 Y58.154
X-2.368 Y58.127
X-2.369 Y58.126
X-2.451 Y58.1
X-2.452 Y58.099
X-2.538 Y58.073
X-2.54
X-2.63 Y58.049
X-2.631 Y58.048
X-2.725 Y58.025
X-2.823 Y58.002
X-2.926 Y57.98
X-3.032 Y57.96
X-3.034
X-3.162 Y57.939
X-3.164
X-3.309 Y57.92
X-3.31
X-3.47 Y57.904
X-3.471
X-3.645 Y57.891
X-3.831 Y57.88
X-4.028 Y57.872
X-4.233 Y57.866
X-4.446 Y57.862
X-4.664 Y57.861
X-4.886 Y57.862
X-5.112 Y57.865
X-5.338 Y57.87
X-5.564 Y57.877
X-5.788 Y57.887
X-6.009 Y57.898
X-6.224 Y57.911
X-6.434 Y57.927
X-6.635 Y57.944
X-6.827 Y57.963
X-7.008 Y57.984
X-7.176 Y58.007
X-7.177
X-7.33 Y58.031
X-7.332
X-7.469 Y58.057
X-7.471 Y58.058
X-7.591 Y58.085
X-7.593 Y58.086
X-7.669 Y58.106
X-7.67 Y58.107
X-7.744 Y58.129
X-7.746 Y58.13
X-7.819 Y58.154
X-7.82 Y58.155
X-7.891 Y58.181
X-7.892
X-7.962 Y58.209
X-7.963
X-8.03 Y58.239
X-8.032
X-8.097 Y58.27
X-8.099 Y58.271
X-8.162 Y58.303
X-8.163 Y58.304
X-8.224 Y58.337
X-8.226 Y58.338
X-8.284 Y58.372
X-8.286 Y58.373
X-8.342 Y58.409
X-8.343 Y58.41
X-8.396 Y58.447
X-8.398 Y58.448
X-8.449 Y58.486
X-8.45 Y58.487
X-8.498 Y58.526
X-8.5 Y58.527
X-8.545 Y58.567
X-8.546 Y58.569
X-8.588 Y58.609
X-8.59 Y58.611
X-8.628 Y58.652
X-8.63 Y58.653
X-8.665 Y58.695
X-8.667 Y58.697
X-8.699 Y58.739
X-8.7 Y58.742
X-8.729 Y58.784
X-8.73 Y58.787
X-8.755 Y58.829
X-8.757 Y58.832
X-8.777 Y58.875
X-8.779 Y58.879
X-8.796 Y58.922
X-8.797 Y58.926
X-8.81 Y58.969
X-8.811 Y58.972
X-8.82 Y59.013
X-8.821 Y59.015
X-8.828 Y59.057
Y59.059
X-8.834 Y59.102
Y59.104
X-8.838 Y59.148
Y59.15
X-8.841 Y59.195
Y59.197
Y59.243
Y59.245
X-8.84 Y59.292
Y59.294
X-8.837 Y59.342
Y59.344
X-8.833 Y59.393
Y59.394
X-8.826 Y59.444
Y59.445
X-8.819 Y59.496
X-8.818 Y59.497
X-8.809 Y59.549
Y59.55
X-8.798 Y59.602
Y59.603
X-8.785 Y59.655
Y59.657
X-8.771 Y59.71
X-8.77 Y59.711
X-8.755 Y59.764
X-8.754 Y59.765
X-8.737 Y59.819
Y59.82
X-8.718 Y59.874
Y59.875
X-8.697 Y59.93
Y59.931
X-8.675 Y59.986
Y59.987
X-8.651 Y60.041
Y60.042
X-8.626 Y60.097
Y60.098
X-8.599 Y60.153
Y60.154
X-8.571 Y60.209
X-8.556 Y60.239
X-8.541 Y60.267
X-8.526 Y60.296
X-8.512 Y60.324
X-8.498 Y60.351
X-8.485 Y60.377
X-8.471 Y60.403
X-8.459 Y60.428
X-8.447 Y60.452
X-8.435 Y60.475
X-8.424 Y60.497
X-8.414 Y60.518
X-8.404 Y60.538
X-8.395 Y60.556
X-8.387 Y60.574
X-8.379 Y60.589
X-8.374 Y60.599
X-8.391 Y60.6
X-8.41 Y60.602
X-8.429 Y60.603
X-8.451 Y60.604
X-8.474 Y60.605
X-8.498 Y60.606
X-8.523
X-8.55 Y60.607
X-8.577 Y60.608
X-8.606 Y60.609
X-8.636
X-8.667 Y60.61
X-8.698
X-8.73
X-8.763
X-8.797
X-8.874 Y60.611
X-8.953 Y60.613
X-9.033 Y60.616
X-9.115 Y60.619
X-9.197 Y60.624
X-9.28 Y60.631
X-9.365 Y60.638
X-9.451 Y60.646
X-9.538 Y60.656
X-9.627 Y60.667
X-9.717 Y60.679
X-9.808 Y60.692
X-9.902 Y60.706
X-9.996 Y60.721
X-10.092 Y60.738
X-10.19 Y60.756
X-10.289 Y60.775
X-10.39 Y60.795
X-10.492 Y60.816
X-10.597 Y60.839
X-10.703 Y60.862
X-10.811 Y60.887
X-10.921 Y60.914
X-11.032 Y60.941
X-11.086 Y60.954
X-11.138 Y60.967
X-11.188 Y60.979
X-11.237 Y60.99
X-11.283 Y61
X-11.327 Y61.01
X-11.37 Y61.019
X-11.411 Y61.027
X-11.449 Y61.035
X-11.486 Y61.042
X-11.52 Y61.048
X-11.552 Y61.054
X-11.583 Y61.059
X-11.61 Y61.063
X-11.636 Y61.066
X-11.659 Y61.068
X-11.679 Y61.07
X-11.697 Y61.071
X-11.712
X-11.724
X-11.727
X-11.728 Y61.069
X-11.746 Y61.023
X-11.774 Y60.951
X-11.808 Y60.857
X-11.849 Y60.742
X-11.896 Y60.61
X-11.947 Y60.463
X-12.002 Y60.303
X-12.06 Y60.134
X-12.12 Y59.957
X-12.182 Y59.775
X-12.244 Y59.59
X-12.306 Y59.405
X-12.367 Y59.222
X-12.426 Y59.044
X-12.482 Y58.873
X-12.534 Y58.712
X-12.583 Y58.563
X-12.626 Y58.428
X-12.663 Y58.31
X-12.693 Y58.212
X-12.715 Y58.136
X-12.728 Y58.09
X-12.725 Y58.089
X-12.714 Y58.085
X-12.7 Y58.08
X-12.684 Y58.075
X-12.667 Y58.07
X-12.647 Y58.065
X-12.627 Y58.059
X-12.604 Y58.054
X-12.581 Y58.048
X-12.556 Y58.043
X-12.529 Y58.038
X-12.502 Y58.032
X-12.473 Y58.027
X-12.444 Y58.022
X-12.413 Y58.016
X-12.382 Y58.011
X-12.35 Y58.007
X-12.317 Y58.002
X-12.283 Y57.997
X-12.055 Y57.964
X-11.785 Y57.92
X-11.478 Y57.867
X-11.135 Y57.804
X-10.76 Y57.732
X-10.354 Y57.652
X-9.92 Y57.565
X-9.461 Y57.47
X-8.978 Y57.368
X-8.475 Y57.26
X-7.954 Y57.147
X-7.418 Y57.029
X-6.868 Y56.907
X-6.308 Y56.78
X-5.739 Y56.65
X-5.165 Y56.518
X-4.588 Y56.383
X-4.01 Y56.247
X-3.434 Y56.109
X-2.862 Y55.971
X-2.296 Y55.833
X-1.74 Y55.695
X-1.196 Y55.558
X-0.666 Y55.423
X-0.128 Y55.285
X0.389 Y55.15
X0.886 Y55.019
X1.362 Y54.892
X1.818 Y54.769
X2.253 Y54.65
X2.668 Y54.535
X3.061 Y54.424
X3.433 Y54.317
X3.784 Y54.214
X4.114 Y54.115
X4.423 Y54.021
X4.71 Y53.931
X4.976 Y53.844
X5.22 Y53.763
X5.443 Y53.685
X5.643 Y53.612
X5.822 Y53.543
X5.823 Y53.542
X5.979 Y53.478
X5.981 Y53.477
X6.115 Y53.418
X6.116 Y53.417
X6.228 Y53.361
X6.231 Y53.36
X6.32 Y53.309
X6.324 Y53.307
X6.39 Y53.26
X6.396 Y53.256
X6.44 Y53.214
X6.445 Y53.209
X6.451 Y53.201
X6.452 Y53.199
X6.458 Y53.192
X6.459 Y53.19
X6.464 Y53.182
X6.466 Y53.18
X6.47 Y53.173
X6.472 Y53.169
X6.475 Y53.162
X6.477 Y53.158
X6.479 Y53.151
X6.481 Y53.147
X6.483 Y53.14
X6.484 Y53.134
X6.485 Y53.128
Y53.122
Y53.115
Y53.109
Y53.102
X6.484 Y53.096
X6.482 Y53.089
X6.481 Y53.084
X6.478 Y53.077
X6.476 Y53.072
X6.473 Y53.065
X6.471 Y53.061
X6.467 Y53.054
X6.465 Y53.051
X6.46 Y53.043
X6.458 Y53.041
X6.452 Y53.033
X6.45 Y53.031
X6.443 Y53.023
X6.442 Y53.021
X6.434 Y53.013
X6.433 Y53.012
X6.424 Y53.003
X6.423 Y53.002
X6.413 Y52.993
X6.412 Y52.992
X6.402 Y52.982
X6.401
X6.389 Y52.972
X6.376 Y52.961
X6.361 Y52.949
X6.36
X6.35 Y52.941
X6.349 Y52.94
X6.338 Y52.933
X6.337 Y52.932
X6.326 Y52.924
X6.313 Y52.916
X6.312 Y52.915
X6.299 Y52.907
X6.285 Y52.899
X6.271 Y52.891
X6.256 Y52.883
X6.255
X6.241 Y52.875
X6.226 Y52.868
X6.21 Y52.86
X6.195 Y52.853
X6.179 Y52.846
X6.162 Y52.839
X6.147 Y52.832
X6.146
X6.13 Y52.826
X6.114 Y52.82
X6.113
X6.098 Y52.814
X6.082 Y52.809
X6.067 Y52.804
X6.051 Y52.799
X6.05
X6.036 Y52.795
X6.021 Y52.791
X6.019
X6.006 Y52.788
X6.004 Y52.787
X5.966 Y52.78
X5.963
X5.917 Y52.774
X5.915
X5.861 Y52.769
X5.86 Y52.768
X5.8 Y52.764
X5.732 Y52.76
X5.658 Y52.757
X5.58 Y52.755
X5.496 Y52.753
X5.41 Y52.752
X5.319
X5.226
X5.131 Y52.754
X5.034 Y52.755
X4.937 Y52.758
X4.839 Y52.761
X4.741 Y52.765
X4.644 Y52.769
X4.548 Y52.774
X4.454 Y52.78
X4.363 Y52.786
X4.275 Y52.793
X4.19 Y52.801
X4.11 Y52.809
X4.035 Y52.818
X4 Y52.822
X3.964 Y52.826
X3.925 Y52.831
X3.885 Y52.835
X3.843 Y52.84
X3.798 Y52.845
X3.753 Y52.85
X3.706 Y52.855
X3.658 Y52.86
X3.609 Y52.865
X3.56 Y52.87
X3.509 Y52.876
X3.459 Y52.881
X3.407 Y52.886
X3.356 Y52.891
X3.305 Y52.896
X3.254 Y52.901
X3.204 Y52.906
X3.154 Y52.911
X3.105 Y52.915
X3.056 Y52.92
X3.009 Y52.924
X2.963 Y52.928
X2.919 Y52.932
X2.822 Y52.941
X2.717 Y52.952
X2.603 Y52.965
X2.48 Y52.98
X2.347 Y52.998
X2.205 Y53.017
X2.051 Y53.039
X1.887 Y53.064
X1.711 Y53.09
X1.523 Y53.12
X1.322 Y53.152
X1.109 Y53.187
X0.882 Y53.224
X0.641 Y53.265
X0.387 Y53.308
X0.117 Y53.354
X-0.168 Y53.404
X-0.468 Y53.456
X-0.785 Y53.512
X-1.118 Y53.571
X-1.468 Y53.634
X-1.836 Y53.7
X-2.221 Y53.77
X-2.625 Y53.843
X-2.971 Y53.906
X-3.341 Y53.973
X-3.733 Y54.045
X-4.146 Y54.121
X-4.575 Y54.2
X-5.018 Y54.283
X-5.474 Y54.367
X-5.938 Y54.453
X-6.41 Y54.541
X-6.885 Y54.63
X-7.361 Y54.719
X-7.836 Y54.808
X-8.307 Y54.896
X-8.771 Y54.983
X-9.226 Y55.069
X-9.669 Y55.152
X-10.098 Y55.233
X-10.51 Y55.312
X-10.901 Y55.386
X-11.271 Y55.456
X-11.615 Y55.522
X-11.932 Y55.583
X-12.219 Y55.639
X-12.472 Y55.688
X-12.558 Y55.705
X-12.643 Y55.721
X-12.727 Y55.737
X-12.809 Y55.753
X-12.89 Y55.769
X-12.969 Y55.784
X-13.046 Y55.798
X-13.121 Y55.812
X-13.194 Y55.826
X-13.264 Y55.839
X-13.331 Y55.851
X-13.395 Y55.863
X-13.456 Y55.874
X-13.514 Y55.884
X-13.568 Y55.894
X-13.618 Y55.902
X-13.664 Y55.91
X-13.706 Y55.917
X-13.743 Y55.923
X-13.775 Y55.928
X-13.803 Y55.933
X-13.825 Y55.936
X-13.841 Y55.938
X-13.848
X-13.854
X-13.858 Y55.937
X-13.866 Y55.931
X-13.881 Y55.917
X-13.901 Y55.892
X-13.927 Y55.854
X-13.958 Y55.802
X-13.995 Y55.734
X-14.039 Y55.649
X-14.091 Y55.545
X-14.15 Y55.421
X-14.218 Y55.275
X-14.297 Y55.104
X-14.385 Y54.909
X-14.485 Y54.685
X-14.597 Y54.433
X-14.723 Y54.15
X-14.861 Y53.834
X-15.015 Y53.484
X-15.184 Y53.098
X-15.369 Y52.674
X-15.571 Y52.21
X-15.791 Y51.705
X-16.029 Y51.157
X-18.122 Y46.345
X-18.252 Y45.544
X-18.329 Y45.054
X-18.4 Y44.556
X-18.466 Y44.05
X-18.528 Y43.538
X-18.585 Y43.018
X-18.636 Y42.494
X-18.683 Y41.965
X-18.724 Y41.433
X-18.761 Y40.898
X-18.792 Y40.361
X-18.818 Y39.823
X-18.839 Y39.285
X-18.855 Y38.749
X-18.865 Y38.213
X-18.87 Y37.681
Y37.152
X-18.865 Y36.627
X-18.854 Y36.108
X-18.838 Y35.594
X-18.817 Y35.088
X-18.789 Y34.59
X-18.757 Y34.1
X-18.719 Y33.62
X-18.676 Y33.151
X-18.604 Y32.493
X-18.52 Y31.848
X-18.426 Y31.214
X-18.32 Y30.594
X-18.203 Y29.986
X-18.076 Y29.39
X-17.937 Y28.808
X-17.787 Y28.239
X-17.626 Y27.682
X-17.455 Y27.14
X-17.272 Y26.611
X-17.079 Y26.095
X-16.876 Y25.593
X-16.661 Y25.106
X-16.437 Y24.632
X-16.201 Y24.173
X-15.956 Y23.728
X-15.7 Y23.297
X-15.434 Y22.882
X-15.157 Y22.481
X-14.871 Y22.095
X-14.574 Y21.725
X-14.267 Y21.369
X-13.951 Y21.029
X-13.872 Y20.949
X-13.794 Y20.87
X-13.716 Y20.792
X-13.638 Y20.716
X-13.559 Y20.641
X-13.48 Y20.566
X-13.4 Y20.493
X-13.32 Y20.42
X-13.238 Y20.348
X-13.156 Y20.276
X-13.072 Y20.204
X-12.987 Y20.132
X-12.9 Y20.061
X-12.811 Y19.989
X-12.72 Y19.916
X-12.627 Y19.844
X-12.532 Y19.771
X-12.435 Y19.697
X-12.334 Y19.622
X-12.231 Y19.546
X-12.125 Y19.469
X-12.016 Y19.391
X-11.904 Y19.311
X-11.788 Y19.229
X-11.531 Y19.052
X-11.277 Y18.878
X-11.024 Y18.71
X-10.774 Y18.546
X-10.526 Y18.386
X-10.28 Y18.231
X-10.035 Y18.08
X-9.792 Y17.933
X-9.55 Y17.79
X-9.31 Y17.651
X-9.07 Y17.516
X-8.832 Y17.385
X-8.594 Y17.258
X-8.357 Y17.135
X-8.121 Y17.015
X-7.884 Y16.898
X-7.648 Y16.785
X-7.412 Y16.676
X-7.176 Y16.57
X-6.94 Y16.466
X-6.703 Y16.366
X-6.466 Y16.27
X-6.228 Y16.176
X-5.989 Y16.084
X-5.849 Y16.033
X-5.706 Y15.982
X-5.559 Y15.93
X-5.407 Y15.879
X-5.251 Y15.828
X-5.091 Y15.776
X-4.925 Y15.725
X-4.755 Y15.673
X-4.579 Y15.621
X-4.398 Y15.569
X-4.212 Y15.516
X-4.019 Y15.463
X-3.821 Y15.41
X-3.616 Y15.356
X-3.405 Y15.301
X-3.187 Y15.246
X-2.962 Y15.19
X-2.73 Y15.133
X-2.491 Y15.076
X-2.244 Y15.017
X-1.99 Y14.958
X-1.728 Y14.898
X-1.457 Y14.836
X-1.179 Y14.774
X-0.887 Y14.709
X-0.612 Y14.647
X-0.352 Y14.588
X-0.107 Y14.531
X0.124 Y14.477
X0.342 Y14.426
X0.546 Y14.377
X0.738 Y14.33
X0.919 Y14.285
X1.088 Y14.241
X1.248 Y14.199
X1.398 Y14.158
X1.538 Y14.119
X1.671 Y14.08
X1.795 Y14.042
X1.913 Y14.005
X2.024 Y13.968
X2.129 Y13.932
X2.229 Y13.895
X2.325 Y13.859
X2.417 Y13.822
X2.505 Y13.784
X2.591 Y13.746
X2.675 Y13.707
X2.676
X2.778 Y13.657
X2.779
X2.875 Y13.607
X2.876 Y13.606
X2.965 Y13.556
X2.967 Y13.555
X3.049 Y13.504
X3.051 Y13.503
X3.127 Y13.452
X3.129 Y13.451
X3.198 Y13.399
X3.201 Y13.398
X3.264 Y13.345
X3.266 Y13.343
X3.323 Y13.29
X3.326 Y13.288
X3.377 Y13.234
X3.379 Y13.231
X3.424 Y13.177
X3.426 Y13.173
X3.465 Y13.117
X3.467 Y13.114
X3.5 Y13.057
X3.502 Y13.053
X3.528 Y12.994
X3.53 Y12.99
X3.551 Y12.93
X3.552 Y12.925
X3.567 Y12.864
X3.568 Y12.859
X3.577 Y12.796
X3.578 Y12.792
X3.581 Y12.727
Y12.723
X3.578 Y12.656
Y12.652
X3.57 Y12.584
X3.569 Y12.58
X3.556 Y12.51
X3.555 Y12.506
X3.536 Y12.434
X3.535 Y12.431
X3.51 Y12.356
X3.509 Y12.354
X3.479 Y12.277
X3.478 Y12.275
X3.442 Y12.195
X3.441 Y12.193
X3.434 Y12.179
X3.433 Y12.177
X3.424 Y12.16
X3.413 Y12.141
X3.4 Y12.119
X3.386 Y12.095
X3.371 Y12.069
X3.354 Y12.042
X3.336 Y12.013
X3.316 Y11.983
X3.295 Y11.951
X3.274 Y11.918
X3.251 Y11.884
X3.227 Y11.849
X3.203 Y11.813
X3.178 Y11.776
X3.152 Y11.738
X3.125 Y11.699
X3.098 Y11.661
X3.071 Y11.621
X3.043 Y11.582
X3.015 Y11.542
X2.986 Y11.502
X2.957 Y11.463
X2.929 Y11.424
X2.899 Y11.383
X2.868 Y11.339
X2.836 Y11.292
X2.802 Y11.242
X2.766 Y11.19
X2.73 Y11.135
X2.692 Y11.078
X2.653 Y11.018
X2.614 Y10.957
X2.574 Y10.895
X2.533 Y10.831
X2.492 Y10.766
X2.451 Y10.7
X2.41 Y10.633
X2.369 Y10.566
X2.328 Y10.499
X2.288 Y10.432
X2.248 Y10.365
X2.208 Y10.298
X2.169 Y10.232
X2.132 Y10.167
X2.095 Y10.103
X2.059 Y10.041
X2.025 Y9.979
X1.941 Y9.829
X1.861 Y9.687
X1.785 Y9.553
X1.713 Y9.426
X1.644 Y9.307
X1.578 Y9.195
X1.515 Y9.089
X1.456 Y8.989
X1.398 Y8.896
X1.344 Y8.808
X1.291 Y8.725
X1.24 Y8.648
X1.191 Y8.575
X1.144 Y8.506
X1.097 Y8.441
X1.052 Y8.38
X1.008 Y8.323
X0.964 Y8.268
X0.963 Y8.267
X0.921 Y8.216
X0.92 Y8.215
X0.878 Y8.166
X0.877
X0.834 Y8.119
Y8.118
X0.791 Y8.073
X0.79
X0.747 Y8.029
Y8.028
X0.703 Y7.986
X0.702 Y7.985
X0.628 Y7.917
X0.627 Y7.916
X0.554 Y7.853
X0.553 Y7.852
X0.481 Y7.794
X0.479 Y7.793
X0.408 Y7.741
X0.406 Y7.74
X0.336 Y7.693
X0.333 Y7.692
X0.263 Y7.651
X0.26 Y7.649
X0.19 Y7.613
X0.187 Y7.612
X0.116 Y7.582
X0.113 Y7.58
X0.042 Y7.555
X0.039 Y7.554
X-0.033 Y7.534
X-0.037 Y7.533
X-0.109 Y7.519
X-0.113 Y7.518
X-0.187 Y7.509
X-0.19 Y7.508
X-0.266 Y7.504
X-0.269
X-0.346 Y7.505
X-0.349
X-0.428 Y7.512
X-0.431
X-0.512 Y7.523
X-0.515 Y7.524
X-0.598 Y7.54
X-0.6 Y7.541
X-0.686 Y7.563
X-0.688
X-0.776 Y7.59
X-0.778 Y7.591
X-0.869 Y7.622
X-0.871 Y7.623
X-0.966 Y7.66
X-0.967 Y7.661
X-1.065 Y7.702
X-1.066 Y7.703
X-1.168 Y7.75
X-1.169 Y7.751
X-1.275 Y7.802
X-1.312 Y7.821
X-1.351 Y7.841
X-1.392 Y7.863
X-1.435 Y7.885
X-1.479 Y7.909
X-1.526 Y7.933
X-1.573 Y7.958
X-1.622 Y7.984
X-1.672 Y8.011
X-1.723 Y8.038
X-1.774 Y8.066
X-1.826 Y8.094
X-1.878 Y8.123
X-1.931 Y8.151
X-1.983 Y8.18
X-2.036 Y8.209
X-2.088 Y8.238
X-2.139 Y8.266
X-2.19 Y8.294
X-2.24 Y8.322
X-2.288 Y8.35
X-2.336 Y8.377
X-2.382 Y8.403
X-2.427 Y8.428
X-2.47 Y8.453
X-2.513 Y8.477
X-2.555 Y8.501
X-2.596 Y8.524
X-2.636 Y8.546
X-2.675 Y8.567
X-2.713 Y8.588
X-2.749 Y8.607
X-2.785 Y8.626
X-2.818 Y8.644
X-2.851 Y8.661
X-2.881 Y8.676
X-2.91 Y8.691
X-2.937 Y8.704
X-2.962 Y8.717
X-2.985 Y8.727
X-3.005 Y8.737
X-3.008 Y8.738
X-2.999 Y8.693
X-2.985 Y8.633
X-2.967 Y8.562
X-2.945 Y8.482
X-2.92 Y8.392
X-2.893 Y8.296
X-2.862 Y8.192
X-2.829 Y8.082
X-2.794 Y7.967
X-2.758 Y7.847
X-2.719 Y7.724
X-2.679 Y7.598
X-2.638 Y7.471
X-2.596 Y7.342
X-2.553 Y7.213
X-2.511 Y7.085
X-2.467 Y6.958
X-2.425 Y6.833
X-2.382 Y6.712
X-2.34 Y6.594
X-2.299 Y6.482
X-2.224 Y6.28
X-2.148 Y6.082
X-2.072 Y5.888
X-1.996 Y5.699
X-1.919 Y5.514
X-1.842 Y5.333
X-1.764 Y5.157
X-1.687 Y4.986
X-1.609 Y4.82
X-1.531 Y4.658
X-1.454 Y4.502
X-1.376 Y4.351
X-1.298 Y4.204
X-1.221 Y4.063
X-1.143 Y3.928
X-1.066 Y3.798
X-0.99 Y3.674
X-0.913 Y3.555
X-0.837 Y3.442
X-0.762 Y3.335
X-0.687 Y3.234
X-0.613 Y3.14
X-0.539 Y3.051
X-0.466 Y2.969
X-0.394 Y2.892
X-0.323 Y2.82
X-0.255 Y2.753
X-0.187 Y2.692
X-0.122 Y2.636
X-0.057 Y2.586
X0.005 Y2.541
X0.067 Y2.501
X0.127 Y2.466
X0.185 Y2.436
X0.243 Y2.412
X0.299 Y2.392
X0.354 Y2.377
X0.408 Y2.367
X0.462 Y2.362
X0.515 Y2.361
X0.567 Y2.365
X0.62 Y2.373
X0.672 Y2.386
X0.725 Y2.404
X0.778 Y2.426
X0.831 Y2.453
X0.885 Y2.485
X0.938 Y2.521
X1.062 Y2.62
X1.191 Y2.744
X1.325 Y2.893
X1.465 Y3.068
X1.611 Y3.268
X1.76 Y3.491
X1.915 Y3.738
X2.073 Y4.009
X2.235 Y4.301
X2.401 Y4.616
X2.57 Y4.953
X2.742 Y5.311
X2.917 Y5.689
X3.095 Y6.088
X3.276 Y6.507
X3.459 Y6.945
X3.643 Y7.402
X3.83 Y7.878
X4.018 Y8.371
X4.208 Y8.882
X4.399 Y9.41
X4.591 Y9.955
X4.784 Y10.516
X4.977 Y11.093
X5.023 Y11.23
X5.065 Y11.359
X5.105 Y11.479
X5.141 Y11.592
X5.176 Y11.698
X5.207 Y11.796
X5.236 Y11.888
X5.263 Y11.973
X5.288 Y12.052
X5.31 Y12.125
X5.33 Y12.193
X5.349 Y12.256
X5.365 Y12.314
X5.38 Y12.368
X5.393 Y12.418
X5.405 Y12.464
X5.415 Y12.507
X5.424 Y12.547
X5.431 Y12.584
X5.437 Y12.619
X5.443 Y12.652
X5.447 Y12.684
X5.451 Y12.714
X5.454 Y12.744
Y12.75
X5.455 Y12.753
X5.458 Y12.762
X5.46 Y12.766
X5.463 Y12.773
X5.465 Y12.776
X5.468 Y12.78
X5.471 Y12.784
X5.473 Y12.787
X5.477 Y12.791
X5.48 Y12.794
X5.484 Y12.798
X5.486 Y12.799
X5.491 Y12.804
X5.493 Y12.805
X5.498 Y12.81
X5.506 Y12.816
X5.507 Y12.817
X5.514 Y12.822
X5.523 Y12.828
X5.532 Y12.834
X5.541 Y12.839
X5.551 Y12.845
X5.552 Y12.846
X5.561 Y12.851
X5.572 Y12.857
X5.583 Y12.863
X5.594 Y12.869
X5.606 Y12.875
X5.618 Y12.881
X5.63 Y12.887
X5.643 Y12.893
X5.655 Y12.898
X5.656
X5.668 Y12.904
X5.671 Y12.905
X5.744 Y12.931
X5.748 Y12.933
X5.832 Y12.956
X5.835 Y12.957
X5.93 Y12.977
X5.933
X6.039 Y12.994
X6.041
X6.158 Y13.007
X6.16
X6.289 Y13.016
X6.29
X6.431 Y13.022
X6.432
X6.584 Y13.024
X6.585
X6.75 Y13.023
X6.928 Y13.018
X7.118 Y13.009
X7.321 Y12.997
X7.538 Y12.981
X7.767 Y12.962
X8.01 Y12.938
X8.267 Y12.911
X8.538 Y12.881
X8.823 Y12.846
X9.122 Y12.808
X9.437 Y12.766
X9.766 Y12.72
X10.111 Y12.671
X10.471 Y12.617
X10.847 Y12.56
X11.1 Y12.522
X11.342 Y12.487
X11.571 Y12.455
X11.79 Y12.427
X11.998 Y12.401
X12.196 Y12.379
X12.386 Y12.36
X12.566 Y12.345
X12.739 Y12.333
X12.904 Y12.324
X13.063 Y12.318
X13.215 Y12.315
X13.363 Y12.316
X13.505 Y12.32
X13.643 Y12.327
X13.778 Y12.337
X13.909 Y12.35
X14.039 Y12.367
X14.167 Y12.386
X14.294 Y12.409
X14.42 Y12.435
X14.547 Y12.465
X14.675 Y12.497
X14.804 Y12.533
X14.974 Y12.585
X15.15 Y12.646
X15.333 Y12.718
X15.522 Y12.799
X15.718 Y12.89
X15.922 Y12.991
X16.134 Y13.103
X16.353 Y13.225
X16.581 Y13.359
X16.818 Y13.504
X17.064 Y13.66
X17.319 Y13.828
X17.584 Y14.008
X17.86 Y14.2
X18.145 Y14.404
X18.442 Y14.621
X18.749 Y14.851
X19.068 Y15.093
X19.399 Y15.349
X19.742 Y15.619
X20.097 Y15.902
X20.465 Y16.199
X20.847 Y16.511
X21.242 Y16.836
X21.329 Y16.909
X21.412 Y16.978
X21.491 Y17.045
X21.566 Y17.108
X21.637 Y17.169
X21.704 Y17.227
X21.768 Y17.281
X21.827 Y17.333
X21.883 Y17.383
X21.934 Y17.429
X21.982 Y17.473
X22.027 Y17.514
X22.067 Y17.552
X22.104 Y17.588
X22.138 Y17.621
X22.168 Y17.652
X22.194 Y17.68
X22.217 Y17.705
X22.236 Y17.728
X22.251 Y17.748
X22.264 Y17.766
X22.272 Y17.78
X22.277 Y17.79
X22.28 Y17.798
X22.282 Y17.807
X22.283 Y17.809
X22.286 Y17.821
X22.287 Y17.823
X22.292 Y17.837
X22.298 Y17.854
X22.305 Y17.873
X22.312 Y17.894
X22.321 Y17.915
X22.33 Y17.938
X22.34 Y17.963
X22.351 Y17.988
X22.363 Y18.015
X22.375 Y18.043
X22.388 Y18.071
X22.401 Y18.101
X22.415 Y18.131
X22.429 Y18.162
X22.444 Y18.194
X22.459 Y18.226
X22.474 Y18.259
X22.49 Y18.292
X22.506 Y18.325
X22.522 Y18.358
X22.538 Y18.391
X22.555 Y18.424
X22.589 Y18.494
X22.621 Y18.562
X22.652 Y18.629
X22.68 Y18.695
X22.707 Y18.761
X22.733 Y18.827
X22.757 Y18.892
X22.779 Y18.958
X22.8 Y19.025
X22.819 Y19.092
X22.838 Y19.16
X22.855 Y19.23
X22.87 Y19.301
X22.885 Y19.373
X22.899 Y19.448
X22.911 Y19.524
X22.922 Y19.603
X22.933 Y19.685
X22.943 Y19.77
X22.951 Y19.858
X22.959 Y19.949
X22.967 Y20.043
X22.973 Y20.142
X22.979 Y20.244
X22.986 Y20.402
X22.988 Y20.562
Y20.724
X22.983 Y20.887
X22.975 Y21.052
X22.963 Y21.218
X22.948 Y21.385
X22.929 Y21.553
X22.907 Y21.721
X22.881 Y21.89
X22.852 Y22.06
X22.819 Y22.229
X22.783 Y22.398
X22.744 Y22.567
X22.702 Y22.735
X22.657 Y22.903
X22.608 Y23.07
X22.556 Y23.236
X22.501 Y23.4
X22.443 Y23.563
X22.382 Y23.725
X22.318 Y23.884
X22.251 Y24.042
X22.182 Y24.197
X22.123 Y24.319
X22.06 Y24.442
X21.993 Y24.566
X21.922 Y24.691
X21.847 Y24.816
X21.768 Y24.942
X21.686 Y25.067
X21.6 Y25.192
X21.512 Y25.317
X21.421 Y25.44
X21.327 Y25.563
X21.231 Y25.683
X21.132 Y25.803
X21.032 Y25.92
X20.93 Y26.034
X20.827 Y26.147
X20.722 Y26.256
X20.617 Y26.362
X20.51 Y26.465
X20.403 Y26.565
X20.296 Y26.66
X20.188 Y26.751
X20.081 Y26.838
X19.974 Y26.92
X19.756 Y27.076
X19.529 Y27.224
X19.294 Y27.364
X19.05 Y27.497
X18.798 Y27.621
X18.537 Y27.738
X18.266 Y27.847
X17.986 Y27.949
X17.696 Y28.042
X17.396 Y28.129
X17.086 Y28.207
X16.766 Y28.278
X16.435 Y28.342
X16.093 Y28.398
X15.741 Y28.447
X15.377 Y28.488
X15.001 Y28.523
X14.614 Y28.549
X14.215 Y28.569
X13.804 Y28.581
X13.381 Y28.587
X12.945 Y28.585
X12.496 Y28.576
X12.035 Y28.56
X11.852 Y28.552
X11.683 Y28.545
X11.529 Y28.539
X11.387 Y28.534
X11.258 Y28.529
X11.141 Y28.525
X11.034 Y28.522
X10.938 Y28.52
X10.85 Y28.518
X10.771
X10.699
X10.634 Y28.519
X10.575 Y28.521
X10.574
X10.52 Y28.524
X10.519
X10.471 Y28.528
X10.469
X10.424 Y28.533
X10.423
X10.381 Y28.539
X10.379
X10.339 Y28.546
X10.337
X10.299 Y28.554
X10.297 Y28.555
X10.259 Y28.563
X10.258 Y28.564
X10.219 Y28.574
X10.178 Y28.585
X10.136 Y28.598
X10.091 Y28.611
X10.09 Y28.612
X10.016 Y28.636
X10.014 Y28.637
X9.941 Y28.666
X9.938 Y28.667
X9.866 Y28.699
X9.864 Y28.7
X9.792 Y28.736
X9.79 Y28.737
X9.72 Y28.776
X9.718 Y28.777
X9.649 Y28.818
X9.648 Y28.819
X9.581 Y28.863
X9.58 Y28.864
X9.516 Y28.91
X9.514 Y28.911
X9.453 Y28.958
X9.451 Y28.959
X9.393 Y29.008
X9.392 Y29.009
X9.337 Y29.059
X9.335 Y29.06
X9.285 Y29.11
X9.283 Y29.111
X9.236 Y29.161
X9.235 Y29.163
X9.193 Y29.213
X9.191 Y29.215
X9.154 Y29.264
X9.152 Y29.267
X9.12 Y29.315
X9.118 Y29.318
X9.092 Y29.365
X9.09 Y29.369
X9.07 Y29.414
X9.068 Y29.419
X9.054 Y29.462
X9.052 Y29.469
X9.045 Y29.51
X9.044 Y29.518
Y29.556
X9.045 Y29.567
X9.052 Y29.601
X9.055 Y29.613
X9.07 Y29.644
X9.077 Y29.655
X9.1 Y29.682
X9.107 Y29.69
X9.139 Y29.714
X9.144 Y29.717
X9.189 Y29.745
X9.192 Y29.747
X9.25 Y29.778
X9.251 Y29.779
X9.321 Y29.812
X9.323 Y29.813
X9.404 Y29.849
X9.405
X9.497 Y29.887
X9.599 Y29.927
X9.71 Y29.969
X9.829 Y30.012
X9.956 Y30.057
X10.089 Y30.102
X10.227 Y30.148
X10.371 Y30.194
X10.519 Y30.24
X10.67 Y30.286
X10.824 Y30.332
X10.98 Y30.377
X11.137 Y30.422
X11.295 Y30.465
X11.452 Y30.507
X11.607 Y30.547
X11.761 Y30.585
X11.912 Y30.621
X12.06 Y30.655
X12.204 Y30.686
X12.342 Y30.716
X12.476 Y30.743
X12.606 Y30.769
X12.733 Y30.793
X12.857 Y30.815
X12.978 Y30.836
X13.098 Y30.855
X13.217 Y30.872
X13.335 Y30.888
X13.453 Y30.902
X13.572 Y30.915
X13.692 Y30.926
X13.813 Y30.937
X13.937 Y30.946
X14.063 Y30.953
X14.192 Y30.96
X14.326 Y30.966
X14.464 Y30.97
X14.606 Y30.974
X14.755 Y30.976
X14.909 Y30.978
X15.07 Y30.979
X15.238 Y30.98
X15.404 Y30.979
X15.564 Y30.978
X15.717 Y30.976
X15.866 Y30.972
X16.009 Y30.968
X16.148 Y30.963
X16.283 Y30.956
X16.413 Y30.949
X16.54 Y30.94
X16.664 Y30.929
X16.784 Y30.918
X16.902 Y30.905
X17.018 Y30.891
X17.132 Y30.875
X17.244 Y30.858
X17.355 Y30.84
X17.466 Y30.82
X17.575 Y30.798
X17.685 Y30.775
X17.794 Y30.75
X17.905 Y30.724
X18.016 Y30.695
X18.128 Y30.665
X18.241 Y30.633
X18.282 Y30.622
X18.319 Y30.612
X18.353 Y30.602
X18.385 Y30.594
X18.414 Y30.586
X18.44 Y30.58
X18.465 Y30.574
X18.487 Y30.57
X18.507 Y30.566
X18.526 Y30.563
X18.542 Y30.562
X18.557 Y30.56
X18.57
X18.583 Y30.561
X18.593 Y30.562
X18.604 Y30.564
X18.614 Y30.566
X18.623 Y30.569
X18.633 Y30.573
X18.643 Y30.578
X18.654 Y30.584
X18.666 Y30.59
X18.678 Y30.598
X18.691 Y30.606
X18.719 Y30.626
X18.757 Y30.657
X18.804 Y30.697
X18.859 Y30.745
X18.921 Y30.801
X18.988 Y30.864
X19.06 Y30.932
X19.136 Y31.004
X19.215 Y31.08
X19.296 Y31.158
X19.377 Y31.238
X19.459 Y31.318
X19.539 Y31.398
X19.617 Y31.477
X19.693 Y31.554
X19.764 Y31.627
X19.831 Y31.696
X19.891 Y31.76
X19.945 Y31.818
X19.991 Y31.869
X20.028 Y31.912
X20.054 Y31.944
X20.063 Y31.956
X20.056 Y31.968
X20.032 Y31.994
X19.999 Y32.028
X19.955 Y32.067
X19.903 Y32.11
X19.842 Y32.158
X19.774 Y32.209
X19.7 Y32.263
X19.619 Y32.32
X19.533 Y32.38
X19.442 Y32.441
X19.347 Y32.504
X19.248 Y32.568
X19.145 Y32.632
X19.041 Y32.697
X18.934 Y32.762
X18.826 Y32.826
X18.717 Y32.89
X18.609 Y32.952
X18.5 Y33.012
X18.393 Y33.071
X18.287 Y33.126
X18.184 Y33.18
X18.064 Y33.239
X17.941 Y33.298
X17.817 Y33.355
X17.691 Y33.411
X17.563 Y33.466
X17.434 Y33.52
X17.303 Y33.572
X17.171 Y33.623
X17.038 Y33.672
X16.905 Y33.72
X16.77 Y33.766
X16.635 Y33.81
X16.5 Y33.853
X16.364 Y33.894
X16.229 Y33.933
X16.093 Y33.971
X15.957 Y34.007
X15.822 Y34.04
X15.687 Y34.072
X15.553 Y34.102
X15.419 Y34.129
X15.287 Y34.155
X15.155 Y34.179
X15.025 Y34.2
X14.921 Y34.215
X14.808 Y34.228
X14.687 Y34.24
X14.559 Y34.251
X14.423 Y34.261
X14.282 Y34.269
X14.136 Y34.276
X13.985 Y34.282
X13.831 Y34.286
X13.673 Y34.29
X13.514 Y34.291
X13.353 Y34.292
X13.192 Y34.291
X13.031 Y34.289
X12.87 Y34.286
X12.712 Y34.281
X12.555 Y34.275
X12.402 Y34.268
X12.253 Y34.259
X12.109 Y34.249
X11.969 Y34.238
X11.837 Y34.226
X11.711 Y34.212
X11.592 Y34.197
X11.406 Y34.17
X11.214 Y34.139
X11.019 Y34.104
X10.82 Y34.066
X10.619 Y34.026
X10.417 Y33.982
X10.216 Y33.937
X10.016 Y33.889
X9.819 Y33.84
X9.626 Y33.79
X9.437 Y33.739
X9.255 Y33.687
X9.199 Y33.671
X9.194 Y33.666
X9.193 Y33.658
X9.196 Y33.649
X9.198 Y33.642 Z0.003
Y33.639 Z0.01
G0 Z4.2
X-0.174 Y10.792
Z3.2
G1 Z1.2 F333.3
Z0.01
X-0.171 Y10.79 Z0.003 F1000
X-0.166 Y10.786 Z0
X-0.158 Y10.78
X-0.151 Y10.777
X-0.144 Y10.781
X-0.137 Y10.79
X-0.103 Y10.833
X-0.067 Y10.88
X-0.03 Y10.93
X0.009 Y10.984
X0.05 Y11.041
X0.091 Y11.101
X0.132 Y11.162
X0.174 Y11.224
X0.215 Y11.287
X0.256 Y11.351
X0.296 Y11.414
X0.336 Y11.476
X0.373 Y11.538
X0.409 Y11.597
X0.443 Y11.655
X0.475 Y11.709
X0.504 Y11.761
X0.53 Y11.808
X0.553 Y11.852
X0.572 Y11.89
X0.587 Y11.923
X0.598 Y11.948
X0.603 Y11.965
X0.605 Y11.974
Y11.975
X0.597 Y11.979
X0.584 Y11.984
X0.565 Y11.991
X0.541 Y11.998
X0.512 Y12.005
X0.476 Y12.014
X0.434 Y12.024
X0.384 Y12.035
X0.328 Y12.047
X0.263 Y12.06
X0.19 Y12.074
X0.109 Y12.09
X0.018 Y12.108
X-0.083 Y12.128
X-0.193 Y12.149
X-0.315 Y12.172
X-0.448 Y12.198
X-0.636 Y12.235
X-0.828 Y12.274
X-1.025 Y12.315
X-1.225 Y12.359
X-1.428 Y12.404
X-1.635 Y12.451
X-1.843 Y12.5
X-2.053 Y12.55
X-2.265 Y12.602
X-2.477 Y12.655
X-2.69 Y12.709
X-2.904 Y12.765
X-3.116 Y12.821
X-3.328 Y12.878
X-3.539 Y12.936
X-3.748 Y12.995
X-3.955 Y13.055
X-4.159 Y13.114
X-4.361 Y13.174
X-4.559 Y13.234
X-4.753 Y13.294
X-4.942 Y13.355
X-5.127 Y13.415
X-5.307 Y13.474
X-5.439 Y13.519
X-5.568 Y13.564
X-5.696 Y13.608
X-5.821 Y13.653
X-5.944 Y13.698
X-6.066 Y13.742
X-6.186 Y13.787
X-6.304 Y13.833
X-6.422 Y13.879
X-6.538 Y13.925
X-6.654 Y13.971
X-6.768 Y14.019
X-6.883 Y14.067
X-6.997 Y14.116
X-7.111 Y14.165
X-7.226 Y14.216
X-7.34 Y14.268
X-7.455 Y14.32
X-7.571 Y14.374
X-7.687 Y14.429
X-7.805 Y14.485
X-7.924 Y14.543
X-8.044 Y14.602
X-8.166 Y14.663
X-8.229 Y14.695
X-8.292 Y14.726
X-8.354 Y14.757
X-8.414 Y14.787
X-8.473 Y14.817
X-8.53 Y14.845
X-8.586 Y14.872
X-8.64 Y14.899
X-8.692 Y14.924
X-8.741 Y14.949
X-8.789 Y14.972
X-8.833 Y14.994
X-8.876 Y15.014
X-8.915 Y15.033
X-8.952 Y15.051
X-8.986 Y15.067
X-9.016 Y15.081
X-9.043 Y15.094
X-9.067 Y15.105
X-9.087 Y15.114
X-9.099 Y15.119
X-9.104 Y15.114
X-9.123 Y15.096
X-9.148 Y15.071
X-9.177 Y15.042
X-9.21 Y15.008
X-9.247 Y14.97
X-9.289 Y14.927
X-9.334 Y14.88
X-9.383 Y14.829
X-9.435 Y14.774
X-9.49 Y14.715
X-9.549 Y14.653
X-9.61 Y14.588
X-9.674 Y14.52
X-9.741 Y14.449
X-9.81 Y14.375
X-9.881 Y14.299
X-9.954 Y14.221
X-10.028 Y14.141
X-10.105 Y14.059
X-10.182 Y13.975
X-10.261 Y13.889
X-10.811 Y13.296
X-11.347 Y12.72
X-11.869 Y12.162
X-12.377 Y11.622
X-12.87 Y11.102
X-13.347 Y10.601
X-13.807 Y10.121
X-14.251 Y9.662
X-14.676 Y9.225
X-15.083 Y8.81
X-15.471 Y8.419
X-15.84 Y8.051
X-16.188 Y7.707
X-16.515 Y7.389
X-16.821 Y7.096
X-17.104 Y6.829
X-17.365 Y6.589
X-17.601 Y6.377
X-17.814 Y6.193
X-17.815 Y6.192
X-18.002 Y6.037
X-18.004 Y6.036
X-18.165 Y5.911
X-18.167 Y5.91
X-18.303 Y5.814
X-18.306 Y5.812
X-18.415 Y5.748
X-18.422 Y5.745
X-18.503 Y5.712
X-18.518 Y5.708
X-18.593 Y5.702
X-18.606 Y5.703
X-18.693 Y5.719
X-18.701 Y5.721
X-18.8 Y5.758
X-18.805 Y5.761
X-18.914 Y5.818
X-18.918 Y5.82
X-19.035 Y5.895
X-19.038 Y5.897
X-19.164 Y5.99
X-19.166 Y5.992
X-19.3 Y6.102
X-19.301 Y6.103
X-19.441 Y6.229
X-19.443 Y6.23
X-19.589 Y6.371
X-19.59 Y6.372
X-19.74 Y6.526
X-19.741 Y6.527
X-19.896 Y6.693
Y6.694
X-20.054 Y6.872
X-20.055 Y6.873
X-20.214 Y7.062
X-20.215 Y7.063
X-20.375 Y7.261
X-20.537 Y7.468
X-20.698 Y7.682
X-20.857 Y7.903
X-21.014 Y8.13
X-21.168 Y8.36
X-21.317 Y8.594
X-21.462 Y8.83
Y8.831
X-21.6 Y9.067
X-21.601 Y9.068
X-21.732 Y9.305
Y9.306
X-21.855 Y9.541
X-21.913 Y9.657
X-21.969 Y9.769
X-22.022 Y9.879
X-22.072 Y9.986
X-22.121 Y10.092
X-22.168 Y10.197
X-22.213 Y10.301
X-22.257 Y10.405
X-22.299 Y10.509
X-22.34 Y10.613
X-22.379 Y10.719
X-22.418 Y10.825
X-22.456 Y10.934
X-22.493 Y11.044
X-22.529 Y11.157
X-22.565 Y11.273
X-22.601 Y11.392
X-22.637 Y11.515
X-22.673 Y11.642
X-22.709 Y11.774
X-22.745 Y11.911
X-22.782 Y12.053
X-22.819 Y12.201
X-22.857 Y12.356
X-22.898 Y12.526
X-22.938 Y12.691
X-22.975 Y12.85
X-23.01 Y13.005
X-23.044 Y13.154
X-23.075 Y13.297
X-23.105 Y13.437
X-23.132 Y13.571
X-23.158 Y13.701
X-23.182 Y13.826
X-23.204 Y13.948
X-23.224 Y14.065
X-23.243 Y14.178
X-23.26 Y14.288
X-23.275 Y14.393
X-23.288 Y14.496
X-23.3 Y14.595
X-23.31 Y14.691
X-23.318 Y14.784
X-23.325 Y14.874
X-23.33 Y14.962
X-23.334 Y15.047
X-23.336 Y15.13
X-23.337 Y15.21
Y15.211
X-23.336 Y15.315
Y15.316
X-23.332 Y15.422
Y15.423
X-23.326 Y15.529
Y15.53
X-23.317 Y15.636
Y15.638
X-23.306 Y15.744
Y15.745
X-23.293 Y15.85
X-23.278 Y15.956
Y15.957
X-23.261 Y16.061
X-23.243 Y16.163
X-23.242 Y16.164
X-23.222 Y16.264
Y16.265
X-23.2 Y16.361
Y16.363
X-23.177 Y16.456
X-23.176 Y16.457
X-23.152 Y16.548
Y16.549
X-23.126 Y16.636
X-23.125 Y16.637
X-23.098 Y16.719
Y16.721
X-23.07 Y16.798
X-23.069 Y16.8
X-23.041 Y16.872
X-23.04 Y16.874
X-23.01 Y16.941
X-23.009 Y16.943
X-22.979 Y17.004
X-22.978 Y17.006
X-22.947 Y17.061
X-22.945 Y17.064
X-22.913 Y17.112
X-22.911 Y17.115
X-22.879 Y17.156
X-22.876 Y17.16
X-22.843 Y17.194
X-22.838 Y17.198
X-22.806 Y17.224
X-22.798 Y17.229
X-22.725 Y17.266
X-22.716 Y17.27
X-22.632 Y17.293
X-22.623 Y17.295
X-22.529 Y17.305
X-22.522
X-22.417 Y17.302
X-22.412
X-22.298 Y17.286
X-22.293 Y17.285
X-22.17 Y17.257
X-22.166 Y17.256
X-22.034 Y17.215
X-22.031 Y17.214
X-21.891 Y17.161
X-21.888 Y17.16
X-21.74 Y17.096
X-21.738 Y17.095
X-21.583 Y17.019
X-21.581 Y17.018
X-21.419 Y16.931
X-21.417 Y16.93
X-21.248 Y16.832
X-21.247
X-21.072 Y16.723
X-21.071 Y16.722
X-20.891 Y16.603
X-20.89 Y16.602
X-20.704 Y16.473
X-20.703 Y16.472
X-20.514 Y16.333
X-20.513
X-20.319 Y16.184
X-20.318
X-20.12 Y16.026
X-19.918 Y15.858
X-19.714 Y15.682
X-19.507 Y15.498
X-19.299 Y15.305
X-19.089 Y15.104
X-18.878 Y14.896
X-18.828 Y14.845
X-18.778 Y14.794
X-18.727 Y14.742
X-18.677 Y14.689
X-18.626 Y14.636
X-18.576 Y14.582
X-18.526 Y14.528
X-18.477 Y14.475
X-18.428 Y14.422
X-18.38 Y14.369
X-18.333 Y14.316
X-18.288 Y14.265
X-18.243 Y14.214
X-18.2 Y14.165
X-18.159 Y14.116
X-18.119 Y14.069
X-18.081 Y14.024
X-18.046 Y13.981
X-18.012 Y13.939
X-17.981 Y13.899
X-17.952 Y13.862
X-17.926 Y13.827
X-17.902 Y13.795
X-17.882 Y13.765
X-17.857 Y13.729
X-17.833 Y13.695
X-17.811 Y13.663
X-17.79 Y13.633
X-17.77 Y13.605
X-17.75 Y13.579
X-17.732 Y13.555
X-17.715 Y13.533
X-17.698 Y13.513
X-17.683 Y13.495
X-17.668 Y13.478
X-17.654 Y13.464
X-17.641 Y13.451
X-17.629 Y13.439
X-17.617 Y13.43
X-17.607 Y13.422
X-17.597 Y13.416
X-17.589 Y13.411
X-17.582 Y13.407
X-17.576 Y13.405
X-17.57 Y13.404
X-17.566 Y13.403
X-17.562
X-17.56
X-17.547 Y13.407
X-17.529 Y13.415
X-17.506 Y13.427
X-17.479 Y13.444
X-17.449 Y13.465
X-17.416 Y13.491
X-17.38 Y13.52
X-17.342 Y13.553
X-17.302 Y13.589
X-17.26 Y13.629
X-17.216 Y13.672
X-17.17 Y13.717
X-17.123 Y13.766
X-17.075 Y13.817
X-17.025 Y13.871
X-16.975 Y13.927
X-16.924 Y13.984
X-16.872 Y14.044
X-16.82 Y14.106
X-16.767 Y14.169
X-16.714 Y14.234
X-16.662 Y14.3
X-16.609 Y14.367
X-16.557 Y14.435
X-16.447 Y14.583
X-16.329 Y14.745
X-16.204 Y14.918
X-16.074 Y15.102
X-15.941 Y15.294
X-15.804 Y15.493
X-15.665 Y15.697
X-15.525 Y15.904
X-15.386 Y16.113
X-15.248 Y16.322
X-15.112 Y16.529
X-14.98 Y16.733
X-14.852 Y16.932
X-14.73 Y17.124
X-14.615 Y17.307
X-14.508 Y17.48
X-14.41 Y17.642
X-14.322 Y17.789
X-14.245 Y17.922
X-14.18 Y18.037
X-14.129 Y18.133
X-14.093 Y18.208
X-14.074 Y18.257
X-14.072 Y18.268
X-14.075 Y18.273
X-14.083 Y18.283
X-14.094 Y18.296
X-14.107 Y18.31
X-14.122 Y18.327
X-14.14 Y18.345
X-14.159 Y18.364
X-14.18 Y18.384
X-14.204 Y18.406
X-14.228 Y18.429
X-14.255 Y18.453
X-14.283 Y18.478
X-14.312 Y18.503
X-14.342 Y18.53
X-14.374 Y18.557
X-14.407 Y18.584
X-14.441 Y18.613
X-14.476 Y18.641
X-14.511 Y18.67
X-14.548 Y18.699
X-14.585 Y18.729
X-14.623 Y18.758
X-14.827 Y18.918
X-15.026 Y19.078
X-15.22 Y19.238
X-15.409 Y19.398
X-15.594 Y19.558
X-15.774 Y19.718
X-15.949 Y19.877
X-16.119 Y20.038
X-16.285 Y20.198
X-16.446 Y20.358
X-16.603 Y20.519
X-16.755 Y20.68
X-16.903 Y20.841
X-17.046 Y21.002
X-17.185 Y21.164
X-17.319 Y21.327
X-17.449 Y21.49
X-17.575 Y21.653
X-17.697 Y21.817
X-17.814 Y21.982
X-17.927 Y22.147
X-18.036 Y22.313
X-18.141 Y22.479
X-18.242 Y22.647
X-18.31 Y22.765
X-18.376 Y22.881
X-18.439 Y22.995
X-18.499 Y23.108
X-18.557 Y23.22
X-18.612 Y23.332
X-18.665 Y23.444
X-18.716 Y23.556
X-18.765 Y23.669
X-18.812 Y23.783
X-18.858 Y23.899
X-18.902 Y24.017
X-18.945 Y24.136
X-18.986 Y24.259
X-19.026 Y24.384
X-19.066 Y24.513
X-19.104 Y24.646
X-19.142 Y24.783
X-19.179 Y24.924
X-19.216 Y25.071
X-19.253 Y25.222
X-19.29 Y25.38
X-19.326 Y25.544
X-19.363 Y25.714
X-19.377 Y25.779
X-19.392 Y25.848
X-19.408 Y25.921
X-19.426 Y25.998
X-19.444 Y26.077
X-19.463 Y26.16
X-19.483 Y26.244
X-19.504 Y26.331
X-19.525 Y26.42
X-19.547 Y26.511
X-19.569 Y26.602
X-19.592 Y26.695
X-19.615 Y26.788
X-19.638 Y26.882
X-19.662 Y26.975
X-19.685 Y27.069
X-19.709 Y27.161
X-19.733 Y27.253
X-19.756 Y27.343
X-19.779 Y27.432
X-19.802 Y27.519
X-19.825 Y27.604
X-19.847 Y27.686
X-19.868 Y27.765
X-19.94 Y28.031
X-20.007 Y28.286
X-20.07 Y28.533
X-20.129 Y28.772
X-20.184 Y29.006
X-20.236 Y29.235
X-20.283 Y29.461
X-20.328 Y29.684
X-20.369 Y29.908
X-20.407 Y30.132
X-20.442 Y30.358
X-20.475 Y30.587
X-20.505 Y30.822
X-20.532 Y31.062
X-20.558 Y31.31
X-20.582 Y31.567
X-20.604 Y31.834
X-20.624 Y32.113
X-20.643 Y32.405
X-20.661 Y32.71
X-20.678 Y33.032
X-20.694 Y33.37
X-20.709 Y33.727
X-20.724 Y34.104
X-20.732 Y34.34
X-20.739 Y34.607
X-20.746 Y34.905
X-20.752 Y35.23
X-20.757 Y35.58
X-20.762 Y35.953
X-20.765 Y36.348
X-20.768 Y36.762
X-20.771 Y37.192
X-20.773 Y37.637
X-20.774 Y38.094
Y38.562
Y39.038
X-20.773 Y39.52
X-20.771 Y40.006
X-20.768 Y40.494
X-20.765 Y40.981
X-20.761 Y41.466
X-20.757 Y41.946
X-20.752 Y42.419
X-20.746 Y42.883
X-20.739 Y43.336
X-20.732 Y43.776
X-20.724 Y44.2
X-20.671 Y46.801
X-20.667 Y46.821
X-18.342 Y51.898
X-18.183 Y52.245
X-18.026 Y52.586
X-17.872 Y52.921
X-17.721 Y53.249
X-17.573 Y53.569
X-17.429 Y53.88
X-17.289 Y54.182
X-17.153 Y54.474
X-17.023 Y54.755
X-16.897 Y55.024
X-16.777 Y55.28
X-16.663 Y55.523
X-16.555 Y55.752
X-16.454 Y55.966
X-16.36 Y56.164
X-16.273 Y56.346
X-16.195 Y56.511
X-16.124 Y56.657
X-16.062 Y56.784
X-16.009 Y56.892
X-15.964 Y56.98
X-15.93 Y57.046
X-15.929 Y57.047
X-15.905 Y57.091
X-15.903 Y57.094
X-15.889 Y57.115
X-15.886 Y57.12
X-15.839 Y57.174
X-15.784 Y57.246
X-15.72 Y57.334
X-15.649 Y57.438
X-15.571 Y57.556
X-15.487 Y57.685
X-15.398 Y57.826
X-15.305 Y57.976
X-15.208 Y58.134
X-15.11 Y58.298
X-15.009 Y58.467
X-14.908 Y58.64
X-14.807 Y58.815
X-14.707 Y58.991
X-14.609 Y59.165
X-14.513 Y59.338
X-14.42 Y59.507
X-14.332 Y59.671
X-14.249 Y59.828
X-14.172 Y59.978
X-14.102 Y60.118
X-14.039 Y60.247
X-13.985 Y60.364
X-13.94 Y60.466
X-13.901 Y60.56
X-13.865 Y60.647
X-13.833 Y60.728
X-13.803 Y60.803
X-13.777 Y60.874
X-13.754 Y60.94
X-13.734 Y61.003
X-13.716 Y61.063
X-13.702 Y61.121
X-13.69 Y61.177
X-13.681 Y61.233
X-13.674 Y61.288
X-13.67 Y61.344
X-13.668 Y61.402
Y61.462
X-13.67 Y61.525
X-13.675 Y61.591
X-13.682 Y61.662
X-13.691 Y61.738
X-13.702 Y61.819
X-13.716 Y61.907
X-13.731 Y62.001
X-13.748 Y62.103
X-13.766 Y62.214
X-13.787 Y62.34
X-13.807 Y62.47
X-13.826 Y62.603
X-13.843 Y62.737
X-13.859 Y62.873
X-13.874 Y63.01
X-13.887 Y63.147
X-13.899 Y63.286
X-13.91 Y63.424
X-13.92 Y63.563
X-13.928 Y63.7
X-13.934 Y63.837
X-13.94 Y63.972
X-13.944 Y64.106
X-13.946 Y64.238
X-13.947 Y64.367
Y64.494
X-13.945 Y64.617
X-13.942 Y64.737
X-13.937 Y64.854
X-13.931 Y64.966
X-13.923 Y65.073
X-13.913 Y65.176
Y65.177
X-13.902 Y65.273
Y65.274
X-13.871 Y65.494
Y65.495
X-13.834 Y65.709
X-13.833 Y65.711
X-13.79 Y65.919
Y65.921
X-13.741 Y66.123
Y66.125
X-13.686 Y66.322
X-13.685 Y66.324
X-13.624 Y66.515
X-13.623 Y66.517
X-13.557 Y66.702
X-13.556 Y66.704
X-13.483 Y66.884
X-13.482 Y66.886
X-13.403 Y67.061
X-13.402 Y67.062
X-13.317 Y67.231
X-13.316 Y67.233
X-13.225 Y67.396
X-13.224 Y67.398
X-13.128 Y67.555
X-13.126 Y67.557
X-13.024 Y67.709
X-13.022 Y67.711
X-12.914 Y67.857
X-12.912 Y67.859
X-12.797 Y67.999
X-12.796 Y68.001
X-12.675 Y68.135
X-12.674 Y68.137
X-12.547 Y68.266
X-12.546 Y68.268
X-12.413 Y68.391
X-12.411 Y68.392
X-12.273 Y68.51
X-12.271 Y68.511
X-12.127 Y68.623
X-12.125 Y68.624
X-11.975 Y68.73
X-11.973 Y68.732
X-11.817 Y68.832
X-11.815 Y68.833
X-11.652 Y68.928
X-11.651 Y68.929
X-11.483 Y69.018
X-11.481
X-11.371 Y69.072
X-11.37 Y69.073
X-11.261 Y69.124
X-11.26
X-11.15 Y69.172
X-11.149 Y69.173
X-11.038 Y69.218
X-11.037
X-10.926 Y69.261
X-10.925
X-10.813 Y69.301
X-10.812 Y69.302
X-10.699 Y69.339
X-10.698 Y69.34
X-10.584 Y69.374
X-10.583 Y69.375
X-10.467 Y69.407
X-10.466
X-10.349 Y69.437
X-10.348
X-10.229 Y69.464
X-10.228
X-10.107 Y69.489
X-10.106
X-9.983 Y69.511
X-9.982 Y69.512
X-9.856 Y69.531
X-9.855 Y69.532
X-9.727 Y69.549
X-9.594 Y69.565
X-9.459 Y69.578
X-9.321 Y69.589
X-9.179 Y69.597
X-9.033 Y69.604
X-8.883 Y69.608
X-8.73 Y69.61
X-8.572 Y69.611
X-8.41 Y69.609
X-7.542 Y69.595
X-3.713 Y71.512
X-3.45 Y71.644
X-3.189 Y71.775
X-2.929 Y71.904
X-2.673 Y72.031
X-2.421 Y72.156
X-2.173 Y72.278
X-1.931 Y72.398
X-1.694 Y72.515
X-1.464 Y72.628
X-1.241 Y72.737
X-1.026 Y72.843
X-0.819 Y72.943
X-0.621 Y73.039
X-0.434 Y73.13
X-0.257 Y73.215
X-0.091 Y73.295
X0.063 Y73.368
X0.204 Y73.435
X0.332 Y73.496
X0.446 Y73.549
X0.546 Y73.595
X0.63 Y73.633
X0.699 Y73.663
X0.751 Y73.685
X0.752
X1.171 Y73.845
X1.172
X1.588 Y73.988
X1.589 Y73.989
X2.003 Y74.116
X2.004
X2.415 Y74.227
X2.417 Y74.228
X2.825 Y74.322
X2.826
X3.232 Y74.4
X3.234 Y74.401
X3.638 Y74.462
X3.639
X4.041 Y74.508
X4.043
X4.442 Y74.537
X4.444
X4.841 Y74.55
X4.843
X5.238 Y74.546
X5.24
X5.633 Y74.526
X5.636
X6.027 Y74.489
X6.029
X6.419 Y74.436
X6.421
X6.809 Y74.367
X6.811
X7.198 Y74.281
X7.2 Y74.28
X7.585 Y74.179
X7.587 Y74.178
X7.971 Y74.06
X7.973 Y74.059
X8.355 Y73.924
X8.357
X8.738 Y73.772
X8.74
X9.12 Y73.604
X9.122 Y73.603
X9.501 Y73.42
X9.503 Y73.419
X9.881 Y73.218
X9.883
X10.26 Y73.001
X10.261 Y73
X10.429 Y72.898
X10.606 Y72.785
X10.792 Y72.662
X10.985 Y72.532
X11.184 Y72.394
X11.387 Y72.25
X11.593 Y72.1
X11.801 Y71.947
X12.009 Y71.79
X12.217 Y71.632
X12.422 Y71.472
X12.624 Y71.313
X12.821 Y71.155
X13.012 Y70.999
X13.196 Y70.846
X13.371 Y70.697
X13.535 Y70.554
X13.689 Y70.417
X13.83 Y70.287
X13.956 Y70.166
X13.957 Y70.165
X14.068 Y70.054
X14.069 Y70.053
X14.163 Y69.952
X14.165 Y69.951
X14.241 Y69.862
X14.243 Y69.859
X14.3 Y69.783
X14.302 Y69.78
X14.385 Y69.647
X14.387 Y69.645
X14.466 Y69.499
X14.467 Y69.497
X14.543 Y69.339
X14.544 Y69.337
X14.616 Y69.167
X14.617 Y69.165
X14.685 Y68.983
X14.686 Y68.981
X14.75 Y68.787
Y68.786
X14.811 Y68.58
Y68.578
X14.868 Y68.36
Y68.359
X14.921 Y68.129
Y68.128
X14.97 Y67.887
X14.971 Y67.885
X15.016 Y67.632
Y67.631
X15.057 Y67.367
Y67.366
X15.094 Y67.09
X15.128 Y66.802
X15.157 Y66.503
X15.183 Y66.193
X15.205 Y65.872
X15.222 Y65.54
X15.236 Y65.197
X15.245 Y64.844
X15.251 Y64.48
X15.252 Y64.105
X15.25 Y63.721
X15.243 Y63.325
X15.224 Y62.655
X15.193 Y61.976
X15.152 Y61.29
X15.101 Y60.599
X15.04 Y59.904
X14.969 Y59.206
X14.889 Y58.507
X14.8 Y57.808
X14.701 Y57.11
X14.594 Y56.414
X14.478 Y55.722
X14.355 Y55.035
X14.223 Y54.355
X14.083 Y53.682
X13.936 Y53.018
X13.781 Y52.364
X13.62 Y51.722
X13.451 Y51.092
X13.276 Y50.477
X13.095 Y49.877
X12.908 Y49.294
X12.715 Y48.729
X12.516 Y48.183
Y48.182
X12.312 Y47.658
X12.289 Y47.6
X12.262 Y47.537
X12.234 Y47.469
X12.203 Y47.397
X12.17 Y47.321
X12.135 Y47.241
X12.098 Y47.158
X12.059 Y47.072
X12.019 Y46.983
X11.977 Y46.892
X11.934 Y46.798
X11.891 Y46.703
X11.846 Y46.606
X11.8 Y46.508
X11.753 Y46.409
X11.706 Y46.31
X11.659 Y46.21
X11.612 Y46.111
X11.564 Y46.012
X11.516 Y45.914
X11.469 Y45.816
X11.422 Y45.721
X11.376 Y45.627
X11.33 Y45.535
X11.284 Y45.443
X11.238 Y45.35
X11.191 Y45.256
X11.145 Y45.16
X11.098 Y45.064
X11.051 Y44.967
X11.004 Y44.871
X10.957 Y44.774
X10.911 Y44.679
X10.866 Y44.584
X10.821 Y44.49
X10.777 Y44.398
X10.734 Y44.307
X10.693 Y44.219
X10.652 Y44.132
X10.613 Y44.049
X10.576 Y43.969
X10.541 Y43.892
X10.507 Y43.818
X10.476 Y43.749
X10.447 Y43.683
X10.42 Y43.623
X10.395 Y43.567
X10.373 Y43.516
X10.293 Y43.325
X10.213 Y43.13
X10.134 Y42.933
X10.056 Y42.733
X9.978 Y42.531
X9.902 Y42.327
X9.827 Y42.121
X9.752 Y41.912
X9.679 Y41.702
X9.607 Y41.49
X9.536 Y41.277
X9.466 Y41.062
X9.397 Y40.845
X9.33 Y40.628
X9.263 Y40.409
X9.199 Y40.189
X9.135 Y39.969
X9.073 Y39.748
X9.013 Y39.526
X8.954 Y39.304
X8.896 Y39.081
X8.84 Y38.859
X8.786 Y38.636
X8.734 Y38.413
X8.701 Y38.268
X8.667 Y38.115
X8.633 Y37.955
X8.599 Y37.79
X8.565 Y37.62
X8.531 Y37.448
X8.498 Y37.273
X8.466 Y37.098
X8.434 Y36.924
X8.404 Y36.751
X8.374 Y36.582
X8.347 Y36.416
X8.321 Y36.257
X8.296 Y36.104
X8.274 Y35.959
X8.255 Y35.824
X8.238 Y35.699
X8.223 Y35.585
X8.212 Y35.485
X8.203 Y35.399
X8.198 Y35.33
X8.197 Y35.278
X8.198 Y35.262
X8.206
X8.218
X8.232 Y35.263
X8.247 Y35.265
X8.265 Y35.268
X8.284 Y35.271
X8.304 Y35.275
X8.326 Y35.28
X8.349 Y35.285
X8.374 Y35.291
X8.4 Y35.298
X8.427 Y35.306
X8.456 Y35.314
X8.486 Y35.322
X8.517 Y35.332
X8.549 Y35.342
X8.583 Y35.352
X8.617 Y35.364
X8.653 Y35.376
X8.786 Y35.42
X8.926 Y35.464
X9.071 Y35.509
X9.222 Y35.553
X9.377 Y35.597
X9.536 Y35.64
X9.698 Y35.684
X9.864 Y35.726
X10.033 Y35.769
X10.204 Y35.81
X10.377 Y35.851
X10.552 Y35.89
X10.728 Y35.929
X10.904 Y35.967
X11.08 Y36.003
X11.256 Y36.038
X11.431 Y36.072
X11.604 Y36.104
X11.776 Y36.134
X11.946 Y36.163
X12.114 Y36.19
X12.278 Y36.215
X12.439 Y36.238
X12.596 Y36.259
X13.006 Y36.306
X13.008 Y36.307
X13.413 Y36.342
X13.414
X13.814 Y36.367
X13.815
X14.209 Y36.38
X14.211
X14.599 Y36.382
X14.601
X14.983 Y36.373
X14.985
X15.361 Y36.353
X15.363
X15.733 Y36.321
X15.735
X16.098 Y36.279
X16.1
X16.457 Y36.225
X16.459
X16.809 Y36.161
X16.811 Y36.16
X17.154 Y36.085
X17.156
X17.492 Y35.999
X17.494 Y35.998
X17.823 Y35.901
X17.825
X18.146 Y35.793
X18.148
X18.461 Y35.674
X18.463
X18.769 Y35.545
X18.771 Y35.544
X19.068 Y35.404
X19.07 Y35.403
X19.359 Y35.253
X19.361 Y35.252
X19.641 Y35.091
X19.643 Y35.09
X19.915 Y34.919
X19.917 Y34.918
X20.18 Y34.736
X20.182 Y34.735
X20.436 Y34.543
X20.438 Y34.542
X20.682 Y34.339
X20.683 Y34.338
X20.711 Y34.314
X20.739 Y34.289
X20.768 Y34.263
X20.797 Y34.237
X20.826 Y34.211
X20.855 Y34.184
X20.883 Y34.157
X20.912 Y34.129
X20.94 Y34.102
X20.969 Y34.075
X20.996 Y34.048
X21.023 Y34.021
X21.05 Y33.994
X21.075 Y33.968
X21.1 Y33.942
X21.125 Y33.916
X21.148 Y33.892
X21.17 Y33.868
X21.191 Y33.845
X21.211 Y33.822
X21.229 Y33.801
X21.246 Y33.781
X21.262 Y33.761
X21.276 Y33.743
X21.289 Y33.727
X21.302 Y33.711
X21.315 Y33.696
X21.327 Y33.681
X21.34 Y33.666
X21.353 Y33.652
X21.366 Y33.638
X21.378 Y33.625
X21.39 Y33.612
X21.403 Y33.6
X21.414 Y33.589
X21.426 Y33.579
X21.437 Y33.569
X21.448 Y33.559
X21.458 Y33.551
X21.468 Y33.544
X21.477 Y33.537
X21.485 Y33.532
X21.492 Y33.528
X21.498 Y33.524
X21.501 Y33.523
X21.506 Y33.526
X21.527 Y33.542
X21.556 Y33.567
X21.596 Y33.605
X21.647 Y33.656
X21.71 Y33.72
X21.785 Y33.8
X21.875 Y33.896
X21.98 Y34.011
X22.102 Y34.144
X22.241 Y34.299
X22.4 Y34.475
X22.579 Y34.676
X22.78 Y34.9
X23.003 Y35.152
X23.251 Y35.43
X23.523 Y35.738
X23.823 Y36.076
X24.15 Y36.446
X24.506 Y36.849
X24.893 Y37.287
X25.311 Y37.76
X25.761 Y38.271
X26.032 Y38.578
X26.296 Y38.874
X26.551 Y39.159
X26.798 Y39.434
X27.037 Y39.698
X27.268 Y39.952
X27.491 Y40.196
X27.707 Y40.429
X27.915 Y40.652
X28.115 Y40.865
X28.307 Y41.067
X28.492 Y41.26
X28.67 Y41.442
X28.839 Y41.615
X29.002 Y41.777
X29.157 Y41.93
X29.305 Y42.073
X29.445 Y42.205
X29.578 Y42.329
X29.704 Y42.442
X29.823 Y42.546
X29.935 Y42.64
X29.936 Y42.641
X30.04 Y42.725
X30.041 Y42.726
X30.138 Y42.8
X30.139 Y42.801
X30.32 Y42.932
X30.321 Y42.933
X30.5 Y43.055
X30.501 Y43.056
X30.678 Y43.168
X30.679 Y43.169
X30.854 Y43.272
X30.855 Y43.273
X31.028 Y43.367
X31.03
X31.202 Y43.452
X31.204 Y43.453
X31.374 Y43.528
X31.376 Y43.529
X31.546 Y43.595
X31.548
X31.717 Y43.652
X31.72 Y43.653
X31.889 Y43.7
X31.891 Y43.701
X32.06 Y43.74
X32.063
X32.232 Y43.769
X32.234 Y43.77
X32.404 Y43.79
X32.407 Y43.791
X32.577 Y43.802
X32.58
X32.751 Y43.805
X32.754
X32.926 Y43.798
X32.929
X33.103 Y43.783
X33.105
X33.281 Y43.758
X33.283
X33.461 Y43.725
X33.464
X33.644 Y43.683
X33.646
X33.828 Y43.632
X33.83
X34.016 Y43.573
X34.017 Y43.572
X34.206 Y43.504
X34.208
X34.399 Y43.428
X34.401 Y43.427
X34.561 Y43.358
X34.562
X34.716 Y43.288
X34.717
X34.864 Y43.217
X34.865 Y43.216
X35.006 Y43.144
X35.007 Y43.143
X35.141 Y43.069
X35.142
X35.27 Y42.993
X35.271
X35.393 Y42.916
X35.394 Y42.915
X35.509 Y42.837
X35.511 Y42.836
X35.62 Y42.756
X35.621 Y42.755
X35.724 Y42.673
X35.726 Y42.672
X35.823 Y42.588
X35.824 Y42.587
X35.916 Y42.501
X35.917 Y42.5
X36.002 Y42.413
X36.004 Y42.411
X36.084 Y42.321
X36.085 Y42.319
X36.159 Y42.228
X36.161 Y42.226
X36.229 Y42.132
X36.23 Y42.13
X36.293 Y42.034
X36.295 Y42.032
X36.352 Y41.933
X36.353 Y41.931
X36.405 Y41.83
X36.406 Y41.828
X36.453 Y41.724
X36.454 Y41.722
X36.496 Y41.616
X36.497 Y41.613
X36.533 Y41.505
X36.534 Y41.502
X36.566 Y41.391
Y41.388
X36.593 Y41.274
Y41.272
X36.604 Y41.214
Y41.212
X36.614 Y41.15
Y41.148
X36.622 Y41.083
Y41.082
X36.628 Y41.014
Y41.012
X36.633 Y40.941
Y40.94
X36.636 Y40.867
Y40.866
X36.638 Y40.79
Y40.711
X36.637 Y40.63
X36.634 Y40.549
X36.63 Y40.465
X36.625 Y40.382
X36.618 Y40.297
X36.61 Y40.212
X36.601 Y40.127
X36.59 Y40.042
X36.578 Y39.957
X36.564 Y39.873
X36.55 Y39.79
X36.534 Y39.708
X36.516 Y39.628
X36.498 Y39.549
X36.478 Y39.472
Y39.471
X36.458 Y39.398
X36.418 Y39.266
X36.378 Y39.138
X36.377 Y39.137
X36.335 Y39.011
X36.334 Y39.01
X36.288 Y38.884
X36.287 Y38.883
X36.236 Y38.755
Y38.753
X36.178 Y38.621
Y38.619
X36.113 Y38.48
Y38.479
X36.04 Y38.331
Y38.33
X35.957 Y38.172
X35.864 Y38.001
X35.758 Y37.816
X35.64 Y37.614
X35.507 Y37.394
X35.358 Y37.154
X35.194 Y36.892
X35.011 Y36.605
X34.809 Y36.292
X34.587 Y35.951
X34.343 Y35.579
X34.077 Y35.176
X33.787 Y34.738
X33.472 Y34.263
X33.131 Y33.751
X32.762 Y33.198
X32.533 Y32.855
X32.313 Y32.526
X32.101 Y32.209
X31.898 Y31.907
X31.704 Y31.618
X31.519 Y31.343
X31.342 Y31.081
X31.175 Y30.834
X31.016 Y30.6
X30.867 Y30.381
X30.727 Y30.176
X30.596 Y29.985
X30.474 Y29.808
X30.362 Y29.646
X30.259 Y29.499
X30.166 Y29.366
X30.082 Y29.248
X30.008 Y29.145
X29.943 Y29.057
X29.889 Y28.984
X29.844 Y28.926
X29.843 Y28.924
X29.808 Y28.882
X29.806 Y28.88
X29.781 Y28.853
X29.775 Y28.848
X29.761 Y28.836
X29.748 Y28.829
X29.74 Y28.826
X29.733 Y28.823
X29.726 Y28.819
X29.72 Y28.816
X29.715 Y28.813
X29.71 Y28.81
X29.705 Y28.806
X29.701 Y28.803
X29.698 Y28.8
X29.695 Y28.798
X29.693 Y28.795
X29.691 Y28.792
X29.689 Y28.79
X29.688 Y28.788
X29.687 Y28.786
Y28.784
X29.686 Y28.783
Y28.781
Y28.78
Y28.778
Y28.776
Y28.774
X29.687 Y28.771
X29.695 Y28.756
X29.711 Y28.737
X29.736 Y28.711
X29.77 Y28.681
X29.812 Y28.647
X29.862 Y28.609
X29.92 Y28.568
X29.986 Y28.523
X30.059 Y28.476
X30.139 Y28.425
X30.226 Y28.371
X30.321 Y28.315
X30.422 Y28.256
X30.53 Y28.194
X30.645 Y28.13
X30.766 Y28.063
X30.893 Y27.993
X31.027 Y27.921
X31.167 Y27.847
X31.312 Y27.771
X31.463 Y27.692
X31.62 Y27.612
X31.783 Y27.529
X31.951 Y27.445
X32.12 Y27.359
X32.28 Y27.276
X32.429 Y27.196
X32.57 Y27.118
X32.701 Y27.043
X32.823 Y26.97
X32.824 Y26.969
X32.937 Y26.898
X32.938
X33.042 Y26.828
X33.044
X33.14 Y26.76
X33.141 Y26.759
X33.229 Y26.692
X33.231 Y26.691
X33.311 Y26.625
X33.312 Y26.623
X33.385 Y26.558
X33.387 Y26.556
X33.452 Y26.492
X33.454 Y26.49
X33.513 Y26.425
X33.515 Y26.423
X33.566 Y26.358
X33.568 Y26.355
X33.614 Y26.29
X33.615 Y26.287
X33.654 Y26.222
X33.656 Y26.219
X33.689 Y26.153
X33.691 Y26.149
X33.718 Y26.082
X33.719 Y26.078
X33.741 Y26.01
X33.742 Y26.006
X33.758 Y25.936
X33.759 Y25.933
X33.77 Y25.861
X33.771 Y25.858
X33.777 Y25.785
X33.778 Y25.781
X33.78 Y25.706
Y25.703
X33.779 Y25.656
Y25.654
X33.775 Y25.606
Y25.604
X33.769 Y25.556
Y25.554
X33.761 Y25.507
Y25.504
X33.751 Y25.457
X33.75 Y25.455
X33.738 Y25.408
X33.737 Y25.405
X33.722 Y25.358
Y25.356
X33.704 Y25.308
Y25.306
X33.684 Y25.259
X33.683 Y25.257
X33.661 Y25.209
Y25.207
X33.636 Y25.159
X33.635 Y25.157
X33.609 Y25.109
X33.608 Y25.107
X33.579 Y25.058
X33.578 Y25.057
X33.546 Y25.008
X33.545 Y25.007
X33.511 Y24.957
X33.51 Y24.956
X33.473 Y24.906
X33.472 Y24.905
X33.433 Y24.854
X33.432 Y24.853
X33.39 Y24.802
X33.389 Y24.801
X33.345 Y24.75
X33.344 Y24.749
X33.297 Y24.697
X33.296 Y24.696
X33.246 Y24.643
X33.193 Y24.589
X33.138 Y24.535
X33.079 Y24.479
X33.078 Y24.478
X33.024 Y24.429
X33.023
X32.965 Y24.378
X32.903 Y24.326
X32.836 Y24.274
X32.767 Y24.22
X32.694 Y24.166
X32.618 Y24.111
X32.539 Y24.055
X32.458 Y24
X32.374 Y23.944
X32.288 Y23.889
X32.201 Y23.833
X32.111 Y23.778
X32.02 Y23.723
X31.927 Y23.668
X31.834 Y23.614
X31.74 Y23.561
X31.644 Y23.509
X31.549 Y23.458
X31.453 Y23.408
X31.357 Y23.359
X31.261 Y23.312
X31.165 Y23.266
X31.07 Y23.222
X31.037 Y23.207
X31.005 Y23.192
X30.974 Y23.177
X30.943 Y23.162
X30.913 Y23.148
X30.884 Y23.134
X30.856 Y23.12
X30.829 Y23.106
X30.804 Y23.093
X30.779 Y23.08
X30.756 Y23.068
X30.733 Y23.056
X30.713 Y23.045
X30.694 Y23.034
X30.676 Y23.024
X30.66 Y23.015
X30.646 Y23.006
X30.636 Y23
X30.642 Y22.994
X30.65 Y22.986
X30.659 Y22.978
X30.669 Y22.97
X30.679 Y22.961
X30.69 Y22.952
X30.701 Y22.942
X30.713 Y22.933
X30.726 Y22.923
X30.739 Y22.913
X30.753 Y22.902
X30.767 Y22.892
X30.781 Y22.881
X30.796 Y22.871
X30.811 Y22.86
X30.827 Y22.849
X30.873 Y22.817
X30.874 Y22.816
X30.921 Y22.78
X30.922 Y22.779
X30.971 Y22.74
Y22.739
X31.021 Y22.698
Y22.697
X31.071 Y22.653
X31.122 Y22.606
X31.173 Y22.558
X31.224 Y22.507
X31.275 Y22.455
X31.326 Y22.402
X31.376 Y22.347
X31.426 Y22.292
X31.474 Y22.236
X31.521 Y22.179
X31.567 Y22.123
X31.612 Y22.066
X31.654 Y22.01
X31.695 Y21.954
X31.734 Y21.899
Y21.898
X31.77 Y21.845
X31.771 Y21.844
X31.804 Y21.792
Y21.791
X31.835 Y21.74
X31.836 Y21.739
X31.863 Y21.69
X31.864 Y21.688
X31.888 Y21.641
X31.889 Y21.64
X31.93 Y21.552
X31.931 Y21.551
X31.969 Y21.463
X31.97 Y21.461
X32.005 Y21.372
X32.006 Y21.371
X32.038 Y21.281
Y21.28
X32.068 Y21.189
Y21.188
X32.094 Y21.097
X32.095 Y21.095
X32.118 Y21.003
X32.119 Y21.001
X32.139 Y20.908
Y20.907
X32.156 Y20.813
X32.157 Y20.812
X32.171 Y20.717
Y20.715
X32.183 Y20.619
Y20.618
X32.191 Y20.521
Y20.519
X32.197 Y20.422
Y20.42
X32.199 Y20.321
Y20.32
Y20.22
Y20.218
X32.195 Y20.117
Y20.116
X32.189 Y20.014
Y20.012
X32.179 Y19.909
Y19.908
X32.167 Y19.803
Y19.802
X32.151 Y19.696
Y19.694
X32.133 Y19.587
Y19.586
X32.111 Y19.478
Y19.477
X32.087 Y19.367
Y19.366
X32.06 Y19.255
X32.059 Y19.253
X32.016 Y19.097
Y19.095
X31.968 Y18.946
X31.967 Y18.944
X31.915 Y18.801
X31.914 Y18.799
X31.857 Y18.662
X31.856 Y18.66
X31.794 Y18.53
X31.793 Y18.528
X31.726 Y18.404
X31.724 Y18.402
X31.652 Y18.285
X31.65 Y18.282
X31.572 Y18.171
X31.57 Y18.168
X31.487 Y18.063
X31.485 Y18.06
X31.395 Y17.961
X31.393 Y17.958
X31.297 Y17.864
X31.295 Y17.862
X31.193 Y17.773
X31.191 Y17.771
X31.083 Y17.688
X31.081 Y17.686
X30.966 Y17.608
X30.964 Y17.606
X30.843 Y17.533
X30.84 Y17.532
X30.712 Y17.463
X30.71 Y17.462
X30.575 Y17.398
X30.573
X30.43 Y17.339
X30.428 Y17.338
X30.279 Y17.283
X30.277
X30.12 Y17.232
X30.118
X29.953 Y17.186
X29.951
X29.779 Y17.144
X29.777 Y17.143
X29.596 Y17.105
X29.595
X29.406 Y17.071
X29.35 Y17.062
X29.295 Y17.053
X29.242 Y17.045
X29.189 Y17.038
X29.137 Y17.032
X29.085 Y17.026
X29.034 Y17.02
X28.981 Y17.015
X28.929 Y17.011
X28.875 Y17.007
X28.82 Y17.004
X28.764 Y17.002
X28.706 Y17
X28.646 Y16.998
X28.584 Y16.997
X28.52
X28.452
X28.382
X28.308 Y16.998
X28.23 Y17
X28.148 Y17.002
X28.063 Y17.004
X27.972 Y17.006
X27.877 Y17.01
X27.75 Y17.014
X27.626 Y17.019
X27.507 Y17.025
X27.391 Y17.031
X27.277 Y17.038
X27.167 Y17.046
X27.058 Y17.054
X26.951 Y17.063
X26.846 Y17.073
X26.741 Y17.084
X26.636 Y17.096
X26.532 Y17.109
X26.427 Y17.123
X26.322 Y17.139
X26.215 Y17.155
X26.106 Y17.173
X25.995 Y17.192
X25.882 Y17.213
X25.766 Y17.235
X25.646 Y17.258
X25.523 Y17.283
X25.395 Y17.31
X25.263 Y17.338
X25.125 Y17.368
X25.077 Y17.378
X25.029 Y17.388
X24.981 Y17.398
X24.935 Y17.408
X24.89 Y17.417
X24.846 Y17.426
X24.802 Y17.434
X24.761 Y17.442
X24.721 Y17.45
X24.682 Y17.457
X24.645 Y17.464
X24.61 Y17.47
X24.577 Y17.475
X24.546 Y17.48
X24.517 Y17.484
X24.491 Y17.488
X24.467 Y17.491
X24.445 Y17.494
X24.427 Y17.496
X24.411 Y17.497
X24.4 Y17.498
X24.396 Y17.493
X24.389 Y17.484
X24.382 Y17.474
X24.373 Y17.463
X24.364 Y17.45
X24.354 Y17.436
X24.343 Y17.421
X24.332 Y17.404
X24.32 Y17.386
X24.308 Y17.368
X24.295 Y17.348
X24.282 Y17.327
X24.268 Y17.306
X24.254 Y17.284
X24.24 Y17.261
X24.225 Y17.237
X24.21 Y17.213
X24.195 Y17.189
X24.18 Y17.164
X24.165 Y17.138
X24.149 Y17.112
X24.116 Y17.059
X24.115 Y17.057
X24.078 Y17.003
X24.077 Y17.001
X24.035 Y16.944
Y16.943
X23.988 Y16.883
X23.987 Y16.882
X23.936 Y16.819
X23.935 Y16.818
X23.878 Y16.752
X23.877 Y16.751
X23.814 Y16.681
X23.744 Y16.607
X23.667 Y16.528
X23.583 Y16.445
X23.493 Y16.357
X23.394 Y16.263
X23.287 Y16.164
X23.172 Y16.059
X23.049 Y15.948
X22.916 Y15.83
X22.774 Y15.705
X22.621 Y15.573
X22.459 Y15.434
X22.286 Y15.286
X22.103 Y15.13
X21.908 Y14.965
X21.701 Y14.792
X21.482 Y14.609
X21.187 Y14.363
X20.9 Y14.127
X20.62 Y13.901
X20.348 Y13.683
X20.083 Y13.474
X19.826 Y13.275
X19.576 Y13.085
X19.334 Y12.903
X19.099 Y12.731
X18.871 Y12.568
X18.651 Y12.413
X18.438 Y12.268
X18.232 Y12.132
X18.033 Y12.004
X17.841 Y11.885
X17.657 Y11.775
X17.479 Y11.674
X17.478
X17.308 Y11.582
X17.307 Y11.581
X17.145 Y11.498
X17.143
X16.988 Y11.423
X16.986
X16.837 Y11.357
X16.836 Y11.356
X16.694 Y11.299
X16.692
X16.557 Y11.25
X16.555
X16.426 Y11.21
X16.403 Y11.203
X16.377 Y11.195
X16.348 Y11.185
X16.316 Y11.173
X16.281 Y11.161
X16.244 Y11.147
X16.204 Y11.132
X16.163 Y11.115
X16.119 Y11.098
X16.074 Y11.08
X16.026 Y11.06
X15.978 Y11.04
X15.928 Y11.019
X15.877 Y10.997
X15.825 Y10.975
X15.772 Y10.952
X15.718 Y10.928
X15.664 Y10.904
X15.61 Y10.88
X15.555 Y10.855
X15.501 Y10.831
X15.447 Y10.806
X15.393 Y10.78
X15.34 Y10.755
X15.202 Y10.691
X15.068 Y10.631
X14.938 Y10.575
X14.811 Y10.523
X14.81 Y10.522
X14.687 Y10.475
X14.686 Y10.474
X14.566 Y10.43
X14.565
X14.446 Y10.39
X14.445
X14.328 Y10.353
X14.327
X14.212 Y10.32
X14.21
X14.095 Y10.291
X14.094
X13.979 Y10.265
X13.978
X13.863 Y10.243
X13.862 Y10.242
X13.747 Y10.224
X13.745 Y10.223
X13.629 Y10.208
X13.627
X13.51 Y10.196
X13.508 Y10.195
X13.388 Y10.186
X13.387
X13.265 Y10.18
X13.264
X13.139 Y10.177
X13.138
X13.01
X13.009
X12.877 Y10.179
X12.74 Y10.184
X12.599 Y10.192
X12.453 Y10.203
X12.301 Y10.216
X12.157 Y10.23
X12.004 Y10.248
X11.843 Y10.269
X11.675 Y10.292
X11.5 Y10.318
X11.319 Y10.347
X11.132 Y10.379
X10.94 Y10.413
X10.744 Y10.449
X10.544 Y10.487
X10.34 Y10.527
X10.133 Y10.569
X9.925 Y10.613
X9.715 Y10.659
X9.503 Y10.706
X9.292 Y10.755
X9.08 Y10.805
X8.87 Y10.856
X8.66 Y10.908
X8.453 Y10.961
X8.248 Y11.015
X8.046 Y11.069
X7.847 Y11.125
X7.653 Y11.18
X7.627 Y11.188
X7.602 Y11.195
X7.576 Y11.202
X7.551 Y11.209
X7.526 Y11.216
X7.501 Y11.222
X7.476 Y11.228
X7.452 Y11.235
X7.428 Y11.24
X7.404 Y11.246
X7.382 Y11.251
X7.36 Y11.256
X7.338 Y11.261
X7.318 Y11.265
X7.298 Y11.269
X7.28 Y11.273
X7.263 Y11.276
X7.247 Y11.279
X7.232 Y11.282
X7.218 Y11.284
X7.206 Y11.285
X7.196 Y11.286
X7.188 Y11.287
X7.185
X7.176 Y11.285
X7.165 Y11.28
X7.148 Y11.267
X7.126 Y11.245
X7.099 Y11.212
X7.068 Y11.168
X7.032 Y11.112
X6.993 Y11.043
X6.948 Y10.962
X6.899 Y10.866
X6.844 Y10.756
X6.784 Y10.631
X6.718 Y10.49
X6.645 Y10.331
X6.566 Y10.155
X6.479 Y9.961
X6.385 Y9.746
X6.283 Y9.512
X6.173 Y9.257
X6.054 Y8.98
X5.926 Y8.681
X5.788 Y8.358
X5.641 Y8.01
X5.483 Y7.638
X5.335 Y7.289
X5.192 Y6.954
X5.053 Y6.632
X4.92 Y6.324
X4.791 Y6.03
X4.666 Y5.747
X4.546 Y5.478
X4.429 Y5.22
X4.317 Y4.974
X4.208 Y4.739
X4.102 Y4.514
X4 Y4.301
X3.901 Y4.097
X3.805 Y3.903
X3.711 Y3.719
X3.62 Y3.544
X3.532 Y3.377
X3.446 Y3.218
X3.362 Y3.068
X3.279 Y2.925
X3.199 Y2.789
X3.119 Y2.66
X3.042 Y2.537
X2.965 Y2.421
X2.917 Y2.351
X2.862 Y2.274
X2.8 Y2.189
X2.731 Y2.097
X2.657 Y2
X2.579 Y1.899
X2.496 Y1.793
X2.41 Y1.685
X2.321 Y1.575
X2.231 Y1.463
X2.14 Y1.352
X2.049 Y1.241
X1.958 Y1.132
X1.868 Y1.025
X1.78 Y0.922
X1.695 Y0.823
X1.614 Y0.729
X1.537 Y0.642
X1.465 Y0.561
X1.398 Y0.489
X1.338 Y0.425
X1.285 Y0.371
X1.284 Y0.37
X1.24 Y0.327
X1.238 Y0.325
X1.202 Y0.294
X1.2 Y0.293
X1.146 Y0.25
X1.145 Y0.249
X1.092 Y0.209
X1.091 Y0.208
X1.039 Y0.17
X1.038 Y0.169
X0.987 Y0.134
X0.986
X0.936 Y0.101
X0.934
X0.885 Y0.071
X0.884 Y0.07
X0.835 Y0.043
X0.833 Y0.042
X0.785 Y0.018
X0.784 Y0.017
X0.736 Y-0.005
X0.734 Y-0.006
X0.687 Y-0.025
X0.685 Y-0.026
X0.638 Y-0.043
X0.636 Y-0.044
X0.59 Y-0.058
X0.587 Y-0.059
X0.541 Y-0.071
X0.539
X0.492 Y-0.081
X0.49
X0.443 Y-0.088
X0.441 Y-0.089
X0.394 Y-0.093
X0.392 Y-0.094
X0.345 Y-0.096
X0.343
X0.296
X0.293
X0.246 Y-0.094
X0.243
X0.195 Y-0.089
X0.193
X0.144 Y-0.083
X0.142 Y-0.082
X0.093 Y-0.073
X0.091
X0.041 Y-0.062
X0.039
X-0.012 Y-0.048
X-0.015
X-0.087 Y-0.025
X-0.09 Y-0.024
X-0.164 Y0.005
X-0.167 Y0.006
X-0.243 Y0.041
X-0.246 Y0.042
X-0.325 Y0.083
X-0.327 Y0.085
X-0.408 Y0.132
X-0.41 Y0.133
X-0.494 Y0.187
X-0.496 Y0.188
X-0.582 Y0.247
X-0.583 Y0.248
X-0.672 Y0.314
X-0.673 Y0.315
X-0.764 Y0.386
X-0.765 Y0.387
X-0.858 Y0.464
X-0.859 Y0.465
X-0.954 Y0.548
X-0.955 Y0.549
X-1.052 Y0.638
X-1.053 Y0.639
X-1.152 Y0.734
X-1.253 Y0.835
X-1.357 Y0.942
X-1.462 Y1.054
X-1.569 Y1.172
X-1.678 Y1.295
X-1.788 Y1.424
X-1.9 Y1.558
X-2.013 Y1.698
X-2.128 Y1.842
X-2.245 Y1.992
X-2.362 Y2.147
X-2.522 Y2.362
X-2.676 Y2.576
X-2.827 Y2.789
X-2.972 Y3.001
X-3.114 Y3.211
X-3.25 Y3.421
X-3.382 Y3.629
X-3.509 Y3.836
X-3.631 Y4.041
X-3.749 Y4.246
X-3.862 Y4.448
X-3.97 Y4.65
X-4.073 Y4.849
X-4.171 Y5.047
X-4.265 Y5.244
X-4.353 Y5.438
X-4.437 Y5.631
X-4.515 Y5.822
X-4.589 Y6.011
Y6.012
X-4.657 Y6.198
Y6.199
X-4.72 Y6.383
X-4.721 Y6.384
X-4.778 Y6.566
X-4.779 Y6.567
X-4.831 Y6.746
X-4.832 Y6.748
X-4.879 Y6.925
X-4.908 Y7.043
X-4.937 Y7.165
X-4.966 Y7.29
X-4.994 Y7.418
X-5.021 Y7.547
X-5.048 Y7.679
X-5.073 Y7.811
X-5.098 Y7.944
X-5.122 Y8.076
X-5.145 Y8.208
X-5.167 Y8.339
X-5.187 Y8.467
X-5.206 Y8.593
X-5.224 Y8.715
X-5.24 Y8.834
X-5.255 Y8.949
X-5.268 Y9.059
X-5.279 Y9.163
X-5.288 Y9.261
X-5.295 Y9.353
X-5.3 Y9.438
Y9.439
X-5.303 Y9.515
Y9.516
Y9.583
Y9.585
X-5.302 Y9.643
Y9.645
X-5.297 Y9.714
Y9.715
X-5.291 Y9.781
X-5.29 Y9.783
X-5.283 Y9.846
X-5.282 Y9.848
X-5.273 Y9.909
X-5.272 Y9.911
X-5.261 Y9.969
Y9.971
X-5.248 Y10.027
X-5.247 Y10.029
X-5.232 Y10.083
Y10.085
X-5.215 Y10.137
X-5.214 Y10.139
X-5.195 Y10.188
X-5.194 Y10.191
X-5.174 Y10.238
X-5.173 Y10.24
X-5.15 Y10.286
X-5.149 Y10.289
X-5.124 Y10.332
X-5.122 Y10.335
X-5.095 Y10.377
X-5.094 Y10.379
X-5.065 Y10.419
X-5.063 Y10.422
X-5.031 Y10.461
X-5.03 Y10.463
X-4.996 Y10.5
X-4.994 Y10.502
X-4.958 Y10.538
X-4.956 Y10.54
X-4.918 Y10.574
X-4.916 Y10.576
X-4.875 Y10.609
X-4.873 Y10.611
X-4.829 Y10.643
X-4.828 Y10.644
X-4.782 Y10.676
X-4.78 Y10.677
X-4.731 Y10.707
X-4.73 Y10.708
X-4.678 Y10.738
X-4.677
X-4.623 Y10.767
X-4.585 Y10.786
X-4.55 Y10.804
X-4.517 Y10.82
X-4.486 Y10.835
X-4.485
X-4.455 Y10.848
X-4.454 Y10.849
X-4.425 Y10.86
X-4.424 Y10.861
X-4.395 Y10.872
X-4.394
X-4.365 Y10.882
X-4.363
X-4.334 Y10.891
X-4.332
X-4.302 Y10.898
X-4.301 Y10.899
X-4.269 Y10.905
X-4.267 Y10.906
X-4.234 Y10.911
X-4.233
X-4.198 Y10.916
X-4.196
X-4.158 Y10.92
X-4.157
X-4.116 Y10.923
X-4.071 Y10.926
X-4.021 Y10.928
X-3.968 Y10.929
X-3.91 Y10.93
X-3.847 Y10.931
X-3.778
X-3.704
X-3.622
X-3.534 Y10.93
X-3.437
X-3.346 Y10.929
X-3.261 Y10.927
X-3.179 Y10.925
X-3.101 Y10.922
X-3.026 Y10.918
X-2.953 Y10.914
X-2.882 Y10.908
X-2.811 Y10.9
X-2.74 Y10.892
X-2.669 Y10.881
X-2.668
X-2.596 Y10.869
X-2.521 Y10.856
X-2.443 Y10.84
X-2.361 Y10.822
X-2.276 Y10.803
X-2.185 Y10.781
X-2.088 Y10.756
X-1.985 Y10.729
X-1.875 Y10.699
X-1.756 Y10.667
X-1.629 Y10.631
X-1.493 Y10.593
X-1.346 Y10.551
X-1.248 Y10.524
X-1.158 Y10.499
X-1.075 Y10.477
X-0.998 Y10.457
X-0.928 Y10.441
X-0.863 Y10.428
X-0.804 Y10.418
X-0.751 Y10.411
X-0.701 Y10.407
X-0.656
X-0.615 Y10.409
X-0.577 Y10.415
X-0.541 Y10.424
X-0.508 Y10.437
X-0.475 Y10.452
X-0.442 Y10.472
X-0.409 Y10.496
X-0.375 Y10.524
X-0.341 Y10.556
X-0.304 Y10.593
X-0.266 Y10.635
X-0.226 Y10.682
X-0.183 Y10.734
X-0.144 Y10.781
X-0.142 Y10.788
X-0.145 Y10.795
X-0.153 Y10.801
X-0.159 Y10.806 Z0.003
X-0.161 Y10.808 Z0.01
G0 Z4.2
X-11.265 Y15.002
Z3.2
G1 Z1.2 F333.3
Z0.01
X-11.263 Y15 Z0.003 F1000
X-11.258 Y14.995 Z0
X-11.25 Y14.988
X-11.243 Y14.985
X-11.236 Y14.989
X-11.146 Y15.086
X-10.951 Y15.297
X-10.768 Y15.498
X-10.72 Y15.552
X-10.675 Y15.602
X-10.634 Y15.647
X-10.597 Y15.689
X-10.564 Y15.727
X-10.534 Y15.762
X-10.507 Y15.793
X-10.484 Y15.821
X-10.465 Y15.846
X-10.448 Y15.868
X-10.435 Y15.887
X-10.424 Y15.904
X-10.417 Y15.917
X-10.412 Y15.928
X-10.41 Y15.935
X-10.409 Y15.94
X-10.41 Y15.941
Y15.943
X-10.412 Y15.945
X-10.416 Y15.95
X-10.422 Y15.955
X-10.43 Y15.962
X-10.441 Y15.97
X-10.449 Y15.976
X-10.462 Y15.984
X-10.478 Y15.995
X-10.498 Y16.009
X-10.521 Y16.024
X-10.548 Y16.041
X-10.578 Y16.06
X-10.611 Y16.081
X-10.646 Y16.103
X-10.684 Y16.128
X-10.725 Y16.153
X-10.768 Y16.18
X-10.814 Y16.209
X-10.861 Y16.238
X-10.91 Y16.269
X-10.961 Y16.301
X-11.014 Y16.334
X-11.068 Y16.367
X-11.123 Y16.402
X-11.18 Y16.437
X-11.237 Y16.472
X-11.296 Y16.508
X-11.355 Y16.545
X-11.415 Y16.582
X-11.503 Y16.636
X-11.585 Y16.686
X-11.661 Y16.732
X-11.733 Y16.775
X-11.799 Y16.815
X-11.86 Y16.851
X-11.916 Y16.884
X-11.968 Y16.913
X-12.015 Y16.94
X-12.058 Y16.963
X-12.097 Y16.984
X-12.132 Y17.002
X-12.164 Y17.017
X-12.192 Y17.029
X-12.216 Y17.039
X-12.237 Y17.047
X-12.255 Y17.052
X-12.269 Y17.055
X-12.279 Y17.056
X-12.286
X-12.29 Y17.055
X-12.292
X-12.294 Y17.053
X-12.298 Y17.048
X-12.308 Y17.036
X-12.322 Y17.019
X-12.34 Y16.997
X-12.361 Y16.971
X-12.386 Y16.94
X-12.413 Y16.906
X-12.444 Y16.867
X-12.477 Y16.825
X-12.514 Y16.779
X-12.552 Y16.73
X-12.594 Y16.677
X-12.637 Y16.622
X-12.683 Y16.563
X-12.731 Y16.503
X-12.78 Y16.439
X-12.831 Y16.374
X-12.884 Y16.306
X-12.939 Y16.236
X-12.994 Y16.165
X-13.051 Y16.092
X-13.109 Y16.017
X-13.167 Y15.942
X-13.227 Y15.865
X-13.499 Y15.516
X-13.763 Y15.179
X-14.019 Y14.855
X-14.268 Y14.544
X-14.508 Y14.245
X-14.74 Y13.961
X-14.963 Y13.689
X-15.177 Y13.432
X-15.383 Y13.188
X-15.579 Y12.959
X-15.766 Y12.744
X-15.944 Y12.543
X-16.111 Y12.358
X-16.269 Y12.187
X-16.417 Y12.032
X-16.555 Y11.891
X-16.682 Y11.767
X-16.683 Y11.766
X-16.799 Y11.658
X-16.8 Y11.657
X-16.906 Y11.565
X-16.907 Y11.563
X-17.001 Y11.488
X-17.004 Y11.486
X-17.087 Y11.427
X-17.09 Y11.424
X-17.162 Y11.382
X-17.168 Y11.379
X-17.228 Y11.353
X-17.238 Y11.35
X-17.287 Y11.341
X-17.302
X-17.323 Y11.343
X-17.332 Y11.345
X-17.357 Y11.354
X-17.363 Y11.356
X-17.392 Y11.37
X-17.396 Y11.372
X-17.43 Y11.392
X-17.433 Y11.394
X-17.471 Y11.42
X-17.473 Y11.421
X-17.516 Y11.453
X-17.518 Y11.454
X-17.566 Y11.493
X-17.567 Y11.494
X-17.621 Y11.539
X-17.622 Y11.54
X-17.681 Y11.592
X-17.746 Y11.653
X-17.817 Y11.72
X-17.895 Y11.794
X-17.978 Y11.876
X-18.068 Y11.966
X-18.164 Y12.065
X-18.267 Y12.171
X-18.377 Y12.285
X-18.495 Y12.409
X-18.62 Y12.541
X-18.752 Y12.682
X-18.892 Y12.832
X-19.041 Y12.991
X-19.197 Y13.161
X-19.362 Y13.34
X-19.462 Y13.448
X-19.561 Y13.555
X-19.66 Y13.662
X-19.758 Y13.767
X-19.855 Y13.872
X-19.95 Y13.974
X-20.044 Y14.075
X-20.137 Y14.173
X-20.227 Y14.27
X-20.315 Y14.363
X-20.4 Y14.453
X-20.483 Y14.54
X-20.562 Y14.623
X-20.638 Y14.702
X-20.71 Y14.778
X-20.777 Y14.848
X-20.841 Y14.914
X-20.9 Y14.975
X-20.955 Y15.03
X-21.004 Y15.08
X-21.048 Y15.124
X-21.086 Y15.161
X-21.118 Y15.192
X-21.144 Y15.216
X-21.227 Y15.291
X-21.306 Y15.361
X-21.382 Y15.426
X-21.455 Y15.486
X-21.523 Y15.541
X-21.588 Y15.591
X-21.65 Y15.636
X-21.708 Y15.676
X-21.763 Y15.711
X-21.813 Y15.741
X-21.861 Y15.767
X-21.904 Y15.787
X-21.944 Y15.803
X-21.979 Y15.813
X-22.011 Y15.82
X-22.038 Y15.822
X-22.061 Y15.82
X-22.079 Y15.816
X-22.095 Y15.809
X-22.109 Y15.799
X-22.122 Y15.785
X-22.133 Y15.766
X-22.144 Y15.743
X-22.152 Y15.715
X-22.16 Y15.665
X-22.163 Y15.595
X-22.161 Y15.506
X-22.153 Y15.401
X-22.14 Y15.28
X-22.122 Y15.145
X-22.099 Y14.997
X-22.073 Y14.838
X-22.041 Y14.668
X-22.006 Y14.488
X-21.967 Y14.3
X-21.925 Y14.104
X-21.88 Y13.902
X-21.831 Y13.695
X-21.78 Y13.484
X-21.726 Y13.27
X-21.67 Y13.053
X-21.611 Y12.836
X-21.551 Y12.619
X-21.49 Y12.403
X-21.427 Y12.189
X-21.363 Y11.978
X-21.298 Y11.772
X-21.232 Y11.572
X-21.136 Y11.289
X-21.039 Y11.016
X-20.942 Y10.753
X-20.844 Y10.5
X-20.747 Y10.258
X-20.649 Y10.027
X-20.552 Y9.807
X-20.454 Y9.598
X-20.357 Y9.4
X-20.261 Y9.214
X-20.165 Y9.04
X-20.07 Y8.877
X-19.975 Y8.726
X-19.882 Y8.588
X-19.789 Y8.463
X-19.698 Y8.35
X-19.609 Y8.25
X-19.521 Y8.163
X-19.436 Y8.089
X-19.352 Y8.029
X-19.272 Y7.983
X-19.194 Y7.95
X-19.119 Y7.93
X-19.046 Y7.922
X-19.044
X-19.037 Y7.923
X-19.029 Y7.924
X-19.018 Y7.926
X-19.007 Y7.929
X-18.994 Y7.932
X-18.98 Y7.936
X-18.965 Y7.941
X-18.949 Y7.946
X-18.932 Y7.951
X-18.914 Y7.957
X-18.895 Y7.963
X-18.876 Y7.97
X-18.857 Y7.978
X-18.836 Y7.985
X-18.816 Y7.994
X-18.795 Y8.002
X-18.773 Y8.011
X-18.752 Y8.02
X-18.73 Y8.029
X-18.708 Y8.039
X-18.686 Y8.049
X-18.665 Y8.059
X-18.643 Y8.069
X-18.577 Y8.102
X-18.507 Y8.139
X-18.434 Y8.18
X-18.358 Y8.226
X-18.278 Y8.276
X-18.195 Y8.331
X-18.109 Y8.39
X-18.018 Y8.453
X-17.925 Y8.52
X-17.828 Y8.592
X-17.728 Y8.669
X-17.624 Y8.75
X-17.517 Y8.835
X-17.406 Y8.924
X-17.292 Y9.018
X-17.174 Y9.117
X-17.052 Y9.22
X-16.928 Y9.327
X-16.799 Y9.439
X-16.667 Y9.556
X-16.532 Y9.677
X-16.392 Y9.802
X-16.25 Y9.932
X-16.103 Y10.067
X-15.935 Y10.223
X-15.754 Y10.394
X-15.562 Y10.578
X-15.358 Y10.774
X-15.146 Y10.981
X-14.924 Y11.198
X-14.696 Y11.424
X-14.461 Y11.657
X-14.221 Y11.897
X-13.977 Y12.142
X-13.731 Y12.391
X-13.482 Y12.644
X-13.233 Y12.898
X-12.984 Y13.153
X-12.737 Y13.408
X-12.493 Y13.661
X-12.252 Y13.911
X-12.017 Y14.158
X-11.787 Y14.4
X-11.565 Y14.637
X-11.35 Y14.865
X-11.236 Y14.989
X-11.233 Y14.996
X-11.237 Y15.003
X-11.244 Y15.009
X-11.249 Y15.014 Z0.003
X-11.251 Y15.016 Z0.01
G0 Z4.2
X-4.555 Y24.478
Z3.2
G1 Z1.2 F333.3
Z0.01
X-4.552 Y24.48 Z0.003 F1000
X-4.546 Y24.484 Z0
X-4.538 Y24.49
X-4.534 Y24.496
X-4.536 Y24.504
X-4.537 Y24.505
X-4.585 Y24.575
Y24.576
X-4.633 Y24.649
X-4.682 Y24.725
X-4.729 Y24.804
X-4.777 Y24.886
X-4.823 Y24.97
X-4.87 Y25.056
X-4.916 Y25.145
X-5.214 Y25.733
X-5.611 Y25.791
X-5.773 Y25.817
X-5.774 Y25.818
X-5.928 Y25.848
X-5.93 Y25.849
X-6.077 Y25.884
X-6.079
X-6.218 Y25.924
X-6.22
X-6.352 Y25.968
X-6.354 Y25.969
X-6.479 Y26.016
X-6.481 Y26.017
X-6.598 Y26.069
X-6.601 Y26.07
X-6.711 Y26.126
X-6.713 Y26.127
X-6.815 Y26.186
X-6.818 Y26.188
X-6.912 Y26.251
X-6.914 Y26.253
X-7.001 Y26.32
X-7.003 Y26.322
X-7.082 Y26.392
X-7.084 Y26.395
X-7.154 Y26.468
X-7.157 Y26.471
X-7.219 Y26.548
X-7.221 Y26.552
X-7.275 Y26.632
X-7.277 Y26.636
X-7.322 Y26.719
X-7.324 Y26.723
X-7.361 Y26.809
X-7.363 Y26.814
X-7.391 Y26.902
X-7.392 Y26.907
X-7.411 Y26.999
X-7.412 Y27.004
X-7.422 Y27.098
Y27.103
X-7.424 Y27.2
Y27.205
X-7.416 Y27.304
X-7.415 Y27.308
X-7.399 Y27.41
X-7.398 Y27.414
X-7.372 Y27.519
X-7.371 Y27.521
X-7.358 Y27.562
Y27.564
X-7.344 Y27.604
X-7.343 Y27.606
X-7.327 Y27.646
X-7.326 Y27.648
X-7.309 Y27.687
X-7.308 Y27.689
X-7.288 Y27.728
X-7.287 Y27.73
X-7.264 Y27.77
X-7.263 Y27.772
X-7.238 Y27.811
X-7.237 Y27.813
X-7.209 Y27.854
X-7.208 Y27.855
X-7.177 Y27.897
X-7.175 Y27.898
X-7.141 Y27.942
X-7.14 Y27.943
X-7.101 Y27.987
X-7.1 Y27.988
X-7.057 Y28.035
X-7.056 Y28.036
X-7.009 Y28.085
Y28.086
X-6.957 Y28.137
X-6.9 Y28.192
X-6.837 Y28.249
X-6.769 Y28.311
X-6.696 Y28.375
X-6.617 Y28.444
X-6.531 Y28.516
X-6.44 Y28.593
X-6.341 Y28.675
X-6.235 Y28.762
X-6.122 Y28.855
X-6.081 Y28.889
X-6.037 Y28.925
X-5.99 Y28.965
X-5.942 Y29.006
X-5.891 Y29.05
X-5.839 Y29.095
X-5.785 Y29.143
X-5.729 Y29.192
X-5.672 Y29.242
X-5.615 Y29.294
X-5.556 Y29.346
X-5.497 Y29.4
X-5.438 Y29.454
X-5.378 Y29.509
X-5.318 Y29.564
X-5.259 Y29.619
X-5.2 Y29.674
X-5.141 Y29.729
X-5.084 Y29.783
X-5.027 Y29.837
X-4.972 Y29.89
X-4.918 Y29.942
X-4.865 Y29.993
X-4.815 Y30.042
X-4.737 Y30.119
X-4.664 Y30.191
X-4.596 Y30.259
X-4.534 Y30.322
X-4.476 Y30.38
X-4.422 Y30.436
X-4.373 Y30.487
X-4.327 Y30.536
X-4.285 Y30.582
X-4.246 Y30.626
X-4.21 Y30.668
X-4.177 Y30.708
X-4.146 Y30.747
X-4.117 Y30.785
X-4.09 Y30.823
X-4.065 Y30.86
X-4.041 Y30.897
X-4.017 Y30.935
X-3.994 Y30.974
X-3.972 Y31.014
X-3.949 Y31.056
X-3.927 Y31.1
X-3.903 Y31.146
X-3.88 Y31.194
X-3.803 Y31.36
X-3.725 Y31.543
X-3.645 Y31.745
X-3.564 Y31.968
X-3.481 Y32.214
X-3.394 Y32.484
X-3.305 Y32.781
X-3.212 Y33.104
X-3.116 Y33.457
X-3.015 Y33.841
X-2.909 Y34.258
X-2.799 Y34.708
X-2.683 Y35.194
X-2.562 Y35.717
X-2.434 Y36.28
X-2.3 Y36.883
X-2.158 Y37.528
X-2.01 Y38.218
X-1.853 Y38.952
X-1.689 Y39.734
X-1.515 Y40.565
X-1.333 Y41.446
X-1.142 Y42.38
X-0.941 Y43.367
X-0.915 Y43.495
X-0.889 Y43.621
X-0.863 Y43.745
X-0.838 Y43.867
X-0.813 Y43.986
X-0.789 Y44.102
X-0.766 Y44.216
X-0.742 Y44.326
X-0.72 Y44.432
X-0.698 Y44.534
X-0.677 Y44.632
X-0.657 Y44.725
X-0.638 Y44.813
X-0.62 Y44.896
X-0.603 Y44.973
X-0.587 Y45.045
X-0.573 Y45.11
X-0.559 Y45.169
X-0.547 Y45.221
X-0.536 Y45.266
X-0.527 Y45.304
X-0.519 Y45.334
Y45.335
X-0.513 Y45.357
X-0.512 Y45.359
X-0.508 Y45.372
X-0.506 Y45.377
X-0.502 Y45.387
X-0.5 Y45.39
X-0.494 Y45.401
X-0.493 Y45.403
X-0.486 Y45.415
X-0.485 Y45.417
X-0.476 Y45.43
X-0.475 Y45.432
X-0.465 Y45.446
X-0.464 Y45.447
X-0.453 Y45.462
X-0.452 Y45.463
X-0.44 Y45.478
X-0.425 Y45.496
X-0.41 Y45.514
X-0.394 Y45.532
X-0.377 Y45.551
X-0.359 Y45.571
X-0.34 Y45.591
X-0.32 Y45.611
X-0.3 Y45.632
X-0.279 Y45.653
X-0.257 Y45.674
X-0.235 Y45.695
X-0.213 Y45.716
X-0.19 Y45.737
X-0.166 Y45.759
X-0.143 Y45.78
X-0.119 Y45.801
X-0.094 Y45.821
X0.01 Y45.908
X0.011
X0.112 Y45.987
X0.113 Y45.988
X0.209 Y46.059
X0.211 Y46.06
X0.304 Y46.123
X0.305 Y46.124
X0.394 Y46.18
X0.396 Y46.181
X0.481 Y46.23
X0.484 Y46.231
X0.565 Y46.272
X0.568 Y46.273
X0.645 Y46.307
X0.648 Y46.308
X0.722 Y46.335
X0.726 Y46.336
X0.796 Y46.354
X0.8 Y46.355
X0.867 Y46.367
X0.872
X0.934 Y46.371
X0.94
X0.998 Y46.367
X1.005 Y46.366
X1.06 Y46.355
X1.067 Y46.353
X1.117 Y46.335
X1.125 Y46.331
X1.171 Y46.305
X1.178 Y46.301
X1.22 Y46.267
X1.225 Y46.262
X1.264 Y46.221
X1.268 Y46.216
X1.303 Y46.167
X1.306 Y46.162
X1.336 Y46.106
X1.339 Y46.102
X1.365 Y46.038
X1.367 Y46.034
X1.389 Y45.963
X1.39 Y45.96
X1.409 Y45.881
Y45.878
X1.424 Y45.792
Y45.789
X1.434 Y45.692
Y45.688
X1.438 Y45.578
Y45.575
X1.435 Y45.452
Y45.449
X1.426 Y45.311
Y45.309
X1.41 Y45.156
Y45.154
X1.387 Y44.985
Y44.983
X1.357 Y44.796
Y44.795
X1.32 Y44.591
X1.275 Y44.366
X1.223 Y44.122
X1.162 Y43.857
X1.094 Y43.571
X1.017 Y43.262
X0.931 Y42.93
X0.837 Y42.574
X0.733 Y42.193
X0.62 Y41.786
X0.498 Y41.353
X0.366 Y40.891
X0.224 Y40.401
X0.072 Y39.882
X-0.09 Y39.332
X-0.263 Y38.751
X-0.446 Y38.138
X-0.559 Y37.763
X-0.68 Y37.365
X-0.809 Y36.944
X-0.943 Y36.507
X-1.082 Y36.055
X-1.225 Y35.592
X-1.371 Y35.123
X-1.518 Y34.649
X-1.666 Y34.176
X-1.813 Y33.706
X-1.959 Y33.243
X-2.102 Y32.791
X-2.24 Y32.352
X-2.374 Y31.931
X-2.502 Y31.531
X-2.622 Y31.155
X-2.734 Y30.807
X-2.836 Y30.491
X-2.928 Y30.21
X-3.008 Y29.968
X-3.075 Y29.768
X-3.128 Y29.613
X-3.167 Y29.506
X-3.168 Y29.504
X-3.19 Y29.451
X-3.193 Y29.445
X-3.197 Y29.438
X-3.199 Y29.435
X-3.204 Y29.428
X-3.206 Y29.425
X-3.212 Y29.418
X-3.214 Y29.416
X-3.221 Y29.409
X-3.223 Y29.407
X-3.231 Y29.4
X-3.232 Y29.399
X-3.24 Y29.392
X-3.242 Y29.391
X-3.251 Y29.383
X-3.252 Y29.382
X-3.262 Y29.375
X-3.264 Y29.374
X-3.274 Y29.367
X-3.275 Y29.366
X-3.287 Y29.359
X-3.288 Y29.358
X-3.299 Y29.351
X-3.3 Y29.35
X-3.313 Y29.343
X-3.314 Y29.342
X-3.327 Y29.335
Y29.334
X-3.341 Y29.327
X-3.355 Y29.32
X-3.37 Y29.313
X-3.372 Y29.312
X-3.386 Y29.305
X-3.402 Y29.299
X-3.417 Y29.292
X-3.434 Y29.286
X-3.435 Y29.285
X-3.45 Y29.279
X-3.467 Y29.274
X-3.483 Y29.268
X-3.5 Y29.263
X-3.608 Y29.23
X-3.722 Y29.192
X-3.841 Y29.15
X-3.965 Y29.103
X-4.092 Y29.054
X-4.223 Y29.001
X-4.356 Y28.945
X-4.49 Y28.888
X-4.625 Y28.828
X-4.76 Y28.766
X-4.894 Y28.704
X-5.026 Y28.64
X-5.155 Y28.576
X-5.281 Y28.512
X-5.403 Y28.449
X-5.519 Y28.386
X-5.63 Y28.325
X-5.734 Y28.265
X-5.831 Y28.207
X-5.919 Y28.152
X-5.999 Y28.099
X-6.068 Y28.05
X-6.126 Y28.004
X-6.172 Y27.963
X-6.205 Y27.931
X-6.235 Y27.9
X-6.262 Y27.87
X-6.287 Y27.841
X-6.308 Y27.813
X-6.327 Y27.787
X-6.343 Y27.761
X-6.357 Y27.737
X-6.367 Y27.713
X-6.375 Y27.691
X-6.381 Y27.67
X-6.384 Y27.65
X-6.385 Y27.63
Y27.611
X-6.382 Y27.593
X-6.377 Y27.574
X-6.369 Y27.555
X-6.359 Y27.535
X-6.347 Y27.515
X-6.332 Y27.495
X-6.315 Y27.474
X-6.294 Y27.452
X-6.271 Y27.43
X-6.246 Y27.407
X-6.216 Y27.384
X-6.186 Y27.362
X-6.153 Y27.342
X-6.119 Y27.322
X-6.083 Y27.304
X-6.046 Y27.288
X-6.006 Y27.273
X-5.965 Y27.259
X-5.921 Y27.246
X-5.876 Y27.235
X-5.828 Y27.226
X-5.778 Y27.217
X-5.726 Y27.21
X-5.672 Y27.204
X-5.616 Y27.2
X-5.557 Y27.197
X-5.496 Y27.196
X-5.433
X-5.367 Y27.197
X-5.298 Y27.2
X-5.227 Y27.204
X-5.154 Y27.209
X-5.078 Y27.216
X-4.999 Y27.224
X-4.88 Y27.236
X-4.769 Y27.246
X-4.665 Y27.254
X-4.664
X-4.569 Y27.259
X-4.567
X-4.479 Y27.261
X-4.477
X-4.396 Y27.26
X-4.394
X-4.319 Y27.255
X-4.316
X-4.248 Y27.247
X-4.245
X-4.182 Y27.236
X-4.179 Y27.235
X-4.122 Y27.22
X-4.117 Y27.218
X-4.066 Y27.199
X-4.061 Y27.197
X-4.015 Y27.174
X-4.01 Y27.171
X-3.968 Y27.144
X-3.963 Y27.14
X-3.926 Y27.108
X-3.922 Y27.104
X-3.889 Y27.067
X-3.885 Y27.062
X-3.856 Y27.021
X-3.853 Y27.017
X-3.828 Y26.97
X-3.826 Y26.966
X-3.804 Y26.915
X-3.803 Y26.911
X-3.784 Y26.854
X-3.783 Y26.851
X-3.766 Y26.789
Y26.786
X-3.752 Y26.719
X-3.751 Y26.717
X-3.739 Y26.643
Y26.641
X-3.729 Y26.562
Y26.56
X-3.72 Y26.474
X-3.71 Y26.377
X-3.7 Y26.285
X-3.688 Y26.197
X-3.676 Y26.114
X-3.663 Y26.035
X-3.648 Y25.961
X-3.633 Y25.891
X-3.617 Y25.826
X-3.599 Y25.765
X-3.581 Y25.709
X-3.562 Y25.657
X-3.542 Y25.61
X-3.521 Y25.567
X-3.499 Y25.528
X-3.477 Y25.494
X-3.454 Y25.463
X-3.43 Y25.437
X-3.406 Y25.416
X-3.381 Y25.397
X-3.356 Y25.383
X-3.33 Y25.372
X-3.302 Y25.364
X-3.274 Y25.359
X-3.244 Y25.358
X-3.209 Y25.36
X-3.175 Y25.367
X-3.141 Y25.378
X-3.106 Y25.395
X-3.071 Y25.417
X-3.035 Y25.444
X-2.999 Y25.477
X-2.962 Y25.516
X-2.926 Y25.561
X-2.889 Y25.612
X-2.851 Y25.669
X-2.814 Y25.733
X-2.776 Y25.802
X-2.738 Y25.878
X-2.7 Y25.96
X-2.662 Y26.048
X-2.624 Y26.143
X-2.586 Y26.244
X-2.547 Y26.351
X-2.508 Y26.465
X-2.469 Y26.586
X-2.43 Y26.713
X-2.39 Y26.846
X-2.35 Y26.987
X-2.331 Y27.053
X-2.312 Y27.117
X-2.292 Y27.18
X-2.272 Y27.242
X-2.251 Y27.301
X-2.231 Y27.359
X-2.21 Y27.414
X-2.188 Y27.468
X-2.167 Y27.52
X-2.145 Y27.569
Y27.57
X-2.123 Y27.617
Y27.618
X-2.101 Y27.662
X-2.1 Y27.663
X-2.079 Y27.705
X-2.078 Y27.706
X-2.056 Y27.746
Y27.747
X-2.034 Y27.784
X-2.033 Y27.785
X-2.012 Y27.82
X-2.011 Y27.821
X-1.989 Y27.853
X-1.988 Y27.855
X-1.966 Y27.884
X-1.965 Y27.886
X-1.943 Y27.913
X-1.942 Y27.915
X-1.921 Y27.939
X-1.919 Y27.941
X-1.897 Y27.962
X-1.895 Y27.964
X-1.874 Y27.983
X-1.871 Y27.985
X-1.85 Y28
X-1.846 Y28.003
X-1.826 Y28.015
X-1.821 Y28.018
X-1.764 Y28.044
X-1.759 Y28.046
X-1.7 Y28.065
X-1.694 Y28.066
X-1.634 Y28.078
X-1.628
X-1.566 Y28.082
X-1.56
X-1.497 Y28.079
X-1.491 Y28.078
X-1.426 Y28.067
X-1.421 Y28.066
X-1.354 Y28.048
X-1.35 Y28.047
X-1.281 Y28.022
X-1.278 Y28.02
X-1.208 Y27.988
X-1.205 Y27.986
X-1.133 Y27.946
X-1.13 Y27.945
X-1.058 Y27.898
X-1.055 Y27.896
X-0.981 Y27.842
X-0.979 Y27.841
X-0.904 Y27.78
X-0.902 Y27.778
X-0.825 Y27.711
X-0.824 Y27.709
X-0.745 Y27.634
X-0.744 Y27.633
X-0.665 Y27.551
X-0.664 Y27.55
X-0.583 Y27.461
X-0.582 Y27.46
X-0.501 Y27.364
X-0.5 Y27.363
X-0.417 Y27.261
Y27.26
X-0.333 Y27.15
X-0.332 Y27.149
X-0.248 Y27.033
X-0.247 Y27.032
X-0.162 Y26.909
X-0.075 Y26.779
X0.013 Y26.642
X0.033 Y26.611
X0.052 Y26.581
X0.071 Y26.551
X0.09 Y26.523
X0.109 Y26.495
X0.128 Y26.468
X0.147 Y26.442
X0.165 Y26.416
X0.182 Y26.392
X0.2 Y26.369
X0.216 Y26.347
X0.233 Y26.326
X0.248 Y26.307
X0.263 Y26.289
X0.277 Y26.273
X0.29 Y26.258
X0.302 Y26.245
X0.313 Y26.233
X0.323 Y26.224
X0.331 Y26.217
X0.337 Y26.212
X0.341 Y26.213
X0.355 Y26.215
X0.371 Y26.22
X0.389 Y26.227
X0.408 Y26.237
X0.43 Y26.248
X0.452 Y26.262
X0.475 Y26.278
X0.498 Y26.295
X0.522 Y26.314
X0.547 Y26.335
X0.571 Y26.357
X0.595 Y26.38
X0.619 Y26.404
X0.643 Y26.43
X0.667 Y26.456
X0.689 Y26.483
X0.711 Y26.51
X0.732 Y26.538
X0.752 Y26.566
X0.77 Y26.594
X0.788 Y26.622
X0.803 Y26.65
X0.817 Y26.677
X0.85 Y26.751
X0.877 Y26.826
X0.899 Y26.901
X0.915 Y26.976
X0.925 Y27.053
X0.929 Y27.131
X0.928 Y27.211
X0.921 Y27.292
X0.909 Y27.374
X0.89 Y27.458
X0.866 Y27.545
X0.835 Y27.633
X0.798 Y27.723
X0.755 Y27.816
X0.706 Y27.91
X0.651 Y28.007
X0.589 Y28.107
X0.521 Y28.208
X0.447 Y28.313
X0.366 Y28.42
X0.278 Y28.529
X0.184 Y28.642
X0.084 Y28.757
X-0.024 Y28.876
X-0.097 Y28.955
X-0.166 Y29.032
X-0.231 Y29.105
X-0.293 Y29.176
X-0.352 Y29.244
X-0.407 Y29.309
X-0.458 Y29.373
X-0.507 Y29.435
X-0.553 Y29.495
X-0.596 Y29.553
X-0.597 Y29.554
X-0.637 Y29.61
Y29.611
X-0.675 Y29.667
Y29.668
X-0.71 Y29.722
X-0.711 Y29.724
X-0.744 Y29.778
X-0.745 Y29.779
X-0.776 Y29.833
Y29.834
X-0.805 Y29.887
X-0.806 Y29.889
X-0.833 Y29.943
X-0.834 Y29.944
X-0.86 Y29.998
Y29.999
X-0.885 Y30.054
Y30.055
X-0.908 Y30.111
X-0.909 Y30.112
X-0.931 Y30.169
Y30.17
X-0.953 Y30.228
X-0.973 Y30.288
X-0.993 Y30.351
X-0.994 Y30.352
X-1.039 Y30.51
Y30.513
X-1.076 Y30.676
X-1.077 Y30.679
X-1.106 Y30.847
X-1.107 Y30.849
X-1.128 Y31.023
Y31.025
X-1.141 Y31.204
Y31.206
X-1.147 Y31.391
Y31.393
X-1.144 Y31.584
Y31.586
X-1.133 Y31.783
X-1.132 Y31.785
X-1.113 Y31.988
Y31.99
X-1.086 Y32.2
X-1.085 Y32.202
X-1.05 Y32.419
X-1.049 Y32.421
X-1.005 Y32.645
Y32.646
X-0.953 Y32.878
X-0.952 Y32.879
X-0.891 Y33.118
Y33.119
X-0.822 Y33.367
X-0.821 Y33.368
X-0.744 Y33.623
X-0.743 Y33.624
X-0.657 Y33.887
X-0.561 Y34.16
X-0.457 Y34.442
X-0.345 Y34.732
X-0.223 Y35.032
X-0.093 Y35.341
X0.046 Y35.66
X0.194 Y35.988
X0.224 Y36.054
X0.255 Y36.12
X0.286 Y36.188
X0.317 Y36.257
X0.349 Y36.327
X0.381 Y36.397
X0.413 Y36.468
X0.446 Y36.538
X0.478 Y36.609
X0.51 Y36.679
X0.541 Y36.748
X0.573 Y36.817
X0.603 Y36.884
X0.634 Y36.95
X0.663 Y37.015
X0.692 Y37.078
X0.72 Y37.139
X0.746 Y37.198
X0.772 Y37.254
X0.796 Y37.308
X0.819 Y37.359
X0.841 Y37.406
X0.861 Y37.451
X0.88 Y37.491
X0.897 Y37.531
X0.915 Y37.571
X0.933 Y37.613
X0.951 Y37.656
X0.969 Y37.699
X0.987 Y37.744
X1.005 Y37.789
X1.023 Y37.834
X1.041 Y37.879
X1.058 Y37.925
X1.075 Y37.971
X1.092 Y38.016
X1.109 Y38.061
X1.125 Y38.106
X1.14 Y38.15
X1.155 Y38.192
X1.169 Y38.234
X1.182 Y38.275
X1.195 Y38.315
X1.207 Y38.353
X1.218 Y38.389
X1.228 Y38.424
X1.237 Y38.456
X1.245 Y38.487
X1.262 Y38.552
X1.281 Y38.623
X1.302 Y38.699
X1.324 Y38.78
X1.349 Y38.868
X1.376 Y38.962
X1.406 Y39.062
X1.438 Y39.171
X1.472 Y39.286
X1.509 Y39.41
X1.55 Y39.543
X1.593 Y39.684
X1.639 Y39.835
X1.689 Y39.996
X1.742 Y40.166
X1.799 Y40.347
X1.859 Y40.54
X1.923 Y40.743
X1.99 Y40.959
X2.062 Y41.186
X2.138 Y41.426
X2.218 Y41.679
X2.303 Y41.946
X2.392 Y42.226
X2.427 Y42.338
X2.463 Y42.45
X2.498 Y42.562
X2.533 Y42.673
X2.568 Y42.783
X2.602 Y42.893
X2.636 Y43
X2.669 Y43.106
X2.701 Y43.21
X2.732 Y43.312
X2.763 Y43.411
X2.792 Y43.506
X2.821 Y43.599
X2.848 Y43.687
X2.873 Y43.772
X2.898 Y43.852
X2.92 Y43.928
X2.941 Y43.999
X2.961 Y44.064
X2.978 Y44.124
X2.994 Y44.178
X3.008 Y44.226
X3.019 Y44.267
X3.029 Y44.301
X3.047 Y44.367
X3.065 Y44.43
X3.083 Y44.488
Y44.489
X3.101 Y44.543
Y44.544
X3.12 Y44.593
Y44.595
X3.139 Y44.64
X3.14 Y44.642
X3.159 Y44.684
X3.16 Y44.686
X3.18 Y44.725
X3.182 Y44.727
X3.203 Y44.762
X3.204 Y44.765
X3.226 Y44.797
X3.229 Y44.8
X3.252 Y44.829
X3.255 Y44.832
X3.28 Y44.858
X3.283 Y44.861
X3.31 Y44.884
X3.313 Y44.887
X3.341 Y44.908
X3.345 Y44.91
X3.375 Y44.928
X3.379 Y44.93
X3.411 Y44.947
X3.415 Y44.948
X3.45 Y44.963
X3.453 Y44.964
X3.49 Y44.976
X3.493 Y44.977
X3.533 Y44.987
X3.536 Y44.988
X3.579 Y44.997
X3.581 Y44.998
X3.627 Y45.005
X3.628
X3.677 Y45.012
X3.679
X3.731 Y45.018
X3.732
X3.788 Y45.022
X3.79
X3.857 Y45.026
X3.859
X3.924
X3.927
X3.991 Y45.023
X3.993 Y45.022
X4.056 Y45.016
X4.058
X4.119 Y45.007
X4.122 Y45.006
X4.181 Y44.994
X4.184 Y44.993
X4.242 Y44.978
X4.244 Y44.977
X4.301 Y44.959
X4.303 Y44.958
X4.358 Y44.937
X4.36 Y44.935
X4.413 Y44.911
X4.416 Y44.91
X4.467 Y44.883
X4.469 Y44.882
X4.518 Y44.852
X4.521 Y44.85
X4.568 Y44.817
X4.57 Y44.816
X4.615 Y44.78
X4.617 Y44.778
X4.66 Y44.74
X4.662 Y44.738
X4.703 Y44.697
X4.705 Y44.695
X4.744 Y44.652
X4.746 Y44.649
X4.782 Y44.603
X4.784 Y44.601
X4.818 Y44.552
X4.82 Y44.55
X4.852 Y44.499
X4.853 Y44.496
X4.883 Y44.442
X4.884 Y44.44
X4.911 Y44.384
X4.912 Y44.381
X4.937 Y44.323
X4.938 Y44.32
X4.96 Y44.259
X4.961 Y44.257
X4.972 Y44.22
X4.973 Y44.217
X4.983 Y44.176
Y44.174
X4.992 Y44.128
Y44.126
X5 Y44.078
Y44.076
X5.006 Y44.024
Y44.022
X5.012 Y43.967
Y43.966
X5.016 Y43.908
Y43.906
X5.019 Y43.846
X5.021 Y43.782
Y43.716
Y43.649
X5.02 Y43.58
X5.017 Y43.51
X5.013 Y43.44
X5.009 Y43.369
X5.003 Y43.298
X4.996 Y43.227
X4.988 Y43.156
X4.979 Y43.086
X4.969 Y43.017
X4.958 Y42.949
X4.946 Y42.883
Y42.882
X4.933 Y42.819
Y42.818
X4.919 Y42.757
Y42.756
X4.885 Y42.622
X4.845 Y42.476
X4.8 Y42.32
X4.749 Y42.153
X4.691 Y41.973
X4.627 Y41.781
X4.556 Y41.576
X4.478 Y41.357
X4.392 Y41.123
X4.3 Y40.875
X4.2 Y40.611
X4.092 Y40.331
X3.975 Y40.034
X3.851 Y39.72
X3.718 Y39.388
X3.576 Y39.038
X3.425 Y38.668
X3.265 Y38.279
X3.095 Y37.87
X2.916 Y37.439
X2.727 Y36.988
X2.527 Y36.514
X2.318 Y36.018
X2.097 Y35.499
X1.906 Y35.049
X1.727 Y34.627
X1.561 Y34.233
X1.407 Y33.866
X1.263 Y33.524
X1.132 Y33.207
X1.01 Y32.914
X0.9 Y32.645
X0.799 Y32.397
X0.708 Y32.17
X0.626 Y31.963
X0.554 Y31.775
X0.489 Y31.606
X0.433 Y31.453
X0.385 Y31.317
X0.345 Y31.197
X0.311 Y31.091
X0.285 Y30.998
X0.264 Y30.919
X0.25 Y30.851
X0.242 Y30.795
X0.238 Y30.749
X0.239 Y30.713
X0.243 Y30.685
X0.247 Y30.672
X0.254 Y30.655
X0.262 Y30.636
X0.274 Y30.613
X0.288 Y30.587
X0.305 Y30.557
X0.326 Y30.524
X0.35 Y30.487
X0.378 Y30.445
X0.41 Y30.399
X0.446 Y30.349
X0.486 Y30.293
X0.531 Y30.232
X0.581 Y30.165
X0.635 Y30.092
X0.695 Y30.013
X0.76 Y29.928
X0.831 Y29.836
X0.908 Y29.737
X0.991 Y29.63
X1.08 Y29.516
X1.175 Y29.394
X1.278 Y29.263
X1.387 Y29.124
X1.465 Y29.024
X1.539 Y28.927
X1.609 Y28.833
X1.676 Y28.741
X1.74 Y28.651
X1.8 Y28.564
X1.857 Y28.479
X1.91 Y28.396
X1.96 Y28.315
X2.007 Y28.236
X2.051 Y28.16
Y28.159
X2.091 Y28.084
Y28.083
X2.128 Y28.011
X2.129 Y28.01
X2.162 Y27.939
X2.163 Y27.938
X2.194 Y27.869
Y27.868
X2.222 Y27.8
Y27.799
X2.247 Y27.732
X2.248 Y27.731
X2.269 Y27.666
X2.27 Y27.664
X2.289 Y27.601
Y27.599
X2.305 Y27.537
X2.306 Y27.535
X2.319 Y27.473
Y27.471
X2.33 Y27.411
Y27.409
X2.338 Y27.349
X2.339 Y27.347
X2.344 Y27.288
Y27.287
X2.368 Y26.937
X2.367 Y26.922
X2.361 Y26.908
X1.924 Y26.188
X1.894 Y26.138
X1.863 Y26.088
X1.832 Y26.038
X1.801 Y25.987
X1.769 Y25.937
X1.738 Y25.887
X1.707 Y25.837
X1.676 Y25.787
X1.645 Y25.739
X1.614 Y25.691
X1.584 Y25.644
X1.555 Y25.599
X1.526 Y25.554
X1.498 Y25.511
X1.471 Y25.47
X1.445 Y25.43
X1.42 Y25.393
X1.396 Y25.357
X1.373 Y25.323
X1.352 Y25.292
X1.332 Y25.263
X1.313 Y25.237
X1.296 Y25.213
X1.281 Y25.193
X1.28 Y25.192
X1.255 Y25.159
X1.254 Y25.158
X1.228 Y25.126
X1.227 Y25.125
X1.2 Y25.094
Y25.093
X1.172 Y25.063
X1.171 Y25.062
X1.143 Y25.033
X1.142 Y25.032
X1.114 Y25.005
X1.113 Y25.004
X1.084 Y24.977
X1.083 Y24.976
X1.054 Y24.95
X1.053
X1.024 Y24.925
X1.023 Y24.924
X0.993 Y24.901
X0.992 Y24.9
X0.962 Y24.879
X0.961 Y24.878
X0.931 Y24.857
X0.93 Y24.856
X0.9 Y24.837
X0.899 Y24.836
X0.869 Y24.819
X0.868 Y24.818
X0.838 Y24.802
X0.837 Y24.801
X0.807 Y24.786
X0.805
X0.776 Y24.773
X0.774 Y24.772
X0.746 Y24.76
X0.744
X0.715 Y24.75
X0.713 Y24.749
X0.685 Y24.741
X0.683
X0.655 Y24.734
X0.652
X0.626 Y24.729
X0.622
X0.597 Y24.726
X0.593
X0.568 Y24.725
X0.564
X0.535 Y24.727
X0.531
X0.501 Y24.731
X0.498 Y24.732
X0.466 Y24.738
X0.463 Y24.739
X0.43 Y24.748
X0.428
X0.394 Y24.759
X0.391 Y24.76
X0.356 Y24.773
X0.354 Y24.774
X0.317 Y24.79
X0.315
X0.277 Y24.808
X0.276 Y24.809
X0.236 Y24.829
X0.235 Y24.83
X0.195 Y24.852
X0.193 Y24.853
X0.152 Y24.877
X0.151 Y24.878
X0.108 Y24.904
X0.107 Y24.905
X0.063 Y24.934
X0.018 Y24.965
X0.017
X-0.028 Y24.998
X-0.075 Y25.034
X-0.123 Y25.071
X-0.172 Y25.11
X-0.222 Y25.152
X-0.272 Y25.195
X-0.322 Y25.24
X-0.374 Y25.287
X-0.426 Y25.336
X-0.478 Y25.386
X-0.875 Y25.774
X-0.939 Y25.656
X-0.974 Y25.594
X-1.01 Y25.53
X-1.049 Y25.464
X-1.089 Y25.398
X-1.13 Y25.332
X-1.173 Y25.264
X-1.218 Y25.197
X-1.263 Y25.129
X-1.309 Y25.061
X-1.356 Y24.994
X-1.403 Y24.928
X-1.451 Y24.862
X-1.499 Y24.798
X-1.547 Y24.734
X-1.595 Y24.673
X-1.643 Y24.613
X-1.69 Y24.555
X-1.736 Y24.499
X-1.782 Y24.445
X-1.827 Y24.394
X-1.871 Y24.346
X-1.914 Y24.301
X-1.915 Y24.3
X-1.955 Y24.259
X-1.956 Y24.258
X-1.995 Y24.221
X-1.996 Y24.22
X-2.072 Y24.151
X-2.073 Y24.15
X-2.148 Y24.085
X-2.149 Y24.084
X-2.223 Y24.024
X-2.225 Y24.023
X-2.298 Y23.967
X-2.3 Y23.966
X-2.373 Y23.914
X-2.374 Y23.913
X-2.447 Y23.865
X-2.448 Y23.864
X-2.52 Y23.821
X-2.522 Y23.82
X-2.593 Y23.781
X-2.595 Y23.78
X-2.665 Y23.745
X-2.668 Y23.744
X-2.738 Y23.714
X-2.74 Y23.713
X-2.81 Y23.686
X-2.812
X-2.881 Y23.664
X-2.884 Y23.663
X-2.952 Y23.645
X-2.955 Y23.644
X-3.023 Y23.631
X-3.026 Y23.63
X-3.093 Y23.621
X-3.097
X-3.164 Y23.616
X-3.167
X-3.233 Y23.615
X-3.237
X-3.303 Y23.618
X-3.306 Y23.619
X-3.372 Y23.626
X-3.375 Y23.627
X-3.441 Y23.638
X-3.444 Y23.639
X-3.509 Y23.655
X-3.512 Y23.656
X-3.577 Y23.676
X-3.58 Y23.677
X-3.644 Y23.701
X-3.647 Y23.703
X-3.711 Y23.731
X-3.714 Y23.732
X-3.765 Y23.758
X-3.767 Y23.759
X-3.818 Y23.788
X-3.82 Y23.789
X-3.871 Y23.821
X-3.873 Y23.822
X-3.924 Y23.857
X-3.925 Y23.858
X-3.976 Y23.895
X-3.978 Y23.897
X-4.029 Y23.937
X-4.03 Y23.938
X-4.081 Y23.981
X-4.082 Y23.983
X-4.132 Y24.029
X-4.134 Y24.03
X-4.184 Y24.079
X-4.185 Y24.08
X-4.235 Y24.131
X-4.236 Y24.132
X-4.286 Y24.187
X-4.287 Y24.188
X-4.337 Y24.245
X-4.338 Y24.246
X-4.387 Y24.306
X-4.388 Y24.307
X-4.437 Y24.369
X-4.438 Y24.37
X-4.487 Y24.435
Y24.436
X-4.536 Y24.504
X-4.543 Y24.508
X-4.55 Y24.506
X-4.558 Y24.5
X-4.564 Y24.496 Z0.003
X-4.566 Y24.495 Z0.01
G0 Z4.2
X9.401 Y20.323
Z3.2
G1 Z1.2 F333.3
Z0.01
X9.404 Y20.324 Z0.003 F1000
X9.411 Z0
X9.421 Y20.326
X9.428 Y20.329
X9.43 Y20.337
X9.424 Y20.383
X9.419 Y20.427
X9.415 Y20.466
X9.412 Y20.503
X9.409 Y20.538
Y20.539
X9.408 Y20.57
Y20.571
X9.407 Y20.6
Y20.601
Y20.628
Y20.63
X9.409 Y20.656
Y20.658
X9.411 Y20.682
X9.412 Y20.684
X9.415 Y20.707
X9.416 Y20.71
X9.421 Y20.732
Y20.735
X9.427 Y20.757
X9.428 Y20.76
X9.435 Y20.782
X9.436 Y20.784
X9.444 Y20.807
X9.445 Y20.808
X9.454 Y20.832
X9.455 Y20.833
X9.466 Y20.857
X9.467 Y20.858
X9.479 Y20.884
X9.493 Y20.912
X9.509 Y20.942
X9.526 Y20.973
X9.545 Y21.007
Y21.009
X9.577 Y21.063
X9.579 Y21.066
X9.615 Y21.121
X9.617 Y21.123
X9.657 Y21.178
X9.658 Y21.179
X9.702 Y21.234
X9.703 Y21.236
X9.75 Y21.29
X9.752 Y21.291
X9.802 Y21.345
X9.803 Y21.346
X9.856 Y21.398
X9.857 Y21.4
X9.912 Y21.451
X9.914 Y21.452
X9.971 Y21.502
X9.972 Y21.503
X10.031 Y21.551
X10.032 Y21.552
X10.093 Y21.599
X10.094
X10.155 Y21.644
X10.157 Y21.645
X10.219 Y21.687
X10.22 Y21.688
X10.283 Y21.727
X10.284 Y21.728
X10.347 Y21.765
X10.349 Y21.766
X10.412 Y21.8
X10.413 Y21.801
X10.475 Y21.831
X10.477 Y21.832
X10.539 Y21.86
X10.541 Y21.861
X10.601 Y21.884
X10.603 Y21.885
X10.662 Y21.905
X10.665 Y21.906
X10.722 Y21.922
X10.725 Y21.923
X10.78 Y21.934
X10.784 Y21.935
X10.837 Y21.942
X10.841
X10.891 Y21.945
X10.895
X10.948 Y21.943
X10.952
X11.002 Y21.937
X11.006 Y21.936
X11.055 Y21.927
X11.059 Y21.926
X11.106 Y21.913
X11.11 Y21.911
X11.155 Y21.895
X11.159 Y21.893
X11.203 Y21.873
X11.206 Y21.871
X11.248 Y21.847
X11.251 Y21.845
X11.291 Y21.818
X11.294 Y21.815
