(DoubleCircles)
(Machine)
(  vendor: Autodesk)
(  description: Generic 3-axis)
(T3  D=3 CR=0 - ZMIN=0.4 - flat end mill)
G90 G94
G17
G21
G28 G91 Z0
G90

(2D Pocket4)
T3
S5000 M3
G54
M8
G0 X10.251 Y25.694
Z15
Z5
G1 Z3.2 F1000
X10.218 Y25.699 Z3.064 F333.3
X10.129 Y25.71 Z2.958
X10 Y25.716 Z2.904
X9.962 Y25.715 Z2.9
G3 X10.038 Y22.866 Z2.744 I0.038 J-1.425
X9.962 Y25.715 Z2.587 I-0.038 J1.425
X10.038 Y22.866 Z2.431 I0.038 J-1.425
X9.962 Y25.715 Z2.275 I-0.038 J1.425
X10.038 Y22.866 Z2.118 I0.038 J-1.425
X9.962 Y25.715 Z1.962 I-0.038 J1.425
X10.038 Y22.866 Z1.806 I0.038 J-1.425
X9.962 Y25.715 Z1.649 I-0.038 J1.425
X10.038 Y22.866 Z1.493 I0.038 J-1.425
X9.962 Y25.715 Z1.337 I-0.038 J1.425
X10.038 Y22.866 Z1.18 I0.038 J-1.425
X9.962 Y25.715 Z1.024 I-0.038 J1.425
X10.038 Y22.866 Z0.868 I0.038 J-1.425
X9.962 Y25.715 Z0.711 I-0.038 J1.425
X10.038 Y22.866 Z0.555 I0.038 J-1.425
X10 Y25.716 Z0.4 I-0.038 J1.425
X9.284 Y25 I0 J-0.716 F1000
X10 Y24.284 I0.716 J0
X10.716 Y25 I0 J0.716
X10 Y25.716 I-0.716 J0
G2 X9.088 Y26.201 I0 J1.1
G3 X8.056 Y26.175 I-0.508 J-0.343
X7.729 Y25 I1.944 J-1.175
X10 Y22.729 I2.271 J0
X12.271 Y25 I0 J2.271
X10 Y27.271 I-2.271 J0
X8.056 Y26.175 I0 J-2.271
G2 X6.322 Y25.183 I-1.759 J1.063
G3 X5.133 Y23.576 I0.015 J-1.254
X15.071 Y25 I4.867 J1.424
X4.929 Y25 I-5.071 J0
X5.133 Y23.576 I5.071 J0
G1 X5.154 Y23.523 Z0.411
X5.185 Y23.475 Z0.423
X5.218 Y23.439 Z0.455
X5.257 Y23.409 Z0.488
X5.314 Y23.38 Z0.585
X5.336 Y23.373 Z0.7
G0 Z15
X65.651 Y25.251
Z5
G1 Z3.2 F1000
X65.646 Y25.218 Z3.064 F333.3
X65.635 Y25.129 Z2.958
X65.629 Y25 Z2.904
Y24.962 Z2.9
G3 X68.478 Y25.038 Z2.744 I1.425 J0.038
X65.629 Y24.962 Z2.587 I-1.425 J-0.038
X68.478 Y25.038 Z2.431 I1.425 J0.038
X65.629 Y24.962 Z2.275 I-1.425 J-0.038
X68.478 Y25.038 Z2.118 I1.425 J0.038
X65.629 Y24.962 Z1.962 I-1.425 J-0.038
X68.478 Y25.038 Z1.806 I1.425 J0.038
X65.629 Y24.962 Z1.649 I-1.425 J-0.038
X68.478 Y25.038 Z1.493 I1.425 J0.038
X65.629 Y24.962 Z1.337 I-1.425 J-0.038
X68.478 Y25.038 Z1.18 I1.425 J0.038
X65.629 Y24.962 Z1.024 I-1.425 J-0.038
X68.478 Y25.038 Z0.868 I1.425 J0.038
X65.629 Y24.962 Z0.711 I-1.425 J-0.038
X68.478 Y25.038 Z0.555 I1.425 J0.038
X65.629 Y25 Z0.4 I-1.425 J-0.038
X67.221 Y25 I0.796 J0 F1000
X62.779 Y25 I-2.221 J0
X70.071 Y25 I3.646 J0
X59.929 Y25 I-5.071 J0
X70.071 Y25 I5.071 J0
G1 X70.066 Y25.057 Z0.411
X70.049 Y25.112 Z0.423
X70.028 Y25.155 Z0.455
X69.999 Y25.195 Z0.488
X69.952 Y25.239 Z0.585
X69.933 Y25.252 Z0.7
G0 Z15
M9
G28 G91 Z0
G90
G28 G91 X0 Y0
G90
M5
M30
