(1001)
(T4  D=0.1 CR=0 - ZMIN=0 - flat end mill)
G90 G94
G17
G21
G28 G91 Z0
G90

(2D Contour2)
T4
S1 M3
G54
M8
G0 X10.757 Y-23.261
Z2
Z1
G1 Z0.01 F333.3
X10.76 Y-23.26 Z0.003 F1000
X10.767 Y-23.258 Z0
X10.776 Y-23.254
X10.781 Y-23.249
X10.782 Y-23.241
X10.542 Y-22.613
X10.127 Y-21.495
X9.725 Y-20.383
X9.337 Y-19.279
X8.962 Y-18.184
X8.599 Y-17.098
X8.249 Y-16.022
X7.911 Y-14.956
X7.585 Y-13.902
X7.27 Y-12.859
X6.968 Y-11.827
X6.677 Y-10.808
X6.397 Y-9.801
X6.129 Y-8.805
X5.871 Y-7.822
X5.625 Y-6.851
X5.389 Y-5.893
X5.165 Y-4.946
X4.951 Y-4.011
G3 X3.817 Y-3.292 I-0.927 J-0.208
X3.097 Y-4.427 I0.208 J-0.927
G1 X3.367 Y-5.604
X3.654 Y-6.799
X3.957 Y-8.012
X4.277 Y-9.243
X4.615 Y-10.493
X4.97 Y-11.76
X5.342 Y-13.044
X5.733 Y-14.347
X6.142 Y-15.667
X6.569 Y-17.004
X7.016 Y-18.359
X7.482 Y-19.731
X7.968 Y-21.117
X8.474 Y-22.515
X9.002 Y-23.921
X9.552 Y-25.333
X10.125 Y-26.75
X10.721 Y-28.167
X11.34 Y-29.583
X11.984 Y-30.995
X12.653 Y-32.399
X13.348 Y-33.789
X14.07 Y-35.163
X14.819 Y-36.517
X15.595 Y-37.849
X16.399 Y-39.154
X16.811 Y-39.797
X17.231 Y-40.431
X17.658 Y-41.058
X18.092 Y-41.677
X18.1 Y-41.702
X18.446 Y-45.972
X18.441 Y-45.998
X18.423 Y-46.018
X18.397 Y-46.026
X17.402 Y-46.032
X17.385 Y-46.029
X17.369 Y-46.019
X15.469 Y-44.368
X14.881 Y-43.988
X14.289 Y-43.618
X13.696 Y-43.261
X13.102 Y-42.917
X12.508 Y-42.585
X11.913 Y-42.267
X11.317 Y-41.962
X10.72 Y-41.671
X10.121 Y-41.394
X9.522 Y-41.13
X8.922 Y-40.881
X8.32 Y-40.647
X7.717 Y-40.428
X7.113 Y-40.224
X6.507 Y-40.035
X5.901 Y-39.861
X5.292 Y-39.704
X4.682 Y-39.562
X4.071 Y-39.437
X3.458 Y-39.329
X2.844 Y-39.239
X2.229 Y-39.167
X1.614 Y-39.114
X0.997 Y-39.078
X0.973 Y-39.071
X0.956 Y-39.052
X0.95 Y-39.028
Y-4
G3 X-0.95 Y-4 I-0.95 J0
G1 Y-39.036
X-0.956 Y-39.061
X-0.973 Y-39.079
X-0.997 Y-39.086
X-1.606 Y-39.126
X-2.213 Y-39.183
X-2.819 Y-39.258
X-3.424 Y-39.349
X-4.027 Y-39.458
X-4.629 Y-39.584
X-5.228 Y-39.727
X-5.825 Y-39.886
X-6.42 Y-40.061
X-7.013 Y-40.251
X-7.604 Y-40.457
X-8.193 Y-40.676
X-8.78 Y-40.911
X-9.365 Y-41.159
X-9.948 Y-41.422
X-10.53 Y-41.699
X-11.11 Y-41.989
X-11.688 Y-42.293
X-12.265 Y-42.61
X-12.841 Y-42.939
X-13.415 Y-43.282
X-13.987 Y-43.638
X-14.559 Y-44.006
X-15.127 Y-44.384
X-17.002 Y-46.04
X-17.017 Y-46.049
X-17.035 Y-46.052
X-18.035 Y-46.053
X-18.06 Y-46.046
X-18.079 Y-46.028
X-18.085 Y-46.002
X-18.073 Y-44.306
Y-41.667
X-18.071 Y-41.652
X-18.064 Y-41.639
X-17.631 Y-41.02
X-17.205 Y-40.393
X-16.787 Y-39.759
X-16.375 Y-39.117
X-15.573 Y-37.812
X-14.798 Y-36.481
X-14.051 Y-35.128
X-13.331 Y-33.755
X-12.637 Y-32.366
X-11.969 Y-30.963
X-11.327 Y-29.553
X-10.708 Y-28.139
X-10.114 Y-26.723
X-9.542 Y-25.308
X-8.993 Y-23.897
X-8.466 Y-22.493
X-7.96 Y-21.097
X-7.475 Y-19.713
X-7.01 Y-18.343
X-6.564 Y-16.989
X-6.138 Y-15.653
X-5.729 Y-14.335
X-5.339 Y-13.034
X-4.967 Y-11.751
X-4.613 Y-10.485
X-4.276 Y-9.238
X-3.956 Y-8.008
X-3.653 Y-6.796
X-3.367 Y-5.602
X-3.097 Y-4.427
G3 X-4.951 Y-4.011 I-0.927 J0.208
G1 X-5.165 Y-4.945
X-5.389 Y-5.892
X-5.625 Y-6.851
X-5.871 Y-7.822
X-6.128 Y-8.805
X-6.397 Y-9.8
X-6.677 Y-10.808
X-6.968 Y-11.827
X-7.27 Y-12.858
X-7.584 Y-13.901
X-7.911 Y-14.956
X-8.249 Y-16.021
X-8.599 Y-17.097
X-8.962 Y-18.184
X-9.337 Y-19.279
X-9.725 Y-20.383
X-10.127 Y-21.494
X-10.542 Y-22.612
X-10.97 Y-23.735
X-11.413 Y-24.861
X-11.869 Y-25.989
X-12.34 Y-27.117
X-12.826 Y-28.243
X-13.327 Y-29.366
X-13.842 Y-30.483
X-14.374 Y-31.593
X-14.92 Y-32.693
X-15.483 Y-33.782
X-16.062 Y-34.858
X-16.657 Y-35.917
X-17.269 Y-36.96
Y-36.961
X-17.897 Y-37.984
X-17.898 Y-37.985
X-18.543 Y-38.987
Y-38.988
X-19.205 Y-39.968
X-19.206 Y-39.969
X-19.884 Y-40.926
X-19.885 Y-40.927
X-20.58 Y-41.859
X-20.581 Y-41.86
X-21.294 Y-42.766
X-21.295 Y-42.768
X-22.024 Y-43.648
X-22.025 Y-43.649
X-22.772 Y-44.501
Y-44.502
X-23.536 Y-45.328
X-23.537 Y-45.329
X-24.317 Y-46.126
X-24.318 Y-46.127
X-25.115 Y-46.897
X-25.116 Y-46.898
X-25.929 Y-47.639
X-25.93 Y-47.64
X-26.759 Y-48.352
X-26.76 Y-48.353
X-27.606 Y-49.037
X-27.607 Y-49.038
X-28.469 Y-49.694
X-28.47 Y-49.695
X-29.348 Y-50.323
X-29.349 Y-50.324
X-30.242 Y-50.923
X-30.243 Y-50.924
X-31.153 Y-51.495
X-31.154 Y-51.496
X-32.079 Y-52.04
X-32.08
X-33.02 Y-52.556
X-33.021 Y-52.557
X-33.977 Y-53.045
X-34 Y-53.05
X-37
X-37.015 Y-53.048
X-37.028 Y-53.041
X-38.197 Y-52.238
X-38.214 Y-52.216
X-38.579 Y-51.366
X-38.916 Y-50.54
X-39.226 Y-49.737
X-39.509 Y-48.959
Y-48.958
X-39.766 Y-48.206
Y-48.205
X-39.996 Y-47.479
Y-47.478
X-40.2 Y-46.777
X-40.201 Y-46.776
X-40.379 Y-46.101
Y-46.1
X-40.532 Y-45.451
Y-45.45
X-40.659 Y-44.828
X-40.66 Y-44.827
X-40.762 Y-44.232
Y-44.23
X-40.84 Y-43.663
Y-43.662
X-40.894 Y-43.122
Y-43.12
X-40.923 Y-42.609
Y-42.607
X-40.929 Y-42.125
Y-42.122
X-40.913 Y-41.67
Y-41.667
X-40.877 Y-41.244
Y-41.241
X-40.822 Y-40.844
X-40.821 Y-40.841
X-40.748 Y-40.47
X-40.747 Y-40.467
X-40.655 Y-40.119
Y-40.116
X-40.546 Y-39.791
X-40.545 Y-39.788
X-40.42 Y-39.483
X-40.418 Y-39.48
X-40.277 Y-39.195
X-40.276 Y-39.192
X-40.12 Y-38.924
X-40.119 Y-38.921
X-39.948 Y-38.667
X-39.946 Y-38.664
X-39.757 Y-38.421
X-39.754 Y-38.419
X-39.546 Y-38.185
X-39.544 Y-38.183
X-39.316 Y-37.959
X-39.314 Y-37.957
X-39.065 Y-37.741
X-39.063 Y-37.739
X-38.793 Y-37.531
X-38.791 Y-37.53
X-38.498 Y-37.329
X-38.496 Y-37.328
X-38.181 Y-37.134
X-38.179 Y-37.133
X-37.839 Y-36.945
X-37.837 Y-36.944
X-37.473 Y-36.761
X-37.471 Y-36.76
X-37.082 Y-36.585
X-37.081 Y-36.584
X-36.67 Y-36.416
X-36.669 Y-36.415
X-36.237 Y-36.253
X-36.236
X-35.784 Y-36.097
X-35.783 Y-36.096
X-34.826 Y-35.798
X-34.824
X-33.805 Y-35.513
X-32.732 Y-35.237
X-31.619 Y-34.964
X-30.475 Y-34.687
X-29.312 Y-34.398
X-28.14 Y-34.087
X-26.967 Y-33.747
X-26.383 Y-33.564
X-25.802 Y-33.371
X-25.224 Y-33.168
X-24.652 Y-32.954
X-24.085 Y-32.728
X-23.526 Y-32.489
X-22.974 Y-32.236
X-22.431 Y-31.969
X-21.899 Y-31.688
X-21.377 Y-31.391
X-20.867 Y-31.079
X-20.369 Y-30.752
X-19.883 Y-30.411
X-19.409 Y-30.057
X-18.948 Y-29.689
X-18.499 Y-29.308
X-18.064 Y-28.914
X-17.643 Y-28.508
X-17.236 Y-28.089
X-16.842 Y-27.659
X-16.463 Y-27.217
X-16.099 Y-26.764
X-15.75 Y-26.301
X-15.415 Y-25.829
X-15.093 Y-25.348
X-14.785 Y-24.859
X-14.49 Y-24.362
X-14.208 Y-23.857
X-13.938 Y-23.345
X-13.681 Y-22.826
X-13.436 Y-22.301
X-13.202 Y-21.769
X-12.98 Y-21.231
X-12.768 Y-20.687
X-12.568 Y-20.138
X-12.378 Y-19.583
X-12.199 Y-19.024
X-12.029 Y-18.461
X-11.869 Y-17.893
X-11.719 Y-17.321
X-11.445 Y-16.168
X-11.207 Y-15
X-11.003 Y-13.819
X-10.833 Y-12.623
X-10.697 Y-11.415
X-10.594 Y-10.193
X-10.523 Y-8.958
X-10.484 Y-7.711
X-10.476 Y-6.451
X-10.499 Y-5.18
X-10.553 Y-3.896
G3 X-12.45 Y-3.997 I-0.949 J-0.051
G1 X-12.401 Y-5.156
Y-5.157
X-12.378 Y-6.303
Y-6.304
X-12.382 Y-7.438
Y-7.44
X-12.411 Y-8.562
Y-8.563
X-12.467 Y-9.674
Y-9.675
X-12.549 Y-10.774
X-12.55 Y-10.775
X-12.659 Y-11.861
Y-11.863
X-12.795 Y-12.936
Y-12.937
X-12.959 Y-13.997
X-12.96 Y-13.999
X-13.152 Y-15.045
Y-15.046
X-13.373 Y-16.077
Y-16.079
X-13.623 Y-17.095
X-13.624 Y-17.096
X-13.904 Y-18.095
X-13.905 Y-18.097
X-14.216 Y-19.078
X-14.217 Y-19.079
X-14.561 Y-20.041
Y-20.042
X-14.938 Y-20.983
X-14.939 Y-20.984
X-15.14 Y-21.445
X-15.141 Y-21.446
X-15.351 Y-21.902
Y-21.903
X-15.57 Y-22.352
X-15.571 Y-22.353
X-15.799 Y-22.796
X-15.8 Y-22.797
X-16.037 Y-23.232
X-16.038 Y-23.233
X-16.285 Y-23.662
Y-23.663
X-16.542 Y-24.084
X-16.543 Y-24.085
X-16.809 Y-24.498
X-16.81 Y-24.499
X-17.087 Y-24.904
Y-24.906
X-17.374 Y-25.302
X-17.375 Y-25.303
X-17.672 Y-25.691
X-17.673 Y-25.693
X-17.98 Y-26.072
X-17.981 Y-26.073
X-18.299 Y-26.443
X-18.3 Y-26.444
X-18.629 Y-26.804
X-18.63 Y-26.805
X-18.97 Y-27.156
X-18.971 Y-27.157
X-19.321 Y-27.498
X-19.322 Y-27.499
X-19.683 Y-27.83
X-19.684 Y-27.831
X-20.056 Y-28.151
X-20.057 Y-28.152
X-20.44 Y-28.462
X-20.441 Y-28.463
X-20.835 Y-28.763
X-20.836 Y-28.764
X-21.24 Y-29.053
X-21.241 Y-29.054
X-21.656 Y-29.332
X-21.657 Y-29.333
X-22.082 Y-29.6
X-22.084 Y-29.601
X-22.519 Y-29.858
X-22.52 Y-29.859
X-22.966 Y-30.105
X-22.967 Y-30.106
X-23.422 Y-30.342
X-23.423
X-23.888 Y-30.568
X-23.889 Y-30.569
X-24.363 Y-30.784
X-24.364 Y-30.785
X-24.846 Y-30.991
X-24.847
X-25.337 Y-31.188
X-25.338
X-25.836 Y-31.376
X-26.342 Y-31.555
X-26.343 Y-31.556
X-27.372 Y-31.89
X-27.373
X-28.421 Y-32.197
X-28.422
X-29.484 Y-32.482
X-30.553 Y-32.75
X-31.622 Y-33.008
X-32.682 Y-33.263
X-33.726 Y-33.521
X-34.746 Y-33.79
X-35.734 Y-34.077
X-36.214 Y-34.23
X-36.683 Y-34.389
X-37.14 Y-34.557
X-37.585 Y-34.733
X-38.016 Y-34.919
X-38.432 Y-35.115
X-38.834 Y-35.322
X-39.22 Y-35.541
X-39.589 Y-35.773
X-39.94 Y-36.018
X-40.274 Y-36.277
X-40.589 Y-36.55
X-40.885 Y-36.837
X-41.161 Y-37.141
X-41.417 Y-37.46
X-41.653 Y-37.795
X-41.869 Y-38.147
X-42.063 Y-38.516
X-42.236 Y-38.902
X-42.387 Y-39.307
X-42.517 Y-39.729
X-42.624 Y-40.169
X-42.709 Y-40.628
X-42.772 Y-41.106
X-42.812 Y-41.603
X-42.829 Y-42.118
X-42.823 Y-42.653
X-42.794 Y-43.206
X-42.742 Y-43.779
X-42.667 Y-44.371
X-42.569 Y-44.982
X-42.447 Y-45.613
X-42.302 Y-46.263
X-42.134 Y-46.932
X-41.943 Y-47.621
X-41.729 Y-48.329
X-41.491 Y-49.056
X-41.23 Y-49.802
X-40.946 Y-50.568
X-40.638 Y-51.353
X-40.308 Y-52.157
X-39.954 Y-52.98
X-39.95 Y-53
Y-56
X-39.957 Y-56.025
X-39.975 Y-56.043
X-40 Y-56.05
G2 X-50.05 Y-46 I0 J10.05
G1 Y-26
X-50.043 Y-25.975
X-50.025 Y-25.957
X-50 Y-25.95
X-28
X-27.975 Y-25.957
X-27.957 Y-25.975
X-27.95 Y-26
G3 X-22.05 Y-26 I2.95 J0
X-25 Y-23.05 I-2.95 J0
G1 X-25.025 Y-23.043
X-25.043 Y-23.025
X-25.05 Y-23
Y-3
G2 X-22 Y0.05 I3.05 J0
G1 X22
G2 X25.05 Y-3 I0 J-3.05
G1 Y-23
X25.043 Y-23.025
X25.025 Y-23.043
X25 Y-23.05
G3 X25 Y-28.95 I0 J-2.95
X27.95 Y-26 I0 J2.95
G1 X27.957 Y-25.975
X27.975 Y-25.957
X28 Y-25.95
X50
X50.025 Y-25.957
X50.043 Y-25.975
X50.05 Y-26
Y-46
G2 X40 Y-56.05 I-10.05 J0
G1 X39.975 Y-56.043
X39.957 Y-56.025
X39.95 Y-56
Y-53
X39.954 Y-52.98
X40.308 Y-52.157
X40.638 Y-51.353
X40.946 Y-50.568
X41.23 Y-49.802
X41.491 Y-49.056
X41.729 Y-48.329
X41.943 Y-47.621
X42.134 Y-46.932
X42.302 Y-46.263
X42.447 Y-45.613
X42.569 Y-44.982
X42.667 Y-44.371
X42.742 Y-43.779
X42.794 Y-43.206
X42.823 Y-42.653
X42.829 Y-42.118
X42.812 Y-41.603
X42.772 Y-41.106
X42.709 Y-40.628
X42.624 Y-40.169
X42.517 Y-39.729
X42.387 Y-39.307
X42.236 Y-38.902
X42.063 Y-38.516
X41.869 Y-38.147
X41.653 Y-37.795
X41.417 Y-37.46
X41.161 Y-37.141
X40.885 Y-36.837
X40.589 Y-36.55
X40.274 Y-36.277
X39.94 Y-36.018
X39.589 Y-35.773
X39.22 Y-35.541
X38.834 Y-35.322
X38.432 Y-35.115
X38.016 Y-34.919
X37.585 Y-34.733
X37.14 Y-34.557
X36.683 Y-34.389
X36.214 Y-34.23
X35.734 Y-34.077
X34.746 Y-33.79
X33.726 Y-33.521
X32.682 Y-33.263
X31.622 Y-33.008
X30.554 Y-32.75
X29.485 Y-32.482
X28.422 Y-32.197
X28.421
X27.373 Y-31.89
X27.372
X26.343 Y-31.556
X26.342 Y-31.555
X25.837 Y-31.376
X25.338 Y-31.188
X25.337
X24.847 Y-30.991
X24.846
X24.364 Y-30.785
X24.363 Y-30.784
X23.889 Y-30.569
X23.888 Y-30.568
X23.423 Y-30.342
X23.422
X22.967 Y-30.106
X22.966 Y-30.105
X22.52 Y-29.859
X22.519 Y-29.858
X22.084 Y-29.601
X22.082 Y-29.6
X21.657 Y-29.333
X21.656 Y-29.332
X21.241 Y-29.054
X21.24 Y-29.053
X20.836 Y-28.764
X20.835 Y-28.763
X20.441 Y-28.463
X20.44 Y-28.462
X20.057 Y-28.152
X20.056 Y-28.151
X19.684 Y-27.831
X19.683 Y-27.83
X19.322 Y-27.499
X19.321 Y-27.498
X18.971 Y-27.157
X18.97 Y-27.156
X18.63 Y-26.805
X18.629 Y-26.804
X18.3 Y-26.444
X18.299 Y-26.443
X17.981 Y-26.073
X17.98 Y-26.072
X17.673 Y-25.693
X17.672 Y-25.691
X17.375 Y-25.303
X17.374 Y-25.302
X17.087 Y-24.906
Y-24.904
X16.81 Y-24.499
X16.809 Y-24.498
X16.543 Y-24.085
X16.542 Y-24.084
X16.285 Y-23.663
Y-23.662
X16.038 Y-23.233
X16.037 Y-23.232
X15.8 Y-22.797
X15.799 Y-22.796
X15.571 Y-22.353
X15.57 Y-22.352
X15.351 Y-21.903
Y-21.902
X15.141 Y-21.446
X15.14 Y-21.445
X14.939 Y-20.984
X14.938 Y-20.983
X14.561 Y-20.042
Y-20.041
X14.217 Y-19.079
X14.216 Y-19.078
X13.905 Y-18.097
X13.904 Y-18.095
X13.624 Y-17.096
X13.623 Y-17.095
X13.373 Y-16.079
Y-16.077
X13.152 Y-15.046
Y-15.045
X12.96 Y-13.999
X12.959 Y-13.997
X12.795 Y-12.937
Y-12.936
X12.659 Y-11.863
Y-11.861
X12.55 Y-10.775
X12.549 Y-10.774
X12.467 Y-9.675
Y-9.674
X12.411 Y-8.563
Y-8.562
X12.382 Y-7.44
Y-7.438
X12.378 Y-6.304
Y-6.303
X12.401 Y-5.157
Y-5.156
X12.45 Y-3.998
G3 X11.552 Y-2.998 I-0.949 J0.051
X10.553 Y-3.896 I-0.051 J-0.949
G1 X10.499 Y-5.18
X10.476 Y-6.451
X10.484 Y-7.711
X10.523 Y-8.958
X10.594 Y-10.193
X10.697 Y-11.415
X10.833 Y-12.623
X11.003 Y-13.819
X11.207 Y-15
X11.445 Y-16.168
X11.719 Y-17.321
X11.869 Y-17.893
X12.029 Y-18.461
X12.199 Y-19.024
X12.378 Y-19.583
X12.568 Y-20.138
X12.768 Y-20.687
X12.98 Y-21.231
X13.202 Y-21.769
X13.436 Y-22.301
X13.681 Y-22.826
X13.938 Y-23.345
X14.208 Y-23.857
X14.49 Y-24.362
X14.785 Y-24.859
X15.093 Y-25.348
X15.415 Y-25.829
X15.75 Y-26.301
X16.099 Y-26.764
X16.463 Y-27.217
X16.842 Y-27.659
X17.236 Y-28.089
X17.643 Y-28.508
X18.064 Y-28.914
X18.499 Y-29.308
X18.948 Y-29.689
X19.409 Y-30.057
X19.883 Y-30.411
X20.369 Y-30.752
X20.867 Y-31.079
X21.377 Y-31.391
X21.899 Y-31.688
X22.431 Y-31.969
X22.974 Y-32.236
X23.526 Y-32.489
X24.085 Y-32.728
X24.652 Y-32.954
X25.224 Y-33.168
X25.802 Y-33.371
X26.383 Y-33.564
X26.967 Y-33.747
X28.14 Y-34.087
X29.312 Y-34.398
X30.475 Y-34.687
X31.619 Y-34.964
X32.732 Y-35.237
X33.804 Y-35.513
X34.824 Y-35.798
X34.826
X35.783 Y-36.096
X35.784 Y-36.097
X36.236 Y-36.253
X36.237
X36.669 Y-36.415
X36.67 Y-36.416
X37.081 Y-36.584
X37.082 Y-36.585
X37.471 Y-36.76
X37.473 Y-36.761
X37.837 Y-36.944
X37.839 Y-36.945
X38.179 Y-37.133
X38.181 Y-37.134
X38.496 Y-37.328
X38.498 Y-37.329
X38.791 Y-37.53
X38.793 Y-37.531
X39.063 Y-37.739
X39.065 Y-37.741
X39.314 Y-37.957
X39.316 Y-37.959
X39.544 Y-38.183
X39.546 Y-38.185
X39.754 Y-38.419
X39.757 Y-38.421
X39.946 Y-38.664
X39.948 Y-38.667
X40.119 Y-38.921
X40.12 Y-38.924
X40.276 Y-39.192
X40.277 Y-39.195
X40.418 Y-39.48
X40.42 Y-39.483
X40.545 Y-39.788
X40.546 Y-39.791
X40.655 Y-40.116
Y-40.119
X40.747 Y-40.467
X40.748 Y-40.47
X40.821 Y-40.841
X40.822 Y-40.844
X40.877 Y-41.241
Y-41.244
X40.913 Y-41.667
Y-41.67
X40.929 Y-42.122
Y-42.125
X40.923 Y-42.607
Y-42.609
X40.894 Y-43.12
Y-43.122
X40.84 Y-43.662
Y-43.663
X40.762 Y-44.23
Y-44.232
X40.66 Y-44.827
X40.659 Y-44.828
X40.532 Y-45.45
Y-45.451
X40.379 Y-46.1
Y-46.101
X40.201 Y-46.776
X40.2 Y-46.777
X39.996 Y-47.478
Y-47.479
X39.766 Y-48.205
Y-48.206
X39.509 Y-48.958
Y-48.959
X39.226 Y-49.736
X38.916 Y-50.539
X38.579 Y-51.366
X38.214 Y-52.216
X38.197 Y-52.238
X37.028 Y-53.041
X37.015 Y-53.048
X37 Y-53.05
X34
X33.977 Y-53.045
X33.021 Y-52.557
X33.02 Y-52.556
X32.08 Y-52.04
X32.079
X31.154 Y-51.496
X31.153 Y-51.495
X30.244 Y-50.924
X30.242 Y-50.923
X29.349 Y-50.324
X29.348 Y-50.323
X28.47 Y-49.695
X28.469 Y-49.694
X27.607 Y-49.038
X27.606 Y-49.037
X26.76 Y-48.353
X26.759 Y-48.352
X25.93 Y-47.64
X25.929 Y-47.639
X25.116 Y-46.898
X25.115 Y-46.897
X24.318 Y-46.127
X24.317 Y-46.126
X23.537 Y-45.329
X23.536 Y-45.328
X22.772 Y-44.502
Y-44.501
X22.025 Y-43.649
X22.024 Y-43.648
X21.295 Y-42.768
X21.294 Y-42.766
X20.581 Y-41.86
X20.58 Y-41.859
X19.885 Y-40.927
X19.884 Y-40.926
X19.206 Y-39.969
X19.205 Y-39.968
X18.543 Y-38.988
Y-38.987
X17.898 Y-37.985
X17.897 Y-37.984
X17.269 Y-36.961
Y-36.96
X16.658 Y-35.918
X16.063 Y-34.858
X15.484 Y-33.783
X14.921 Y-32.694
X14.374 Y-31.594
X13.843 Y-30.484
X13.327 Y-29.367
X12.826 Y-28.244
X12.34 Y-27.117
X11.869 Y-25.989
X11.413 Y-24.861
X10.97 Y-23.735
X10.782 Y-23.241
X10.776 Y-23.235
X10.769
X10.759 Y-23.239
X10.753 Y-23.241 Z0.003
X10.75 Y-23.242 Z0.01
G0 Z1
X0.221 Y-41.083
G1 Z0.01 F333.3
Y-41.08 Z0.003 F1000
Y-41.073 Z0
X0.222 Y-41.063
X0.219 Y-41.056
X0.212 Y-41.052
X0.076 Y-41.05
X-0.599 Y-41.062
X-1.273 Y-41.098
X-1.947 Y-41.159
X-2.621 Y-41.244
X-3.294 Y-41.352
X-3.967 Y-41.485
X-4.639 Y-41.641
X-5.31 Y-41.819
X-5.982 Y-42.02
X-6.653 Y-42.243
X-7.323 Y-42.487
X-7.993 Y-42.753
X-8.663 Y-43.039
X-9.332 Y-43.346
X-10.001 Y-43.673
X-10.67 Y-44.02
X-11.338 Y-44.386
X-12.006 Y-44.771
X-12.673 Y-45.176
X-13.34 Y-45.599
X-13.985 Y-46.027
Y-55.95
X14.352
Y-46.027
X13.689 Y-45.601
X13.004 Y-45.179
X12.319 Y-44.776
X11.634 Y-44.391
X10.95 Y-44.026
X10.267 Y-43.68
X9.584 Y-43.354
X8.901 Y-43.047
X8.219 Y-42.761
X7.538 Y-42.495
X6.856 Y-42.251
X6.176 Y-42.028
X5.496 Y-41.826
X4.816 Y-41.647
X4.138 Y-41.491
X3.459 Y-41.358
X2.781 Y-41.248
X2.104 Y-41.162
X1.428 Y-41.1
X0.752 Y-41.063
X0.212 Y-41.052
X0.205 Y-41.055
X0.202 Y-41.062
X0.201 Y-41.072
Y-41.079 Z0.003
Y-41.082 Z0.01
G0 Z1
X23.714 Y-55.92
G1 Z0.01 F333.3
Y-55.923 Z0.003 F1000
Y-55.93 Z0
Y-55.94
X23.717 Y-55.947
X23.724 Y-55.95
X33.95
Y-55.26
X33.095 Y-54.839
X32.491 Y-54.536
X31.892 Y-54.221
X31.299 Y-53.895
X30.711 Y-53.559
X30.13 Y-53.213
X29.554 Y-52.856
X28.984 Y-52.488
X28.421 Y-52.11
X27.863 Y-51.721
X27.311 Y-51.322
X26.766 Y-50.913
X26.227 Y-50.493
X25.694 Y-50.063
X25.167 Y-49.622
X24.646 Y-49.171
X24.132 Y-48.71
X23.624 Y-48.238
X23.123 Y-47.756
X22.629 Y-47.264
X22.14 Y-46.762
X21.659 Y-46.249
X21.184 Y-45.727
X20.716 Y-45.194
X20.355 Y-44.769
X20.452 Y-45.959
Y-45.963
Y-55.95
X23.724
X23.731 Y-55.947
X23.734 Y-55.94
Y-55.93
Y-55.923 Z0.003
Y-55.92 Z0.01
G0 Z1
X-20.115 Y-52.591
G1 Z0.01 F333.3
X-20.112 Z0.003 F1000
X-20.105 Z0
X-20.095
X-20.088 Y-52.588
X-20.085 Y-52.581
Y-46.004
X-20.074 Y-44.431
X-20.453 Y-44.886
X-20.928 Y-45.438
X-21.411 Y-45.979
X-21.901 Y-46.509
X-22.398 Y-47.029
X-22.902 Y-47.538
X-23.413 Y-48.036
X-23.93 Y-48.524
X-24.454 Y-49.001
X-24.985 Y-49.467
X-25.523 Y-49.922
X-26.067 Y-50.366
X-26.618 Y-50.799
X-27.175 Y-51.222
X-27.739 Y-51.633
X-28.309 Y-52.034
X-28.886 Y-52.423
X-29.469 Y-52.801
X-30.058 Y-53.169
X-30.653 Y-53.525
X-31.254 Y-53.87
X-31.862 Y-54.205
X-32.475 Y-54.527
X-33.084 Y-54.834
X-33.901 Y-55.95
X-20.085
Y-52.581
X-20.088 Y-52.574
X-20.095 Y-52.571
X-20.105
X-20.112 Z0.003
X-20.115 Z0.01
G0 Z2
M9
G28 G91 Z0
G90
G28 G91 X0 Y0
G90
M5
M30
