(TestCircle)
(Machine)
(  vendor: Autodesk)
(  description: Generic 3-axis)
(T3  D=3 CR=0 - ZMIN=-19.5 - flat end mill)
G90 G94
G17
G21
G28 G91 Z0
G90

(2D Pocket3)
T3
S5000 M3
G54
M8
G0 X43.594 Y25.649
Z10
Z5
G1 Z2.8 F1000
X43.576 Y25.683 Z2.653 F333.3
X43.522 Y25.774 Z2.544
X43.437 Y25.891 Z2.5
G3 X41.213 Y24.109 Z2.344 I-1.112 J-0.891
X43.437 Y25.891 Z2.187 I1.112 J0.891
X41.213 Y24.109 Z2.031 I-1.112 J-0.891
X43.437 Y25.891 Z1.875 I1.112 J0.891
X41.213 Y24.109 Z1.718 I-1.112 J-0.891
X43.437 Y25.891 Z1.562 I1.112 J0.891
X41.213 Y24.109 Z1.406 I-1.112 J-0.891
X43.437 Y25.891 Z1.249 I1.112 J0.891
X41.213 Y24.109 Z1.093 I-1.112 J-0.891
X43.437 Y25.891 Z0.937 I1.112 J0.891
X41.213 Y24.109 Z0.78 I-1.112 J-0.891
X43.437 Y25.891 Z0.624 I1.112 J0.891
X41.213 Y24.109 Z0.468 I-1.112 J-0.891
X43.437 Y25.891 Z0.311 I1.112 J0.891
X41.213 Y24.109 Z0.155 I-1.112 J-0.891
X43.437 Y25.891 Z-0.001 I1.112 J0.891
X41.213 Y24.109 Z-0.158 I-1.112 J-0.891
X43.437 Y25.891 Z-0.314 I1.112 J0.891
X41.213 Y24.109 Z-0.47 I-1.112 J-0.891
X43.437 Y25.891 Z-0.627 I1.112 J0.891
X41.213 Y24.109 Z-0.783 I-1.112 J-0.891
X43.437 Y25.891 Z-0.939 I1.112 J0.891
X41.213 Y24.109 Z-1.096 I-1.112 J-0.891
X43.437 Y25.891 Z-1.252 I1.112 J0.891
X41.213 Y24.109 Z-1.408 I-1.112 J-0.891
X43.437 Y25.891 Z-1.565 I1.112 J0.891
X41.213 Y24.109 Z-1.721 I-1.112 J-0.891
X43.437 Y25.891 Z-1.877 I1.112 J0.891
X40.9 Y25 Z-2 I-1.112 J-0.891
X41.95 Y25 I0.525 J0 F1000
X38.05 Y25 I-1.95 J0
X44.8 Y25 I3.375 J0
X35.2 Y25 I-4.8 J0
X47.65 Y25 I6.225 J0
X32.35 Y25 I-7.65 J0
X50.5 Y25 I9.075 J0
X29.5 Y25 I-10.5 J0
X50.5 Y25 I10.5 J0
G1 X50.494 Y25.041
X50.477 Y25.08
X50.45 Y25.112
X50.415 Y25.135
X50.375 Y25.148
X50.333 Y25.149
X44.072 Y24.452
X44.03 Y24.451
X43.989 Y24.462
X43.952 Y24.483
X43.924 Y24.514
X43.905 Y24.552
X43.46 Y25.862
G3 X41.19 Y24.138 Z-2.156 I-1.135 J-0.862 F333.3
X43.46 Y25.862 Z-2.313 I1.135 J0.862
X41.19 Y24.138 Z-2.469 I-1.135 J-0.862
X43.46 Y25.862 Z-2.625 I1.135 J0.862
X41.19 Y24.138 Z-2.782 I-1.135 J-0.862
X43.46 Y25.862 Z-2.938 I1.135 J0.862
X41.19 Y24.138 Z-3.094 I-1.135 J-0.862
X43.46 Y25.862 Z-3.251 I1.135 J0.862
X41.19 Y24.138 Z-3.407 I-1.135 J-0.862
X43.46 Y25.862 Z-3.563 I1.135 J0.862
X41.19 Y24.138 Z-3.72 I-1.135 J-0.862
X43.46 Y25.862 Z-3.876 I1.135 J0.862
X40.9 Y25 Z-4 I-1.135 J-0.862
X41.95 Y25 I0.525 J0 F1000
X38.05 Y25 I-1.95 J0
X44.8 Y25 I3.375 J0
X35.2 Y25 I-4.8 J0
X47.65 Y25 I6.225 J0
X32.35 Y25 I-7.65 J0
X50.5 Y25 I9.075 J0
X29.5 Y25 I-10.5 J0
X50.5 Y25 I10.5 J0
G1 X50.494 Y25.041
X50.477 Y25.08
X50.45 Y25.112
X50.415 Y25.135
X50.375 Y25.148
X50.333 Y25.149
X44.072 Y24.452
X44.03 Y24.451
X43.989 Y24.462
X43.952 Y24.483
X43.924 Y24.514
X43.905 Y24.552
X43.46 Y25.862
G3 X41.19 Y24.138 Z-4.156 I-1.135 J-0.862 F333.3
X43.46 Y25.862 Z-4.313 I1.135 J0.862
X41.19 Y24.138 Z-4.469 I-1.135 J-0.862
X43.46 Y25.862 Z-4.625 I1.135 J0.862
X41.19 Y24.138 Z-4.782 I-1.135 J-0.862
X43.46 Y25.862 Z-4.938 I1.135 J0.862
X41.19 Y24.138 Z-5.094 I-1.135 J-0.862
X43.46 Y25.862 Z-5.251 I1.135 J0.862
X41.19 Y24.138 Z-5.407 I-1.135 J-0.862
X43.46 Y25.862 Z-5.563 I1.135 J0.862
X41.19 Y24.138 Z-5.72 I-1.135 J-0.862
X43.46 Y25.862 Z-5.876 I1.135 J0.862
X40.9 Y25 Z-6 I-1.135 J-0.862
X41.95 Y25 I0.525 J0 F1000
X38.05 Y25 I-1.95 J0
X44.8 Y25 I3.375 J0
X35.2 Y25 I-4.8 J0
X47.65 Y25 I6.225 J0
X32.35 Y25 I-7.65 J0
X50.5 Y25 I9.075 J0
X29.5 Y25 I-10.5 J0
X50.5 Y25 I10.5 J0
G1 X50.494 Y25.041
X50.477 Y25.08
X50.45 Y25.112
X50.415 Y25.135
X50.375 Y25.148
X50.333 Y25.149
X44.072 Y24.452
X44.03 Y24.451
X43.989 Y24.462
X43.952 Y24.483
X43.924 Y24.514
X43.905 Y24.552
X43.46 Y25.862
G3 X41.19 Y24.138 Z-6.156 I-1.135 J-0.862 F333.3
X43.46 Y25.862 Z-6.313 I1.135 J0.862
X41.19 Y24.138 Z-6.469 I-1.135 J-0.862
X43.46 Y25.862 Z-6.625 I1.135 J0.862
X41.19 Y24.138 Z-6.782 I-1.135 J-0.862
X43.46 Y25.862 Z-6.938 I1.135 J0.862
X41.19 Y24.138 Z-7.094 I-1.135 J-0.862
X43.46 Y25.862 Z-7.251 I1.135 J0.862
X41.19 Y24.138 Z-7.407 I-1.135 J-0.862
X43.46 Y25.862 Z-7.563 I1.135 J0.862
X41.19 Y24.138 Z-7.72 I-1.135 J-0.862
X43.46 Y25.862 Z-7.876 I1.135 J0.862
X40.9 Y25 Z-8 I-1.135 J-0.862
X41.95 Y25 I0.525 J0 F1000
X38.05 Y25 I-1.95 J0
X44.8 Y25 I3.375 J0
X35.2 Y25 I-4.8 J0
X47.65 Y25 I6.225 J0
X32.35 Y25 I-7.65 J0
X50.5 Y25 I9.075 J0
X29.5 Y25 I-10.5 J0
X50.5 Y25 I10.5 J0
G1 X50.494 Y25.041
X50.477 Y25.08
X50.45 Y25.112
X50.415 Y25.135
X50.375 Y25.148
X50.333 Y25.149
X44.072 Y24.452
X44.03 Y24.451
X43.989 Y24.462
X43.952 Y24.483
X43.924 Y24.514
X43.905 Y24.552
X43.46 Y25.862
G3 X41.19 Y24.138 Z-8.156 I-1.135 J-0.862 F333.3
X43.46 Y25.862 Z-8.313 I1.135 J0.862
X41.19 Y24.138 Z-8.469 I-1.135 J-0.862
X43.46 Y25.862 Z-8.625 I1.135 J0.862
X41.19 Y24.138 Z-8.782 I-1.135 J-0.862
X43.46 Y25.862 Z-8.938 I1.135 J0.862
X41.19 Y24.138 Z-9.094 I-1.135 J-0.862
X43.46 Y25.862 Z-9.251 I1.135 J0.862
X41.19 Y24.138 Z-9.407 I-1.135 J-0.862
X43.46 Y25.862 Z-9.563 I1.135 J0.862
X41.19 Y24.138 Z-9.72 I-1.135 J-0.862
X43.46 Y25.862 Z-9.876 I1.135 J0.862
X40.9 Y25 Z-10 I-1.135 J-0.862
X41.95 Y25 I0.525 J0 F1000
X38.05 Y25 I-1.95 J0
X44.8 Y25 I3.375 J0
X35.2 Y25 I-4.8 J0
X47.65 Y25 I6.225 J0
X32.35 Y25 I-7.65 J0
X50.5 Y25 I9.075 J0
X29.5 Y25 I-10.5 J0
X50.5 Y25 I10.5 J0
G1 X50.494 Y25.041
X50.477 Y25.08
X50.45 Y25.112
X50.415 Y25.135
X50.375 Y25.148
X50.333 Y25.149
X44.072 Y24.452
X44.03 Y24.451
X43.989 Y24.462
X43.952 Y24.483
X43.924 Y24.514
X43.905 Y24.552
X43.46 Y25.862
G3 X41.19 Y24.138 Z-10.156 I-1.135 J-0.862 F333.3
X43.46 Y25.862 Z-10.313 I1.135 J0.862
X41.19 Y24.138 Z-10.469 I-1.135 J-0.862
X43.46 Y25.862 Z-10.625 I1.135 J0.862
X41.19 Y24.138 Z-10.782 I-1.135 J-0.862
X43.46 Y25.862 Z-10.938 I1.135 J0.862
X41.19 Y24.138 Z-11.094 I-1.135 J-0.862
X43.46 Y25.862 Z-11.251 I1.135 J0.862
X41.19 Y24.138 Z-11.407 I-1.135 J-0.862
X43.46 Y25.862 Z-11.563 I1.135 J0.862
X41.19 Y24.138 Z-11.72 I-1.135 J-0.862
X43.46 Y25.862 Z-11.876 I1.135 J0.862
X40.9 Y25 Z-12 I-1.135 J-0.862
X41.95 Y25 I0.525 J0 F1000
X38.05 Y25 I-1.95 J0
X44.8 Y25 I3.375 J0
X35.2 Y25 I-4.8 J0
X47.65 Y25 I6.225 J0
X32.35 Y25 I-7.65 J0
X50.5 Y25 I9.075 J0
X29.5 Y25 I-10.5 J0
X50.5 Y25 I10.5 J0
G1 X50.494 Y25.041
X50.477 Y25.08
X50.45 Y25.112
X50.415 Y25.135
X50.375 Y25.148
X50.333 Y25.149
X44.072 Y24.452
X44.03 Y24.451
X43.989 Y24.462
X43.952 Y24.483
X43.924 Y24.514
X43.905 Y24.552
X43.46 Y25.862
G3 X41.19 Y24.138 Z-12.156 I-1.135 J-0.862 F333.3
X43.46 Y25.862 Z-12.313 I1.135 J0.862
X41.19 Y24.138 Z-12.469 I-1.135 J-0.862
X43.46 Y25.862 Z-12.625 I1.135 J0.862
X41.19 Y24.138 Z-12.782 I-1.135 J-0.862
X43.46 Y25.862 Z-12.938 I1.135 J0.862
X41.19 Y24.138 Z-13.094 I-1.135 J-0.862
X43.46 Y25.862 Z-13.251 I1.135 J0.862
X41.19 Y24.138 Z-13.407 I-1.135 J-0.862
X43.46 Y25.862 Z-13.563 I1.135 J0.862
X41.19 Y24.138 Z-13.72 I-1.135 J-0.862
X43.46 Y25.862 Z-13.876 I1.135 J0.862
X40.9 Y25 Z-14 I-1.135 J-0.862
X41.95 Y25 I0.525 J0 F1000
X38.05 Y25 I-1.95 J0
X44.8 Y25 I3.375 J0
X35.2 Y25 I-4.8 J0
X47.65 Y25 I6.225 J0
X32.35 Y25 I-7.65 J0
X50.5 Y25 I9.075 J0
X29.5 Y25 I-10.5 J0
X50.5 Y25 I10.5 J0
G1 X50.494 Y25.041
X50.477 Y25.08
X50.45 Y25.112
X50.415 Y25.135
X50.375 Y25.148
X50.333 Y25.149
X44.072 Y24.452
X44.03 Y24.451
X43.989 Y24.462
X43.952 Y24.483
X43.924 Y24.514
X43.905 Y24.552
X43.46 Y25.862
G3 X41.19 Y24.138 Z-14.156 I-1.135 J-0.862 F333.3
X43.46 Y25.862 Z-14.313 I1.135 J0.862
X41.19 Y24.138 Z-14.469 I-1.135 J-0.862
X43.46 Y25.862 Z-14.625 I1.135 J0.862
X41.19 Y24.138 Z-14.782 I-1.135 J-0.862
X43.46 Y25.862 Z-14.938 I1.135 J0.862
X41.19 Y24.138 Z-15.094 I-1.135 J-0.862
X43.46 Y25.862 Z-15.251 I1.135 J0.862
X41.19 Y24.138 Z-15.407 I-1.135 J-0.862
X43.46 Y25.862 Z-15.563 I1.135 J0.862
X41.19 Y24.138 Z-15.72 I-1.135 J-0.862
X43.46 Y25.862 Z-15.876 I1.135 J0.862
X40.9 Y25 Z-16 I-1.135 J-0.862
X41.95 Y25 I0.525 J0 F1000
X38.05 Y25 I-1.95 J0
X44.8 Y25 I3.375 J0
X35.2 Y25 I-4.8 J0
X47.65 Y25 I6.225 J0
X32.35 Y25 I-7.65 J0
X50.5 Y25 I9.075 J0
X29.5 Y25 I-10.5 J0
X50.5 Y25 I10.5 J0
G1 X50.494 Y25.041
X50.477 Y25.08
X50.45 Y25.112
X50.415 Y25.135
X50.375 Y25.148
X50.333 Y25.149
X44.072 Y24.452
X44.03 Y24.451
X43.989 Y24.462
X43.952 Y24.483
X43.924 Y24.514
X43.905 Y24.552
X43.46 Y25.862
G3 X41.19 Y24.138 Z-16.156 I-1.135 J-0.862 F333.3
X43.46 Y25.862 Z-16.313 I1.135 J0.862
X41.19 Y24.138 Z-16.469 I-1.135 J-0.862
X43.46 Y25.862 Z-16.625 I1.135 J0.862
X41.19 Y24.138 Z-16.782 I-1.135 J-0.862
X43.46 Y25.862 Z-16.938 I1.135 J0.862
X41.19 Y24.138 Z-17.094 I-1.135 J-0.862
X43.46 Y25.862 Z-17.251 I1.135 J0.862
X41.19 Y24.138 Z-17.407 I-1.135 J-0.862
X43.46 Y25.862 Z-17.563 I1.135 J0.862
X41.19 Y24.138 Z-17.72 I-1.135 J-0.862
X43.46 Y25.862 Z-17.876 I1.135 J0.862
X40.9 Y25 Z-18 I-1.135 J-0.862
X41.95 Y25 I0.525 J0 F1000
X38.05 Y25 I-1.95 J0
X44.8 Y25 I3.375 J0
X35.2 Y25 I-4.8 J0
X47.65 Y25 I6.225 J0
X32.35 Y25 I-7.65 J0
X50.5 Y25 I9.075 J0
X29.5 Y25 I-10.5 J0
X50.5 Y25 I10.5 J0
G1 X50.493 Y25.044
X50.474 Y25.084
X50.444 Y25.117
X50.406 Y25.139
X50.363 Y25.149
X45.268 Y25.585
X45.234 Y25.589
X45.2 Y25.584
X45.167 Y25.572
X41.883 Y23.915
G3 X41.906 Y23.638 I0.068 J-0.134
X42.744 Y26.362 Z-18.156 I0.419 J1.362 F333.3
X41.906 Y23.638 Z-18.313 I-0.419 J-1.362
X42.744 Y26.362 Z-18.469 I0.419 J1.362
X41.906 Y23.638 Z-18.625 I-0.419 J-1.362
X42.744 Y26.362 Z-18.782 I0.419 J1.362
X41.906 Y23.638 Z-18.938 I-0.419 J-1.362
X42.744 Y26.362 Z-19.094 I0.419 J1.362
X41.906 Y23.638 Z-19.251 I-0.419 J-1.362
X42.744 Y26.362 Z-19.407 I0.419 J1.362
X40.9 Y25 Z-19.5 I-0.419 J-1.362
X41.95 Y25 I0.525 J0 F1000
X38.05 Y25 I-1.95 J0
X44.8 Y25 I3.375 J0
X35.2 Y25 I-4.8 J0
X47.65 Y25 I6.225 J0
X32.35 Y25 I-7.65 J0
X50.5 Y25 I9.075 J0
X29.5 Y25 I-10.5 J0
X50.5 Y25 I10.5 J0
G1 X50.495 Y25.057 Z-19.489
X50.478 Y25.112 Z-19.477
X50.457 Y25.155 Z-19.445
X50.428 Y25.195 Z-19.412
X50.381 Y25.239 Z-19.315
X50.362 Y25.252 Z-19.2
G0 Z10
M9
G28 G91 Z0
G90
G28 G91 X0 Y0
G90
M5
M30
