(1001)
(T1  D=0.8 CR=0 - ZMIN=-2.9 - flat end mill)
G90 G94
G17
G21

(2D Pocket1)
T1
S1000 M3
G54
M8
G0 X0.5 Y0.7
Z15
Z3
G1 Z2.5 F25
S5000
Y0.476 Z2.461 F100
Y4.396 Z1.769
Y0.476 Z1.078
Y4.396 Z0.387
Y0.5 Z-0.3
X0.498 Y0.491
X0.477 Y0.434
X0.476 Y0.418
X0.485 Y0.405
X0.5 Y0.4
S1000
X0.6 F10
Y9.6
X0.4
Y0.4
X0.5
X0.519 Y0.406
X0.531 Y0.421
X0.533 Y0.44
X0.501 Y0.593
X0.5 Y0.6
Y2.201
S5000
Y0.5 Z-0.6 F100
X0.498 Y0.491
X0.477 Y0.434
X0.476 Y0.418
X0.485 Y0.405
X0.5 Y0.4
S1000
X0.6 F10
Y9.6
X0.4
Y0.4
X0.5
X0.519 Y0.406
X0.531 Y0.421
X0.533 Y0.44
X0.501 Y0.593
X0.5 Y0.6
Y2.201
S5000
Y0.5 Z-0.9 F100
X0.498 Y0.491
X0.477 Y0.434
X0.476 Y0.418
X0.485 Y0.405
X0.5 Y0.4
S1000
X0.6 F10
Y9.6
X0.4
Y0.4
X0.5
X0.519 Y0.406
X0.531 Y0.421
X0.533 Y0.44
X0.501 Y0.593
X0.5 Y0.6
Y2.201
S5000
Y0.5 Z-1.2 F100
X0.498 Y0.491
X0.477 Y0.434
X0.476 Y0.418
X0.485 Y0.405
X0.5 Y0.4
S1000
X0.6 F10
Y9.6
X0.4
Y0.4
X0.5
X0.519 Y0.406
X0.531 Y0.421
X0.533 Y0.44
X0.501 Y0.593
X0.5 Y0.6
Y2.201
S5000
Y0.5 Z-1.5 F100
X0.498 Y0.491
X0.477 Y0.434
X0.476 Y0.418
X0.485 Y0.405
X0.5 Y0.4
S1000
X0.6 F10
Y9.6
X0.4
Y0.4
X0.5
X0.519 Y0.406
X0.531 Y0.421
X0.533 Y0.44
X0.501 Y0.593
X0.5 Y0.6
Y2.201
S5000
Y0.5 Z-1.8 F100
X0.498 Y0.491
X0.477 Y0.434
X0.476 Y0.418
X0.485 Y0.405
X0.5 Y0.4
S1000
X0.6 F10
Y9.6
X0.4
Y0.4
X0.5
X0.519 Y0.406
X0.531 Y0.421
X0.533 Y0.44
X0.501 Y0.593
X0.5 Y0.6
Y2.201
S5000
Y0.5 Z-2.1 F100
X0.498 Y0.491
X0.477 Y0.434
X0.476 Y0.418
X0.485 Y0.405
X0.5 Y0.4
S1000
X0.6 F10
Y9.6
X0.4
Y0.4
X0.5
X0.519 Y0.406
X0.531 Y0.421
X0.533 Y0.44
X0.501 Y0.593
X0.5 Y0.6
Y2.201
S5000
Y0.5 Z-2.4 F100
X0.498 Y0.491
X0.477 Y0.434
X0.476 Y0.418
X0.485 Y0.405
X0.5 Y0.4
S1000
X0.6 F10
Y9.6
X0.4
Y0.4
X0.5
X0.519 Y0.406
X0.531 Y0.421
X0.533 Y0.44
X0.501 Y0.593
X0.5 Y0.6
Y2.201
S5000
Y0.5 Z-2.7 F100
X0.498 Y0.491
X0.477 Y0.434
X0.476 Y0.418
X0.485 Y0.405
X0.5 Y0.4
S1000
X0.6 F10
Y9.6
X0.4
Y0.4
X0.5
X0.519 Y0.406
X0.531 Y0.421
X0.533 Y0.44
X0.501 Y0.593
X0.5 Y0.6
Y1.634
S5000
Y0.5 Z-2.9 F100
X0.498 Y0.491
X0.477 Y0.434
X0.476 Y0.418
X0.485 Y0.405
X0.5 Y0.4
S1000
X0.6 F10
Y9.6
X0.4
Y0.4
X0.5
G0 Z15

(2D Pocket1 2)
X2.5 Y0.7
Z15
Z3
G1 Z2.5 F25
S5000
Y0.476 Z2.461 F100
Y4.396 Z1.769
Y0.476 Z1.078
Y4.396 Z0.387
Y0.5 Z-0.3
X2.498 Y0.491
X2.477 Y0.434
X2.476 Y0.418
X2.485 Y0.405
X2.5 Y0.4
S1000
X2.6 F20
Y9.6
X2.4
Y0.4
X2.5
X2.519 Y0.406
X2.531 Y0.421
X2.533 Y0.44
X2.501 Y0.593
X2.5 Y0.6
Y2.201
S5000
Y0.5 Z-0.6 F100
X2.498 Y0.491
X2.477 Y0.434
X2.476 Y0.418
X2.485 Y0.405
X2.5 Y0.4
S1000
X2.6 F20
Y9.6
X2.4
Y0.4
X2.5
X2.519 Y0.406
X2.531 Y0.421
X2.533 Y0.44
X2.501 Y0.593
X2.5 Y0.6
Y2.201
S5000
Y0.5 Z-0.9 F100
X2.498 Y0.491
X2.477 Y0.434
X2.476 Y0.418
X2.485 Y0.405
X2.5 Y0.4
S1000
X2.6 F20
Y9.6
X2.4
Y0.4
X2.5
X2.519 Y0.406
X2.531 Y0.421
X2.533 Y0.44
X2.501 Y0.593
X2.5 Y0.6
Y2.201
S5000
Y0.5 Z-1.2 F100
X2.498 Y0.491
X2.477 Y0.434
X2.476 Y0.418
X2.485 Y0.405
X2.5 Y0.4
S1000
X2.6 F20
Y9.6
X2.4
Y0.4
X2.5
X2.519 Y0.406
X2.531 Y0.421
X2.533 Y0.44
X2.501 Y0.593
X2.5 Y0.6
Y2.201
S5000
Y0.5 Z-1.5 F100
X2.498 Y0.491
X2.477 Y0.434
X2.476 Y0.418
X2.485 Y0.405
X2.5 Y0.4
S1000
X2.6 F20
Y9.6
X2.4
Y0.4
X2.5
X2.519 Y0.406
X2.531 Y0.421
X2.533 Y0.44
X2.501 Y0.593
X2.5 Y0.6
Y2.201
S5000
Y0.5 Z-1.8 F100
X2.498 Y0.491
X2.477 Y0.434
X2.476 Y0.418
X2.485 Y0.405
X2.5 Y0.4
S1000
X2.6 F20
Y9.6
X2.4
Y0.4
X2.5
X2.519 Y0.406
X2.531 Y0.421
X2.533 Y0.44
X2.501 Y0.593
X2.5 Y0.6
Y2.201
S5000
Y0.5 Z-2.1 F100
X2.498 Y0.491
X2.477 Y0.434
X2.476 Y0.418
X2.485 Y0.405
X2.5 Y0.4
S1000
X2.6 F20
Y9.6
X2.4
Y0.4
X2.5
X2.519 Y0.406
X2.531 Y0.421
X2.533 Y0.44
X2.501 Y0.593
X2.5 Y0.6
Y2.201
S5000
Y0.5 Z-2.4 F100
X2.498 Y0.491
X2.477 Y0.434
X2.476 Y0.418
X2.485 Y0.405
X2.5 Y0.4
S1000
X2.6 F20
Y9.6
X2.4
Y0.4
X2.5
X2.519 Y0.406
X2.531 Y0.421
X2.533 Y0.44
X2.501 Y0.593
X2.5 Y0.6
Y2.201
S5000
Y0.5 Z-2.7 F100
X2.498 Y0.491
X2.477 Y0.434
X2.476 Y0.418
X2.485 Y0.405
X2.5 Y0.4
S1000
X2.6 F20
Y9.6
X2.4
Y0.4
X2.5
X2.519 Y0.406
X2.531 Y0.421
X2.533 Y0.44
X2.501 Y0.593
X2.5 Y0.6
Y1.634
S5000
Y0.5 Z-2.9 F100
X2.498 Y0.491
X2.477 Y0.434
X2.476 Y0.418
X2.485 Y0.405
X2.5 Y0.4
S1000
X2.6 F20
Y9.6
X2.4
Y0.4
X2.5
G0 Z15

(2D Pocket1 3)
X4.5 Y0.7
Z15
Z3
G1 Z2.5 F25
S5000
Y0.476 Z2.461 F100
Y4.396 Z1.769
Y0.476 Z1.078
Y4.396 Z0.387
Y0.5 Z-0.3
X4.507 Y0.475
X4.525 Y0.457
X4.55 Y0.45
X4.575 Y0.457
X4.593 Y0.475
X4.6 Y0.5
S1000
Y9.6 F30
X4.4
Y0.4
X4.6
Y0.5
X4.596 Y0.516
X4.584 Y0.528
X4.516 Y0.572
X4.504 Y0.584
X4.5 Y0.6
Y2.201
S5000
Y0.5 Z-0.6 F100
X4.507 Y0.475
X4.525 Y0.457
X4.55 Y0.45
X4.575 Y0.457
X4.593 Y0.475
X4.6 Y0.5
S1000
Y9.6 F30
X4.4
Y0.4
X4.6
Y0.5
X4.596 Y0.516
X4.584 Y0.528
X4.516 Y0.572
X4.504 Y0.584
X4.5 Y0.6
Y2.201
S5000
Y0.5 Z-0.9 F100
X4.507 Y0.475
X4.525 Y0.457
X4.55 Y0.45
X4.575 Y0.457
X4.593 Y0.475
X4.6 Y0.5
S1000
Y9.6 F30
X4.4
Y0.4
X4.6
Y0.5
X4.596 Y0.516
X4.584 Y0.528
X4.516 Y0.572
X4.504 Y0.584
X4.5 Y0.6
Y2.201
S5000
Y0.5 Z-1.2 F100
X4.507 Y0.475
X4.525 Y0.457
X4.55 Y0.45
X4.575 Y0.457
X4.593 Y0.475
X4.6 Y0.5
S1000
Y9.6 F30
X4.4
Y0.4
X4.6
Y0.5
X4.596 Y0.516
X4.584 Y0.528
X4.516 Y0.572
X4.504 Y0.584
X4.5 Y0.6
Y2.201
S5000
Y0.5 Z-1.5 F100
X4.507 Y0.475
X4.525 Y0.457
X4.55 Y0.45
X4.575 Y0.457
X4.593 Y0.475
X4.6 Y0.5
S1000
Y9.6 F30
X4.4
Y0.4
X4.6
Y0.5
X4.596 Y0.516
X4.584 Y0.528
X4.516 Y0.572
X4.504 Y0.584
X4.5 Y0.6
Y2.201
S5000
Y0.5 Z-1.8 F100
X4.507 Y0.475
X4.525 Y0.457
X4.55 Y0.45
X4.575 Y0.457
X4.593 Y0.475
X4.6 Y0.5
S1000
Y9.6 F30
X4.4
Y0.4
X4.6
Y0.5
X4.596 Y0.516
X4.584 Y0.528
X4.516 Y0.572
X4.504 Y0.584
X4.5 Y0.6
Y2.201
S5000
Y0.5 Z-2.1 F100
X4.507 Y0.475
X4.525 Y0.457
X4.55 Y0.45
X4.575 Y0.457
X4.593 Y0.475
X4.6 Y0.5
S1000
Y9.6 F30
X4.4
Y0.4
X4.6
Y0.5
X4.596 Y0.516
X4.584 Y0.528
X4.516 Y0.572
X4.504 Y0.584
X4.5 Y0.6
Y2.201
S5000
Y0.5 Z-2.4 F100
X4.507 Y0.475
X4.525 Y0.457
X4.55 Y0.45
X4.575 Y0.457
X4.593 Y0.475
X4.6 Y0.5
S1000
Y9.6 F30
X4.4
Y0.4
X4.6
Y0.5
X4.596 Y0.516
X4.584 Y0.528
X4.516 Y0.572
X4.504 Y0.584
X4.5 Y0.6
Y2.201
S5000
Y0.5 Z-2.7 F100
X4.507 Y0.475
X4.525 Y0.457
X4.55 Y0.45
X4.575 Y0.457
X4.593 Y0.475
X4.6 Y0.5
S1000
Y9.6 F30
X4.4
Y0.4
X4.6
Y0.5
X4.596 Y0.516
X4.584 Y0.528
X4.516 Y0.572
X4.504 Y0.584
X4.5 Y0.6
Y1.634
S5000
Y0.5 Z-2.9 F100
X4.507 Y0.475
X4.525 Y0.457
X4.55 Y0.45
X4.575 Y0.457
X4.593 Y0.475
X4.6 Y0.5
S1000
Y9.6 F30
X4.4
Y0.4
X4.6
Y0.5
G0 Z15

(2D Pocket1 4)
X6.5 Y0.7
Z15
Z3
G1 Z2.5 F25
S5000
Y0.476 Z2.461 F100
Y4.396 Z1.769
Y0.476 Z1.078
Y4.396 Z0.387
Y0.5 Z-0.3
X6.507 Y0.475
X6.525 Y0.457
X6.55 Y0.45
X6.575 Y0.457
X6.593 Y0.475
X6.6 Y0.5
S1000
Y9.6 F40
X6.4
Y0.4
X6.6
Y0.5
X6.596 Y0.516
X6.584 Y0.528
X6.516 Y0.572
X6.504 Y0.584
X6.5 Y0.6
Y2.201
S5000
Y0.5 Z-0.6 F100
X6.507 Y0.475
X6.525 Y0.457
X6.55 Y0.45
X6.575 Y0.457
X6.593 Y0.475
X6.6 Y0.5
S1000
Y9.6 F40
X6.4
Y0.4
X6.6
Y0.5
X6.596 Y0.516
X6.584 Y0.528
X6.516 Y0.572
X6.504 Y0.584
X6.5 Y0.6
Y2.201
S5000
Y0.5 Z-0.9 F100
X6.507 Y0.475
X6.525 Y0.457
X6.55 Y0.45
X6.575 Y0.457
X6.593 Y0.475
X6.6 Y0.5
S1000
Y9.6 F40
X6.4
Y0.4
X6.6
Y0.5
X6.596 Y0.516
X6.584 Y0.528
X6.516 Y0.572
X6.504 Y0.584
X6.5 Y0.6
Y2.201
S5000
Y0.5 Z-1.2 F100
X6.507 Y0.475
X6.525 Y0.457
X6.55 Y0.45
X6.575 Y0.457
X6.593 Y0.475
X6.6 Y0.5
S1000
Y9.6 F40
X6.4
Y0.4
X6.6
Y0.5
X6.596 Y0.516
X6.584 Y0.528
X6.516 Y0.572
X6.504 Y0.584
X6.5 Y0.6
Y2.201
S5000
Y0.5 Z-1.5 F100
X6.507 Y0.475
X6.525 Y0.457
X6.55 Y0.45
X6.575 Y0.457
X6.593 Y0.475
X6.6 Y0.5
S1000
Y9.6 F40
X6.4
Y0.4
X6.6
Y0.5
X6.596 Y0.516
X6.584 Y0.528
X6.516 Y0.572
X6.504 Y0.584
X6.5 Y0.6
Y2.201
S5000
Y0.5 Z-1.8 F100
X6.507 Y0.475
X6.525 Y0.457
X6.55 Y0.45
X6.575 Y0.457
X6.593 Y0.475
X6.6 Y0.5
S1000
Y9.6 F40
X6.4
Y0.4
X6.6
Y0.5
X6.596 Y0.516
X6.584 Y0.528
X6.516 Y0.572
X6.504 Y0.584
X6.5 Y0.6
Y2.201
S5000
Y0.5 Z-2.1 F100
X6.507 Y0.475
X6.525 Y0.457
X6.55 Y0.45
X6.575 Y0.457
X6.593 Y0.475
X6.6 Y0.5
S1000
Y9.6 F40
X6.4
Y0.4
X6.6
Y0.5
X6.596 Y0.516
X6.584 Y0.528
X6.516 Y0.572
X6.504 Y0.584
X6.5 Y0.6
Y2.201
S5000
Y0.5 Z-2.4 F100
X6.507 Y0.475
X6.525 Y0.457
X6.55 Y0.45
X6.575 Y0.457
X6.593 Y0.475
X6.6 Y0.5
S1000
Y9.6 F40
X6.4
Y0.4
X6.6
Y0.5
X6.596 Y0.516
X6.584 Y0.528
X6.516 Y0.572
X6.504 Y0.584
X6.5 Y0.6
Y2.201
S5000
Y0.5 Z-2.7 F100
X6.507 Y0.475
X6.525 Y0.457
X6.55 Y0.45
X6.575 Y0.457
X6.593 Y0.475
X6.6 Y0.5
S1000
Y9.6 F40
X6.4
Y0.4
X6.6
Y0.5
X6.596 Y0.516
X6.584 Y0.528
X6.516 Y0.572
X6.504 Y0.584
X6.5 Y0.6
Y1.634
S5000
Y0.5 Z-2.9 F100
X6.507 Y0.475
X6.525 Y0.457
X6.55 Y0.45
X6.575 Y0.457
X6.593 Y0.475
X6.6 Y0.5
S1000
Y9.6 F40
X6.4
Y0.4
X6.6
Y0.5
G0 Z15

(2D Pocket1 5)
X8.5 Y0.7
Z15
Z3
G1 Z2.5 F25
S5000
Y0.476 Z2.461 F100
Y4.396 Z1.769
Y0.476 Z1.078
Y4.396 Z0.387
Y0.5 Z-0.3
X8.507 Y0.475
X8.525 Y0.457
X8.55 Y0.45
X8.575 Y0.457
X8.593 Y0.475
X8.6 Y0.5
S1000
Y9.6 F50
X8.4
Y0.4
X8.6
Y0.5
X8.596 Y0.516
X8.584 Y0.528
X8.516 Y0.572
X8.504 Y0.584
X8.5 Y0.6
Y2.201
S5000
Y0.5 Z-0.6 F100
X8.507 Y0.475
X8.525 Y0.457
X8.55 Y0.45
X8.575 Y0.457
X8.593 Y0.475
X8.6 Y0.5
S1000
Y9.6 F50
X8.4
Y0.4
X8.6
Y0.5
X8.596 Y0.516
X8.584 Y0.528
X8.516 Y0.572
X8.504 Y0.584
X8.5 Y0.6
Y2.201
S5000
Y0.5 Z-0.9 F100
X8.507 Y0.475
X8.525 Y0.457
X8.55 Y0.45
X8.575 Y0.457
X8.593 Y0.475
X8.6 Y0.5
S1000
Y9.6 F50
X8.4
Y0.4
X8.6
Y0.5
X8.596 Y0.516
X8.584 Y0.528
X8.516 Y0.572
X8.504 Y0.584
X8.5 Y0.6
Y2.201
S5000
Y0.5 Z-1.2 F100
X8.507 Y0.475
X8.525 Y0.457
X8.55 Y0.45
X8.575 Y0.457
X8.593 Y0.475
X8.6 Y0.5
S1000
Y9.6 F50
X8.4
Y0.4
X8.6
Y0.5
X8.596 Y0.516
X8.584 Y0.528
X8.516 Y0.572
X8.504 Y0.584
X8.5 Y0.6
Y2.201
S5000
Y0.5 Z-1.5 F100
X8.507 Y0.475
X8.525 Y0.457
X8.55 Y0.45
X8.575 Y0.457
X8.593 Y0.475
X8.6 Y0.5
S1000
Y9.6 F50
X8.4
Y0.4
X8.6
Y0.5
X8.596 Y0.516
X8.584 Y0.528
X8.516 Y0.572
X8.504 Y0.584
X8.5 Y0.6
Y2.201
S5000
Y0.5 Z-1.8 F100
X8.507 Y0.475
X8.525 Y0.457
X8.55 Y0.45
X8.575 Y0.457
X8.593 Y0.475
X8.6 Y0.5
S1000
Y9.6 F50
X8.4
Y0.4
X8.6
Y0.5
X8.596 Y0.516
X8.584 Y0.528
X8.516 Y0.572
X8.504 Y0.584
X8.5 Y0.6
Y2.201
S5000
Y0.5 Z-2.1 F100
X8.507 Y0.475
X8.525 Y0.457
X8.55 Y0.45
X8.575 Y0.457
X8.593 Y0.475
X8.6 Y0.5
S1000
Y9.6 F50
X8.4
Y0.4
X8.6
Y0.5
X8.596 Y0.516
X8.584 Y0.528
X8.516 Y0.572
X8.504 Y0.584
X8.5 Y0.6
Y2.201
S5000
Y0.5 Z-2.4 F100
X8.507 Y0.475
X8.525 Y0.457
X8.55 Y0.45
X8.575 Y0.457
X8.593 Y0.475
X8.6 Y0.5
S1000
Y9.6 F50
X8.4
Y0.4
X8.6
Y0.5
X8.596 Y0.516
X8.584 Y0.528
X8.516 Y0.572
X8.504 Y0.584
X8.5 Y0.6
Y2.201
S5000
Y0.5 Z-2.7 F100
X8.507 Y0.475
X8.525 Y0.457
X8.55 Y0.45
X8.575 Y0.457
X8.593 Y0.475
X8.6 Y0.5
S1000
Y9.6 F50
X8.4
Y0.4
X8.6
Y0.5
X8.596 Y0.516
X8.584 Y0.528
X8.516 Y0.572
X8.504 Y0.584
X8.5 Y0.6
Y1.634
S5000
Y0.5 Z-2.9 F100
X8.507 Y0.475
X8.525 Y0.457
X8.55 Y0.45
X8.575 Y0.457
X8.593 Y0.475
X8.6 Y0.5
S1000
Y9.6 F50
X8.4
Y0.4
X8.6
Y0.5
G0 Z15

(2D Pocket1 6)
X10.5 Y0.7
Z15
Z3
G1 Z2.5 F25
S5000
Y0.476 Z2.461 F100
Y4.396 Z1.769
Y0.476 Z1.078
Y4.396 Z0.387
Y0.5 Z-0.3
X10.507 Y0.475
X10.525 Y0.457
X10.55 Y0.45
X10.575 Y0.457
X10.593 Y0.475
X10.6 Y0.5
S1000
Y9.6 F60
X10.4
Y0.4
X10.6
Y0.5
X10.596 Y0.516
X10.584 Y0.528
X10.516 Y0.572
X10.504 Y0.584
X10.5 Y0.6
Y2.201
S5000
Y0.5 Z-0.6 F100
X10.507 Y0.475
X10.525 Y0.457
X10.55 Y0.45
X10.575 Y0.457
X10.593 Y0.475
X10.6 Y0.5
S1000
Y9.6 F60
X10.4
Y0.4
X10.6
Y0.5
X10.596 Y0.516
X10.584 Y0.528
X10.516 Y0.572
X10.504 Y0.584
X10.5 Y0.6
Y2.201
S5000
Y0.5 Z-0.9 F100
X10.507 Y0.475
X10.525 Y0.457
X10.55 Y0.45
X10.575 Y0.457
X10.593 Y0.475
X10.6 Y0.5
S1000
Y9.6 F60
X10.4
Y0.4
X10.6
Y0.5
X10.596 Y0.516
X10.584 Y0.528
X10.516 Y0.572
X10.504 Y0.584
X10.5 Y0.6
Y2.201
S5000
Y0.5 Z-1.2 F100
X10.507 Y0.475
X10.525 Y0.457
X10.55 Y0.45
X10.575 Y0.457
X10.593 Y0.475
X10.6 Y0.5
S1000
Y9.6 F60
X10.4
Y0.4
X10.6
Y0.5
X10.596 Y0.516
X10.584 Y0.528
X10.516 Y0.572
X10.504 Y0.584
X10.5 Y0.6
Y2.201
S5000
Y0.5 Z-1.5 F100
X10.507 Y0.475
X10.525 Y0.457
X10.55 Y0.45
X10.575 Y0.457
X10.593 Y0.475
X10.6 Y0.5
S1000
Y9.6 F60
X10.4
Y0.4
X10.6
Y0.5
X10.596 Y0.516
X10.584 Y0.528
X10.516 Y0.572
X10.504 Y0.584
X10.5 Y0.6
Y2.201
S5000
Y0.5 Z-1.8 F100
X10.507 Y0.475
X10.525 Y0.457
X10.55 Y0.45
X10.575 Y0.457
X10.593 Y0.475
X10.6 Y0.5
S1000
Y9.6 F60
X10.4
Y0.4
X10.6
Y0.5
X10.596 Y0.516
X10.584 Y0.528
X10.516 Y0.572
X10.504 Y0.584
X10.5 Y0.6
Y2.201
S5000
Y0.5 Z-2.1 F100
X10.507 Y0.475
X10.525 Y0.457
X10.55 Y0.45
X10.575 Y0.457
X10.593 Y0.475
X10.6 Y0.5
S1000
Y9.6 F60
X10.4
Y0.4
X10.6
Y0.5
X10.596 Y0.516
X10.584 Y0.528
X10.516 Y0.572
X10.504 Y0.584
X10.5 Y0.6
Y2.201
S5000
Y0.5 Z-2.4 F100
X10.507 Y0.475
X10.525 Y0.457
X10.55 Y0.45
X10.575 Y0.457
X10.593 Y0.475
X10.6 Y0.5
S1000
Y9.6 F60
X10.4
Y0.4
X10.6
Y0.5
X10.596 Y0.516
X10.584 Y0.528
X10.516 Y0.572
X10.504 Y0.584
X10.5 Y0.6
Y2.201
S5000
Y0.5 Z-2.7 F100
X10.507 Y0.475
X10.525 Y0.457
X10.55 Y0.45
X10.575 Y0.457
X10.593 Y0.475
X10.6 Y0.5
S1000
Y9.6 F60
X10.4
Y0.4
X10.6
Y0.5
X10.596 Y0.516
X10.584 Y0.528
X10.516 Y0.572
X10.504 Y0.584
X10.5 Y0.6
Y1.634
S5000
Y0.5 Z-2.9 F100
X10.507 Y0.475
X10.525 Y0.457
X10.55 Y0.45
X10.575 Y0.457
X10.593 Y0.475
X10.6 Y0.5
S1000
Y9.6 F60
X10.4
Y0.4
X10.6
Y0.5
G0 Z15

(2D Pocket1 7)
X12.5 Y0.7
Z15
Z3
G1 Z2.5 F25
S5000
Y0.476 Z2.461 F100
Y4.396 Z1.769
Y0.476 Z1.078
Y4.396 Z0.387
Y0.5 Z-0.3
X12.507 Y0.475
X12.525 Y0.457
X12.55 Y0.45
X12.575 Y0.457
X12.593 Y0.475
X12.6 Y0.5
S1000
Y9.6 F70
X12.4
Y0.4
X12.6
Y0.5
X12.596 Y0.516
X12.584 Y0.528
X12.516 Y0.572
X12.504 Y0.584
X12.5 Y0.6
Y2.201
S5000
Y0.5 Z-0.6 F100
X12.507 Y0.475
X12.525 Y0.457
X12.55 Y0.45
X12.575 Y0.457
X12.593 Y0.475
X12.6 Y0.5
S1000
Y9.6 F70
X12.4
Y0.4
X12.6
Y0.5
X12.596 Y0.516
X12.584 Y0.528
X12.516 Y0.572
X12.504 Y0.584
X12.5 Y0.6
Y2.201
S5000
Y0.5 Z-0.9 F100
X12.507 Y0.475
X12.525 Y0.457
X12.55 Y0.45
X12.575 Y0.457
X12.593 Y0.475
X12.6 Y0.5
S1000
Y9.6 F70
X12.4
Y0.4
X12.6
Y0.5
X12.596 Y0.516
X12.584 Y0.528
X12.516 Y0.572
X12.504 Y0.584
X12.5 Y0.6
Y2.201
S5000
Y0.5 Z-1.2 F100
X12.507 Y0.475
X12.525 Y0.457
X12.55 Y0.45
X12.575 Y0.457
X12.593 Y0.475
X12.6 Y0.5
S1000
Y9.6 F70
X12.4
Y0.4
X12.6
Y0.5
X12.596 Y0.516
X12.584 Y0.528
X12.516 Y0.572
X12.504 Y0.584
X12.5 Y0.6
Y2.201
S5000
Y0.5 Z-1.5 F100
X12.507 Y0.475
X12.525 Y0.457
X12.55 Y0.45
X12.575 Y0.457
X12.593 Y0.475
X12.6 Y0.5
S1000
Y9.6 F70
X12.4
Y0.4
X12.6
Y0.5
X12.596 Y0.516
X12.584 Y0.528
X12.516 Y0.572
X12.504 Y0.584
X12.5 Y0.6
Y2.201
S5000
Y0.5 Z-1.8 F100
X12.507 Y0.475
X12.525 Y0.457
X12.55 Y0.45
X12.575 Y0.457
X12.593 Y0.475
X12.6 Y0.5
S1000
Y9.6 F70
X12.4
Y0.4
X12.6
Y0.5
X12.596 Y0.516
X12.584 Y0.528
X12.516 Y0.572
X12.504 Y0.584
X12.5 Y0.6
Y2.201
S5000
Y0.5 Z-2.1 F100
X12.507 Y0.475
X12.525 Y0.457
X12.55 Y0.45
X12.575 Y0.457
X12.593 Y0.475
X12.6 Y0.5
S1000
Y9.6 F70
X12.4
Y0.4
X12.6
Y0.5
X12.596 Y0.516
X12.584 Y0.528
X12.516 Y0.572
X12.504 Y0.584
X12.5 Y0.6
Y2.201
S5000
Y0.5 Z-2.4 F100
X12.507 Y0.475
X12.525 Y0.457
X12.55 Y0.45
X12.575 Y0.457
X12.593 Y0.475
X12.6 Y0.5
S1000
Y9.6 F70
X12.4
Y0.4
X12.6
Y0.5
X12.596 Y0.516
X12.584 Y0.528
X12.516 Y0.572
X12.504 Y0.584
X12.5 Y0.6
Y2.201
S5000
Y0.5 Z-2.7 F100
X12.507 Y0.475
X12.525 Y0.457
X12.55 Y0.45
X12.575 Y0.457
X12.593 Y0.475
X12.6 Y0.5
S1000
Y9.6 F70
X12.4
Y0.4
X12.6
Y0.5
X12.596 Y0.516
X12.584 Y0.528
X12.516 Y0.572
X12.504 Y0.584
X12.5 Y0.6
Y1.634
S5000
Y0.5 Z-2.9 F100
X12.507 Y0.475
X12.525 Y0.457
X12.55 Y0.45
X12.575 Y0.457
X12.593 Y0.475
X12.6 Y0.5
S1000
Y9.6 F70
X12.4
Y0.4
X12.6
Y0.5
G0 Z15

(2D Pocket1 8)
X14.5 Y0.7
Z15
Z3
G1 Z2.5 F25
S5000
Y0.476 Z2.461 F100
Y4.396 Z1.769
Y0.476 Z1.078
Y4.396 Z0.387
Y0.5 Z-0.3
X14.507 Y0.475
X14.525 Y0.457
X14.55 Y0.45
X14.575 Y0.457
X14.593 Y0.475
X14.6 Y0.5
S1000
Y9.6 F80
X14.4
Y0.4
X14.6
Y0.5
X14.596 Y0.516
X14.584 Y0.528
X14.516 Y0.572
X14.504 Y0.584
X14.5 Y0.6
Y2.201
S5000
Y0.5 Z-0.6 F100
X14.507 Y0.475
X14.525 Y0.457
X14.55 Y0.45
X14.575 Y0.457
X14.593 Y0.475
X14.6 Y0.5
S1000
Y9.6 F80
X14.4
Y0.4
X14.6
Y0.5
X14.596 Y0.516
X14.584 Y0.528
X14.516 Y0.572
X14.504 Y0.584
X14.5 Y0.6
Y2.201
S5000
Y0.5 Z-0.9 F100
X14.507 Y0.475
X14.525 Y0.457
X14.55 Y0.45
X14.575 Y0.457
X14.593 Y0.475
X14.6 Y0.5
S1000
Y9.6 F80
X14.4
Y0.4
X14.6
Y0.5
X14.596 Y0.516
X14.584 Y0.528
X14.516 Y0.572
X14.504 Y0.584
X14.5 Y0.6
Y2.201
S5000
Y0.5 Z-1.2 F100
X14.507 Y0.475
X14.525 Y0.457
X14.55 Y0.45
X14.575 Y0.457
X14.593 Y0.475
X14.6 Y0.5
S1000
Y9.6 F80
X14.4
Y0.4
X14.6
Y0.5
X14.596 Y0.516
X14.584 Y0.528
X14.516 Y0.572
X14.504 Y0.584
X14.5 Y0.6
Y2.201
S5000
Y0.5 Z-1.5 F100
X14.507 Y0.475
X14.525 Y0.457
X14.55 Y0.45
X14.575 Y0.457
X14.593 Y0.475
X14.6 Y0.5
S1000
Y9.6 F80
X14.4
Y0.4
X14.6
Y0.5
X14.596 Y0.516
X14.584 Y0.528
X14.516 Y0.572
X14.504 Y0.584
X14.5 Y0.6
Y2.201
S5000
Y0.5 Z-1.8 F100
X14.507 Y0.475
X14.525 Y0.457
X14.55 Y0.45
X14.575 Y0.457
X14.593 Y0.475
X14.6 Y0.5
S1000
Y9.6 F80
X14.4
Y0.4
X14.6
Y0.5
X14.596 Y0.516
X14.584 Y0.528
X14.516 Y0.572
X14.504 Y0.584
X14.5 Y0.6
Y2.201
S5000
Y0.5 Z-2.1 F100
X14.507 Y0.475
X14.525 Y0.457
X14.55 Y0.45
X14.575 Y0.457
X14.593 Y0.475
X14.6 Y0.5
S1000
Y9.6 F80
X14.4
Y0.4
X14.6
Y0.5
X14.596 Y0.516
X14.584 Y0.528
X14.516 Y0.572
X14.504 Y0.584
X14.5 Y0.6
Y2.201
S5000
Y0.5 Z-2.4 F100
X14.507 Y0.475
X14.525 Y0.457
X14.55 Y0.45
X14.575 Y0.457
X14.593 Y0.475
X14.6 Y0.5
S1000
Y9.6 F80
X14.4
Y0.4
X14.6
Y0.5
X14.596 Y0.516
X14.584 Y0.528
X14.516 Y0.572
X14.504 Y0.584
X14.5 Y0.6
Y2.201
S5000
Y0.5 Z-2.7 F100
X14.507 Y0.475
X14.525 Y0.457
X14.55 Y0.45
X14.575 Y0.457
X14.593 Y0.475
X14.6 Y0.5
S1000
Y9.6 F80
X14.4
Y0.4
X14.6
Y0.5
X14.596 Y0.516
X14.584 Y0.528
X14.516 Y0.572
X14.504 Y0.584
X14.5 Y0.6
Y1.634
S5000
Y0.5 Z-2.9 F100
X14.507 Y0.475
X14.525 Y0.457
X14.55 Y0.45
X14.575 Y0.457
X14.593 Y0.475
X14.6 Y0.5
S1000
Y9.6 F80
X14.4
Y0.4
X14.6
Y0.5
G0 Z15

(2D Pocket1 9)
X16.5 Y0.7
Z15
Z3
G1 Z2.5 F25
S5000
Y0.476 Z2.461 F100
Y4.396 Z1.769
Y0.476 Z1.078
Y4.396 Z0.387
Y0.5 Z-0.3
X16.498 Y0.491
X16.477 Y0.434
X16.476 Y0.418
X16.485 Y0.405
X16.5 Y0.4
S1000
X16.6 F90
Y9.6
X16.4
Y0.4
X16.5
X16.519 Y0.406
X16.531 Y0.421
X16.533 Y0.44
X16.501 Y0.593
X16.5 Y0.6
Y2.201
S5000
Y0.5 Z-0.6 F100
X16.498 Y0.491
X16.477 Y0.434
X16.476 Y0.418
X16.485 Y0.405
X16.5 Y0.4
S1000
X16.6 F90
Y9.6
X16.4
Y0.4
X16.5
X16.519 Y0.406
X16.531 Y0.421
X16.533 Y0.44
X16.501 Y0.593
X16.5 Y0.6
Y2.201
S5000
Y0.5 Z-0.9 F100
X16.498 Y0.491
X16.477 Y0.434
X16.476 Y0.418
X16.485 Y0.405
X16.5 Y0.4
S1000
X16.6 F90
Y9.6
X16.4
Y0.4
X16.5
X16.519 Y0.406
X16.531 Y0.421
X16.533 Y0.44
X16.501 Y0.593
X16.5 Y0.6
Y2.201
S5000
Y0.5 Z-1.2 F100
X16.498 Y0.491
X16.477 Y0.434
X16.476 Y0.418
X16.485 Y0.405
X16.5 Y0.4
S1000
X16.6 F90
Y9.6
X16.4
Y0.4
X16.5
X16.519 Y0.406
X16.531 Y0.421
X16.533 Y0.44
X16.501 Y0.593
X16.5 Y0.6
Y2.201
S5000
Y0.5 Z-1.5 F100
X16.498 Y0.491
X16.477 Y0.434
X16.476 Y0.418
X16.485 Y0.405
X16.5 Y0.4
S1000
X16.6 F90
Y9.6
X16.4
Y0.4
X16.5
X16.519 Y0.406
X16.531 Y0.421
X16.533 Y0.44
X16.501 Y0.593
X16.5 Y0.6
Y2.201
S5000
Y0.5 Z-1.8 F100
X16.498 Y0.491
X16.477 Y0.434
X16.476 Y0.418
X16.485 Y0.405
X16.5 Y0.4
S1000
X16.6 F90
Y9.6
X16.4
Y0.4
X16.5
X16.519 Y0.406
X16.531 Y0.421
X16.533 Y0.44
X16.501 Y0.593
X16.5 Y0.6
Y2.201
S5000
Y0.5 Z-2.1 F100
X16.498 Y0.491
X16.477 Y0.434
X16.476 Y0.418
X16.485 Y0.405
X16.5 Y0.4
S1000
X16.6 F90
Y9.6
X16.4
Y0.4
X16.5
X16.519 Y0.406
X16.531 Y0.421
X16.533 Y0.44
X16.501 Y0.593
X16.5 Y0.6
Y2.201
S5000
Y0.5 Z-2.4 F100
X16.498 Y0.491
X16.477 Y0.434
X16.476 Y0.418
X16.485 Y0.405
X16.5 Y0.4
S1000
X16.6 F90
Y9.6
X16.4
Y0.4
X16.5
X16.519 Y0.406
X16.531 Y0.421
X16.533 Y0.44
X16.501 Y0.593
X16.5 Y0.6
Y2.201
S5000
Y0.5 Z-2.7 F100
X16.498 Y0.491
X16.477 Y0.434
X16.476 Y0.418
X16.485 Y0.405
X16.5 Y0.4
S1000
X16.6 F90
Y9.6
X16.4
Y0.4
X16.5
X16.519 Y0.406
X16.531 Y0.421
X16.533 Y0.44
X16.501 Y0.593
X16.5 Y0.6
Y1.634
S5000
Y0.5 Z-2.9 F100
X16.498 Y0.491
X16.477 Y0.434
X16.476 Y0.418
X16.485 Y0.405
X16.5 Y0.4
S1000
X16.6 F90
Y9.6
X16.4
Y0.4
X16.5
G0 Z15

(2D Pocket1 10)
X18.5 Y0.7
Z15
Z3
G1 Z2.5 F25
S5000
Y0.476 Z2.461 F100
Y4.396 Z1.769
Y0.476 Z1.078
Y4.396 Z0.387
Y0.5 Z-0.3
X18.498 Y0.491
X18.477 Y0.434
X18.476 Y0.418
X18.485 Y0.405
X18.5 Y0.4
S1000
X18.6
Y9.6
X18.4
Y0.4
X18.5
X18.519 Y0.406
X18.531 Y0.421
X18.533 Y0.44
X18.501 Y0.593
X18.5 Y0.6
Y2.201
S5000
Y0.5 Z-0.6
X18.498 Y0.491
X18.477 Y0.434
X18.476 Y0.418
X18.485 Y0.405
X18.5 Y0.4
S1000
X18.6
Y9.6
X18.4
Y0.4
X18.5
X18.519 Y0.406
X18.531 Y0.421
X18.533 Y0.44
X18.501 Y0.593
X18.5 Y0.6
Y2.201
S5000
Y0.5 Z-0.9
X18.498 Y0.491
X18.477 Y0.434
X18.476 Y0.418
X18.485 Y0.405
X18.5 Y0.4
S1000
X18.6
Y9.6
X18.4
Y0.4
X18.5
X18.519 Y0.406
X18.531 Y0.421
X18.533 Y0.44
X18.501 Y0.593
X18.5 Y0.6
Y2.201
S5000
Y0.5 Z-1.2
X18.498 Y0.491
X18.477 Y0.434
X18.476 Y0.418
X18.485 Y0.405
X18.5 Y0.4
S1000
X18.6
Y9.6
X18.4
Y0.4
X18.5
X18.519 Y0.406
X18.531 Y0.421
X18.533 Y0.44
X18.501 Y0.593
X18.5 Y0.6
Y2.201
S5000
Y0.5 Z-1.5
X18.498 Y0.491
X18.477 Y0.434
X18.476 Y0.418
X18.485 Y0.405
X18.5 Y0.4
S1000
X18.6
Y9.6
X18.4
Y0.4
X18.5
X18.519 Y0.406
X18.531 Y0.421
X18.533 Y0.44
X18.501 Y0.593
X18.5 Y0.6
Y2.201
S5000
Y0.5 Z-1.8
X18.498 Y0.491
X18.477 Y0.434
X18.476 Y0.418
X18.485 Y0.405
X18.5 Y0.4
S1000
X18.6
Y9.6
X18.4
Y0.4
X18.5
X18.519 Y0.406
X18.531 Y0.421
X18.533 Y0.44
X18.501 Y0.593
X18.5 Y0.6
Y2.201
S5000
Y0.5 Z-2.1
X18.498 Y0.491
X18.477 Y0.434
X18.476 Y0.418
X18.485 Y0.405
X18.5 Y0.4
S1000
X18.6
Y9.6
X18.4
Y0.4
X18.5
X18.519 Y0.406
X18.531 Y0.421
X18.533 Y0.44
X18.501 Y0.593
X18.5 Y0.6
Y2.201
S5000
Y0.5 Z-2.4
X18.498 Y0.491
X18.477 Y0.434
X18.476 Y0.418
X18.485 Y0.405
X18.5 Y0.4
S1000
X18.6
Y9.6
X18.4
Y0.4
X18.5
X18.519 Y0.406
X18.531 Y0.421
X18.533 Y0.44
X18.501 Y0.593
X18.5 Y0.6
Y2.201
S5000
Y0.5 Z-2.7
X18.498 Y0.491
X18.477 Y0.434
X18.476 Y0.418
X18.485 Y0.405
X18.5 Y0.4
S1000
X18.6
Y9.6
X18.4
Y0.4
X18.5
X18.519 Y0.406
X18.531 Y0.421
X18.533 Y0.44
X18.501 Y0.593
X18.5 Y0.6
Y1.634
S5000
Y0.5 Z-2.9
X18.498 Y0.491
X18.477 Y0.434
X18.476 Y0.418
X18.485 Y0.405
X18.5 Y0.4
S1000
X18.6
Y9.6
X18.4
Y0.4
X18.5
G0 Z15

(2D Pocket1 11)
X20.5 Y0.7
Z15
Z3
G1 Z2.5 F25
S5000
Y0.476 Z2.461 F100
Y4.396 Z1.769
Y0.476 Z1.078
Y4.396 Z0.387
Y0.5 Z-0.3
X20.498 Y0.491
X20.477 Y0.434
X20.476 Y0.418
X20.485 Y0.405
X20.5 Y0.4
S1000
X20.6 F110
Y9.6
X20.4
Y0.4
X20.5
X20.519 Y0.406
X20.531 Y0.421
X20.533 Y0.44
X20.501 Y0.593
X20.5 Y0.6
Y2.201
S5000
Y0.5 Z-0.6 F100
X20.498 Y0.491
X20.477 Y0.434
X20.476 Y0.418
X20.485 Y0.405
X20.5 Y0.4
S1000
X20.6 F110
Y9.6
X20.4
Y0.4
X20.5
X20.519 Y0.406
X20.531 Y0.421
X20.533 Y0.44
X20.501 Y0.593
X20.5 Y0.6
Y2.201
S5000
Y0.5 Z-0.9 F100
X20.498 Y0.491
X20.477 Y0.434
X20.476 Y0.418
X20.485 Y0.405
X20.5 Y0.4
S1000
X20.6 F110
Y9.6
X20.4
Y0.4
X20.5
X20.519 Y0.406
X20.531 Y0.421
X20.533 Y0.44
X20.501 Y0.593
X20.5 Y0.6
Y2.201
S5000
Y0.5 Z-1.2 F100
X20.498 Y0.491
X20.477 Y0.434
X20.476 Y0.418
X20.485 Y0.405
X20.5 Y0.4
S1000
X20.6 F110
Y9.6
X20.4
Y0.4
X20.5
X20.519 Y0.406
X20.531 Y0.421
X20.533 Y0.44
X20.501 Y0.593
X20.5 Y0.6
Y2.201
S5000
Y0.5 Z-1.5 F100
X20.498 Y0.491
X20.477 Y0.434
X20.476 Y0.418
X20.485 Y0.405
X20.5 Y0.4
S1000
X20.6 F110
Y9.6
X20.4
Y0.4
X20.5
X20.519 Y0.406
X20.531 Y0.421
X20.533 Y0.44
X20.501 Y0.593
X20.5 Y0.6
Y2.201
S5000
Y0.5 Z-1.8 F100
X20.498 Y0.491
X20.477 Y0.434
X20.476 Y0.418
X20.485 Y0.405
X20.5 Y0.4
S1000
X20.6 F110
Y9.6
X20.4
Y0.4
X20.5
X20.519 Y0.406
X20.531 Y0.421
X20.533 Y0.44
X20.501 Y0.593
X20.5 Y0.6
Y2.201
S5000
Y0.5 Z-2.1 F100
X20.498 Y0.491
X20.477 Y0.434
X20.476 Y0.418
X20.485 Y0.405
X20.5 Y0.4
S1000
X20.6 F110
Y9.6
X20.4
Y0.4
X20.5
X20.519 Y0.406
X20.531 Y0.421
X20.533 Y0.44
X20.501 Y0.593
X20.5 Y0.6
Y2.201
S5000
Y0.5 Z-2.4 F100
X20.498 Y0.491
X20.477 Y0.434
X20.476 Y0.418
X20.485 Y0.405
X20.5 Y0.4
S1000
X20.6 F110
Y9.6
X20.4
Y0.4
X20.5
X20.519 Y0.406
X20.531 Y0.421
X20.533 Y0.44
X20.501 Y0.593
X20.5 Y0.6
Y2.201
S5000
Y0.5 Z-2.7 F100
X20.498 Y0.491
X20.477 Y0.434
X20.476 Y0.418
X20.485 Y0.405
X20.5 Y0.4
S1000
X20.6 F110
Y9.6
X20.4
Y0.4
X20.5
X20.519 Y0.406
X20.531 Y0.421
X20.533 Y0.44
X20.501 Y0.593
X20.5 Y0.6
Y1.634
S5000
Y0.5 Z-2.9 F100
X20.498 Y0.491
X20.477 Y0.434
X20.476 Y0.418
X20.485 Y0.405
X20.5 Y0.4
S1000
X20.6 F110
Y9.6
X20.4
Y0.4
X20.5
G0 Z15

(2D Pocket1 12)
X22.5 Y0.7
Z15
Z3
G1 Z2.5 F25
S5000
Y0.476 Z2.461 F100
Y4.396 Z1.769
Y0.476 Z1.078
Y4.396 Z0.387
Y0.5 Z-0.3
X22.498 Y0.491
X22.477 Y0.434
X22.476 Y0.418
X22.485 Y0.405
X22.5 Y0.4
S1000
X22.6 F120
Y9.6
X22.4
Y0.4
X22.5
X22.519 Y0.406
X22.531 Y0.421
X22.533 Y0.44
X22.501 Y0.593
X22.5 Y0.6
Y2.201
S5000
Y0.5 Z-0.6 F100
X22.498 Y0.491
X22.477 Y0.434
X22.476 Y0.418
X22.485 Y0.405
X22.5 Y0.4
S1000
X22.6 F120
Y9.6
X22.4
Y0.4
X22.5
X22.519 Y0.406
X22.531 Y0.421
X22.533 Y0.44
X22.501 Y0.593
X22.5 Y0.6
Y2.201
S5000
Y0.5 Z-0.9 F100
X22.498 Y0.491
X22.477 Y0.434
X22.476 Y0.418
X22.485 Y0.405
X22.5 Y0.4
S1000
X22.6 F120
Y9.6
X22.4
Y0.4
X22.5
X22.519 Y0.406
X22.531 Y0.421
X22.533 Y0.44
X22.501 Y0.593
X22.5 Y0.6
Y2.201
S5000
Y0.5 Z-1.2 F100
X22.498 Y0.491
X22.477 Y0.434
X22.476 Y0.418
X22.485 Y0.405
X22.5 Y0.4
S1000
X22.6 F120
Y9.6
X22.4
Y0.4
X22.5
X22.519 Y0.406
X22.531 Y0.421
X22.533 Y0.44
X22.501 Y0.593
X22.5 Y0.6
Y2.201
S5000
Y0.5 Z-1.5 F100
X22.498 Y0.491
X22.477 Y0.434
X22.476 Y0.418
X22.485 Y0.405
X22.5 Y0.4
S1000
X22.6 F120
Y9.6
X22.4
Y0.4
X22.5
X22.519 Y0.406
X22.531 Y0.421
X22.533 Y0.44
X22.501 Y0.593
X22.5 Y0.6
Y2.201
S5000
Y0.5 Z-1.8 F100
X22.498 Y0.491
X22.477 Y0.434
X22.476 Y0.418
X22.485 Y0.405
X22.5 Y0.4
S1000
X22.6 F120
Y9.6
X22.4
Y0.4
X22.5
X22.519 Y0.406
X22.531 Y0.421
X22.533 Y0.44
X22.501 Y0.593
X22.5 Y0.6
Y2.201
S5000
Y0.5 Z-2.1 F100
X22.498 Y0.491
X22.477 Y0.434
X22.476 Y0.418
X22.485 Y0.405
X22.5 Y0.4
S1000
X22.6 F120
Y9.6
X22.4
Y0.4
X22.5
X22.519 Y0.406
X22.531 Y0.421
X22.533 Y0.44
X22.501 Y0.593
X22.5 Y0.6
Y2.201
S5000
Y0.5 Z-2.4 F100
X22.498 Y0.491
X22.477 Y0.434
X22.476 Y0.418
X22.485 Y0.405
X22.5 Y0.4
S1000
X22.6 F120
Y9.6
X22.4
Y0.4
X22.5
X22.519 Y0.406
X22.531 Y0.421
X22.533 Y0.44
X22.501 Y0.593
X22.5 Y0.6
Y2.201
S5000
Y0.5 Z-2.7 F100
X22.498 Y0.491
X22.477 Y0.434
X22.476 Y0.418
X22.485 Y0.405
X22.5 Y0.4
S1000
X22.6 F120
Y9.6
X22.4
Y0.4
X22.5
X22.519 Y0.406
X22.531 Y0.421
X22.533 Y0.44
X22.501 Y0.593
X22.5 Y0.6
Y1.634
S5000
Y0.5 Z-2.9 F100
X22.498 Y0.491
X22.477 Y0.434
X22.476 Y0.418
X22.485 Y0.405
X22.5 Y0.4
S1000
X22.6 F120
Y9.6
X22.4
Y0.4
X22.5
G0 Z15

(2D Pocket1 13)
X24.5 Y0.7
Z15
Z3
G1 Z2.5 F25
S5000
Y0.476 Z2.461 F100
Y4.396 Z1.769
Y0.476 Z1.078
Y4.396 Z0.387
Y0.5 Z-0.3
X24.498 Y0.491
X24.477 Y0.434
X24.476 Y0.418
X24.485 Y0.405
X24.5 Y0.4
S1000
X24.6 F130
Y9.6
X24.4
Y0.4
X24.5
X24.519 Y0.406
X24.531 Y0.421
X24.533 Y0.44
X24.501 Y0.593
X24.5 Y0.6
Y2.201
S5000
Y0.5 Z-0.6 F100
X24.498 Y0.491
X24.477 Y0.434
X24.476 Y0.418
X24.485 Y0.405
X24.5 Y0.4
S1000
X24.6 F130
Y9.6
X24.4
Y0.4
X24.5
X24.519 Y0.406
X24.531 Y0.421
X24.533 Y0.44
X24.501 Y0.593
X24.5 Y0.6
Y2.201
S5000
Y0.5 Z-0.9 F100
X24.498 Y0.491
X24.477 Y0.434
X24.476 Y0.418
X24.485 Y0.405
X24.5 Y0.4
S1000
X24.6 F130
Y9.6
X24.4
Y0.4
X24.5
X24.519 Y0.406
X24.531 Y0.421
X24.533 Y0.44
X24.501 Y0.593
X24.5 Y0.6
Y2.201
S5000
Y0.5 Z-1.2 F100
X24.498 Y0.491
X24.477 Y0.434
X24.476 Y0.418
X24.485 Y0.405
X24.5 Y0.4
S1000
X24.6 F130
Y9.6
X24.4
Y0.4
X24.5
X24.519 Y0.406
X24.531 Y0.421
X24.533 Y0.44
X24.501 Y0.593
X24.5 Y0.6
Y2.201
S5000
Y0.5 Z-1.5 F100
X24.498 Y0.491
X24.477 Y0.434
X24.476 Y0.418
X24.485 Y0.405
X24.5 Y0.4
S1000
X24.6 F130
Y9.6
X24.4
Y0.4
X24.5
X24.519 Y0.406
X24.531 Y0.421
X24.533 Y0.44
X24.501 Y0.593
X24.5 Y0.6
Y2.201
S5000
Y0.5 Z-1.8 F100
X24.498 Y0.491
X24.477 Y0.434
X24.476 Y0.418
X24.485 Y0.405
X24.5 Y0.4
S1000
X24.6 F130
Y9.6
X24.4
Y0.4
X24.5
X24.519 Y0.406
X24.531 Y0.421
X24.533 Y0.44
X24.501 Y0.593
X24.5 Y0.6
Y2.201
S5000
Y0.5 Z-2.1 F100
X24.498 Y0.491
X24.477 Y0.434
X24.476 Y0.418
X24.485 Y0.405
X24.5 Y0.4
S1000
X24.6 F130
Y9.6
X24.4
Y0.4
X24.5
X24.519 Y0.406
X24.531 Y0.421
X24.533 Y0.44
X24.501 Y0.593
X24.5 Y0.6
Y2.201
S5000
Y0.5 Z-2.4 F100
X24.498 Y0.491
X24.477 Y0.434
X24.476 Y0.418
X24.485 Y0.405
X24.5 Y0.4
S1000
X24.6 F130
Y9.6
X24.4
Y0.4
X24.5
X24.519 Y0.406
X24.531 Y0.421
X24.533 Y0.44
X24.501 Y0.593
X24.5 Y0.6
Y2.201
S5000
Y0.5 Z-2.7 F100
X24.498 Y0.491
X24.477 Y0.434
X24.476 Y0.418
X24.485 Y0.405
X24.5 Y0.4
S1000
X24.6 F130
Y9.6
X24.4
Y0.4
X24.5
X24.519 Y0.406
X24.531 Y0.421
X24.533 Y0.44
X24.501 Y0.593
X24.5 Y0.6
Y1.634
S5000
Y0.5 Z-2.9 F100
X24.498 Y0.491
X24.477 Y0.434
X24.476 Y0.418
X24.485 Y0.405
X24.5 Y0.4
S1000
X24.6 F130
Y9.6
X24.4
Y0.4
X24.5
G0 Z15

(2D Pocket1 14)
X26.5 Y0.7
Z15
Z3
G1 Z2.5 F25
S5000
Y0.476 Z2.461 F100
Y4.396 Z1.769
Y0.476 Z1.078
Y4.396 Z0.387
Y0.5 Z-0.3
X26.498 Y0.491
X26.477 Y0.434
X26.476 Y0.418
X26.485 Y0.405
X26.5 Y0.4
S1000
X26.6 F140
Y9.6
X26.4
Y0.4
X26.5
X26.519 Y0.406
X26.531 Y0.421
X26.533 Y0.44
X26.501 Y0.593
X26.5 Y0.6
Y2.201
S5000
Y0.5 Z-0.6 F100
X26.498 Y0.491
X26.477 Y0.434
X26.476 Y0.418
X26.485 Y0.405
X26.5 Y0.4
S1000
X26.6 F140
Y9.6
X26.4
Y0.4
X26.5
X26.519 Y0.406
X26.531 Y0.421
X26.533 Y0.44
X26.501 Y0.593
X26.5 Y0.6
Y2.201
S5000
Y0.5 Z-0.9 F100
X26.498 Y0.491
X26.477 Y0.434
X26.476 Y0.418
X26.485 Y0.405
X26.5 Y0.4
S1000
X26.6 F140
Y9.6
X26.4
Y0.4
X26.5
X26.519 Y0.406
X26.531 Y0.421
X26.533 Y0.44
X26.501 Y0.593
X26.5 Y0.6
Y2.201
S5000
Y0.5 Z-1.2 F100
X26.498 Y0.491
X26.477 Y0.434
X26.476 Y0.418
X26.485 Y0.405
X26.5 Y0.4
S1000
X26.6 F140
Y9.6
X26.4
Y0.4
X26.5
X26.519 Y0.406
X26.531 Y0.421
X26.533 Y0.44
X26.501 Y0.593
X26.5 Y0.6
Y2.201
S5000
Y0.5 Z-1.5 F100
X26.498 Y0.491
X26.477 Y0.434
X26.476 Y0.418
X26.485 Y0.405
X26.5 Y0.4
S1000
X26.6 F140
Y9.6
X26.4
Y0.4
X26.5
X26.519 Y0.406
X26.531 Y0.421
X26.533 Y0.44
X26.501 Y0.593
X26.5 Y0.6
Y2.201
S5000
Y0.5 Z-1.8 F100
X26.498 Y0.491
X26.477 Y0.434
X26.476 Y0.418
X26.485 Y0.405
X26.5 Y0.4
S1000
X26.6 F140
Y9.6
X26.4
Y0.4
X26.5
X26.519 Y0.406
X26.531 Y0.421
X26.533 Y0.44
X26.501 Y0.593
X26.5 Y0.6
Y2.201
S5000
Y0.5 Z-2.1 F100
X26.498 Y0.491
X26.477 Y0.434
X26.476 Y0.418
X26.485 Y0.405
X26.5 Y0.4
S1000
X26.6 F140
Y9.6
X26.4
Y0.4
X26.5
X26.519 Y0.406
X26.531 Y0.421
X26.533 Y0.44
X26.501 Y0.593
X26.5 Y0.6
Y2.201
S5000
Y0.5 Z-2.4 F100
X26.498 Y0.491
X26.477 Y0.434
X26.476 Y0.418
X26.485 Y0.405
X26.5 Y0.4
S1000
X26.6 F140
Y9.6
X26.4
Y0.4
X26.5
X26.519 Y0.406
X26.531 Y0.421
X26.533 Y0.44
X26.501 Y0.593
X26.5 Y0.6
Y2.201
S5000
Y0.5 Z-2.7 F100
X26.498 Y0.491
X26.477 Y0.434
X26.476 Y0.418
X26.485 Y0.405
X26.5 Y0.4
S1000
X26.6 F140
Y9.6
X26.4
Y0.4
X26.5
X26.519 Y0.406
X26.531 Y0.421
X26.533 Y0.44
X26.501 Y0.593
X26.5 Y0.6
Y1.634
S5000
Y0.5 Z-2.9 F100
X26.498 Y0.491
X26.477 Y0.434
X26.476 Y0.418
X26.485 Y0.405
X26.5 Y0.4
S1000
X26.6 F140
Y9.6
X26.4
Y0.4
X26.5
G0 Z15

(2D Pocket1 15)
X28.5 Y0.7
Z15
Z3
G1 Z2.5 F25
S5000
Y0.476 Z2.461 F100
Y4.396 Z1.769
Y0.476 Z1.078
Y4.396 Z0.387
Y0.5 Z-0.3
X28.498 Y0.491
X28.477 Y0.434
X28.476 Y0.418
X28.485 Y0.405
X28.5 Y0.4
S1000
X28.6 F150
Y9.6
X28.4
Y0.4
X28.5
X28.519 Y0.406
X28.531 Y0.421
X28.533 Y0.44
X28.501 Y0.593
X28.5 Y0.6
Y2.201
S5000
Y0.5 Z-0.6 F100
X28.498 Y0.491
X28.477 Y0.434
X28.476 Y0.418
X28.485 Y0.405
X28.5 Y0.4
S1000
X28.6 F150
Y9.6
X28.4
Y0.4
X28.5
X28.519 Y0.406
X28.531 Y0.421
X28.533 Y0.44
X28.501 Y0.593
X28.5 Y0.6
Y2.201
S5000
Y0.5 Z-0.9 F100
X28.498 Y0.491
X28.477 Y0.434
X28.476 Y0.418
X28.485 Y0.405
X28.5 Y0.4
S1000
X28.6 F150
Y9.6
X28.4
Y0.4
X28.5
X28.519 Y0.406
X28.531 Y0.421
X28.533 Y0.44
X28.501 Y0.593
X28.5 Y0.6
Y2.201
S5000
Y0.5 Z-1.2 F100
X28.498 Y0.491
X28.477 Y0.434
X28.476 Y0.418
X28.485 Y0.405
X28.5 Y0.4
S1000
X28.6 F150
Y9.6
X28.4
Y0.4
X28.5
X28.519 Y0.406
X28.531 Y0.421
X28.533 Y0.44
X28.501 Y0.593
X28.5 Y0.6
Y2.201
S5000
Y0.5 Z-1.5 F100
X28.498 Y0.491
X28.477 Y0.434
X28.476 Y0.418
X28.485 Y0.405
X28.5 Y0.4
S1000
X28.6 F150
Y9.6
X28.4
Y0.4
X28.5
X28.519 Y0.406
X28.531 Y0.421
X28.533 Y0.44
X28.501 Y0.593
X28.5 Y0.6
Y2.201
S5000
Y0.5 Z-1.8 F100
X28.498 Y0.491
X28.477 Y0.434
X28.476 Y0.418
X28.485 Y0.405
X28.5 Y0.4
S1000
X28.6 F150
Y9.6
X28.4
Y0.4
X28.5
X28.519 Y0.406
X28.531 Y0.421
X28.533 Y0.44
X28.501 Y0.593
X28.5 Y0.6
Y2.201
S5000
Y0.5 Z-2.1 F100
X28.498 Y0.491
X28.477 Y0.434
X28.476 Y0.418
X28.485 Y0.405
X28.5 Y0.4
S1000
X28.6 F150
Y9.6
X28.4
Y0.4
X28.5
X28.519 Y0.406
X28.531 Y0.421
X28.533 Y0.44
X28.501 Y0.593
X28.5 Y0.6
Y2.201
S5000
Y0.5 Z-2.4 F100
X28.498 Y0.491
X28.477 Y0.434
X28.476 Y0.418
X28.485 Y0.405
X28.5 Y0.4
S1000
X28.6 F150
Y9.6
X28.4
Y0.4
X28.5
X28.519 Y0.406
X28.531 Y0.421
X28.533 Y0.44
X28.501 Y0.593
X28.5 Y0.6
Y2.201
S5000
Y0.5 Z-2.7 F100
X28.498 Y0.491
X28.477 Y0.434
X28.476 Y0.418
X28.485 Y0.405
X28.5 Y0.4
S1000
X28.6 F150
Y9.6
X28.4
Y0.4
X28.5
X28.519 Y0.406
X28.531 Y0.421
X28.533 Y0.44
X28.501 Y0.593
X28.5 Y0.6
Y1.634
S5000
Y0.5 Z-2.9 F100
X28.498 Y0.491
X28.477 Y0.434
X28.476 Y0.418
X28.485 Y0.405
X28.5 Y0.4
S1000
X28.6 F150
Y9.6
X28.4
Y0.4
X28.5
G0 Z15

(2D Pocket1 16)
X30.5 Y0.7
Z15
Z3
G1 Z2.5 F25
S5000
Y0.476 Z2.461 F100
Y4.396 Z1.769
Y0.476 Z1.078
Y4.396 Z0.387
Y0.5 Z-0.3
X30.498 Y0.491
X30.477 Y0.434
X30.476 Y0.418
X30.485 Y0.405
X30.5 Y0.4
S1000
X30.6 F160
Y9.6
X30.4
Y0.4
X30.5
X30.519 Y0.406
X30.531 Y0.421
X30.533 Y0.44
X30.501 Y0.593
X30.5 Y0.6
Y2.201
S5000
Y0.5 Z-0.6 F100
X30.498 Y0.491
X30.477 Y0.434
X30.476 Y0.418
X30.485 Y0.405
X30.5 Y0.4
S1000
X30.6 F160
Y9.6
X30.4
Y0.4
X30.5
X30.519 Y0.406
X30.531 Y0.421
X30.533 Y0.44
X30.501 Y0.593
X30.5 Y0.6
Y2.201
S5000
Y0.5 Z-0.9 F100
X30.498 Y0.491
X30.477 Y0.434
X30.476 Y0.418
X30.485 Y0.405
X30.5 Y0.4
S1000
X30.6 F160
Y9.6
X30.4
Y0.4
X30.5
X30.519 Y0.406
X30.531 Y0.421
X30.533 Y0.44
X30.501 Y0.593
X30.5 Y0.6
Y2.201
S5000
Y0.5 Z-1.2 F100
X30.498 Y0.491
X30.477 Y0.434
X30.476 Y0.418
X30.485 Y0.405
X30.5 Y0.4
S1000
X30.6 F160
Y9.6
X30.4
Y0.4
X30.5
X30.519 Y0.406
X30.531 Y0.421
X30.533 Y0.44
X30.501 Y0.593
X30.5 Y0.6
Y2.201
S5000
Y0.5 Z-1.5 F100
X30.498 Y0.491
X30.477 Y0.434
X30.476 Y0.418
X30.485 Y0.405
X30.5 Y0.4
S1000
X30.6 F160
Y9.6
X30.4
Y0.4
X30.5
X30.519 Y0.406
X30.531 Y0.421
X30.533 Y0.44
X30.501 Y0.593
X30.5 Y0.6
Y2.201
S5000
Y0.5 Z-1.8 F100
X30.498 Y0.491
X30.477 Y0.434
X30.476 Y0.418
X30.485 Y0.405
X30.5 Y0.4
S1000
X30.6 F160
Y9.6
X30.4
Y0.4
X30.5
X30.519 Y0.406
X30.531 Y0.421
X30.533 Y0.44
X30.501 Y0.593
X30.5 Y0.6
Y2.201
S5000
Y0.5 Z-2.1 F100
X30.498 Y0.491
X30.477 Y0.434
X30.476 Y0.418
X30.485 Y0.405
X30.5 Y0.4
S1000
X30.6 F160
Y9.6
X30.4
Y0.4
X30.5
X30.519 Y0.406
X30.531 Y0.421
X30.533 Y0.44
X30.501 Y0.593
X30.5 Y0.6
Y2.201
S5000
Y0.5 Z-2.4 F100
X30.498 Y0.491
X30.477 Y0.434
X30.476 Y0.418
X30.485 Y0.405
X30.5 Y0.4
S1000
X30.6 F160
Y9.6
X30.4
Y0.4
X30.5
X30.519 Y0.406
X30.531 Y0.421
X30.533 Y0.44
X30.501 Y0.593
X30.5 Y0.6
Y2.201
S5000
Y0.5 Z-2.7 F100
X30.498 Y0.491
X30.477 Y0.434
X30.476 Y0.418
X30.485 Y0.405
X30.5 Y0.4
S1000
X30.6 F160
Y9.6
X30.4
Y0.4
X30.5
X30.519 Y0.406
X30.531 Y0.421
X30.533 Y0.44
X30.501 Y0.593
X30.5 Y0.6
Y1.634
S5000
Y0.5 Z-2.9 F100
X30.498 Y0.491
X30.477 Y0.434
X30.476 Y0.418
X30.485 Y0.405
X30.5 Y0.4
S1000
X30.6 F160
Y9.6
X30.4
Y0.4
X30.5
G0 Z15

(2D Pocket1 17)
X32.5 Y0.7
Z15
Z3
G1 Z2.5 F25
S5000
Y0.476 Z2.461 F100
Y4.396 Z1.769
Y0.476 Z1.078
Y4.396 Z0.387
Y0.5 Z-0.3
X32.498 Y0.491
X32.477 Y0.434
X32.476 Y0.418
X32.485 Y0.405
X32.5 Y0.4
S1000
X32.6 F170
Y9.6
X32.4
Y0.4
X32.5
X32.519 Y0.406
X32.531 Y0.421
X32.533 Y0.44
X32.501 Y0.593
X32.5 Y0.6
Y2.201
S5000
Y0.5 Z-0.6 F100
X32.498 Y0.491
X32.477 Y0.434
X32.476 Y0.418
X32.485 Y0.405
X32.5 Y0.4
S1000
X32.6 F170
Y9.6
X32.4
Y0.4
X32.5
X32.519 Y0.406
X32.531 Y0.421
X32.533 Y0.44
X32.501 Y0.593
X32.5 Y0.6
Y2.201
S5000
Y0.5 Z-0.9 F100
X32.498 Y0.491
X32.477 Y0.434
X32.476 Y0.418
X32.485 Y0.405
X32.5 Y0.4
S1000
X32.6 F170
Y9.6
X32.4
Y0.4
X32.5
X32.519 Y0.406
X32.531 Y0.421
X32.533 Y0.44
X32.501 Y0.593
X32.5 Y0.6
Y2.201
S5000
Y0.5 Z-1.2 F100
X32.498 Y0.491
X32.477 Y0.434
X32.476 Y0.418
X32.485 Y0.405
X32.5 Y0.4
S1000
X32.6 F170
Y9.6
X32.4
Y0.4
X32.5
X32.519 Y0.406
X32.531 Y0.421
X32.533 Y0.44
X32.501 Y0.593
X32.5 Y0.6
Y2.201
S5000
Y0.5 Z-1.5 F100
X32.498 Y0.491
X32.477 Y0.434
X32.476 Y0.418
X32.485 Y0.405
X32.5 Y0.4
S1000
X32.6 F170
Y9.6
X32.4
Y0.4
X32.5
X32.519 Y0.406
X32.531 Y0.421
X32.533 Y0.44
X32.501 Y0.593
X32.5 Y0.6
Y2.201
S5000
Y0.5 Z-1.8 F100
X32.498 Y0.491
X32.477 Y0.434
X32.476 Y0.418
X32.485 Y0.405
X32.5 Y0.4
S1000
X32.6 F170
Y9.6
X32.4
Y0.4
X32.5
X32.519 Y0.406
X32.531 Y0.421
X32.533 Y0.44
X32.501 Y0.593
X32.5 Y0.6
Y2.201
S5000
Y0.5 Z-2.1 F100
X32.498 Y0.491
X32.477 Y0.434
X32.476 Y0.418
X32.485 Y0.405
X32.5 Y0.4
S1000
X32.6 F170
Y9.6
X32.4
Y0.4
X32.5
X32.519 Y0.406
X32.531 Y0.421
X32.533 Y0.44
X32.501 Y0.593
X32.5 Y0.6
Y2.201
S5000
Y0.5 Z-2.4 F100
X32.498 Y0.491
X32.477 Y0.434
X32.476 Y0.418
X32.485 Y0.405
X32.5 Y0.4
S1000
X32.6 F170
Y9.6
X32.4
Y0.4
X32.5
X32.519 Y0.406
X32.531 Y0.421
X32.533 Y0.44
X32.501 Y0.593
X32.5 Y0.6
Y2.201
S5000
Y0.5 Z-2.7 F100
X32.498 Y0.491
X32.477 Y0.434
X32.476 Y0.418
X32.485 Y0.405
X32.5 Y0.4
S1000
X32.6 F170
Y9.6
X32.4
Y0.4
X32.5
X32.519 Y0.406
X32.531 Y0.421
X32.533 Y0.44
X32.501 Y0.593
X32.5 Y0.6
Y1.634
S5000
Y0.5 Z-2.9 F100
X32.498 Y0.491
X32.477 Y0.434
X32.476 Y0.418
X32.485 Y0.405
X32.5 Y0.4
S1000
X32.6 F170
Y9.6
X32.4
Y0.4
X32.5
G0 Z15

(2D Pocket1 18)
X34.5 Y0.7
Z15
Z3
G1 Z2.5 F25
S5000
Y0.476 Z2.461 F100
Y4.396 Z1.769
Y0.476 Z1.078
Y4.396 Z0.387
Y0.5 Z-0.3
X34.498 Y0.491
X34.477 Y0.434
X34.476 Y0.418
X34.485 Y0.405
X34.5 Y0.4
S1000
X34.6 F180
Y9.6
X34.4
Y0.4
X34.5
X34.519 Y0.406
X34.531 Y0.421
X34.533 Y0.44
X34.501 Y0.593
X34.5 Y0.6
Y2.201
S5000
Y0.5 Z-0.6 F100
X34.498 Y0.491
X34.477 Y0.434
X34.476 Y0.418
X34.485 Y0.405
X34.5 Y0.4
S1000
X34.6 F180
Y9.6
X34.4
Y0.4
X34.5
X34.519 Y0.406
X34.531 Y0.421
X34.533 Y0.44
X34.501 Y0.593
X34.5 Y0.6
Y2.201
S5000
Y0.5 Z-0.9 F100
X34.498 Y0.491
X34.477 Y0.434
X34.476 Y0.418
X34.485 Y0.405
X34.5 Y0.4
S1000
X34.6 F180
Y9.6
X34.4
Y0.4
X34.5
X34.519 Y0.406
X34.531 Y0.421
X34.533 Y0.44
X34.501 Y0.593
X34.5 Y0.6
Y2.201
S5000
Y0.5 Z-1.2 F100
X34.498 Y0.491
X34.477 Y0.434
X34.476 Y0.418
X34.485 Y0.405
X34.5 Y0.4
S1000
X34.6 F180
Y9.6
X34.4
Y0.4
X34.5
X34.519 Y0.406
X34.531 Y0.421
X34.533 Y0.44
X34.501 Y0.593
X34.5 Y0.6
Y2.201
S5000
Y0.5 Z-1.5 F100
X34.498 Y0.491
X34.477 Y0.434
X34.476 Y0.418
X34.485 Y0.405
X34.5 Y0.4
S1000
X34.6 F180
Y9.6
X34.4
Y0.4
X34.5
X34.519 Y0.406
X34.531 Y0.421
X34.533 Y0.44
X34.501 Y0.593
X34.5 Y0.6
Y2.201
S5000
Y0.5 Z-1.8 F100
X34.498 Y0.491
X34.477 Y0.434
X34.476 Y0.418
X34.485 Y0.405
X34.5 Y0.4
S1000
X34.6 F180
Y9.6
X34.4
Y0.4
X34.5
X34.519 Y0.406
X34.531 Y0.421
X34.533 Y0.44
X34.501 Y0.593
X34.5 Y0.6
Y2.201
S5000
Y0.5 Z-2.1 F100
X34.498 Y0.491
X34.477 Y0.434
X34.476 Y0.418
X34.485 Y0.405
X34.5 Y0.4
S1000
X34.6 F180
Y9.6
X34.4
Y0.4
X34.5
X34.519 Y0.406
X34.531 Y0.421
X34.533 Y0.44
X34.501 Y0.593
X34.5 Y0.6
Y2.201
S5000
Y0.5 Z-2.4 F100
X34.498 Y0.491
X34.477 Y0.434
X34.476 Y0.418
X34.485 Y0.405
X34.5 Y0.4
S1000
X34.6 F180
Y9.6
X34.4
Y0.4
X34.5
X34.519 Y0.406
X34.531 Y0.421
X34.533 Y0.44
X34.501 Y0.593
X34.5 Y0.6
Y2.201
S5000
Y0.5 Z-2.7 F100
X34.498 Y0.491
X34.477 Y0.434
X34.476 Y0.418
X34.485 Y0.405
X34.5 Y0.4
S1000
X34.6 F180
Y9.6
X34.4
Y0.4
X34.5
X34.519 Y0.406
X34.531 Y0.421
X34.533 Y0.44
X34.501 Y0.593
X34.5 Y0.6
Y1.634
S5000
Y0.5 Z-2.9 F100
X34.498 Y0.491
X34.477 Y0.434
X34.476 Y0.418
X34.485 Y0.405
X34.5 Y0.4
S1000
X34.6 F180
Y9.6
X34.4
Y0.4
X34.5
G0 Z15

(2D Pocket1 19)
X36.5 Y0.7
Z15
Z3
G1 Z2.5 F25
S5000
Y0.476 Z2.461 F100
Y4.396 Z1.769
Y0.476 Z1.078
Y4.396 Z0.387
Y0.5 Z-0.3
X36.498 Y0.491
X36.477 Y0.434
X36.476 Y0.418
X36.485 Y0.405
X36.5 Y0.4
S1000
X36.6 F190
Y9.6
X36.4
Y0.4
X36.5
X36.519 Y0.406
X36.531 Y0.421
X36.533 Y0.44
X36.501 Y0.593
X36.5 Y0.6
Y2.201
S5000
Y0.5 Z-0.6 F100
X36.498 Y0.491
X36.477 Y0.434
X36.476 Y0.418
X36.485 Y0.405
X36.5 Y0.4
S1000
X36.6 F190
Y9.6
X36.4
Y0.4
X36.5
X36.519 Y0.406
X36.531 Y0.421
X36.533 Y0.44
X36.501 Y0.593
X36.5 Y0.6
Y2.201
S5000
Y0.5 Z-0.9 F100
X36.498 Y0.491
X36.477 Y0.434
X36.476 Y0.418
X36.485 Y0.405
X36.5 Y0.4
S1000
X36.6 F190
Y9.6
X36.4
Y0.4
X36.5
X36.519 Y0.406
X36.531 Y0.421
X36.533 Y0.44
X36.501 Y0.593
X36.5 Y0.6
Y2.201
S5000
Y0.5 Z-1.2 F100
X36.498 Y0.491
X36.477 Y0.434
X36.476 Y0.418
X36.485 Y0.405
X36.5 Y0.4
S1000
X36.6 F190
Y9.6
X36.4
Y0.4
X36.5
X36.519 Y0.406
X36.531 Y0.421
X36.533 Y0.44
X36.501 Y0.593
X36.5 Y0.6
Y2.201
S5000
Y0.5 Z-1.5 F100
X36.498 Y0.491
X36.477 Y0.434
X36.476 Y0.418
X36.485 Y0.405
X36.5 Y0.4
S1000
X36.6 F190
Y9.6
X36.4
Y0.4
X36.5
X36.519 Y0.406
X36.531 Y0.421
X36.533 Y0.44
X36.501 Y0.593
X36.5 Y0.6
Y2.201
S5000
Y0.5 Z-1.8 F100
X36.498 Y0.491
X36.477 Y0.434
X36.476 Y0.418
X36.485 Y0.405
X36.5 Y0.4
S1000
X36.6 F190
Y9.6
X36.4
Y0.4
X36.5
X36.519 Y0.406
X36.531 Y0.421
X36.533 Y0.44
X36.501 Y0.593
X36.5 Y0.6
Y2.201
S5000
Y0.5 Z-2.1 F100
X36.498 Y0.491
X36.477 Y0.434
X36.476 Y0.418
X36.485 Y0.405
X36.5 Y0.4
S1000
X36.6 F190
Y9.6
X36.4
Y0.4
X36.5
X36.519 Y0.406
X36.531 Y0.421
X36.533 Y0.44
X36.501 Y0.593
X36.5 Y0.6
Y2.201
S5000
Y0.5 Z-2.4 F100
X36.498 Y0.491
X36.477 Y0.434
X36.476 Y0.418
X36.485 Y0.405
X36.5 Y0.4
S1000
X36.6 F190
Y9.6
X36.4
Y0.4
X36.5
X36.519 Y0.406
X36.531 Y0.421
X36.533 Y0.44
X36.501 Y0.593
X36.5 Y0.6
Y2.201
S5000
Y0.5 Z-2.7 F100
X36.498 Y0.491
X36.477 Y0.434
X36.476 Y0.418
X36.485 Y0.405
X36.5 Y0.4
S1000
X36.6 F190
Y9.6
X36.4
Y0.4
X36.5
X36.519 Y0.406
X36.531 Y0.421
X36.533 Y0.44
X36.501 Y0.593
X36.5 Y0.6
Y1.634
S5000
Y0.5 Z-2.9 F100
X36.498 Y0.491
X36.477 Y0.434
X36.476 Y0.418
X36.485 Y0.405
X36.5 Y0.4
S1000
X36.6 F190
Y9.6
X36.4
Y0.4
X36.5
G0 Z15

(2D Pocket1 20)
X38.5 Y0.7
Z15
Z3
G1 Z2.5 F25
S5000
Y0.476 Z2.461 F100
Y4.396 Z1.769
Y0.476 Z1.078
Y4.396 Z0.387
Y0.5 Z-0.3
X38.498 Y0.491
X38.477 Y0.434
X38.476 Y0.418
X38.485 Y0.405
X38.5 Y0.4
S1000
X38.6 F200
Y9.6
X38.4
Y0.4
X38.5
X38.519 Y0.406
X38.531 Y0.421
X38.533 Y0.44
X38.501 Y0.593
X38.5 Y0.6
Y2.201
S5000
Y0.5 Z-0.6 F100
X38.498 Y0.491
X38.477 Y0.434
X38.476 Y0.418
X38.485 Y0.405
X38.5 Y0.4
S1000
X38.6 F200
Y9.6
X38.4
Y0.4
X38.5
X38.519 Y0.406
X38.531 Y0.421
X38.533 Y0.44
X38.501 Y0.593
X38.5 Y0.6
Y2.201
S5000
Y0.5 Z-0.9 F100
X38.498 Y0.491
X38.477 Y0.434
X38.476 Y0.418
X38.485 Y0.405
X38.5 Y0.4
S1000
X38.6 F200
Y9.6
X38.4
Y0.4
X38.5
X38.519 Y0.406
X38.531 Y0.421
X38.533 Y0.44
X38.501 Y0.593
X38.5 Y0.6
Y2.201
S5000
Y0.5 Z-1.2 F100
X38.498 Y0.491
X38.477 Y0.434
X38.476 Y0.418
X38.485 Y0.405
X38.5 Y0.4
S1000
X38.6 F200
Y9.6
X38.4
Y0.4
X38.5
X38.519 Y0.406
X38.531 Y0.421
X38.533 Y0.44
X38.501 Y0.593
X38.5 Y0.6
Y2.201
S5000
Y0.5 Z-1.5 F100
X38.498 Y0.491
X38.477 Y0.434
X38.476 Y0.418
X38.485 Y0.405
X38.5 Y0.4
S1000
X38.6 F200
Y9.6
X38.4
Y0.4
X38.5
X38.519 Y0.406
X38.531 Y0.421
X38.533 Y0.44
X38.501 Y0.593
X38.5 Y0.6
Y2.201
S5000
Y0.5 Z-1.8 F100
X38.498 Y0.491
X38.477 Y0.434
X38.476 Y0.418
X38.485 Y0.405
X38.5 Y0.4
S1000
X38.6 F200
Y9.6
X38.4
Y0.4
X38.5
X38.519 Y0.406
X38.531 Y0.421
X38.533 Y0.44
X38.501 Y0.593
X38.5 Y0.6
Y2.201
S5000
Y0.5 Z-2.1 F100
X38.498 Y0.491
X38.477 Y0.434
X38.476 Y0.418
X38.485 Y0.405
X38.5 Y0.4
S1000
X38.6 F200
Y9.6
X38.4
Y0.4
X38.5
X38.519 Y0.406
X38.531 Y0.421
X38.533 Y0.44
X38.501 Y0.593
X38.5 Y0.6
Y2.201
S5000
Y0.5 Z-2.4 F100
X38.498 Y0.491
X38.477 Y0.434
X38.476 Y0.418
X38.485 Y0.405
X38.5 Y0.4
S1000
X38.6 F200
Y9.6
X38.4
Y0.4
X38.5
X38.519 Y0.406
X38.531 Y0.421
X38.533 Y0.44
X38.501 Y0.593
X38.5 Y0.6
Y2.201
S5000
Y0.5 Z-2.7 F100
X38.498 Y0.491
X38.477 Y0.434
X38.476 Y0.418
X38.485 Y0.405
X38.5 Y0.4
S1000
X38.6 F200
Y9.6
X38.4
Y0.4
X38.5
X38.519 Y0.406
X38.531 Y0.421
X38.533 Y0.44
X38.501 Y0.593
X38.5 Y0.6
Y1.634
S5000
Y0.5 Z-2.9 F100
X38.498 Y0.491
X38.477 Y0.434
X38.476 Y0.418
X38.485 Y0.405
X38.5 Y0.4
S1000
X38.6 F200
Y9.6
X38.4
Y0.4
X38.5
G0 Z15

(2D Pocket1 21)
X40.5 Y0.7
Z15
Z3
G1 Z2.5 F25
S5000
Y0.476 Z2.461 F100
Y4.396 Z1.769
Y0.476 Z1.078
Y4.396 Z0.387
Y0.5 Z-0.3
X40.498 Y0.491
X40.477 Y0.434
X40.476 Y0.418
X40.485 Y0.405
X40.5 Y0.4
S1000
X40.6 F210
Y9.6
X40.4
Y0.4
X40.5
X40.519 Y0.406
X40.531 Y0.421
X40.533 Y0.44
X40.501 Y0.593
X40.5 Y0.6
Y2.201
S5000
Y0.5 Z-0.6 F100
X40.498 Y0.491
X40.477 Y0.434
X40.476 Y0.418
X40.485 Y0.405
X40.5 Y0.4
S1000
X40.6 F210
Y9.6
X40.4
Y0.4
X40.5
X40.519 Y0.406
X40.531 Y0.421
X40.533 Y0.44
X40.501 Y0.593
X40.5 Y0.6
Y2.201
S5000
Y0.5 Z-0.9 F100
X40.498 Y0.491
X40.477 Y0.434
X40.476 Y0.418
X40.485 Y0.405
X40.5 Y0.4
S1000
X40.6 F210
Y9.6
X40.4
Y0.4
X40.5
X40.519 Y0.406
X40.531 Y0.421
X40.533 Y0.44
X40.501 Y0.593
X40.5 Y0.6
Y2.201
S5000
Y0.5 Z-1.2 F100
X40.498 Y0.491
X40.477 Y0.434
X40.476 Y0.418
X40.485 Y0.405
X40.5 Y0.4
S1000
X40.6 F210
Y9.6
X40.4
Y0.4
X40.5
X40.519 Y0.406
X40.531 Y0.421
X40.533 Y0.44
X40.501 Y0.593
X40.5 Y0.6
Y2.201
S5000
Y0.5 Z-1.5 F100
X40.498 Y0.491
X40.477 Y0.434
X40.476 Y0.418
X40.485 Y0.405
X40.5 Y0.4
S1000
X40.6 F210
Y9.6
X40.4
Y0.4
X40.5
X40.519 Y0.406
X40.531 Y0.421
X40.533 Y0.44
X40.501 Y0.593
X40.5 Y0.6
Y2.201
S5000
Y0.5 Z-1.8 F100
X40.498 Y0.491
X40.477 Y0.434
X40.476 Y0.418
X40.485 Y0.405
X40.5 Y0.4
S1000
X40.6 F210
Y9.6
X40.4
Y0.4
X40.5
X40.519 Y0.406
X40.531 Y0.421
X40.533 Y0.44
X40.501 Y0.593
X40.5 Y0.6
Y2.201
S5000
Y0.5 Z-2.1 F100
X40.498 Y0.491
X40.477 Y0.434
X40.476 Y0.418
X40.485 Y0.405
X40.5 Y0.4
S1000
X40.6 F210
Y9.6
X40.4
Y0.4
X40.5
X40.519 Y0.406
X40.531 Y0.421
X40.533 Y0.44
X40.501 Y0.593
X40.5 Y0.6
Y2.201
S5000
Y0.5 Z-2.4 F100
X40.498 Y0.491
X40.477 Y0.434
X40.476 Y0.418
X40.485 Y0.405
X40.5 Y0.4
S1000
X40.6 F210
Y9.6
X40.4
Y0.4
X40.5
X40.519 Y0.406
X40.531 Y0.421
X40.533 Y0.44
X40.501 Y0.593
X40.5 Y0.6
Y2.201
S5000
Y0.5 Z-2.7 F100
X40.498 Y0.491
X40.477 Y0.434
X40.476 Y0.418
X40.485 Y0.405
X40.5 Y0.4
S1000
X40.6 F210
Y9.6
X40.4
Y0.4
X40.5
X40.519 Y0.406
X40.531 Y0.421
X40.533 Y0.44
X40.501 Y0.593
X40.5 Y0.6
Y1.634
S5000
Y0.5 Z-2.9 F100
X40.498 Y0.491
X40.477 Y0.434
X40.476 Y0.418
X40.485 Y0.405
X40.5 Y0.4
S1000
X40.6 F210
Y9.6
X40.4
Y0.4
X40.5
G0 Z15

(2D Pocket1 22)
X42.5 Y0.7
Z15
Z3
G1 Z2.5 F25
S5000
Y0.476 Z2.461 F100
Y4.396 Z1.769
Y0.476 Z1.078
Y4.396 Z0.387
Y0.5 Z-0.3
X42.498 Y0.491
X42.477 Y0.434
X42.476 Y0.418
X42.485 Y0.405
X42.5 Y0.4
S1000
X42.6 F220
Y9.6
X42.4
Y0.4
X42.5
X42.519 Y0.406
X42.531 Y0.421
X42.533 Y0.44
X42.501 Y0.593
X42.5 Y0.6
Y2.201
S5000
Y0.5 Z-0.6 F100
X42.498 Y0.491
X42.477 Y0.434
X42.476 Y0.418
X42.485 Y0.405
X42.5 Y0.4
S1000
X42.6 F220
Y9.6
X42.4
Y0.4
X42.5
X42.519 Y0.406
X42.531 Y0.421
X42.533 Y0.44
X42.501 Y0.593
X42.5 Y0.6
Y2.201
S5000
Y0.5 Z-0.9 F100
X42.498 Y0.491
X42.477 Y0.434
X42.476 Y0.418
X42.485 Y0.405
X42.5 Y0.4
S1000
X42.6 F220
Y9.6
X42.4
Y0.4
X42.5
X42.519 Y0.406
X42.531 Y0.421
X42.533 Y0.44
X42.501 Y0.593
X42.5 Y0.6
Y2.201
S5000
Y0.5 Z-1.2 F100
X42.498 Y0.491
X42.477 Y0.434
X42.476 Y0.418
X42.485 Y0.405
X42.5 Y0.4
S1000
X42.6 F220
Y9.6
X42.4
Y0.4
X42.5
X42.519 Y0.406
X42.531 Y0.421
X42.533 Y0.44
X42.501 Y0.593
X42.5 Y0.6
Y2.201
S5000
Y0.5 Z-1.5 F100
X42.498 Y0.491
X42.477 Y0.434
X42.476 Y0.418
X42.485 Y0.405
X42.5 Y0.4
S1000
X42.6 F220
Y9.6
X42.4
Y0.4
X42.5
X42.519 Y0.406
X42.531 Y0.421
X42.533 Y0.44
X42.501 Y0.593
X42.5 Y0.6
Y2.201
S5000
Y0.5 Z-1.8 F100
X42.498 Y0.491
X42.477 Y0.434
X42.476 Y0.418
X42.485 Y0.405
X42.5 Y0.4
S1000
X42.6 F220
Y9.6
X42.4
Y0.4
X42.5
X42.519 Y0.406
X42.531 Y0.421
X42.533 Y0.44
X42.501 Y0.593
X42.5 Y0.6
Y2.201
S5000
Y0.5 Z-2.1 F100
X42.498 Y0.491
X42.477 Y0.434
X42.476 Y0.418
X42.485 Y0.405
X42.5 Y0.4
S1000
X42.6 F220
Y9.6
X42.4
Y0.4
X42.5
X42.519 Y0.406
X42.531 Y0.421
X42.533 Y0.44
X42.501 Y0.593
X42.5 Y0.6
Y2.201
S5000
Y0.5 Z-2.4 F100
X42.498 Y0.491
X42.477 Y0.434
X42.476 Y0.418
X42.485 Y0.405
X42.5 Y0.4
S1000
X42.6 F220
Y9.6
X42.4
Y0.4
X42.5
X42.519 Y0.406
X42.531 Y0.421
X42.533 Y0.44
X42.501 Y0.593
X42.5 Y0.6
Y2.201
S5000
Y0.5 Z-2.7 F100
X42.498 Y0.491
X42.477 Y0.434
X42.476 Y0.418
X42.485 Y0.405
X42.5 Y0.4
S1000
X42.6 F220
Y9.6
X42.4
Y0.4
X42.5
X42.519 Y0.406
X42.531 Y0.421
X42.533 Y0.44
X42.501 Y0.593
X42.5 Y0.6
Y1.634
S5000
Y0.5 Z-2.9 F100
X42.498 Y0.491
X42.477 Y0.434
X42.476 Y0.418
X42.485 Y0.405
X42.5 Y0.4
S1000
X42.6 F220
Y9.6
X42.4
Y0.4
X42.5
G0 Z15

(2D Pocket1 23)
X44.5 Y0.7
Z15
Z3
G1 Z2.5 F25
S5000
Y0.476 Z2.461 F100
Y4.396 Z1.769
Y0.476 Z1.078
Y4.396 Z0.387
Y0.5 Z-0.3
X44.498 Y0.491
X44.477 Y0.434
X44.476 Y0.418
X44.485 Y0.405
X44.5 Y0.4
S1000
X44.6 F230
Y9.6
X44.4
Y0.4
X44.5
X44.519 Y0.406
X44.531 Y0.421
X44.533 Y0.44
X44.501 Y0.593
X44.5 Y0.6
Y2.201
S5000
Y0.5 Z-0.6 F100
X44.498 Y0.491
X44.477 Y0.434
X44.476 Y0.418
X44.485 Y0.405
X44.5 Y0.4
S1000
X44.6 F230
Y9.6
X44.4
Y0.4
X44.5
X44.519 Y0.406
X44.531 Y0.421
X44.533 Y0.44
X44.501 Y0.593
X44.5 Y0.6
Y2.201
S5000
Y0.5 Z-0.9 F100
X44.498 Y0.491
X44.477 Y0.434
X44.476 Y0.418
X44.485 Y0.405
X44.5 Y0.4
S1000
X44.6 F230
Y9.6
X44.4
Y0.4
X44.5
X44.519 Y0.406
X44.531 Y0.421
X44.533 Y0.44
X44.501 Y0.593
X44.5 Y0.6
Y2.201
S5000
Y0.5 Z-1.2 F100
X44.498 Y0.491
X44.477 Y0.434
X44.476 Y0.418
X44.485 Y0.405
X44.5 Y0.4
S1000
X44.6 F230
Y9.6
X44.4
Y0.4
X44.5
X44.519 Y0.406
X44.531 Y0.421
X44.533 Y0.44
X44.501 Y0.593
X44.5 Y0.6
Y2.201
S5000
Y0.5 Z-1.5 F100
X44.498 Y0.491
X44.477 Y0.434
X44.476 Y0.418
X44.485 Y0.405
X44.5 Y0.4
S1000
X44.6 F230
Y9.6
X44.4
Y0.4
X44.5
X44.519 Y0.406
X44.531 Y0.421
X44.533 Y0.44
X44.501 Y0.593
X44.5 Y0.6
Y2.201
S5000
Y0.5 Z-1.8 F100
X44.498 Y0.491
X44.477 Y0.434
X44.476 Y0.418
X44.485 Y0.405
X44.5 Y0.4
S1000
X44.6 F230
Y9.6
X44.4
Y0.4
X44.5
X44.519 Y0.406
X44.531 Y0.421
X44.533 Y0.44
X44.501 Y0.593
X44.5 Y0.6
Y2.201
S5000
Y0.5 Z-2.1 F100
X44.498 Y0.491
X44.477 Y0.434
X44.476 Y0.418
X44.485 Y0.405
X44.5 Y0.4
S1000
X44.6 F230
Y9.6
X44.4
Y0.4
X44.5
X44.519 Y0.406
X44.531 Y0.421
X44.533 Y0.44
X44.501 Y0.593
X44.5 Y0.6
Y2.201
S5000
Y0.5 Z-2.4 F100
X44.498 Y0.491
X44.477 Y0.434
X44.476 Y0.418
X44.485 Y0.405
X44.5 Y0.4
S1000
X44.6 F230
Y9.6
X44.4
Y0.4
X44.5
X44.519 Y0.406
X44.531 Y0.421
X44.533 Y0.44
X44.501 Y0.593
X44.5 Y0.6
Y2.201
S5000
Y0.5 Z-2.7 F100
X44.498 Y0.491
X44.477 Y0.434
X44.476 Y0.418
X44.485 Y0.405
X44.5 Y0.4
S1000
X44.6 F230
Y9.6
X44.4
Y0.4
X44.5
X44.519 Y0.406
X44.531 Y0.421
X44.533 Y0.44
X44.501 Y0.593
X44.5 Y0.6
Y1.634
S5000
Y0.5 Z-2.9 F100
X44.498 Y0.491
X44.477 Y0.434
X44.476 Y0.418
X44.485 Y0.405
X44.5 Y0.4
S1000
X44.6 F230
Y9.6
X44.4
Y0.4
X44.5
G0 Z15

(2D Pocket1 24)
X46.5 Y0.7
Z15
Z3
G1 Z2.5 F25
S5000
Y0.476 Z2.461 F100
Y4.396 Z1.769
Y0.476 Z1.078
Y4.396 Z0.387
Y0.5 Z-0.3
X46.498 Y0.491
X46.477 Y0.434
X46.476 Y0.418
X46.485 Y0.405
X46.5 Y0.4
S1000
X46.6 F240
Y9.6
X46.4
Y0.4
X46.5
X46.519 Y0.406
X46.531 Y0.421
X46.533 Y0.44
X46.501 Y0.593
X46.5 Y0.6
Y2.201
S5000
Y0.5 Z-0.6 F100
X46.498 Y0.491
X46.477 Y0.434
X46.476 Y0.418
X46.485 Y0.405
X46.5 Y0.4
S1000
X46.6 F240
Y9.6
X46.4
Y0.4
X46.5
X46.519 Y0.406
X46.531 Y0.421
X46.533 Y0.44
X46.501 Y0.593
X46.5 Y0.6
Y2.201
S5000
Y0.5 Z-0.9 F100
X46.498 Y0.491
X46.477 Y0.434
X46.476 Y0.418
X46.485 Y0.405
X46.5 Y0.4
S1000
X46.6 F240
Y9.6
X46.4
Y0.4
X46.5
X46.519 Y0.406
X46.531 Y0.421
X46.533 Y0.44
X46.501 Y0.593
X46.5 Y0.6
Y2.201
S5000
Y0.5 Z-1.2 F100
X46.498 Y0.491
X46.477 Y0.434
X46.476 Y0.418
X46.485 Y0.405
X46.5 Y0.4
S1000
X46.6 F240
Y9.6
X46.4
Y0.4
X46.5
X46.519 Y0.406
X46.531 Y0.421
X46.533 Y0.44
X46.501 Y0.593
X46.5 Y0.6
Y2.201
S5000
Y0.5 Z-1.5 F100
X46.498 Y0.491
X46.477 Y0.434
X46.476 Y0.418
X46.485 Y0.405
X46.5 Y0.4
S1000
X46.6 F240
Y9.6
X46.4
Y0.4
X46.5
X46.519 Y0.406
X46.531 Y0.421
X46.533 Y0.44
X46.501 Y0.593
X46.5 Y0.6
Y2.201
S5000
Y0.5 Z-1.8 F100
X46.498 Y0.491
X46.477 Y0.434
X46.476 Y0.418
X46.485 Y0.405
X46.5 Y0.4
S1000
X46.6 F240
Y9.6
X46.4
Y0.4
X46.5
X46.519 Y0.406
X46.531 Y0.421
X46.533 Y0.44
X46.501 Y0.593
X46.5 Y0.6
Y2.201
S5000
Y0.5 Z-2.1 F100
X46.498 Y0.491
X46.477 Y0.434
X46.476 Y0.418
X46.485 Y0.405
X46.5 Y0.4
S1000
X46.6 F240
Y9.6
X46.4
Y0.4
X46.5
X46.519 Y0.406
X46.531 Y0.421
X46.533 Y0.44
X46.501 Y0.593
X46.5 Y0.6
Y2.201
S5000
Y0.5 Z-2.4 F100
X46.498 Y0.491
X46.477 Y0.434
X46.476 Y0.418
X46.485 Y0.405
X46.5 Y0.4
S1000
X46.6 F240
Y9.6
X46.4
Y0.4
X46.5
X46.519 Y0.406
X46.531 Y0.421
X46.533 Y0.44
X46.501 Y0.593
X46.5 Y0.6
Y2.201
S5000
Y0.5 Z-2.7 F100
X46.498 Y0.491
X46.477 Y0.434
X46.476 Y0.418
X46.485 Y0.405
X46.5 Y0.4
S1000
X46.6 F240
Y9.6
X46.4
Y0.4
X46.5
X46.519 Y0.406
X46.531 Y0.421
X46.533 Y0.44
X46.501 Y0.593
X46.5 Y0.6
Y1.634
S5000
Y0.5 Z-2.9 F100
X46.498 Y0.491
X46.477 Y0.434
X46.476 Y0.418
X46.485 Y0.405
X46.5 Y0.4
S1000
X46.6 F240
Y9.6
X46.4
Y0.4
X46.5
G0 Z15

(2D Pocket1 25)
X48.5 Y0.7
Z15
Z3
G1 Z2.5 F25
S5000
Y0.476 Z2.461 F100
Y4.396 Z1.769
Y0.476 Z1.078
Y4.396 Z0.387
Y0.5 Z-0.3
X48.498 Y0.491
X48.477 Y0.434
X48.476 Y0.418
X48.485 Y0.405
X48.5 Y0.4
S1000
X48.6 F250
Y9.6
X48.4
Y0.4
X48.5
X48.519 Y0.406
X48.531 Y0.421
X48.533 Y0.44
X48.501 Y0.593
X48.5 Y0.6
Y2.201
S5000
Y0.5 Z-0.6 F100
X48.498 Y0.491
X48.477 Y0.434
X48.476 Y0.418
X48.485 Y0.405
X48.5 Y0.4
S1000
X48.6 F250
Y9.6
X48.4
Y0.4
X48.5
X48.519 Y0.406
X48.531 Y0.421
X48.533 Y0.44
X48.501 Y0.593
X48.5 Y0.6
Y2.201
S5000
Y0.5 Z-0.9 F100
X48.498 Y0.491
X48.477 Y0.434
X48.476 Y0.418
X48.485 Y0.405
X48.5 Y0.4
S1000
X48.6 F250
Y9.6
X48.4
Y0.4
X48.5
X48.519 Y0.406
X48.531 Y0.421
X48.533 Y0.44
X48.501 Y0.593
X48.5 Y0.6
Y2.201
S5000
Y0.5 Z-1.2 F100
X48.498 Y0.491
X48.477 Y0.434
X48.476 Y0.418
X48.485 Y0.405
X48.5 Y0.4
S1000
X48.6 F250
Y9.6
X48.4
Y0.4
X48.5
X48.519 Y0.406
X48.531 Y0.421
X48.533 Y0.44
X48.501 Y0.593
X48.5 Y0.6
Y2.201
S5000
Y0.5 Z-1.5 F100
X48.498 Y0.491
X48.477 Y0.434
X48.476 Y0.418
X48.485 Y0.405
X48.5 Y0.4
S1000
X48.6 F250
Y9.6
X48.4
Y0.4
X48.5
X48.519 Y0.406
X48.531 Y0.421
X48.533 Y0.44
X48.501 Y0.593
X48.5 Y0.6
Y2.201
S5000
Y0.5 Z-1.8 F100
X48.498 Y0.491
X48.477 Y0.434
X48.476 Y0.418
X48.485 Y0.405
X48.5 Y0.4
S1000
X48.6 F250
Y9.6
X48.4
Y0.4
X48.5
X48.519 Y0.406
X48.531 Y0.421
X48.533 Y0.44
X48.501 Y0.593
X48.5 Y0.6
Y2.201
S5000
Y0.5 Z-2.1 F100
X48.498 Y0.491
X48.477 Y0.434
X48.476 Y0.418
X48.485 Y0.405
X48.5 Y0.4
S1000
X48.6 F250
Y9.6
X48.4
Y0.4
X48.5
X48.519 Y0.406
X48.531 Y0.421
X48.533 Y0.44
X48.501 Y0.593
X48.5 Y0.6
Y2.201
S5000
Y0.5 Z-2.4 F100
X48.498 Y0.491
X48.477 Y0.434
X48.476 Y0.418
X48.485 Y0.405
X48.5 Y0.4
S1000
X48.6 F250
Y9.6
X48.4
Y0.4
X48.5
X48.519 Y0.406
X48.531 Y0.421
X48.533 Y0.44
X48.501 Y0.593
X48.5 Y0.6
Y2.201
S5000
Y0.5 Z-2.7 F100
X48.498 Y0.491
X48.477 Y0.434
X48.476 Y0.418
X48.485 Y0.405
X48.5 Y0.4
S1000
X48.6 F250
Y9.6
X48.4
Y0.4
X48.5
X48.519 Y0.406
X48.531 Y0.421
X48.533 Y0.44
X48.501 Y0.593
X48.5 Y0.6
Y1.634
S5000
Y0.5 Z-2.9 F100
X48.498 Y0.491
X48.477 Y0.434
X48.476 Y0.418
X48.485 Y0.405
X48.5 Y0.4
S1000
X48.6 F250
Y9.6
X48.4
Y0.4
X48.5
G0 Z15
M9
M5
M30
