(1001)
(T1  D=0.8 CR=0 - ZMIN=-2.9 - flat end mill)
G90 G94
G17
G21

(2D Pocket1 26)
T1
S1000 M3
G54
M8
G0 X0.5 Y0.7
Z15
Z3
G1 Z2.5 F25
S5000
Y0.476 Z2.461 F100
Y4.396 Z1.769
Y0.476 Z1.078
Y4.396 Z0.387
Y0.5 Z-0.3
X0.507 Y0.475
X0.525 Y0.457
X0.55 Y0.45
X0.575 Y0.457
X0.593 Y0.475
X0.6 Y0.5
S1000
Y9.6 F260
X0.4
Y0.4
X0.6
Y0.5
X0.596 Y0.516
X0.584 Y0.528
X0.516 Y0.572
X0.504 Y0.584
X0.5 Y0.6
Y2.201
S5000
Y0.5 Z-0.6 F100
X0.507 Y0.475
X0.525 Y0.457
X0.55 Y0.45
X0.575 Y0.457
X0.593 Y0.475
X0.6 Y0.5
S1000
Y9.6 F260
X0.4
Y0.4
X0.6
Y0.5
X0.596 Y0.516
X0.584 Y0.528
X0.516 Y0.572
X0.504 Y0.584
X0.5 Y0.6
Y2.201
S5000
Y0.5 Z-0.9 F100
X0.507 Y0.475
X0.525 Y0.457
X0.55 Y0.45
X0.575 Y0.457
X0.593 Y0.475
X0.6 Y0.5
S1000
Y9.6 F260
X0.4
Y0.4
X0.6
Y0.5
X0.596 Y0.516
X0.584 Y0.528
X0.516 Y0.572
X0.504 Y0.584
X0.5 Y0.6
Y2.201
S5000
Y0.5 Z-1.2 F100
X0.507 Y0.475
X0.525 Y0.457
X0.55 Y0.45
X0.575 Y0.457
X0.593 Y0.475
X0.6 Y0.5
S1000
Y9.6 F260
X0.4
Y0.4
X0.6
Y0.5
X0.596 Y0.516
X0.584 Y0.528
X0.516 Y0.572
X0.504 Y0.584
X0.5 Y0.6
Y2.201
S5000
Y0.5 Z-1.5 F100
X0.507 Y0.475
X0.525 Y0.457
X0.55 Y0.45
X0.575 Y0.457
X0.593 Y0.475
X0.6 Y0.5
S1000
Y9.6 F260
X0.4
Y0.4
X0.6
Y0.5
X0.596 Y0.516
X0.584 Y0.528
X0.516 Y0.572
X0.504 Y0.584
X0.5 Y0.6
Y2.201
S5000
Y0.5 Z-1.8 F100
X0.507 Y0.475
X0.525 Y0.457
X0.55 Y0.45
X0.575 Y0.457
X0.593 Y0.475
X0.6 Y0.5
S1000
Y9.6 F260
X0.4
Y0.4
X0.6
Y0.5
X0.596 Y0.516
X0.584 Y0.528
X0.516 Y0.572
X0.504 Y0.584
X0.5 Y0.6
Y2.201
S5000
Y0.5 Z-2.1 F100
X0.507 Y0.475
X0.525 Y0.457
X0.55 Y0.45
X0.575 Y0.457
X0.593 Y0.475
X0.6 Y0.5
S1000
Y9.6 F260
X0.4
Y0.4
X0.6
Y0.5
X0.596 Y0.516
X0.584 Y0.528
X0.516 Y0.572
X0.504 Y0.584
X0.5 Y0.6
Y2.201
S5000
Y0.5 Z-2.4 F100
X0.507 Y0.475
X0.525 Y0.457
X0.55 Y0.45
X0.575 Y0.457
X0.593 Y0.475
X0.6 Y0.5
S1000
Y9.6 F260
X0.4
Y0.4
X0.6
Y0.5
X0.596 Y0.516
X0.584 Y0.528
X0.516 Y0.572
X0.504 Y0.584
X0.5 Y0.6
Y2.201
S5000
Y0.5 Z-2.7 F100
X0.507 Y0.475
X0.525 Y0.457
X0.55 Y0.45
X0.575 Y0.457
X0.593 Y0.475
X0.6 Y0.5
S1000
Y9.6 F260
X0.4
Y0.4
X0.6
Y0.5
X0.596 Y0.516
X0.584 Y0.528
X0.516 Y0.572
X0.504 Y0.584
X0.5 Y0.6
Y1.634
S5000
Y0.5 Z-2.9 F100
X0.507 Y0.475
X0.525 Y0.457
X0.55 Y0.45
X0.575 Y0.457
X0.593 Y0.475
X0.6 Y0.5
S1000
Y9.6 F260
X0.4
Y0.4
X0.6
Y0.5
G0 Z15

(2D Pocket1 27)
X2.5 Y0.7
Z15
Z3
G1 Z2.5 F25
S5000
Y0.476 Z2.461 F100
Y4.396 Z1.769
Y0.476 Z1.078
Y4.396 Z0.387
Y0.5 Z-0.3
X2.477 Y0.434
X2.476 Y0.418
X2.485 Y0.405
X2.5 Y0.4
S1000
X2.6 F270
Y9.6
X2.4
Y0.4
X2.5
X2.519 Y0.406
X2.531 Y0.421
X2.533 Y0.44
X2.5 Y0.6
Y2.201
S5000
Y0.5 Z-0.6 F100
X2.477 Y0.434
X2.476 Y0.418
X2.485 Y0.405
X2.5 Y0.4
S1000
X2.6 F270
Y9.6
X2.4
Y0.4
X2.5
X2.519 Y0.406
X2.531 Y0.421
X2.533 Y0.44
X2.5 Y0.6
Y2.201
S5000
Y0.5 Z-0.9 F100
X2.477 Y0.434
X2.476 Y0.418
X2.485 Y0.405
X2.5 Y0.4
S1000
X2.6 F270
Y9.6
X2.4
Y0.4
X2.5
X2.519 Y0.406
X2.531 Y0.421
X2.533 Y0.44
X2.5 Y0.6
Y2.201
S5000
Y0.5 Z-1.2 F100
X2.477 Y0.434
X2.476 Y0.418
X2.485 Y0.405
X2.5 Y0.4
S1000
X2.6 F270
Y9.6
X2.4
Y0.4
X2.5
X2.519 Y0.406
X2.531 Y0.421
X2.533 Y0.44
X2.5 Y0.6
Y2.201
S5000
Y0.5 Z-1.5 F100
X2.477 Y0.434
X2.476 Y0.418
X2.485 Y0.405
X2.5 Y0.4
S1000
X2.6 F270
Y9.6
X2.4
Y0.4
X2.5
X2.519 Y0.406
X2.531 Y0.421
X2.533 Y0.44
X2.5 Y0.6
Y2.201
S5000
Y0.5 Z-1.8 F100
X2.477 Y0.434
X2.476 Y0.418
X2.485 Y0.405
X2.5 Y0.4
S1000
X2.6 F270
Y9.6
X2.4
Y0.4
X2.5
X2.519 Y0.406
X2.531 Y0.421
X2.533 Y0.44
X2.5 Y0.6
Y2.201
S5000
Y0.5 Z-2.1 F100
X2.477 Y0.434
X2.476 Y0.418
X2.485 Y0.405
X2.5 Y0.4
S1000
X2.6 F270
Y9.6
X2.4
Y0.4
X2.5
X2.519 Y0.406
X2.531 Y0.421
X2.533 Y0.44
X2.5 Y0.6
Y2.201
S5000
Y0.5 Z-2.4 F100
X2.477 Y0.434
X2.476 Y0.418
X2.485 Y0.405
X2.5 Y0.4
S1000
X2.6 F270
Y9.6
X2.4
Y0.4
X2.5
X2.519 Y0.406
X2.531 Y0.421
X2.533 Y0.44
X2.5 Y0.6
Y2.201
S5000
Y0.5 Z-2.7 F100
X2.477 Y0.434
X2.476 Y0.418
X2.485 Y0.405
X2.5 Y0.4
S1000
X2.6 F270
Y9.6
X2.4
Y0.4
X2.5
X2.519 Y0.406
X2.531 Y0.421
X2.533 Y0.44
X2.5 Y0.6
Y1.634
S5000
Y0.5 Z-2.9 F100
X2.477 Y0.434
X2.476 Y0.418
X2.485 Y0.405
X2.5 Y0.4
S1000
X2.6 F270
Y9.6
X2.4
Y0.4
X2.5
G0 Z15

(2D Pocket1 28)
X4.5 Y9.348
Z15
Z3
G1 Z2.5 F25
S5000
Y9.524 Z2.469 F100
Y5.604 Z1.778
Y9.524 Z1.087
Y5.604 Z0.395
Y9.524 Z-0.296
Y9.5 Z-0.3
X4.506 Y9.479
X4.523 Y9.465
X4.545 Y9.463
X4.564 Y9.473
X4.574 Y9.493
X4.572 Y9.514
X4.558 Y9.531
X4.537 Y9.538
X4.438
X4.419 Y9.532
X4.405 Y9.519
X4.4 Y9.5
S1000
Y0.4 F280
X4.6
Y9.6
X4.4
Y9.5
X4.404 Y9.484
X4.416 Y9.472
X4.484 Y9.428
X4.496 Y9.416
X4.5 Y9.4
Y7.847
S5000
Y9.524 Z-0.596 F100
Y9.5 Z-0.6
X4.506 Y9.479
X4.523 Y9.465
X4.545 Y9.463
X4.564 Y9.473
X4.574 Y9.493
X4.572 Y9.514
X4.558 Y9.531
X4.537 Y9.538
X4.438
X4.419 Y9.532
X4.405 Y9.519
X4.4 Y9.5
S1000
Y0.4 F280
X4.6
Y9.6
X4.4
Y9.5
X4.404 Y9.484
X4.416 Y9.472
X4.484 Y9.428
X4.496 Y9.416
X4.5 Y9.4
Y7.847
S5000
Y9.524 Z-0.896 F100
Y9.5 Z-0.9
X4.506 Y9.479
X4.523 Y9.465
X4.545 Y9.463
X4.564 Y9.473
X4.574 Y9.493
X4.572 Y9.514
X4.558 Y9.531
X4.537 Y9.538
X4.438
X4.419 Y9.532
X4.405 Y9.519
X4.4 Y9.5
S1000
Y0.4 F280
X4.6
Y9.6
X4.4
Y9.5
X4.404 Y9.484
X4.416 Y9.472
X4.484 Y9.428
X4.496 Y9.416
X4.5 Y9.4
Y7.847
S5000
Y9.524 Z-1.196 F100
Y9.5 Z-1.2
X4.506 Y9.479
X4.523 Y9.465
X4.545 Y9.463
X4.564 Y9.473
X4.574 Y9.493
X4.572 Y9.514
X4.558 Y9.531
X4.537 Y9.538
X4.438
X4.419 Y9.532
X4.405 Y9.519
X4.4 Y9.5
S1000
Y0.4 F280
X4.6
Y9.6
X4.4
Y9.5
X4.404 Y9.484
X4.416 Y9.472
X4.484 Y9.428
X4.496 Y9.416
X4.5 Y9.4
Y7.847
S5000
Y9.524 Z-1.496 F100
Y9.5 Z-1.5
X4.506 Y9.479
X4.523 Y9.465
X4.545 Y9.463
X4.564 Y9.473
X4.574 Y9.493
X4.572 Y9.514
X4.558 Y9.531
X4.537 Y9.538
X4.438
X4.419 Y9.532
X4.405 Y9.519
X4.4 Y9.5
S1000
Y0.4 F280
X4.6
Y9.6
X4.4
Y9.5
X4.404 Y9.484
X4.416 Y9.472
X4.484 Y9.428
X4.496 Y9.416
X4.5 Y9.4
Y7.847
S5000
Y9.524 Z-1.796 F100
Y9.5 Z-1.8
X4.506 Y9.479
X4.523 Y9.465
X4.545 Y9.463
X4.564 Y9.473
X4.574 Y9.493
X4.572 Y9.514
X4.558 Y9.531
X4.537 Y9.538
X4.438
X4.419 Y9.532
X4.405 Y9.519
X4.4 Y9.5
S1000
Y0.4 F280
X4.6
Y9.6
X4.4
Y9.5
X4.404 Y9.484
X4.416 Y9.472
X4.484 Y9.428
X4.496 Y9.416
X4.5 Y9.4
Y7.847
S5000
Y9.524 Z-2.096 F100
Y9.5 Z-2.1
X4.506 Y9.479
X4.523 Y9.465
X4.545 Y9.463
X4.564 Y9.473
X4.574 Y9.493
X4.572 Y9.514
X4.558 Y9.531
X4.537 Y9.538
X4.438
X4.419 Y9.532
X4.405 Y9.519
X4.4 Y9.5
S1000
Y0.4 F280
X4.6
Y9.6
X4.4
Y9.5
X4.404 Y9.484
X4.416 Y9.472
X4.484 Y9.428
X4.496 Y9.416
X4.5 Y9.4
Y7.847
S5000
Y9.524 Z-2.396 F100
Y9.5 Z-2.4
X4.506 Y9.479
X4.523 Y9.465
X4.545 Y9.463
X4.564 Y9.473
X4.574 Y9.493
X4.572 Y9.514
X4.558 Y9.531
X4.537 Y9.538
X4.438
X4.419 Y9.532
X4.405 Y9.519
X4.4 Y9.5
S1000
Y0.4 F280
X4.6
Y9.6
X4.4
Y9.5
X4.404 Y9.484
X4.416 Y9.472
X4.484 Y9.428
X4.496 Y9.416
X4.5 Y9.4
Y7.847
S5000
Y9.524 Z-2.696 F100
Y9.5 Z-2.7
X4.506 Y9.479
X4.523 Y9.465
X4.545 Y9.463
X4.564 Y9.473
X4.574 Y9.493
X4.572 Y9.514
X4.558 Y9.531
X4.537 Y9.538
X4.438
X4.419 Y9.532
X4.405 Y9.519
X4.4 Y9.5
S1000
Y0.4 F280
X4.6
Y9.6
X4.4
Y9.5
X4.404 Y9.484
X4.416 Y9.472
X4.484 Y9.428
X4.496 Y9.416
X4.5 Y9.4
Y8.414
S5000
Y9.524 Z-2.896 F100
Y9.5 Z-2.9
X4.506 Y9.479
X4.523 Y9.465
X4.545 Y9.463
X4.564 Y9.473
X4.574 Y9.493
X4.572 Y9.514
X4.558 Y9.531
X4.537 Y9.538
X4.438
X4.419 Y9.532
X4.405 Y9.519
X4.4 Y9.5
S1000
Y0.4 F280
X4.6
Y9.6
X4.4
Y9.5
G0 Z15

(2D Pocket1 29)
X6.5 Y0.7
Z15
Z3
G1 Z2.5 F25
S5000
Y0.476 Z2.461 F100
Y4.396 Z1.769
Y0.476 Z1.078
Y4.396 Z0.387
Y0.5 Z-0.3
X6.507 Y0.475
X6.525 Y0.457
X6.55 Y0.45
X6.575 Y0.457
X6.593 Y0.475
X6.6 Y0.5
S1000
Y9.6 F290
X6.4
Y0.4
X6.6
Y0.5
X6.596 Y0.516
X6.584 Y0.528
X6.516 Y0.572
X6.504 Y0.584
X6.5 Y0.6
Y2.201
S5000
Y0.5 Z-0.6 F100
X6.507 Y0.475
X6.525 Y0.457
X6.55 Y0.45
X6.575 Y0.457
X6.593 Y0.475
X6.6 Y0.5
S1000
Y9.6 F290
X6.4
Y0.4
X6.6
Y0.5
X6.596 Y0.516
X6.584 Y0.528
X6.516 Y0.572
X6.504 Y0.584
X6.5 Y0.6
Y2.201
S5000
Y0.5 Z-0.9 F100
X6.507 Y0.475
X6.525 Y0.457
X6.55 Y0.45
X6.575 Y0.457
X6.593 Y0.475
X6.6 Y0.5
S1000
Y9.6 F290
X6.4
Y0.4
X6.6
Y0.5
X6.596 Y0.516
X6.584 Y0.528
X6.516 Y0.572
X6.504 Y0.584
X6.5 Y0.6
Y2.201
S5000
Y0.5 Z-1.2 F100
X6.507 Y0.475
X6.525 Y0.457
X6.55 Y0.45
X6.575 Y0.457
X6.593 Y0.475
X6.6 Y0.5
S1000
Y9.6 F290
X6.4
Y0.4
X6.6
Y0.5
X6.596 Y0.516
X6.584 Y0.528
X6.516 Y0.572
X6.504 Y0.584
X6.5 Y0.6
Y2.201
S5000
Y0.5 Z-1.5 F100
X6.507 Y0.475
X6.525 Y0.457
X6.55 Y0.45
X6.575 Y0.457
X6.593 Y0.475
X6.6 Y0.5
S1000
Y9.6 F290
X6.4
Y0.4
X6.6
Y0.5
X6.596 Y0.516
X6.584 Y0.528
X6.516 Y0.572
X6.504 Y0.584
X6.5 Y0.6
Y2.201
S5000
Y0.5 Z-1.8 F100
X6.507 Y0.475
X6.525 Y0.457
X6.55 Y0.45
X6.575 Y0.457
X6.593 Y0.475
X6.6 Y0.5
S1000
Y9.6 F290
X6.4
Y0.4
X6.6
Y0.5
X6.596 Y0.516
X6.584 Y0.528
X6.516 Y0.572
X6.504 Y0.584
X6.5 Y0.6
Y2.201
S5000
Y0.5 Z-2.1 F100
X6.507 Y0.475
X6.525 Y0.457
X6.55 Y0.45
X6.575 Y0.457
X6.593 Y0.475
X6.6 Y0.5
S1000
Y9.6 F290
X6.4
Y0.4
X6.6
Y0.5
X6.596 Y0.516
X6.584 Y0.528
X6.516 Y0.572
X6.504 Y0.584
X6.5 Y0.6
Y2.201
S5000
Y0.5 Z-2.4 F100
X6.507 Y0.475
X6.525 Y0.457
X6.55 Y0.45
X6.575 Y0.457
X6.593 Y0.475
X6.6 Y0.5
S1000
Y9.6 F290
X6.4
Y0.4
X6.6
Y0.5
X6.596 Y0.516
X6.584 Y0.528
X6.516 Y0.572
X6.504 Y0.584
X6.5 Y0.6
Y2.201
S5000
Y0.5 Z-2.7 F100
X6.507 Y0.475
X6.525 Y0.457
X6.55 Y0.45
X6.575 Y0.457
X6.593 Y0.475
X6.6 Y0.5
S1000
Y9.6 F290
X6.4
Y0.4
X6.6
Y0.5
X6.596 Y0.516
X6.584 Y0.528
X6.516 Y0.572
X6.504 Y0.584
X6.5 Y0.6
Y1.634
S5000
Y0.5 Z-2.9 F100
X6.507 Y0.475
X6.525 Y0.457
X6.55 Y0.45
X6.575 Y0.457
X6.593 Y0.475
X6.6 Y0.5
S1000
Y9.6 F290
X6.4
Y0.4
X6.6
Y0.5
G0 Z15

(2D Pocket1 30)
X8.5 Y9.348
Z15
Z3
G1 Z2.5 F25
S5000
Y9.524 Z2.469 F100
Y5.604 Z1.778
Y9.524 Z1.087
Y5.604 Z0.395
Y9.524 Z-0.296
Y9.5 Z-0.3
X8.506 Y9.479
X8.523 Y9.465
X8.545 Y9.463
X8.564 Y9.473
X8.574 Y9.493
X8.572 Y9.514
X8.558 Y9.531
X8.538 Y9.538
X8.438
X8.419 Y9.532
X8.405 Y9.519
X8.4 Y9.5
S1000
Y0.4 F300
X8.6
Y9.6
X8.4
Y9.5
X8.404 Y9.484
X8.416 Y9.472
X8.484 Y9.428
X8.496 Y9.416
X8.5 Y9.4
Y7.847
S5000
Y9.524 Z-0.596 F100
Y9.5 Z-0.6
X8.506 Y9.479
X8.523 Y9.465
X8.545 Y9.463
X8.564 Y9.473
X8.574 Y9.493
X8.572 Y9.514
X8.558 Y9.531
X8.538 Y9.538
X8.438
X8.419 Y9.532
X8.405 Y9.519
X8.4 Y9.5
S1000
Y0.4 F300
X8.6
Y9.6
X8.4
Y9.5
X8.404 Y9.484
X8.416 Y9.472
X8.484 Y9.428
X8.496 Y9.416
X8.5 Y9.4
Y7.847
S5000
Y9.524 Z-0.896 F100
Y9.5 Z-0.9
X8.506 Y9.479
X8.523 Y9.465
X8.545 Y9.463
X8.564 Y9.473
X8.574 Y9.493
X8.572 Y9.514
X8.558 Y9.531
X8.538 Y9.538
X8.438
X8.419 Y9.532
X8.405 Y9.519
X8.4 Y9.5
S1000
Y0.4 F300
X8.6
Y9.6
X8.4
Y9.5
X8.404 Y9.484
X8.416 Y9.472
X8.484 Y9.428
X8.496 Y9.416
X8.5 Y9.4
Y7.847
S5000
Y9.524 Z-1.196 F100
Y9.5 Z-1.2
X8.506 Y9.479
X8.523 Y9.465
X8.545 Y9.463
X8.564 Y9.473
X8.574 Y9.493
X8.572 Y9.514
X8.558 Y9.531
X8.538 Y9.538
X8.438
X8.419 Y9.532
X8.405 Y9.519
X8.4 Y9.5
S1000
Y0.4 F300
X8.6
Y9.6
X8.4
Y9.5
X8.404 Y9.484
X8.416 Y9.472
X8.484 Y9.428
X8.496 Y9.416
X8.5 Y9.4
Y7.847
S5000
Y9.524 Z-1.496 F100
Y9.5 Z-1.5
X8.506 Y9.479
X8.523 Y9.465
X8.545 Y9.463
X8.564 Y9.473
X8.574 Y9.493
X8.572 Y9.514
X8.558 Y9.531
X8.538 Y9.538
X8.438
X8.419 Y9.532
X8.405 Y9.519
X8.4 Y9.5
S1000
Y0.4 F300
X8.6
Y9.6
X8.4
Y9.5
X8.404 Y9.484
X8.416 Y9.472
X8.484 Y9.428
X8.496 Y9.416
X8.5 Y9.4
Y7.847
S5000
Y9.524 Z-1.796 F100
Y9.5 Z-1.8
X8.506 Y9.479
X8.523 Y9.465
X8.545 Y9.463
X8.564 Y9.473
X8.574 Y9.493
X8.572 Y9.514
X8.558 Y9.531
X8.538 Y9.538
X8.438
X8.419 Y9.532
X8.405 Y9.519
X8.4 Y9.5
S1000
Y0.4 F300
X8.6
Y9.6
X8.4
Y9.5
X8.404 Y9.484
X8.416 Y9.472
X8.484 Y9.428
X8.496 Y9.416
X8.5 Y9.4
Y7.847
S5000
Y9.524 Z-2.096 F100
Y9.5 Z-2.1
X8.506 Y9.479
X8.523 Y9.465
X8.545 Y9.463
X8.564 Y9.473
X8.574 Y9.493
X8.572 Y9.514
X8.558 Y9.531
X8.538 Y9.538
X8.438
X8.419 Y9.532
X8.405 Y9.519
X8.4 Y9.5
S1000
Y0.4 F300
X8.6
Y9.6
X8.4
Y9.5
X8.404 Y9.484
X8.416 Y9.472
X8.484 Y9.428
X8.496 Y9.416
X8.5 Y9.4
Y7.847
S5000
Y9.524 Z-2.396 F100
Y9.5 Z-2.4
X8.506 Y9.479
X8.523 Y9.465
X8.545 Y9.463
X8.564 Y9.473
X8.574 Y9.493
X8.572 Y9.514
X8.558 Y9.531
X8.538 Y9.538
X8.438
X8.419 Y9.532
X8.405 Y9.519
X8.4 Y9.5
S1000
Y0.4 F300
X8.6
Y9.6
X8.4
Y9.5
X8.404 Y9.484
X8.416 Y9.472
X8.484 Y9.428
X8.496 Y9.416
X8.5 Y9.4
Y7.847
S5000
Y9.524 Z-2.696 F100
Y9.5 Z-2.7
X8.506 Y9.479
X8.523 Y9.465
X8.545 Y9.463
X8.564 Y9.473
X8.574 Y9.493
X8.572 Y9.514
X8.558 Y9.531
X8.538 Y9.538
X8.438
X8.419 Y9.532
X8.405 Y9.519
X8.4 Y9.5
S1000
Y0.4 F300
X8.6
Y9.6
X8.4
Y9.5
X8.404 Y9.484
X8.416 Y9.472
X8.484 Y9.428
X8.496 Y9.416
X8.5 Y9.4
Y8.414
S5000
Y9.524 Z-2.896 F100
Y9.5 Z-2.9
X8.506 Y9.479
X8.523 Y9.465
X8.545 Y9.463
X8.564 Y9.473
X8.574 Y9.493
X8.572 Y9.514
X8.558 Y9.531
X8.538 Y9.538
X8.438
X8.419 Y9.532
X8.405 Y9.519
X8.4 Y9.5
S1000
Y0.4 F300
X8.6
Y9.6
X8.4
Y9.5
G0 Z15

(2D Pocket1 31)
X10.5 Y0.7
Z15
Z3
G1 Z2.5 F25
S5000
Y0.476 Z2.461 F100
Y4.396 Z1.769
Y0.476 Z1.078
Y4.396 Z0.387
Y0.5 Z-0.3
X10.507 Y0.475
X10.525 Y0.457
X10.55 Y0.45
X10.575 Y0.457
X10.593 Y0.475
X10.6 Y0.5
S1000
Y9.6 F310
X10.4
Y0.4
X10.6
Y0.5
X10.596 Y0.516
X10.584 Y0.528
X10.516 Y0.572
X10.504 Y0.584
X10.5 Y0.6
Y2.201
S5000
Y0.5 Z-0.6 F100
X10.507 Y0.475
X10.525 Y0.457
X10.55 Y0.45
X10.575 Y0.457
X10.593 Y0.475
X10.6 Y0.5
S1000
Y9.6 F310
X10.4
Y0.4
X10.6
Y0.5
X10.596 Y0.516
X10.584 Y0.528
X10.516 Y0.572
X10.504 Y0.584
X10.5 Y0.6
Y2.201
S5000
Y0.5 Z-0.9 F100
X10.507 Y0.475
X10.525 Y0.457
X10.55 Y0.45
X10.575 Y0.457
X10.593 Y0.475
X10.6 Y0.5
S1000
Y9.6 F310
X10.4
Y0.4
X10.6
Y0.5
X10.596 Y0.516
X10.584 Y0.528
X10.516 Y0.572
X10.504 Y0.584
X10.5 Y0.6
Y2.201
S5000
Y0.5 Z-1.2 F100
X10.507 Y0.475
X10.525 Y0.457
X10.55 Y0.45
X10.575 Y0.457
X10.593 Y0.475
X10.6 Y0.5
S1000
Y9.6 F310
X10.4
Y0.4
X10.6
Y0.5
X10.596 Y0.516
X10.584 Y0.528
X10.516 Y0.572
X10.504 Y0.584
X10.5 Y0.6
Y2.201
S5000
Y0.5 Z-1.5 F100
X10.507 Y0.475
X10.525 Y0.457
X10.55 Y0.45
X10.575 Y0.457
X10.593 Y0.475
X10.6 Y0.5
S1000
Y9.6 F310
X10.4
Y0.4
X10.6
Y0.5
X10.596 Y0.516
X10.584 Y0.528
X10.516 Y0.572
X10.504 Y0.584
X10.5 Y0.6
Y2.201
S5000
Y0.5 Z-1.8 F100
X10.507 Y0.475
X10.525 Y0.457
X10.55 Y0.45
X10.575 Y0.457
X10.593 Y0.475
X10.6 Y0.5
S1000
Y9.6 F310
X10.4
Y0.4
X10.6
Y0.5
X10.596 Y0.516
X10.584 Y0.528
X10.516 Y0.572
X10.504 Y0.584
X10.5 Y0.6
Y2.201
S5000
Y0.5 Z-2.1 F100
X10.507 Y0.475
X10.525 Y0.457
X10.55 Y0.45
X10.575 Y0.457
X10.593 Y0.475
X10.6 Y0.5
S1000
Y9.6 F310
X10.4
Y0.4
X10.6
Y0.5
X10.596 Y0.516
X10.584 Y0.528
X10.516 Y0.572
X10.504 Y0.584
X10.5 Y0.6
Y2.201
S5000
Y0.5 Z-2.4 F100
X10.507 Y0.475
X10.525 Y0.457
X10.55 Y0.45
X10.575 Y0.457
X10.593 Y0.475
X10.6 Y0.5
S1000
Y9.6 F310
X10.4
Y0.4
X10.6
Y0.5
X10.596 Y0.516
X10.584 Y0.528
X10.516 Y0.572
X10.504 Y0.584
X10.5 Y0.6
Y2.201
S5000
Y0.5 Z-2.7 F100
X10.507 Y0.475
X10.525 Y0.457
X10.55 Y0.45
X10.575 Y0.457
X10.593 Y0.475
X10.6 Y0.5
S1000
Y9.6 F310
X10.4
Y0.4
X10.6
Y0.5
X10.596 Y0.516
X10.584 Y0.528
X10.516 Y0.572
X10.504 Y0.584
X10.5 Y0.6
Y1.634
S5000
Y0.5 Z-2.9 F100
X10.507 Y0.475
X10.525 Y0.457
X10.55 Y0.45
X10.575 Y0.457
X10.593 Y0.475
X10.6 Y0.5
S1000
Y9.6 F310
X10.4
Y0.4
X10.6
Y0.5
G0 Z15

(2D Pocket1 32)
X12.5 Y9.348
Z15
Z3
G1 Z2.5 F25
S5000
Y9.524 Z2.469 F100
Y5.604 Z1.778
Y9.524 Z1.087
Y5.604 Z0.395
Y9.524 Z-0.296
Y9.5 Z-0.3
X12.506 Y9.479
X12.523 Y9.465
X12.545 Y9.463
X12.564 Y9.473
X12.574 Y9.493
X12.572 Y9.514
X12.558 Y9.531
X12.538 Y9.538
X12.438
X12.419 Y9.532
X12.405 Y9.519
X12.4 Y9.5
S1000
Y0.4 F320
X12.6
Y9.6
X12.4
Y9.5
X12.404 Y9.484
X12.416 Y9.472
X12.484 Y9.428
X12.496 Y9.416
X12.5 Y9.4
Y7.847
S5000
Y9.524 Z-0.596 F100
Y9.5 Z-0.6
X12.506 Y9.479
X12.523 Y9.465
X12.545 Y9.463
X12.564 Y9.473
X12.574 Y9.493
X12.572 Y9.514
X12.558 Y9.531
X12.538 Y9.538
X12.438
X12.419 Y9.532
X12.405 Y9.519
X12.4 Y9.5
S1000
Y0.4 F320
X12.6
Y9.6
X12.4
Y9.5
X12.404 Y9.484
X12.416 Y9.472
X12.484 Y9.428
X12.496 Y9.416
X12.5 Y9.4
Y7.847
S5000
Y9.524 Z-0.896 F100
Y9.5 Z-0.9
X12.506 Y9.479
X12.523 Y9.465
X12.545 Y9.463
X12.564 Y9.473
X12.574 Y9.493
X12.572 Y9.514
X12.558 Y9.531
X12.538 Y9.538
X12.438
X12.419 Y9.532
X12.405 Y9.519
X12.4 Y9.5
S1000
Y0.4 F320
X12.6
Y9.6
X12.4
Y9.5
X12.404 Y9.484
X12.416 Y9.472
X12.484 Y9.428
X12.496 Y9.416
X12.5 Y9.4
Y7.847
S5000
Y9.524 Z-1.196 F100
Y9.5 Z-1.2
X12.506 Y9.479
X12.523 Y9.465
X12.545 Y9.463
X12.564 Y9.473
X12.574 Y9.493
X12.572 Y9.514
X12.558 Y9.531
X12.538 Y9.538
X12.438
X12.419 Y9.532
X12.405 Y9.519
X12.4 Y9.5
S1000
Y0.4 F320
X12.6
Y9.6
X12.4
Y9.5
X12.404 Y9.484
X12.416 Y9.472
X12.484 Y9.428
X12.496 Y9.416
X12.5 Y9.4
Y7.847
S5000
Y9.524 Z-1.496 F100
Y9.5 Z-1.5
X12.506 Y9.479
X12.523 Y9.465
X12.545 Y9.463
X12.564 Y9.473
X12.574 Y9.493
X12.572 Y9.514
X12.558 Y9.531
X12.538 Y9.538
X12.438
X12.419 Y9.532
X12.405 Y9.519
X12.4 Y9.5
S1000
Y0.4 F320
X12.6
Y9.6
X12.4
Y9.5
X12.404 Y9.484
X12.416 Y9.472
X12.484 Y9.428
X12.496 Y9.416
X12.5 Y9.4
Y7.847
S5000
Y9.524 Z-1.796 F100
Y9.5 Z-1.8
X12.506 Y9.479
X12.523 Y9.465
X12.545 Y9.463
X12.564 Y9.473
X12.574 Y9.493
X12.572 Y9.514
X12.558 Y9.531
X12.538 Y9.538
X12.438
X12.419 Y9.532
X12.405 Y9.519
X12.4 Y9.5
S1000
Y0.4 F320
X12.6
Y9.6
X12.4
Y9.5
X12.404 Y9.484
X12.416 Y9.472
X12.484 Y9.428
X12.496 Y9.416
X12.5 Y9.4
Y7.847
S5000
Y9.524 Z-2.096 F100
Y9.5 Z-2.1
X12.506 Y9.479
X12.523 Y9.465
X12.545 Y9.463
X12.564 Y9.473
X12.574 Y9.493
X12.572 Y9.514
X12.558 Y9.531
X12.538 Y9.538
X12.438
X12.419 Y9.532
X12.405 Y9.519
X12.4 Y9.5
S1000
Y0.4 F320
X12.6
Y9.6
X12.4
Y9.5
X12.404 Y9.484
X12.416 Y9.472
X12.484 Y9.428
X12.496 Y9.416
X12.5 Y9.4
Y7.847
S5000
Y9.524 Z-2.396 F100
Y9.5 Z-2.4
X12.506 Y9.479
X12.523 Y9.465
X12.545 Y9.463
X12.564 Y9.473
X12.574 Y9.493
X12.572 Y9.514
X12.558 Y9.531
X12.538 Y9.538
X12.438
X12.419 Y9.532
X12.405 Y9.519
X12.4 Y9.5
S1000
Y0.4 F320
X12.6
Y9.6
X12.4
Y9.5
X12.404 Y9.484
X12.416 Y9.472
X12.484 Y9.428
X12.496 Y9.416
X12.5 Y9.4
Y7.847
S5000
Y9.524 Z-2.696 F100
Y9.5 Z-2.7
X12.506 Y9.479
X12.523 Y9.465
X12.545 Y9.463
X12.564 Y9.473
X12.574 Y9.493
X12.572 Y9.514
X12.558 Y9.531
X12.538 Y9.538
X12.438
X12.419 Y9.532
X12.405 Y9.519
X12.4 Y9.5
S1000
Y0.4 F320
X12.6
Y9.6
X12.4
Y9.5
X12.404 Y9.484
X12.416 Y9.472
X12.484 Y9.428
X12.496 Y9.416
X12.5 Y9.4
Y8.414
S5000
Y9.524 Z-2.896 F100
Y9.5 Z-2.9
X12.506 Y9.479
X12.523 Y9.465
X12.545 Y9.463
X12.564 Y9.473
X12.574 Y9.493
X12.572 Y9.514
X12.558 Y9.531
X12.538 Y9.538
X12.438
X12.419 Y9.532
X12.405 Y9.519
X12.4 Y9.5
S1000
Y0.4 F320
X12.6
Y9.6
X12.4
Y9.5
G0 Z15

(2D Pocket1 33)
X14.5 Y0.7
Z15
Z3
G1 Z2.5 F25
S5000
Y0.476 Z2.461 F100
Y4.396 Z1.769
Y0.476 Z1.078
Y4.396 Z0.387
Y0.5 Z-0.3
X14.507 Y0.475
X14.525 Y0.457
X14.55 Y0.45
X14.575 Y0.457
X14.593 Y0.475
X14.6 Y0.5
S1000
Y9.6 F330
X14.4
Y0.4
X14.6
Y0.5
X14.596 Y0.516
X14.584 Y0.528
X14.516 Y0.572
X14.504 Y0.584
X14.5 Y0.6
Y2.201
S5000
Y0.5 Z-0.6 F100
X14.507 Y0.475
X14.525 Y0.457
X14.55 Y0.45
X14.575 Y0.457
X14.593 Y0.475
X14.6 Y0.5
S1000
Y9.6 F330
X14.4
Y0.4
X14.6
Y0.5
X14.596 Y0.516
X14.584 Y0.528
X14.516 Y0.572
X14.504 Y0.584
X14.5 Y0.6
Y2.201
S5000
Y0.5 Z-0.9 F100
X14.507 Y0.475
X14.525 Y0.457
X14.55 Y0.45
X14.575 Y0.457
X14.593 Y0.475
X14.6 Y0.5
S1000
Y9.6 F330
X14.4
Y0.4
X14.6
Y0.5
X14.596 Y0.516
X14.584 Y0.528
X14.516 Y0.572
X14.504 Y0.584
X14.5 Y0.6
Y2.201
S5000
Y0.5 Z-1.2 F100
X14.507 Y0.475
X14.525 Y0.457
X14.55 Y0.45
X14.575 Y0.457
X14.593 Y0.475
X14.6 Y0.5
S1000
Y9.6 F330
X14.4
Y0.4
X14.6
Y0.5
X14.596 Y0.516
X14.584 Y0.528
X14.516 Y0.572
X14.504 Y0.584
X14.5 Y0.6
Y2.201
S5000
Y0.5 Z-1.5 F100
X14.507 Y0.475
X14.525 Y0.457
X14.55 Y0.45
X14.575 Y0.457
X14.593 Y0.475
X14.6 Y0.5
S1000
Y9.6 F330
X14.4
Y0.4
X14.6
Y0.5
X14.596 Y0.516
X14.584 Y0.528
X14.516 Y0.572
X14.504 Y0.584
X14.5 Y0.6
Y2.201
S5000
Y0.5 Z-1.8 F100
X14.507 Y0.475
X14.525 Y0.457
X14.55 Y0.45
X14.575 Y0.457
X14.593 Y0.475
X14.6 Y0.5
S1000
Y9.6 F330
X14.4
Y0.4
X14.6
Y0.5
X14.596 Y0.516
X14.584 Y0.528
X14.516 Y0.572
X14.504 Y0.584
X14.5 Y0.6
Y2.201
S5000
Y0.5 Z-2.1 F100
X14.507 Y0.475
X14.525 Y0.457
X14.55 Y0.45
X14.575 Y0.457
X14.593 Y0.475
X14.6 Y0.5
S1000
Y9.6 F330
X14.4
Y0.4
X14.6
Y0.5
X14.596 Y0.516
X14.584 Y0.528
X14.516 Y0.572
X14.504 Y0.584
X14.5 Y0.6
Y2.201
S5000
Y0.5 Z-2.4 F100
X14.507 Y0.475
X14.525 Y0.457
X14.55 Y0.45
X14.575 Y0.457
X14.593 Y0.475
X14.6 Y0.5
S1000
Y9.6 F330
X14.4
Y0.4
X14.6
Y0.5
X14.596 Y0.516
X14.584 Y0.528
X14.516 Y0.572
X14.504 Y0.584
X14.5 Y0.6
Y2.201
S5000
Y0.5 Z-2.7 F100
X14.507 Y0.475
X14.525 Y0.457
X14.55 Y0.45
X14.575 Y0.457
X14.593 Y0.475
X14.6 Y0.5
S1000
Y9.6 F330
X14.4
Y0.4
X14.6
Y0.5
X14.596 Y0.516
X14.584 Y0.528
X14.516 Y0.572
X14.504 Y0.584
X14.5 Y0.6
Y1.634
S5000
Y0.5 Z-2.9 F100
X14.507 Y0.475
X14.525 Y0.457
X14.55 Y0.45
X14.575 Y0.457
X14.593 Y0.475
X14.6 Y0.5
S1000
Y9.6 F330
X14.4
Y0.4
X14.6
Y0.5
G0 Z15

(2D Pocket1 34)
X16.5 Y0.7
Z15
Z3
G1 Z2.5 F25
S5000
Y0.476 Z2.461 F100
Y4.396 Z1.769
Y0.476 Z1.078
Y4.396 Z0.387
Y0.5 Z-0.3
X16.477 Y0.434
X16.476 Y0.418
X16.485 Y0.405
X16.5 Y0.4
S1000
X16.6 F340
Y9.6
X16.4
Y0.4
X16.5
X16.519 Y0.406
X16.531 Y0.421
X16.533 Y0.44
X16.5 Y0.6
Y2.201
S5000
Y0.5 Z-0.6 F100
X16.477 Y0.434
X16.476 Y0.418
X16.485 Y0.405
X16.5 Y0.4
S1000
X16.6 F340
Y9.6
X16.4
Y0.4
X16.5
X16.519 Y0.406
X16.531 Y0.421
X16.533 Y0.44
X16.5 Y0.6
Y2.201
S5000
Y0.5 Z-0.9 F100
X16.477 Y0.434
X16.476 Y0.418
X16.485 Y0.405
X16.5 Y0.4
S1000
X16.6 F340
Y9.6
X16.4
Y0.4
X16.5
X16.519 Y0.406
X16.531 Y0.421
X16.533 Y0.44
X16.5 Y0.6
Y2.201
S5000
Y0.5 Z-1.2 F100
X16.477 Y0.434
X16.476 Y0.418
X16.485 Y0.405
X16.5 Y0.4
S1000
X16.6 F340
Y9.6
X16.4
Y0.4
X16.5
X16.519 Y0.406
X16.531 Y0.421
X16.533 Y0.44
X16.5 Y0.6
Y2.201
S5000
Y0.5 Z-1.5 F100
X16.477 Y0.434
X16.476 Y0.418
X16.485 Y0.405
X16.5 Y0.4
S1000
X16.6 F340
Y9.6
X16.4
Y0.4
X16.5
X16.519 Y0.406
X16.531 Y0.421
X16.533 Y0.44
X16.5 Y0.6
Y2.201
S5000
Y0.5 Z-1.8 F100
X16.477 Y0.434
X16.476 Y0.418
X16.485 Y0.405
X16.5 Y0.4
S1000
X16.6 F340
Y9.6
X16.4
Y0.4
X16.5
X16.519 Y0.406
X16.531 Y0.421
X16.533 Y0.44
X16.5 Y0.6
Y2.201
S5000
Y0.5 Z-2.1 F100
X16.477 Y0.434
X16.476 Y0.418
X16.485 Y0.405
X16.5 Y0.4
S1000
X16.6 F340
Y9.6
X16.4
Y0.4
X16.5
X16.519 Y0.406
X16.531 Y0.421
X16.533 Y0.44
X16.5 Y0.6
Y2.201
S5000
Y0.5 Z-2.4 F100
X16.477 Y0.434
X16.476 Y0.418
X16.485 Y0.405
X16.5 Y0.4
S1000
X16.6 F340
Y9.6
X16.4
Y0.4
X16.5
X16.519 Y0.406
X16.531 Y0.421
X16.533 Y0.44
X16.5 Y0.6
Y2.201
S5000
Y0.5 Z-2.7 F100
X16.477 Y0.434
X16.476 Y0.418
X16.485 Y0.405
X16.5 Y0.4
S1000
X16.6 F340
Y9.6
X16.4
Y0.4
X16.5
X16.519 Y0.406
X16.531 Y0.421
X16.533 Y0.44
X16.5 Y0.6
Y1.634
S5000
Y0.5 Z-2.9 F100
X16.477 Y0.434
X16.476 Y0.418
X16.485 Y0.405
X16.5 Y0.4
S1000
X16.6 F340
Y9.6
X16.4
Y0.4
X16.5
G0 Z15

(2D Pocket1 35)
X18.5 Y9.3
Z15
Z3
G1 Z2.5 F25
S5000
Y9.524 Z2.461 F100
Y5.604 Z1.769
Y9.524 Z1.078
Y5.604 Z0.387
Y9.5 Z-0.3
X18.523 Y9.566
X18.524 Y9.582
X18.515 Y9.595
X18.5 Y9.6
S1000
X18.4 F350
Y0.4
X18.6
Y9.6
X18.5
X18.481 Y9.594
X18.469 Y9.579
X18.467 Y9.56
X18.5 Y9.4
Y7.799
S5000
Y9.5 Z-0.6 F100
X18.523 Y9.566
X18.524 Y9.582
X18.515 Y9.595
X18.5 Y9.6
S1000
X18.4 F350
Y0.4
X18.6
Y9.6
X18.5
X18.481 Y9.594
X18.469 Y9.579
X18.467 Y9.56
X18.5 Y9.4
Y7.799
S5000
Y9.5 Z-0.9 F100
X18.523 Y9.566
X18.524 Y9.582
X18.515 Y9.595
X18.5 Y9.6
S1000
X18.4 F350
Y0.4
X18.6
Y9.6
X18.5
X18.481 Y9.594
X18.469 Y9.579
X18.467 Y9.56
X18.5 Y9.4
Y7.799
S5000
Y9.5 Z-1.2 F100
X18.523 Y9.566
X18.524 Y9.582
X18.515 Y9.595
X18.5 Y9.6
S1000
X18.4 F350
Y0.4
X18.6
Y9.6
X18.5
X18.481 Y9.594
X18.469 Y9.579
X18.467 Y9.56
X18.5 Y9.4
Y7.799
S5000
Y9.5 Z-1.5 F100
X18.523 Y9.566
X18.524 Y9.582
X18.515 Y9.595
X18.5 Y9.6
S1000
X18.4 F350
Y0.4
X18.6
Y9.6
X18.5
X18.481 Y9.594
X18.469 Y9.579
X18.467 Y9.56
X18.5 Y9.4
Y7.799
S5000
Y9.5 Z-1.8 F100
X18.523 Y9.566
X18.524 Y9.582
X18.515 Y9.595
X18.5 Y9.6
S1000
X18.4 F350
Y0.4
X18.6
Y9.6
X18.5
X18.481 Y9.594
X18.469 Y9.579
X18.467 Y9.56
X18.5 Y9.4
Y7.799
S5000
Y9.5 Z-2.1 F100
X18.523 Y9.566
X18.524 Y9.582
X18.515 Y9.595
X18.5 Y9.6
S1000
X18.4 F350
Y0.4
X18.6
Y9.6
X18.5
X18.481 Y9.594
X18.469 Y9.579
X18.467 Y9.56
X18.5 Y9.4
Y7.799
S5000
Y9.5 Z-2.4 F100
X18.523 Y9.566
X18.524 Y9.582
X18.515 Y9.595
X18.5 Y9.6
S1000
X18.4 F350
Y0.4
X18.6
Y9.6
X18.5
X18.481 Y9.594
X18.469 Y9.579
X18.467 Y9.56
X18.5 Y9.4
Y7.799
S5000
Y9.5 Z-2.7 F100
X18.523 Y9.566
X18.524 Y9.582
X18.515 Y9.595
X18.5 Y9.6
S1000
X18.4 F350
Y0.4
X18.6
Y9.6
X18.5
X18.481 Y9.594
X18.469 Y9.579
X18.467 Y9.56
X18.5 Y9.4
Y8.366
S5000
Y9.5 Z-2.9 F100
X18.523 Y9.566
X18.524 Y9.582
X18.515 Y9.595
X18.5 Y9.6
S1000
X18.4 F350
Y0.4
X18.6
Y9.6
X18.5
G0 Z15

(2D Pocket1 36)
X20.5 Y0.7
Z15
Z3
G1 Z2.5 F25
S5000
Y0.476 Z2.461 F100
Y4.396 Z1.769
Y0.476 Z1.078
Y4.396 Z0.387
Y0.5 Z-0.3
X20.477 Y0.434
X20.476 Y0.418
X20.485 Y0.405
X20.5 Y0.4
S1000
X20.6 F360
Y9.6
X20.4
Y0.4
X20.5
X20.519 Y0.406
X20.531 Y0.421
X20.533 Y0.44
X20.5 Y0.6
Y2.201
S5000
Y0.5 Z-0.6 F100
X20.477 Y0.434
X20.476 Y0.418
X20.485 Y0.405
X20.5 Y0.4
S1000
X20.6 F360
Y9.6
X20.4
Y0.4
X20.5
X20.519 Y0.406
X20.531 Y0.421
X20.533 Y0.44
X20.5 Y0.6
Y2.201
S5000
Y0.5 Z-0.9 F100
X20.477 Y0.434
X20.476 Y0.418
X20.485 Y0.405
X20.5 Y0.4
S1000
X20.6 F360
Y9.6
X20.4
Y0.4
X20.5
X20.519 Y0.406
X20.531 Y0.421
X20.533 Y0.44
X20.5 Y0.6
Y2.201
S5000
Y0.5 Z-1.2 F100
X20.477 Y0.434
X20.476 Y0.418
X20.485 Y0.405
X20.5 Y0.4
S1000
X20.6 F360
Y9.6
X20.4
Y0.4
X20.5
X20.519 Y0.406
X20.531 Y0.421
X20.533 Y0.44
X20.5 Y0.6
Y2.201
S5000
Y0.5 Z-1.5 F100
X20.477 Y0.434
X20.476 Y0.418
X20.485 Y0.405
X20.5 Y0.4
S1000
X20.6 F360
Y9.6
X20.4
Y0.4
X20.5
X20.519 Y0.406
X20.531 Y0.421
X20.533 Y0.44
X20.5 Y0.6
Y2.201
S5000
Y0.5 Z-1.8 F100
X20.477 Y0.434
X20.476 Y0.418
X20.485 Y0.405
X20.5 Y0.4
S1000
X20.6 F360
Y9.6
X20.4
Y0.4
X20.5
X20.519 Y0.406
X20.531 Y0.421
X20.533 Y0.44
X20.5 Y0.6
Y2.201
S5000
Y0.5 Z-2.1 F100
X20.477 Y0.434
X20.476 Y0.418
X20.485 Y0.405
X20.5 Y0.4
S1000
X20.6 F360
Y9.6
X20.4
Y0.4
X20.5
X20.519 Y0.406
X20.531 Y0.421
X20.533 Y0.44
X20.5 Y0.6
Y2.201
S5000
Y0.5 Z-2.4 F100
X20.477 Y0.434
X20.476 Y0.418
X20.485 Y0.405
X20.5 Y0.4
S1000
X20.6 F360
Y9.6
X20.4
Y0.4
X20.5
X20.519 Y0.406
X20.531 Y0.421
X20.533 Y0.44
X20.5 Y0.6
Y2.201
S5000
Y0.5 Z-2.7 F100
X20.477 Y0.434
X20.476 Y0.418
X20.485 Y0.405
X20.5 Y0.4
S1000
X20.6 F360
Y9.6
X20.4
Y0.4
X20.5
X20.519 Y0.406
X20.531 Y0.421
X20.533 Y0.44
X20.5 Y0.6
Y1.634
S5000
Y0.5 Z-2.9 F100
X20.477 Y0.434
X20.476 Y0.418
X20.485 Y0.405
X20.5 Y0.4
S1000
X20.6 F360
Y9.6
X20.4
Y0.4
X20.5
G0 Z15

(2D Pocket1 37)
X22.5 Y9.3
Z15
Z3
G1 Z2.5 F25
S5000
Y9.524 Z2.461 F100
Y5.604 Z1.769
Y9.524 Z1.078
Y5.604 Z0.387
Y9.5 Z-0.3
X22.523 Y9.566
X22.524 Y9.582
X22.515 Y9.595
X22.5 Y9.6
S1000
X22.4 F370
Y0.4
X22.6
Y9.6
X22.5
X22.481 Y9.594
X22.469 Y9.579
X22.467 Y9.56
X22.5 Y9.4
Y7.799
S5000
Y9.5 Z-0.6 F100
X22.523 Y9.566
X22.524 Y9.582
X22.515 Y9.595
X22.5 Y9.6
S1000
X22.4 F370
Y0.4
X22.6
Y9.6
X22.5
X22.481 Y9.594
X22.469 Y9.579
X22.467 Y9.56
X22.5 Y9.4
Y7.799
S5000
Y9.5 Z-0.9 F100
X22.523 Y9.566
X22.524 Y9.582
X22.515 Y9.595
X22.5 Y9.6
S1000
X22.4 F370
Y0.4
X22.6
Y9.6
X22.5
X22.481 Y9.594
X22.469 Y9.579
X22.467 Y9.56
X22.5 Y9.4
Y7.799
S5000
Y9.5 Z-1.2 F100
X22.523 Y9.566
X22.524 Y9.582
X22.515 Y9.595
X22.5 Y9.6
S1000
X22.4 F370
Y0.4
X22.6
Y9.6
X22.5
X22.481 Y9.594
X22.469 Y9.579
X22.467 Y9.56
X22.5 Y9.4
Y7.799
S5000
Y9.5 Z-1.5 F100
X22.523 Y9.566
X22.524 Y9.582
X22.515 Y9.595
X22.5 Y9.6
S1000
X22.4 F370
Y0.4
X22.6
Y9.6
X22.5
X22.481 Y9.594
X22.469 Y9.579
X22.467 Y9.56
X22.5 Y9.4
Y7.799
S5000
Y9.5 Z-1.8 F100
X22.523 Y9.566
X22.524 Y9.582
X22.515 Y9.595
X22.5 Y9.6
S1000
X22.4 F370
Y0.4
X22.6
Y9.6
X22.5
X22.481 Y9.594
X22.469 Y9.579
X22.467 Y9.56
X22.5 Y9.4
Y7.799
S5000
Y9.5 Z-2.1 F100
X22.523 Y9.566
X22.524 Y9.582
X22.515 Y9.595
X22.5 Y9.6
S1000
X22.4 F370
Y0.4
X22.6
Y9.6
X22.5
X22.481 Y9.594
X22.469 Y9.579
X22.467 Y9.56
X22.5 Y9.4
Y7.799
S5000
Y9.5 Z-2.4 F100
X22.523 Y9.566
X22.524 Y9.582
X22.515 Y9.595
X22.5 Y9.6
S1000
X22.4 F370
Y0.4
X22.6
Y9.6
X22.5
X22.481 Y9.594
X22.469 Y9.579
X22.467 Y9.56
X22.5 Y9.4
Y7.799
S5000
Y9.5 Z-2.7 F100
X22.523 Y9.566
X22.524 Y9.582
X22.515 Y9.595
X22.5 Y9.6
S1000
X22.4 F370
Y0.4
X22.6
Y9.6
X22.5
X22.481 Y9.594
X22.469 Y9.579
X22.467 Y9.56
X22.5 Y9.4
Y8.366
S5000
Y9.5 Z-2.9 F100
X22.523 Y9.566
X22.524 Y9.582
X22.515 Y9.595
X22.5 Y9.6
S1000
X22.4 F370
Y0.4
X22.6
Y9.6
X22.5
G0 Z15

(2D Pocket1 38)
X24.5 Y9.3
Z15
Z3
G1 Z2.5 F25
S5000
Y9.524 Z2.461 F100
Y5.604 Z1.769
Y9.524 Z1.078
Y5.604 Z0.387
Y9.5 Z-0.3
X24.523 Y9.566
X24.524 Y9.582
X24.515 Y9.595
X24.5 Y9.6
S1000
X24.4 F380
Y0.4
X24.6
Y9.6
X24.5
X24.481 Y9.594
X24.469 Y9.579
X24.467 Y9.56
X24.5 Y9.4
Y7.799
S5000
Y9.5 Z-0.6 F100
X24.523 Y9.566
X24.524 Y9.582
X24.515 Y9.595
X24.5 Y9.6
S1000
X24.4 F380
Y0.4
X24.6
Y9.6
X24.5
X24.481 Y9.594
X24.469 Y9.579
X24.467 Y9.56
X24.5 Y9.4
Y7.799
S5000
Y9.5 Z-0.9 F100
X24.523 Y9.566
X24.524 Y9.582
X24.515 Y9.595
X24.5 Y9.6
S1000
X24.4 F380
Y0.4
X24.6
Y9.6
X24.5
X24.481 Y9.594
X24.469 Y9.579
X24.467 Y9.56
X24.5 Y9.4
Y7.799
S5000
Y9.5 Z-1.2 F100
X24.523 Y9.566
X24.524 Y9.582
X24.515 Y9.595
X24.5 Y9.6
S1000
X24.4 F380
Y0.4
X24.6
Y9.6
X24.5
X24.481 Y9.594
X24.469 Y9.579
X24.467 Y9.56
X24.5 Y9.4
Y7.799
S5000
Y9.5 Z-1.5 F100
X24.523 Y9.566
X24.524 Y9.582
X24.515 Y9.595
X24.5 Y9.6
S1000
X24.4 F380
Y0.4
X24.6
Y9.6
X24.5
X24.481 Y9.594
X24.469 Y9.579
X24.467 Y9.56
X24.5 Y9.4
Y7.799
S5000
Y9.5 Z-1.8 F100
X24.523 Y9.566
X24.524 Y9.582
X24.515 Y9.595
X24.5 Y9.6
S1000
X24.4 F380
Y0.4
X24.6
Y9.6
X24.5
X24.481 Y9.594
X24.469 Y9.579
X24.467 Y9.56
X24.5 Y9.4
Y7.799
S5000
Y9.5 Z-2.1 F100
X24.523 Y9.566
X24.524 Y9.582
X24.515 Y9.595
X24.5 Y9.6
S1000
X24.4 F380
Y0.4
X24.6
Y9.6
X24.5
X24.481 Y9.594
X24.469 Y9.579
X24.467 Y9.56
X24.5 Y9.4
Y7.799
S5000
Y9.5 Z-2.4 F100
X24.523 Y9.566
X24.524 Y9.582
X24.515 Y9.595
X24.5 Y9.6
S1000
X24.4 F380
Y0.4
X24.6
Y9.6
X24.5
X24.481 Y9.594
X24.469 Y9.579
X24.467 Y9.56
X24.5 Y9.4
Y7.799
S5000
Y9.5 Z-2.7 F100
X24.523 Y9.566
X24.524 Y9.582
X24.515 Y9.595
X24.5 Y9.6
S1000
X24.4 F380
Y0.4
X24.6
Y9.6
X24.5
X24.481 Y9.594
X24.469 Y9.579
X24.467 Y9.56
X24.5 Y9.4
Y8.366
S5000
Y9.5 Z-2.9 F100
X24.523 Y9.566
X24.524 Y9.582
X24.515 Y9.595
X24.5 Y9.6
S1000
X24.4 F380
Y0.4
X24.6
Y9.6
X24.5
G0 Z15

(2D Pocket1 39)
X26.5 Y0.7
Z15
Z3
G1 Z2.5 F25
S5000
Y0.476 Z2.461 F100
Y4.396 Z1.769
Y0.476 Z1.078
Y4.396 Z0.387
Y0.5 Z-0.3
X26.477 Y0.434
X26.476 Y0.418
X26.485 Y0.405
X26.5 Y0.4
S1000
X26.6 F390
Y9.6
X26.4
Y0.4
X26.5
X26.519 Y0.406
X26.531 Y0.421
X26.533 Y0.44
X26.5 Y0.6
Y2.201
S5000
Y0.5 Z-0.6 F100
X26.477 Y0.434
X26.476 Y0.418
X26.485 Y0.405
X26.5 Y0.4
S1000
X26.6 F390
Y9.6
X26.4
Y0.4
X26.5
X26.519 Y0.406
X26.531 Y0.421
X26.533 Y0.44
X26.5 Y0.6
Y2.201
S5000
Y0.5 Z-0.9 F100
X26.477 Y0.434
X26.476 Y0.418
X26.485 Y0.405
X26.5 Y0.4
S1000
X26.6 F390
Y9.6
X26.4
Y0.4
X26.5
X26.519 Y0.406
X26.531 Y0.421
X26.533 Y0.44
X26.5 Y0.6
Y2.201
S5000
Y0.5 Z-1.2 F100
X26.477 Y0.434
X26.476 Y0.418
X26.485 Y0.405
X26.5 Y0.4
S1000
X26.6 F390
Y9.6
X26.4
Y0.4
X26.5
X26.519 Y0.406
X26.531 Y0.421
X26.533 Y0.44
X26.5 Y0.6
Y2.201
S5000
Y0.5 Z-1.5 F100
X26.477 Y0.434
X26.476 Y0.418
X26.485 Y0.405
X26.5 Y0.4
S1000
X26.6 F390
Y9.6
X26.4
Y0.4
X26.5
X26.519 Y0.406
X26.531 Y0.421
X26.533 Y0.44
X26.5 Y0.6
Y2.201
S5000
Y0.5 Z-1.8 F100
X26.477 Y0.434
X26.476 Y0.418
X26.485 Y0.405
X26.5 Y0.4
S1000
X26.6 F390
Y9.6
X26.4
Y0.4
X26.5
X26.519 Y0.406
X26.531 Y0.421
X26.533 Y0.44
X26.5 Y0.6
Y2.201
S5000
Y0.5 Z-2.1 F100
X26.477 Y0.434
X26.476 Y0.418
X26.485 Y0.405
X26.5 Y0.4
S1000
X26.6 F390
Y9.6
X26.4
Y0.4
X26.5
X26.519 Y0.406
X26.531 Y0.421
X26.533 Y0.44
X26.5 Y0.6
Y2.201
S5000
Y0.5 Z-2.4 F100
X26.477 Y0.434
X26.476 Y0.418
X26.485 Y0.405
X26.5 Y0.4
S1000
X26.6 F390
Y9.6
X26.4
Y0.4
X26.5
X26.519 Y0.406
X26.531 Y0.421
X26.533 Y0.44
X26.5 Y0.6
Y2.201
S5000
Y0.5 Z-2.7 F100
X26.477 Y0.434
X26.476 Y0.418
X26.485 Y0.405
X26.5 Y0.4
S1000
X26.6 F390
Y9.6
X26.4
Y0.4
X26.5
X26.519 Y0.406
X26.531 Y0.421
X26.533 Y0.44
X26.5 Y0.6
Y1.634
S5000
Y0.5 Z-2.9 F100
X26.477 Y0.434
X26.476 Y0.418
X26.485 Y0.405
X26.5 Y0.4
S1000
X26.6 F390
Y9.6
X26.4
Y0.4
X26.5
G0 Z15

(2D Pocket1 40)
X28.5 Y9.3
Z15
Z3
G1 Z2.5 F25
S5000
Y9.524 Z2.461 F100
Y5.604 Z1.769
Y9.524 Z1.078
Y5.604 Z0.387
Y9.5 Z-0.3
X28.523 Y9.566
X28.524 Y9.582
X28.515 Y9.595
X28.5 Y9.6
S1000
X28.4 F400
Y0.4
X28.6
Y9.6
X28.5
X28.481 Y9.594
X28.469 Y9.579
X28.467 Y9.56
X28.5 Y9.4
Y7.799
S5000
Y9.5 Z-0.6 F100
X28.523 Y9.566
X28.524 Y9.582
X28.515 Y9.595
X28.5 Y9.6
S1000
X28.4 F400
Y0.4
X28.6
Y9.6
X28.5
X28.481 Y9.594
X28.469 Y9.579
X28.467 Y9.56
X28.5 Y9.4
Y7.799
S5000
Y9.5 Z-0.9 F100
X28.523 Y9.566
X28.524 Y9.582
X28.515 Y9.595
X28.5 Y9.6
S1000
X28.4 F400
Y0.4
X28.6
Y9.6
X28.5
X28.481 Y9.594
X28.469 Y9.579
X28.467 Y9.56
X28.5 Y9.4
Y7.799
S5000
Y9.5 Z-1.2 F100
X28.523 Y9.566
X28.524 Y9.582
X28.515 Y9.595
X28.5 Y9.6
S1000
X28.4 F400
Y0.4
X28.6
Y9.6
X28.5
X28.481 Y9.594
X28.469 Y9.579
X28.467 Y9.56
X28.5 Y9.4
Y7.799
S5000
Y9.5 Z-1.5 F100
X28.523 Y9.566
X28.524 Y9.582
X28.515 Y9.595
X28.5 Y9.6
S1000
X28.4 F400
Y0.4
X28.6
Y9.6
X28.5
X28.481 Y9.594
X28.469 Y9.579
X28.467 Y9.56
X28.5 Y9.4
Y7.799
S5000
Y9.5 Z-1.8 F100
X28.523 Y9.566
X28.524 Y9.582
X28.515 Y9.595
X28.5 Y9.6
S1000
X28.4 F400
Y0.4
X28.6
Y9.6
X28.5
X28.481 Y9.594
X28.469 Y9.579
X28.467 Y9.56
X28.5 Y9.4
Y7.799
S5000
Y9.5 Z-2.1 F100
X28.523 Y9.566
X28.524 Y9.582
X28.515 Y9.595
X28.5 Y9.6
S1000
X28.4 F400
Y0.4
X28.6
Y9.6
X28.5
X28.481 Y9.594
X28.469 Y9.579
X28.467 Y9.56
X28.5 Y9.4
Y7.799
S5000
Y9.5 Z-2.4 F100
X28.523 Y9.566
X28.524 Y9.582
X28.515 Y9.595
X28.5 Y9.6
S1000
X28.4 F400
Y0.4
X28.6
Y9.6
X28.5
X28.481 Y9.594
X28.469 Y9.579
X28.467 Y9.56
X28.5 Y9.4
Y7.799
S5000
Y9.5 Z-2.7 F100
X28.523 Y9.566
X28.524 Y9.582
X28.515 Y9.595
X28.5 Y9.6
S1000
X28.4 F400
Y0.4
X28.6
Y9.6
X28.5
X28.481 Y9.594
X28.469 Y9.579
X28.467 Y9.56
X28.5 Y9.4
Y8.366
S5000
Y9.5 Z-2.9 F100
X28.523 Y9.566
X28.524 Y9.582
X28.515 Y9.595
X28.5 Y9.6
S1000
X28.4 F400
Y0.4
X28.6
Y9.6
X28.5
G0 Z15

(2D Pocket1 41)
X30.5 Y9.3
Z15
Z3
G1 Z2.5 F25
S5000
Y9.524 Z2.461 F100
Y5.604 Z1.769
Y9.524 Z1.078
Y5.604 Z0.387
Y9.5 Z-0.3
X30.523 Y9.566
X30.524 Y9.582
X30.515 Y9.595
X30.5 Y9.6
S1000
X30.4 F410
Y0.4
X30.6
Y9.6
X30.5
X30.481 Y9.594
X30.469 Y9.579
X30.467 Y9.56
X30.5 Y9.4
Y7.799
S5000
Y9.5 Z-0.6 F100
X30.523 Y9.566
X30.524 Y9.582
X30.515 Y9.595
X30.5 Y9.6
S1000
X30.4 F410
Y0.4
X30.6
Y9.6
X30.5
X30.481 Y9.594
X30.469 Y9.579
X30.467 Y9.56
X30.5 Y9.4
Y7.799
S5000
Y9.5 Z-0.9 F100
X30.523 Y9.566
X30.524 Y9.582
X30.515 Y9.595
X30.5 Y9.6
S1000
X30.4 F410
Y0.4
X30.6
Y9.6
X30.5
X30.481 Y9.594
X30.469 Y9.579
X30.467 Y9.56
X30.5 Y9.4
Y7.799
S5000
Y9.5 Z-1.2 F100
X30.523 Y9.566
X30.524 Y9.582
X30.515 Y9.595
X30.5 Y9.6
S1000
X30.4 F410
Y0.4
X30.6
Y9.6
X30.5
X30.481 Y9.594
X30.469 Y9.579
X30.467 Y9.56
X30.5 Y9.4
Y7.799
S5000
Y9.5 Z-1.5 F100
X30.523 Y9.566
X30.524 Y9.582
X30.515 Y9.595
X30.5 Y9.6
S1000
X30.4 F410
Y0.4
X30.6
Y9.6
X30.5
X30.481 Y9.594
X30.469 Y9.579
X30.467 Y9.56
X30.5 Y9.4
Y7.799
S5000
Y9.5 Z-1.8 F100
X30.523 Y9.566
X30.524 Y9.582
X30.515 Y9.595
X30.5 Y9.6
S1000
X30.4 F410
Y0.4
X30.6
Y9.6
X30.5
X30.481 Y9.594
X30.469 Y9.579
X30.467 Y9.56
X30.5 Y9.4
Y7.799
S5000
Y9.5 Z-2.1 F100
X30.523 Y9.566
X30.524 Y9.582
X30.515 Y9.595
X30.5 Y9.6
S1000
X30.4 F410
Y0.4
X30.6
Y9.6
X30.5
X30.481 Y9.594
X30.469 Y9.579
X30.467 Y9.56
X30.5 Y9.4
Y7.799
S5000
Y9.5 Z-2.4 F100
X30.523 Y9.566
X30.524 Y9.582
X30.515 Y9.595
X30.5 Y9.6
S1000
X30.4 F410
Y0.4
X30.6
Y9.6
X30.5
X30.481 Y9.594
X30.469 Y9.579
X30.467 Y9.56
X30.5 Y9.4
Y7.799
S5000
Y9.5 Z-2.7 F100
X30.523 Y9.566
X30.524 Y9.582
X30.515 Y9.595
X30.5 Y9.6
S1000
X30.4 F410
Y0.4
X30.6
Y9.6
X30.5
X30.481 Y9.594
X30.469 Y9.579
X30.467 Y9.56
X30.5 Y9.4
Y8.366
S5000
Y9.5 Z-2.9 F100
X30.523 Y9.566
X30.524 Y9.582
X30.515 Y9.595
X30.5 Y9.6
S1000
X30.4 F410
Y0.4
X30.6
Y9.6
X30.5
G0 Z15

(2D Pocket1 42)
X32.5 Y9.3
Z15
Z3
G1 Z2.5 F25
S5000
Y9.524 Z2.461 F100
Y5.604 Z1.769
Y9.524 Z1.078
Y5.604 Z0.387
Y9.5 Z-0.3
X32.523 Y9.566
X32.524 Y9.582
X32.515 Y9.595
X32.5 Y9.6
S1000
X32.4 F420
Y0.4
X32.6
Y9.6
X32.5
X32.481 Y9.594
X32.469 Y9.579
X32.467 Y9.56
X32.5 Y9.4
Y7.799
S5000
Y9.5 Z-0.6 F100
X32.523 Y9.566
X32.524 Y9.582
X32.515 Y9.595
X32.5 Y9.6
S1000
X32.4 F420
Y0.4
X32.6
Y9.6
X32.5
X32.481 Y9.594
X32.469 Y9.579
X32.467 Y9.56
X32.5 Y9.4
Y7.799
S5000
Y9.5 Z-0.9 F100
X32.523 Y9.566
X32.524 Y9.582
X32.515 Y9.595
X32.5 Y9.6
S1000
X32.4 F420
Y0.4
X32.6
Y9.6
X32.5
X32.481 Y9.594
X32.469 Y9.579
X32.467 Y9.56
X32.5 Y9.4
Y7.799
S5000
Y9.5 Z-1.2 F100
X32.523 Y9.566
X32.524 Y9.582
X32.515 Y9.595
X32.5 Y9.6
S1000
X32.4 F420
Y0.4
X32.6
Y9.6
X32.5
X32.481 Y9.594
X32.469 Y9.579
X32.467 Y9.56
X32.5 Y9.4
Y7.799
S5000
Y9.5 Z-1.5 F100
X32.523 Y9.566
X32.524 Y9.582
X32.515 Y9.595
X32.5 Y9.6
S1000
X32.4 F420
Y0.4
X32.6
Y9.6
X32.5
X32.481 Y9.594
X32.469 Y9.579
X32.467 Y9.56
X32.5 Y9.4
Y7.799
S5000
Y9.5 Z-1.8 F100
X32.523 Y9.566
X32.524 Y9.582
X32.515 Y9.595
X32.5 Y9.6
S1000
X32.4 F420
Y0.4
X32.6
Y9.6
X32.5
X32.481 Y9.594
X32.469 Y9.579
X32.467 Y9.56
X32.5 Y9.4
Y7.799
S5000
Y9.5 Z-2.1 F100
X32.523 Y9.566
X32.524 Y9.582
X32.515 Y9.595
X32.5 Y9.6
S1000
X32.4 F420
Y0.4
X32.6
Y9.6
X32.5
X32.481 Y9.594
X32.469 Y9.579
X32.467 Y9.56
X32.5 Y9.4
Y7.799
S5000
Y9.5 Z-2.4 F100
X32.523 Y9.566
X32.524 Y9.582
X32.515 Y9.595
X32.5 Y9.6
S1000
X32.4 F420
Y0.4
X32.6
Y9.6
X32.5
X32.481 Y9.594
X32.469 Y9.579
X32.467 Y9.56
X32.5 Y9.4
Y7.799
S5000
Y9.5 Z-2.7 F100
X32.523 Y9.566
X32.524 Y9.582
X32.515 Y9.595
X32.5 Y9.6
S1000
X32.4 F420
Y0.4
X32.6
Y9.6
X32.5
X32.481 Y9.594
X32.469 Y9.579
X32.467 Y9.56
X32.5 Y9.4
Y8.366
S5000
Y9.5 Z-2.9 F100
X32.523 Y9.566
X32.524 Y9.582
X32.515 Y9.595
X32.5 Y9.6
S1000
X32.4 F420
Y0.4
X32.6
Y9.6
X32.5
G0 Z15

(2D Pocket1 43)
X34.5 Y9.3
Z15
Z3
G1 Z2.5 F25
S5000
Y9.524 Z2.461 F100
Y5.604 Z1.769
Y9.524 Z1.078
Y5.604 Z0.387
Y9.5 Z-0.3
X34.523 Y9.566
X34.524 Y9.582
X34.515 Y9.595
X34.5 Y9.6
S1000
X34.4 F430
Y0.4
X34.6
Y9.6
X34.5
X34.481 Y9.594
X34.469 Y9.579
X34.467 Y9.56
X34.5 Y9.4
Y7.799
S5000
Y9.5 Z-0.6 F100
X34.523 Y9.566
X34.524 Y9.582
X34.515 Y9.595
X34.5 Y9.6
S1000
X34.4 F430
Y0.4
X34.6
Y9.6
X34.5
X34.481 Y9.594
X34.469 Y9.579
X34.467 Y9.56
X34.5 Y9.4
Y7.799
S5000
Y9.5 Z-0.9 F100
X34.523 Y9.566
X34.524 Y9.582
X34.515 Y9.595
X34.5 Y9.6
S1000
X34.4 F430
Y0.4
X34.6
Y9.6
X34.5
X34.481 Y9.594
X34.469 Y9.579
X34.467 Y9.56
X34.5 Y9.4
Y7.799
S5000
Y9.5 Z-1.2 F100
X34.523 Y9.566
X34.524 Y9.582
X34.515 Y9.595
X34.5 Y9.6
S1000
X34.4 F430
Y0.4
X34.6
Y9.6
X34.5
X34.481 Y9.594
X34.469 Y9.579
X34.467 Y9.56
X34.5 Y9.4
Y7.799
S5000
Y9.5 Z-1.5 F100
X34.523 Y9.566
X34.524 Y9.582
X34.515 Y9.595
X34.5 Y9.6
S1000
X34.4 F430
Y0.4
X34.6
Y9.6
X34.5
X34.481 Y9.594
X34.469 Y9.579
X34.467 Y9.56
X34.5 Y9.4
Y7.799
S5000
Y9.5 Z-1.8 F100
X34.523 Y9.566
X34.524 Y9.582
X34.515 Y9.595
X34.5 Y9.6
S1000
X34.4 F430
Y0.4
X34.6
Y9.6
X34.5
X34.481 Y9.594
X34.469 Y9.579
X34.467 Y9.56
X34.5 Y9.4
Y7.799
S5000
Y9.5 Z-2.1 F100
X34.523 Y9.566
X34.524 Y9.582
X34.515 Y9.595
X34.5 Y9.6
S1000
X34.4 F430
Y0.4
X34.6
Y9.6
X34.5
X34.481 Y9.594
X34.469 Y9.579
X34.467 Y9.56
X34.5 Y9.4
Y7.799
S5000
Y9.5 Z-2.4 F100
X34.523 Y9.566
X34.524 Y9.582
X34.515 Y9.595
X34.5 Y9.6
S1000
X34.4 F430
Y0.4
X34.6
Y9.6
X34.5
X34.481 Y9.594
X34.469 Y9.579
X34.467 Y9.56
X34.5 Y9.4
Y7.799
S5000
Y9.5 Z-2.7 F100
X34.523 Y9.566
X34.524 Y9.582
X34.515 Y9.595
X34.5 Y9.6
S1000
X34.4 F430
Y0.4
X34.6
Y9.6
X34.5
X34.481 Y9.594
X34.469 Y9.579
X34.467 Y9.56
X34.5 Y9.4
Y8.366
S5000
Y9.5 Z-2.9 F100
X34.523 Y9.566
X34.524 Y9.582
X34.515 Y9.595
X34.5 Y9.6
S1000
X34.4 F430
Y0.4
X34.6
Y9.6
X34.5
G0 Z15

(2D Pocket1 44)
X36.5 Y9.3
Z15
Z3
G1 Z2.5 F25
S5000
Y9.524 Z2.461 F100
Y5.604 Z1.769
Y9.524 Z1.078
Y5.604 Z0.387
Y9.5 Z-0.3
X36.523 Y9.566
X36.524 Y9.582
X36.515 Y9.595
X36.5 Y9.6
S1000
X36.4 F440
Y0.4
X36.6
Y9.6
X36.5
X36.481 Y9.594
X36.469 Y9.579
X36.467 Y9.56
X36.5 Y9.4
Y7.799
S5000
Y9.5 Z-0.6 F100
X36.523 Y9.566
X36.524 Y9.582
X36.515 Y9.595
X36.5 Y9.6
S1000
X36.4 F440
Y0.4
X36.6
Y9.6
X36.5
X36.481 Y9.594
X36.469 Y9.579
X36.467 Y9.56
X36.5 Y9.4
Y7.799
S5000
Y9.5 Z-0.9 F100
X36.523 Y9.566
X36.524 Y9.582
X36.515 Y9.595
X36.5 Y9.6
S1000
X36.4 F440
Y0.4
X36.6
Y9.6
X36.5
X36.481 Y9.594
X36.469 Y9.579
X36.467 Y9.56
X36.5 Y9.4
Y7.799
S5000
Y9.5 Z-1.2 F100
X36.523 Y9.566
X36.524 Y9.582
X36.515 Y9.595
X36.5 Y9.6
S1000
X36.4 F440
Y0.4
X36.6
Y9.6
X36.5
X36.481 Y9.594
X36.469 Y9.579
X36.467 Y9.56
X36.5 Y9.4
Y7.799
S5000
Y9.5 Z-1.5 F100
X36.523 Y9.566
X36.524 Y9.582
X36.515 Y9.595
X36.5 Y9.6
S1000
X36.4 F440
Y0.4
X36.6
Y9.6
X36.5
X36.481 Y9.594
X36.469 Y9.579
X36.467 Y9.56
X36.5 Y9.4
Y7.799
S5000
Y9.5 Z-1.8 F100
X36.523 Y9.566
X36.524 Y9.582
X36.515 Y9.595
X36.5 Y9.6
S1000
X36.4 F440
Y0.4
X36.6
Y9.6
X36.5
X36.481 Y9.594
X36.469 Y9.579
X36.467 Y9.56
X36.5 Y9.4
Y7.799
S5000
Y9.5 Z-2.1 F100
X36.523 Y9.566
X36.524 Y9.582
X36.515 Y9.595
X36.5 Y9.6
S1000
X36.4 F440
Y0.4
X36.6
Y9.6
X36.5
X36.481 Y9.594
X36.469 Y9.579
X36.467 Y9.56
X36.5 Y9.4
Y7.799
S5000
Y9.5 Z-2.4 F100
X36.523 Y9.566
X36.524 Y9.582
X36.515 Y9.595
X36.5 Y9.6
S1000
X36.4 F440
Y0.4
X36.6
Y9.6
X36.5
X36.481 Y9.594
X36.469 Y9.579
X36.467 Y9.56
X36.5 Y9.4
Y7.799
S5000
Y9.5 Z-2.7 F100
X36.523 Y9.566
X36.524 Y9.582
X36.515 Y9.595
X36.5 Y9.6
S1000
X36.4 F440
Y0.4
X36.6
Y9.6
X36.5
X36.481 Y9.594
X36.469 Y9.579
X36.467 Y9.56
X36.5 Y9.4
Y8.366
S5000
Y9.5 Z-2.9 F100
X36.523 Y9.566
X36.524 Y9.582
X36.515 Y9.595
X36.5 Y9.6
S1000
X36.4 F440
Y0.4
X36.6
Y9.6
X36.5
G0 Z15

(2D Pocket1 45)
X38.5 Y9.3
Z15
Z3
G1 Z2.5 F25
S5000
Y9.524 Z2.461 F100
Y5.604 Z1.769
Y9.524 Z1.078
Y5.604 Z0.387
Y9.5 Z-0.3
X38.523 Y9.566
X38.524 Y9.582
X38.515 Y9.595
X38.5 Y9.6
S1000
X38.4 F450
Y0.4
X38.6
Y9.6
X38.5
X38.481 Y9.594
X38.469 Y9.579
X38.467 Y9.56
X38.5 Y9.4
Y7.799
S5000
Y9.5 Z-0.6 F100
X38.523 Y9.566
X38.524 Y9.582
X38.515 Y9.595
X38.5 Y9.6
S1000
X38.4 F450
Y0.4
X38.6
Y9.6
X38.5
X38.481 Y9.594
X38.469 Y9.579
X38.467 Y9.56
X38.5 Y9.4
Y7.799
S5000
Y9.5 Z-0.9 F100
X38.523 Y9.566
X38.524 Y9.582
X38.515 Y9.595
X38.5 Y9.6
S1000
X38.4 F450
Y0.4
X38.6
Y9.6
X38.5
X38.481 Y9.594
X38.469 Y9.579
X38.467 Y9.56
X38.5 Y9.4
Y7.799
S5000
Y9.5 Z-1.2 F100
X38.523 Y9.566
X38.524 Y9.582
X38.515 Y9.595
X38.5 Y9.6
S1000
X38.4 F450
Y0.4
X38.6
Y9.6
X38.5
X38.481 Y9.594
X38.469 Y9.579
X38.467 Y9.56
X38.5 Y9.4
Y7.799
S5000
Y9.5 Z-1.5 F100
X38.523 Y9.566
X38.524 Y9.582
X38.515 Y9.595
X38.5 Y9.6
S1000
X38.4 F450
Y0.4
X38.6
Y9.6
X38.5
X38.481 Y9.594
X38.469 Y9.579
X38.467 Y9.56
X38.5 Y9.4
Y7.799
S5000
Y9.5 Z-1.8 F100
X38.523 Y9.566
X38.524 Y9.582
X38.515 Y9.595
X38.5 Y9.6
S1000
X38.4 F450
Y0.4
X38.6
Y9.6
X38.5
X38.481 Y9.594
X38.469 Y9.579
X38.467 Y9.56
X38.5 Y9.4
Y7.799
S5000
Y9.5 Z-2.1 F100
X38.523 Y9.566
X38.524 Y9.582
X38.515 Y9.595
X38.5 Y9.6
S1000
X38.4 F450
Y0.4
X38.6
Y9.6
X38.5
X38.481 Y9.594
X38.469 Y9.579
X38.467 Y9.56
X38.5 Y9.4
Y7.799
S5000
Y9.5 Z-2.4 F100
X38.523 Y9.566
X38.524 Y9.582
X38.515 Y9.595
X38.5 Y9.6
S1000
X38.4 F450
Y0.4
X38.6
Y9.6
X38.5
X38.481 Y9.594
X38.469 Y9.579
X38.467 Y9.56
X38.5 Y9.4
Y7.799
S5000
Y9.5 Z-2.7 F100
X38.523 Y9.566
X38.524 Y9.582
X38.515 Y9.595
X38.5 Y9.6
S1000
X38.4 F450
Y0.4
X38.6
Y9.6
X38.5
X38.481 Y9.594
X38.469 Y9.579
X38.467 Y9.56
X38.5 Y9.4
Y8.366
S5000
Y9.5 Z-2.9 F100
X38.523 Y9.566
X38.524 Y9.582
X38.515 Y9.595
X38.5 Y9.6
S1000
X38.4 F450
Y0.4
X38.6
Y9.6
X38.5
G0 Z15

(2D Pocket1 46)
X40.5 Y9.3
Z15
Z3
G1 Z2.5 F25
S5000
Y9.524 Z2.461 F100
Y5.604 Z1.769
Y9.524 Z1.078
Y5.604 Z0.387
Y9.5 Z-0.3
X40.523 Y9.566
X40.524 Y9.582
X40.515 Y9.595
X40.5 Y9.6
S1000
X40.4 F460
Y0.4
X40.6
Y9.6
X40.5
X40.481 Y9.594
X40.469 Y9.579
X40.467 Y9.56
X40.5 Y9.4
Y7.799
S5000
Y9.5 Z-0.6 F100
X40.523 Y9.566
X40.524 Y9.582
X40.515 Y9.595
X40.5 Y9.6
S1000
X40.4 F460
Y0.4
X40.6
Y9.6
X40.5
X40.481 Y9.594
X40.469 Y9.579
X40.467 Y9.56
X40.5 Y9.4
Y7.799
S5000
Y9.5 Z-0.9 F100
X40.523 Y9.566
X40.524 Y9.582
X40.515 Y9.595
X40.5 Y9.6
S1000
X40.4 F460
Y0.4
X40.6
Y9.6
X40.5
X40.481 Y9.594
X40.469 Y9.579
X40.467 Y9.56
X40.5 Y9.4
Y7.799
S5000
Y9.5 Z-1.2 F100
X40.523 Y9.566
X40.524 Y9.582
X40.515 Y9.595
X40.5 Y9.6
S1000
X40.4 F460
Y0.4
X40.6
Y9.6
X40.5
X40.481 Y9.594
X40.469 Y9.579
X40.467 Y9.56
X40.5 Y9.4
Y7.799
S5000
Y9.5 Z-1.5 F100
X40.523 Y9.566
X40.524 Y9.582
X40.515 Y9.595
X40.5 Y9.6
S1000
X40.4 F460
Y0.4
X40.6
Y9.6
X40.5
X40.481 Y9.594
X40.469 Y9.579
X40.467 Y9.56
X40.5 Y9.4
Y7.799
S5000
Y9.5 Z-1.8 F100
X40.523 Y9.566
X40.524 Y9.582
X40.515 Y9.595
X40.5 Y9.6
S1000
X40.4 F460
Y0.4
X40.6
Y9.6
X40.5
X40.481 Y9.594
X40.469 Y9.579
X40.467 Y9.56
X40.5 Y9.4
Y7.799
S5000
Y9.5 Z-2.1 F100
X40.523 Y9.566
X40.524 Y9.582
X40.515 Y9.595
X40.5 Y9.6
S1000
X40.4 F460
Y0.4
X40.6
Y9.6
X40.5
X40.481 Y9.594
X40.469 Y9.579
X40.467 Y9.56
X40.5 Y9.4
Y7.799
S5000
Y9.5 Z-2.4 F100
X40.523 Y9.566
X40.524 Y9.582
X40.515 Y9.595
X40.5 Y9.6
S1000
X40.4 F460
Y0.4
X40.6
Y9.6
X40.5
X40.481 Y9.594
X40.469 Y9.579
X40.467 Y9.56
X40.5 Y9.4
Y7.799
S5000
Y9.5 Z-2.7 F100
X40.523 Y9.566
X40.524 Y9.582
X40.515 Y9.595
X40.5 Y9.6
S1000
X40.4 F460
Y0.4
X40.6
Y9.6
X40.5
X40.481 Y9.594
X40.469 Y9.579
X40.467 Y9.56
X40.5 Y9.4
Y8.366
S5000
Y9.5 Z-2.9 F100
X40.523 Y9.566
X40.524 Y9.582
X40.515 Y9.595
X40.5 Y9.6
S1000
X40.4 F460
Y0.4
X40.6
Y9.6
X40.5
G0 Z15

(2D Pocket1 47)
X42.5 Y9.3
Z15
Z3
G1 Z2.5 F25
S5000
Y9.524 Z2.461 F100
Y5.604 Z1.769
Y9.524 Z1.078
Y5.604 Z0.387
Y9.5 Z-0.3
X42.523 Y9.566
X42.524 Y9.582
X42.515 Y9.595
X42.5 Y9.6
S1000
X42.4 F470
Y0.4
X42.6
Y9.6
X42.5
X42.481 Y9.594
X42.469 Y9.579
X42.467 Y9.56
X42.5 Y9.4
Y7.799
S5000
Y9.5 Z-0.6 F100
X42.523 Y9.566
X42.524 Y9.582
X42.515 Y9.595
X42.5 Y9.6
S1000
X42.4 F470
Y0.4
X42.6
Y9.6
X42.5
X42.481 Y9.594
X42.469 Y9.579
X42.467 Y9.56
X42.5 Y9.4
Y7.799
S5000
Y9.5 Z-0.9 F100
X42.523 Y9.566
X42.524 Y9.582
X42.515 Y9.595
X42.5 Y9.6
S1000
X42.4 F470
Y0.4
X42.6
Y9.6
X42.5
X42.481 Y9.594
X42.469 Y9.579
X42.467 Y9.56
X42.5 Y9.4
Y7.799
S5000
Y9.5 Z-1.2 F100
X42.523 Y9.566
X42.524 Y9.582
X42.515 Y9.595
X42.5 Y9.6
S1000
X42.4 F470
Y0.4
X42.6
Y9.6
X42.5
X42.481 Y9.594
X42.469 Y9.579
X42.467 Y9.56
X42.5 Y9.4
Y7.799
S5000
Y9.5 Z-1.5 F100
X42.523 Y9.566
X42.524 Y9.582
X42.515 Y9.595
X42.5 Y9.6
S1000
X42.4 F470
Y0.4
X42.6
Y9.6
X42.5
X42.481 Y9.594
X42.469 Y9.579
X42.467 Y9.56
X42.5 Y9.4
Y7.799
S5000
Y9.5 Z-1.8 F100
X42.523 Y9.566
X42.524 Y9.582
X42.515 Y9.595
X42.5 Y9.6
S1000
X42.4 F470
Y0.4
X42.6
Y9.6
X42.5
X42.481 Y9.594
X42.469 Y9.579
X42.467 Y9.56
X42.5 Y9.4
Y7.799
S5000
Y9.5 Z-2.1 F100
X42.523 Y9.566
X42.524 Y9.582
X42.515 Y9.595
X42.5 Y9.6
S1000
X42.4 F470
Y0.4
X42.6
Y9.6
X42.5
X42.481 Y9.594
X42.469 Y9.579
X42.467 Y9.56
X42.5 Y9.4
Y7.799
S5000
Y9.5 Z-2.4 F100
X42.523 Y9.566
X42.524 Y9.582
X42.515 Y9.595
X42.5 Y9.6
S1000
X42.4 F470
Y0.4
X42.6
Y9.6
X42.5
X42.481 Y9.594
X42.469 Y9.579
X42.467 Y9.56
X42.5 Y9.4
Y7.799
S5000
Y9.5 Z-2.7 F100
X42.523 Y9.566
X42.524 Y9.582
X42.515 Y9.595
X42.5 Y9.6
S1000
X42.4 F470
Y0.4
X42.6
Y9.6
X42.5
X42.481 Y9.594
X42.469 Y9.579
X42.467 Y9.56
X42.5 Y9.4
Y8.366
S5000
Y9.5 Z-2.9 F100
X42.523 Y9.566
X42.524 Y9.582
X42.515 Y9.595
X42.5 Y9.6
S1000
X42.4 F470
Y0.4
X42.6
Y9.6
X42.5
G0 Z15

(2D Pocket1 48)
X44.5 Y9.3
Z15
Z3
G1 Z2.5 F25
S5000
Y9.524 Z2.461 F100
Y5.604 Z1.769
Y9.524 Z1.078
Y5.604 Z0.387
Y9.5 Z-0.3
X44.523 Y9.566
X44.524 Y9.582
X44.515 Y9.595
X44.5 Y9.6
S1000
X44.4 F480
Y0.4
X44.6
Y9.6
X44.5
X44.481 Y9.594
X44.469 Y9.579
X44.467 Y9.56
X44.5 Y9.4
Y7.799
S5000
Y9.5 Z-0.6 F100
X44.523 Y9.566
X44.524 Y9.582
X44.515 Y9.595
X44.5 Y9.6
S1000
X44.4 F480
Y0.4
X44.6
Y9.6
X44.5
X44.481 Y9.594
X44.469 Y9.579
X44.467 Y9.56
X44.5 Y9.4
Y7.799
S5000
Y9.5 Z-0.9 F100
X44.523 Y9.566
X44.524 Y9.582
X44.515 Y9.595
X44.5 Y9.6
S1000
X44.4 F480
Y0.4
X44.6
Y9.6
X44.5
X44.481 Y9.594
X44.469 Y9.579
X44.467 Y9.56
X44.5 Y9.4
Y7.799
S5000
Y9.5 Z-1.2 F100
X44.523 Y9.566
X44.524 Y9.582
X44.515 Y9.595
X44.5 Y9.6
S1000
X44.4 F480
Y0.4
X44.6
Y9.6
X44.5
X44.481 Y9.594
X44.469 Y9.579
X44.467 Y9.56
X44.5 Y9.4
Y7.799
S5000
Y9.5 Z-1.5 F100
X44.523 Y9.566
X44.524 Y9.582
X44.515 Y9.595
X44.5 Y9.6
S1000
X44.4 F480
Y0.4
X44.6
Y9.6
X44.5
X44.481 Y9.594
X44.469 Y9.579
X44.467 Y9.56
X44.5 Y9.4
Y7.799
S5000
Y9.5 Z-1.8 F100
X44.523 Y9.566
X44.524 Y9.582
X44.515 Y9.595
X44.5 Y9.6
S1000
X44.4 F480
Y0.4
X44.6
Y9.6
X44.5
X44.481 Y9.594
X44.469 Y9.579
X44.467 Y9.56
X44.5 Y9.4
Y7.799
S5000
Y9.5 Z-2.1 F100
X44.523 Y9.566
X44.524 Y9.582
X44.515 Y9.595
X44.5 Y9.6
S1000
X44.4 F480
Y0.4
X44.6
Y9.6
X44.5
X44.481 Y9.594
X44.469 Y9.579
X44.467 Y9.56
X44.5 Y9.4
Y7.799
S5000
Y9.5 Z-2.4 F100
X44.523 Y9.566
X44.524 Y9.582
X44.515 Y9.595
X44.5 Y9.6
S1000
X44.4 F480
Y0.4
X44.6
Y9.6
X44.5
X44.481 Y9.594
X44.469 Y9.579
X44.467 Y9.56
X44.5 Y9.4
Y7.799
S5000
Y9.5 Z-2.7 F100
X44.523 Y9.566
X44.524 Y9.582
X44.515 Y9.595
X44.5 Y9.6
S1000
X44.4 F480
Y0.4
X44.6
Y9.6
X44.5
X44.481 Y9.594
X44.469 Y9.579
X44.467 Y9.56
X44.5 Y9.4
Y8.366
S5000
Y9.5 Z-2.9 F100
X44.523 Y9.566
X44.524 Y9.582
X44.515 Y9.595
X44.5 Y9.6
S1000
X44.4 F480
Y0.4
X44.6
Y9.6
X44.5
G0 Z15

(2D Pocket1 49)
X46.5 Y9.3
Z15
Z3
G1 Z2.5 F25
S5000
Y9.524 Z2.461 F100
Y5.604 Z1.769
Y9.524 Z1.078
Y5.604 Z0.387
Y9.5 Z-0.3
X46.523 Y9.566
X46.524 Y9.582
X46.515 Y9.595
X46.5 Y9.6
S1000
X46.4 F490
Y0.4
X46.6
Y9.6
X46.5
X46.481 Y9.594
X46.469 Y9.579
X46.467 Y9.56
X46.5 Y9.4
Y7.799
S5000
Y9.5 Z-0.6 F100
X46.523 Y9.566
X46.524 Y9.582
X46.515 Y9.595
X46.5 Y9.6
S1000
X46.4 F490
Y0.4
X46.6
Y9.6
X46.5
X46.481 Y9.594
X46.469 Y9.579
X46.467 Y9.56
X46.5 Y9.4
Y7.799
S5000
Y9.5 Z-0.9 F100
X46.523 Y9.566
X46.524 Y9.582
X46.515 Y9.595
X46.5 Y9.6
S1000
X46.4 F490
Y0.4
X46.6
Y9.6
X46.5
X46.481 Y9.594
X46.469 Y9.579
X46.467 Y9.56
X46.5 Y9.4
Y7.799
S5000
Y9.5 Z-1.2 F100
X46.523 Y9.566
X46.524 Y9.582
X46.515 Y9.595
X46.5 Y9.6
S1000
X46.4 F490
Y0.4
X46.6
Y9.6
X46.5
X46.481 Y9.594
X46.469 Y9.579
X46.467 Y9.56
X46.5 Y9.4
Y7.799
S5000
Y9.5 Z-1.5 F100
X46.523 Y9.566
X46.524 Y9.582
X46.515 Y9.595
X46.5 Y9.6
S1000
X46.4 F490
Y0.4
X46.6
Y9.6
X46.5
X46.481 Y9.594
X46.469 Y9.579
X46.467 Y9.56
X46.5 Y9.4
Y7.799
S5000
Y9.5 Z-1.8 F100
X46.523 Y9.566
X46.524 Y9.582
X46.515 Y9.595
X46.5 Y9.6
S1000
X46.4 F490
Y0.4
X46.6
Y9.6
X46.5
X46.481 Y9.594
X46.469 Y9.579
X46.467 Y9.56
X46.5 Y9.4
Y7.799
S5000
Y9.5 Z-2.1 F100
X46.523 Y9.566
X46.524 Y9.582
X46.515 Y9.595
X46.5 Y9.6
S1000
X46.4 F490
Y0.4
X46.6
Y9.6
X46.5
X46.481 Y9.594
X46.469 Y9.579
X46.467 Y9.56
X46.5 Y9.4
Y7.799
S5000
Y9.5 Z-2.4 F100
X46.523 Y9.566
X46.524 Y9.582
X46.515 Y9.595
X46.5 Y9.6
S1000
X46.4 F490
Y0.4
X46.6
Y9.6
X46.5
X46.481 Y9.594
X46.469 Y9.579
X46.467 Y9.56
X46.5 Y9.4
Y7.799
S5000
Y9.5 Z-2.7 F100
X46.523 Y9.566
X46.524 Y9.582
X46.515 Y9.595
X46.5 Y9.6
S1000
X46.4 F490
Y0.4
X46.6
Y9.6
X46.5
X46.481 Y9.594
X46.469 Y9.579
X46.467 Y9.56
X46.5 Y9.4
Y8.366
S5000
Y9.5 Z-2.9 F100
X46.523 Y9.566
X46.524 Y9.582
X46.515 Y9.595
X46.5 Y9.6
S1000
X46.4 F490
Y0.4
X46.6
Y9.6
X46.5
G0 Z15

(2D Pocket1 50)
X48.5 Y9.3
Z15
Z3
G1 Z2.5 F25
S5000
Y9.524 Z2.461 F100
Y5.604 Z1.769
Y9.524 Z1.078
Y5.604 Z0.387
Y9.5 Z-0.3
X48.523 Y9.566
X48.524 Y9.582
X48.515 Y9.595
X48.5 Y9.6
S1000
X48.4 F500
Y0.4
X48.6
Y9.6
X48.5
X48.481 Y9.594
X48.469 Y9.579
X48.467 Y9.56
X48.5 Y9.4
Y7.799
S5000
Y9.5 Z-0.6 F100
X48.523 Y9.566
X48.524 Y9.582
X48.515 Y9.595
X48.5 Y9.6
S1000
X48.4 F500
Y0.4
X48.6
Y9.6
X48.5
X48.481 Y9.594
X48.469 Y9.579
X48.467 Y9.56
X48.5 Y9.4
Y7.799
S5000
Y9.5 Z-0.9 F100
X48.523 Y9.566
X48.524 Y9.582
X48.515 Y9.595
X48.5 Y9.6
S1000
X48.4 F500
Y0.4
X48.6
Y9.6
X48.5
X48.481 Y9.594
X48.469 Y9.579
X48.467 Y9.56
X48.5 Y9.4
Y7.799
S5000
Y9.5 Z-1.2 F100
X48.523 Y9.566
X48.524 Y9.582
X48.515 Y9.595
X48.5 Y9.6
S1000
X48.4 F500
Y0.4
X48.6
Y9.6
X48.5
X48.481 Y9.594
X48.469 Y9.579
X48.467 Y9.56
X48.5 Y9.4
Y7.799
S5000
Y9.5 Z-1.5 F100
X48.523 Y9.566
X48.524 Y9.582
X48.515 Y9.595
X48.5 Y9.6
S1000
X48.4 F500
Y0.4
X48.6
Y9.6
X48.5
X48.481 Y9.594
X48.469 Y9.579
X48.467 Y9.56
X48.5 Y9.4
Y7.799
S5000
Y9.5 Z-1.8 F100
X48.523 Y9.566
X48.524 Y9.582
X48.515 Y9.595
X48.5 Y9.6
S1000
X48.4 F500
Y0.4
X48.6
Y9.6
X48.5
X48.481 Y9.594
X48.469 Y9.579
X48.467 Y9.56
X48.5 Y9.4
Y7.799
S5000
Y9.5 Z-2.1 F100
X48.523 Y9.566
X48.524 Y9.582
X48.515 Y9.595
X48.5 Y9.6
S1000
X48.4 F500
Y0.4
X48.6
Y9.6
X48.5
X48.481 Y9.594
X48.469 Y9.579
X48.467 Y9.56
X48.5 Y9.4
Y7.799
S5000
Y9.5 Z-2.4 F100
X48.523 Y9.566
X48.524 Y9.582
X48.515 Y9.595
X48.5 Y9.6
S1000
X48.4 F500
Y0.4
X48.6
Y9.6
X48.5
X48.481 Y9.594
X48.469 Y9.579
X48.467 Y9.56
X48.5 Y9.4
Y7.799
S5000
Y9.5 Z-2.7 F100
X48.523 Y9.566
X48.524 Y9.582
X48.515 Y9.595
X48.5 Y9.6
S1000
X48.4 F500
Y0.4
X48.6
Y9.6
X48.5
X48.481 Y9.594
X48.469 Y9.579
X48.467 Y9.56
X48.5 Y9.4
Y8.366
S5000
Y9.5 Z-2.9 F100
X48.523 Y9.566
X48.524 Y9.582
X48.515 Y9.595
X48.5 Y9.6
S1000
X48.4 F500
Y0.4
X48.6
Y9.6
X48.5
G0 Z15
M9
M5
M30
