(1001)
(T1  D=0.8 CR=0 - ZMIN=-2.9 - flat end mill)
G90 G94
G17
G21

(2D Pocket1)
T1
S1000 M3
G54
M8
G0 X-24 Y-2.718
Z15
Z3
G1 Z2.5 F25
S5000
Y-4.524 Z2.437 F10
Y-0.604 Z2.3
Y-4.524 Z2.163
Y-0.604 Z2.026
Y-4.524 Z1.889
Y-0.604 Z1.753
Y-4.524 Z1.616
Y-0.604 Z1.479
Y-4.524 Z1.342
Y-0.604 Z1.205
Y-4.524 Z1.068
Y-0.604 Z0.931
Y-4.524 Z0.794
Y-0.604 Z0.657
Y-4.524 Z0.52
Y-0.604 Z0.384
Y-4.524 Z0.247
Y-0.604 Z0.11
Y-4.524 Z-0.027
Y-0.604 Z-0.164
Y-4.5 Z-0.3
X-24.002 Y-4.509
X-24.023 Y-4.566
X-24.024 Y-4.582
X-24.015 Y-4.595
X-24 Y-4.6
S1000
X-23.9
Y4.6
X-24.1
Y-4.6
X-24
X-23.981 Y-4.594
X-23.969 Y-4.579
X-23.967 Y-4.56
X-23.999 Y-4.407
X-24 Y-4.4
Y-3.749
S5000
Y-4.524 Z-0.327
Y-0.604 Z-0.464
Y-4.5 Z-0.6
X-24.002 Y-4.509
X-24.023 Y-4.566
X-24.024 Y-4.582
X-24.015 Y-4.595
X-24 Y-4.6
S1000
X-23.9
Y4.6
X-24.1
Y-4.6
X-24
X-23.981 Y-4.594
X-23.969 Y-4.579
X-23.967 Y-4.56
X-23.999 Y-4.407
X-24 Y-4.4
Y-3.749
S5000
Y-4.524 Z-0.627
Y-0.604 Z-0.764
Y-4.5 Z-0.9
X-24.002 Y-4.509
X-24.023 Y-4.566
X-24.024 Y-4.582
X-24.015 Y-4.595
X-24 Y-4.6
S1000
X-23.9
Y4.6
X-24.1
Y-4.6
X-24
X-23.981 Y-4.594
X-23.969 Y-4.579
X-23.967 Y-4.56
X-23.999 Y-4.407
X-24 Y-4.4
Y-3.749
S5000
Y-4.524 Z-0.927
Y-0.604 Z-1.064
Y-4.5 Z-1.2
X-24.002 Y-4.509
X-24.023 Y-4.566
X-24.024 Y-4.582
X-24.015 Y-4.595
X-24 Y-4.6
S1000
X-23.9
Y4.6
X-24.1
Y-4.6
X-24
X-23.981 Y-4.594
X-23.969 Y-4.579
X-23.967 Y-4.56
X-23.999 Y-4.407
X-24 Y-4.4
Y-3.749
S5000
Y-4.524 Z-1.227
Y-0.604 Z-1.364
Y-4.5 Z-1.5
X-24.002 Y-4.509
X-24.023 Y-4.566
X-24.024 Y-4.582
X-24.015 Y-4.595
X-24 Y-4.6
S1000
X-23.9
Y4.6
X-24.1
Y-4.6
X-24
X-23.981 Y-4.594
X-23.969 Y-4.579
X-23.967 Y-4.56
X-23.999 Y-4.407
X-24 Y-4.4
Y-3.749
S5000
Y-4.524 Z-1.527
Y-0.604 Z-1.664
Y-4.5 Z-1.8
X-24.002 Y-4.509
X-24.023 Y-4.566
X-24.024 Y-4.582
X-24.015 Y-4.595
X-24 Y-4.6
S1000
X-23.9
Y4.6
X-24.1
Y-4.6
X-24
X-23.981 Y-4.594
X-23.969 Y-4.579
X-23.967 Y-4.56
X-23.999 Y-4.407
X-24 Y-4.4
Y-3.749
S5000
Y-4.524 Z-1.827
Y-0.604 Z-1.964
Y-4.5 Z-2.1
X-24.002 Y-4.509
X-24.023 Y-4.566
X-24.024 Y-4.582
X-24.015 Y-4.595
X-24 Y-4.6
S1000
X-23.9
Y4.6
X-24.1
Y-4.6
X-24
X-23.981 Y-4.594
X-23.969 Y-4.579
X-23.967 Y-4.56
X-23.999 Y-4.407
X-24 Y-4.4
Y-3.749
S5000
Y-4.524 Z-2.127
Y-0.604 Z-2.264
Y-4.5 Z-2.4
X-24.002 Y-4.509
X-24.023 Y-4.566
X-24.024 Y-4.582
X-24.015 Y-4.595
X-24 Y-4.6
S1000
X-23.9
Y4.6
X-24.1
Y-4.6
X-24
X-23.981 Y-4.594
X-23.969 Y-4.579
X-23.967 Y-4.56
X-23.999 Y-4.407
X-24 Y-4.4
Y-3.749
S5000
Y-4.524 Z-2.427
Y-0.604 Z-2.564
Y-4.5 Z-2.7
X-24.002 Y-4.509
X-24.023 Y-4.566
X-24.024 Y-4.582
X-24.015 Y-4.595
X-24 Y-4.6
S1000
X-23.9
Y4.6
X-24.1
Y-4.6
X-24
X-23.981 Y-4.594
X-23.969 Y-4.579
X-23.967 Y-4.56
X-23.999 Y-4.407
X-24 Y-4.4
Y-2.435
S5000
Y-0.604 Z-2.764
Y-4.5 Z-2.9
X-24.002 Y-4.509
X-24.023 Y-4.566
X-24.024 Y-4.582
X-24.015 Y-4.595
X-24 Y-4.6
S1000
X-23.9
Y4.6
X-24.1
Y-4.6
X-24
G0 Z15

(2D Pocket1 2)
X-22 Y-2.718
Z15
Z3
G1 Z2.5 F25
S5000
Y-4.524 Z2.437 F10
Y-0.604 Z2.3
Y-4.524 Z2.163
Y-0.604 Z2.026
Y-4.524 Z1.889
Y-0.604 Z1.753
Y-4.524 Z1.616
Y-0.604 Z1.479
Y-4.524 Z1.342
Y-0.604 Z1.205
Y-4.524 Z1.068
Y-0.604 Z0.931
Y-4.524 Z0.794
Y-0.604 Z0.657
Y-4.524 Z0.52
Y-0.604 Z0.384
Y-4.524 Z0.247
Y-0.604 Z0.11
Y-4.524 Z-0.027
Y-0.604 Z-0.164
Y-4.5 Z-0.3
X-22.002 Y-4.509
X-22.023 Y-4.566
X-22.024 Y-4.582
X-22.015 Y-4.595
X-22 Y-4.6
S1000
X-21.9 F20
Y4.6
X-22.1
Y-4.6
X-22
X-21.981 Y-4.594
X-21.969 Y-4.579
X-21.967 Y-4.56
X-21.999 Y-4.407
X-22 Y-4.4
Y-3.749
S5000
Y-4.524 Z-0.327 F10
Y-0.604 Z-0.464
Y-4.5 Z-0.6
X-22.002 Y-4.509
X-22.023 Y-4.566
X-22.024 Y-4.582
X-22.015 Y-4.595
X-22 Y-4.6
S1000
X-21.9 F20
Y4.6
X-22.1
Y-4.6
X-22
X-21.981 Y-4.594
X-21.969 Y-4.579
X-21.967 Y-4.56
X-21.999 Y-4.407
X-22 Y-4.4
Y-3.749
S5000
Y-4.524 Z-0.627 F10
Y-0.604 Z-0.764
Y-4.5 Z-0.9
X-22.002 Y-4.509
X-22.023 Y-4.566
X-22.024 Y-4.582
X-22.015 Y-4.595
X-22 Y-4.6
S1000
X-21.9 F20
Y4.6
X-22.1
Y-4.6
X-22
X-21.981 Y-4.594
X-21.969 Y-4.579
X-21.967 Y-4.56
X-21.999 Y-4.407
X-22 Y-4.4
Y-3.749
S5000
Y-4.524 Z-0.927 F10
Y-0.604 Z-1.064
Y-4.5 Z-1.2
X-22.002 Y-4.509
X-22.023 Y-4.566
X-22.024 Y-4.582
X-22.015 Y-4.595
X-22 Y-4.6
S1000
X-21.9 F20
Y4.6
X-22.1
Y-4.6
X-22
X-21.981 Y-4.594
X-21.969 Y-4.579
X-21.967 Y-4.56
X-21.999 Y-4.407
X-22 Y-4.4
Y-3.749
S5000
Y-4.524 Z-1.227 F10
Y-0.604 Z-1.364
Y-4.5 Z-1.5
X-22.002 Y-4.509
X-22.023 Y-4.566
X-22.024 Y-4.582
X-22.015 Y-4.595
X-22 Y-4.6
S1000
X-21.9 F20
Y4.6
X-22.1
Y-4.6
X-22
X-21.981 Y-4.594
X-21.969 Y-4.579
X-21.967 Y-4.56
X-21.999 Y-4.407
X-22 Y-4.4
Y-3.749
S5000
Y-4.524 Z-1.527 F10
Y-0.604 Z-1.664
Y-4.5 Z-1.8
X-22.002 Y-4.509
X-22.023 Y-4.566
X-22.024 Y-4.582
X-22.015 Y-4.595
X-22 Y-4.6
S1000
X-21.9 F20
Y4.6
X-22.1
Y-4.6
X-22
X-21.981 Y-4.594
X-21.969 Y-4.579
X-21.967 Y-4.56
X-21.999 Y-4.407
X-22 Y-4.4
Y-3.749
S5000
Y-4.524 Z-1.827 F10
Y-0.604 Z-1.964
Y-4.5 Z-2.1
X-22.002 Y-4.509
X-22.023 Y-4.566
X-22.024 Y-4.582
X-22.015 Y-4.595
X-22 Y-4.6
S1000
X-21.9 F20
Y4.6
X-22.1
Y-4.6
X-22
X-21.981 Y-4.594
X-21.969 Y-4.579
X-21.967 Y-4.56
X-21.999 Y-4.407
X-22 Y-4.4
Y-3.749
S5000
Y-4.524 Z-2.127 F10
Y-0.604 Z-2.264
Y-4.5 Z-2.4
X-22.002 Y-4.509
X-22.023 Y-4.566
X-22.024 Y-4.582
X-22.015 Y-4.595
X-22 Y-4.6
S1000
X-21.9 F20
Y4.6
X-22.1
Y-4.6
X-22
X-21.981 Y-4.594
X-21.969 Y-4.579
X-21.967 Y-4.56
X-21.999 Y-4.407
X-22 Y-4.4
Y-3.749
S5000
Y-4.524 Z-2.427 F10
Y-0.604 Z-2.564
Y-4.5 Z-2.7
X-22.002 Y-4.509
X-22.023 Y-4.566
X-22.024 Y-4.582
X-22.015 Y-4.595
X-22 Y-4.6
S1000
X-21.9 F20
Y4.6
X-22.1
Y-4.6
X-22
X-21.981 Y-4.594
X-21.969 Y-4.579
X-21.967 Y-4.56
X-21.999 Y-4.407
X-22 Y-4.4
Y-2.435
S5000
Y-0.604 Z-2.764 F10
Y-4.5 Z-2.9
X-22.002 Y-4.509
X-22.023 Y-4.566
X-22.024 Y-4.582
X-22.015 Y-4.595
X-22 Y-4.6
S1000
X-21.9 F20
Y4.6
X-22.1
Y-4.6
X-22
G0 Z15

(2D Pocket1 3)
X-20 Y-2.718
Z15
Z3
G1 Z2.5 F25
S5000
Y-4.524 Z2.437 F10
Y-0.604 Z2.3
Y-4.524 Z2.163
Y-0.604 Z2.026
Y-4.524 Z1.889
Y-0.604 Z1.753
Y-4.524 Z1.616
Y-0.604 Z1.479
Y-4.524 Z1.342
Y-0.604 Z1.205
Y-4.524 Z1.068
Y-0.604 Z0.931
Y-4.524 Z0.794
Y-0.604 Z0.657
Y-4.524 Z0.52
Y-0.604 Z0.384
Y-4.524 Z0.247
Y-0.604 Z0.11
Y-4.524 Z-0.027
Y-0.604 Z-0.164
Y-4.5 Z-0.3
X-20.002 Y-4.509
X-20.023 Y-4.566
X-20.024 Y-4.582
X-20.015 Y-4.595
X-20 Y-4.6
S1000
X-19.9 F30
Y4.6
X-20.1
Y-4.6
X-20
X-19.981 Y-4.594
X-19.969 Y-4.579
X-19.967 Y-4.56
X-19.999 Y-4.407
X-20 Y-4.4
Y-3.749
S5000
Y-4.524 Z-0.327 F10
Y-0.604 Z-0.464
Y-4.5 Z-0.6
X-20.002 Y-4.509
X-20.023 Y-4.566
X-20.024 Y-4.582
X-20.015 Y-4.595
X-20 Y-4.6
S1000
X-19.9 F30
Y4.6
X-20.1
Y-4.6
X-20
X-19.981 Y-4.594
X-19.969 Y-4.579
X-19.967 Y-4.56
X-19.999 Y-4.407
X-20 Y-4.4
Y-3.749
S5000
Y-4.524 Z-0.627 F10
Y-0.604 Z-0.764
Y-4.5 Z-0.9
X-20.002 Y-4.509
X-20.023 Y-4.566
X-20.024 Y-4.582
X-20.015 Y-4.595
X-20 Y-4.6
S1000
X-19.9 F30
Y4.6
X-20.1
Y-4.6
X-20
X-19.981 Y-4.594
X-19.969 Y-4.579
X-19.967 Y-4.56
X-19.999 Y-4.407
X-20 Y-4.4
Y-3.749
S5000
Y-4.524 Z-0.927 F10
Y-0.604 Z-1.064
Y-4.5 Z-1.2
X-20.002 Y-4.509
X-20.023 Y-4.566
X-20.024 Y-4.582
X-20.015 Y-4.595
X-20 Y-4.6
S1000
X-19.9 F30
Y4.6
X-20.1
Y-4.6
X-20
X-19.981 Y-4.594
X-19.969 Y-4.579
X-19.967 Y-4.56
X-19.999 Y-4.407
X-20 Y-4.4
Y-3.749
S5000
Y-4.524 Z-1.227 F10
Y-0.604 Z-1.364
Y-4.5 Z-1.5
X-20.002 Y-4.509
X-20.023 Y-4.566
X-20.024 Y-4.582
X-20.015 Y-4.595
X-20 Y-4.6
S1000
X-19.9 F30
Y4.6
X-20.1
Y-4.6
X-20
X-19.981 Y-4.594
X-19.969 Y-4.579
X-19.967 Y-4.56
X-19.999 Y-4.407
X-20 Y-4.4
Y-3.749
S5000
Y-4.524 Z-1.527 F10
Y-0.604 Z-1.664
Y-4.5 Z-1.8
X-20.002 Y-4.509
X-20.023 Y-4.566
X-20.024 Y-4.582
X-20.015 Y-4.595
X-20 Y-4.6
S1000
X-19.9 F30
Y4.6
X-20.1
Y-4.6
X-20
X-19.981 Y-4.594
X-19.969 Y-4.579
X-19.967 Y-4.56
X-19.999 Y-4.407
X-20 Y-4.4
Y-3.749
S5000
Y-4.524 Z-1.827 F10
Y-0.604 Z-1.964
Y-4.5 Z-2.1
X-20.002 Y-4.509
X-20.023 Y-4.566
X-20.024 Y-4.582
X-20.015 Y-4.595
X-20 Y-4.6
S1000
X-19.9 F30
Y4.6
X-20.1
Y-4.6
X-20
X-19.981 Y-4.594
X-19.969 Y-4.579
X-19.967 Y-4.56
X-19.999 Y-4.407
X-20 Y-4.4
Y-3.749
S5000
Y-4.524 Z-2.127 F10
Y-0.604 Z-2.264
Y-4.5 Z-2.4
X-20.002 Y-4.509
X-20.023 Y-4.566
X-20.024 Y-4.582
X-20.015 Y-4.595
X-20 Y-4.6
S1000
X-19.9 F30
Y4.6
X-20.1
Y-4.6
X-20
X-19.981 Y-4.594
X-19.969 Y-4.579
X-19.967 Y-4.56
X-19.999 Y-4.407
X-20 Y-4.4
Y-3.749
S5000
Y-4.524 Z-2.427 F10
Y-0.604 Z-2.564
Y-4.5 Z-2.7
X-20.002 Y-4.509
X-20.023 Y-4.566
X-20.024 Y-4.582
X-20.015 Y-4.595
X-20 Y-4.6
S1000
X-19.9 F30
Y4.6
X-20.1
Y-4.6
X-20
X-19.981 Y-4.594
X-19.969 Y-4.579
X-19.967 Y-4.56
X-19.999 Y-4.407
X-20 Y-4.4
Y-2.435
S5000
Y-0.604 Z-2.764 F10
Y-4.5 Z-2.9
X-20.002 Y-4.509
X-20.023 Y-4.566
X-20.024 Y-4.582
X-20.015 Y-4.595
X-20 Y-4.6
S1000
X-19.9 F30
Y4.6
X-20.1
Y-4.6
X-20
G0 Z15

(2D Pocket1 4)
X-18 Y-2.718
Z15
Z3
G1 Z2.5 F25
S5000
Y-4.524 Z2.437 F10
Y-0.604 Z2.3
Y-4.524 Z2.163
Y-0.604 Z2.026
Y-4.524 Z1.889
Y-0.604 Z1.753
Y-4.524 Z1.616
Y-0.604 Z1.479
Y-4.524 Z1.342
Y-0.604 Z1.205
Y-4.524 Z1.068
Y-0.604 Z0.931
Y-4.524 Z0.794
Y-0.604 Z0.657
Y-4.524 Z0.52
Y-0.604 Z0.384
Y-4.524 Z0.247
Y-0.604 Z0.11
Y-4.524 Z-0.027
Y-0.604 Z-0.164
Y-4.5 Z-0.3
X-18.002 Y-4.509
X-18.023 Y-4.566
X-18.024 Y-4.582
X-18.015 Y-4.595
X-18 Y-4.6
S1000
X-17.9 F40
Y4.6
X-18.1
Y-4.6
X-18
X-17.981 Y-4.594
X-17.969 Y-4.579
X-17.967 Y-4.56
X-17.999 Y-4.407
X-18 Y-4.4
Y-3.749
S5000
Y-4.524 Z-0.327 F10
Y-0.604 Z-0.464
Y-4.5 Z-0.6
X-18.002 Y-4.509
X-18.023 Y-4.566
X-18.024 Y-4.582
X-18.015 Y-4.595
X-18 Y-4.6
S1000
X-17.9 F40
Y4.6
X-18.1
Y-4.6
X-18
X-17.981 Y-4.594
X-17.969 Y-4.579
X-17.967 Y-4.56
X-17.999 Y-4.407
X-18 Y-4.4
Y-3.749
S5000
Y-4.524 Z-0.627 F10
Y-0.604 Z-0.764
Y-4.5 Z-0.9
X-18.002 Y-4.509
X-18.023 Y-4.566
X-18.024 Y-4.582
X-18.015 Y-4.595
X-18 Y-4.6
S1000
X-17.9 F40
Y4.6
X-18.1
Y-4.6
X-18
X-17.981 Y-4.594
X-17.969 Y-4.579
X-17.967 Y-4.56
X-17.999 Y-4.407
X-18 Y-4.4
Y-3.749
S5000
Y-4.524 Z-0.927 F10
Y-0.604 Z-1.064
Y-4.5 Z-1.2
X-18.002 Y-4.509
X-18.023 Y-4.566
X-18.024 Y-4.582
X-18.015 Y-4.595
X-18 Y-4.6
S1000
X-17.9 F40
Y4.6
X-18.1
Y-4.6
X-18
X-17.981 Y-4.594
X-17.969 Y-4.579
X-17.967 Y-4.56
X-17.999 Y-4.407
X-18 Y-4.4
Y-3.749
S5000
Y-4.524 Z-1.227 F10
Y-0.604 Z-1.364
Y-4.5 Z-1.5
X-18.002 Y-4.509
X-18.023 Y-4.566
X-18.024 Y-4.582
X-18.015 Y-4.595
X-18 Y-4.6
S1000
X-17.9 F40
Y4.6
X-18.1
Y-4.6
X-18
X-17.981 Y-4.594
X-17.969 Y-4.579
X-17.967 Y-4.56
X-17.999 Y-4.407
X-18 Y-4.4
Y-3.749
S5000
Y-4.524 Z-1.527 F10
Y-0.604 Z-1.664
Y-4.5 Z-1.8
X-18.002 Y-4.509
X-18.023 Y-4.566
X-18.024 Y-4.582
X-18.015 Y-4.595
X-18 Y-4.6
S1000
X-17.9 F40
Y4.6
X-18.1
Y-4.6
X-18
X-17.981 Y-4.594
X-17.969 Y-4.579
X-17.967 Y-4.56
X-17.999 Y-4.407
X-18 Y-4.4
Y-3.749
S5000
Y-4.524 Z-1.827 F10
Y-0.604 Z-1.964
Y-4.5 Z-2.1
X-18.002 Y-4.509
X-18.023 Y-4.566
X-18.024 Y-4.582
X-18.015 Y-4.595
X-18 Y-4.6
S1000
X-17.9 F40
Y4.6
X-18.1
Y-4.6
X-18
X-17.981 Y-4.594
X-17.969 Y-4.579
X-17.967 Y-4.56
X-17.999 Y-4.407
X-18 Y-4.4
Y-3.749
S5000
Y-4.524 Z-2.127 F10
Y-0.604 Z-2.264
Y-4.5 Z-2.4
X-18.002 Y-4.509
X-18.023 Y-4.566
X-18.024 Y-4.582
X-18.015 Y-4.595
X-18 Y-4.6
S1000
X-17.9 F40
Y4.6
X-18.1
Y-4.6
X-18
X-17.981 Y-4.594
X-17.969 Y-4.579
X-17.967 Y-4.56
X-17.999 Y-4.407
X-18 Y-4.4
Y-3.749
S5000
Y-4.524 Z-2.427 F10
Y-0.604 Z-2.564
Y-4.5 Z-2.7
X-18.002 Y-4.509
X-18.023 Y-4.566
X-18.024 Y-4.582
X-18.015 Y-4.595
X-18 Y-4.6
S1000
X-17.9 F40
Y4.6
X-18.1
Y-4.6
X-18
X-17.981 Y-4.594
X-17.969 Y-4.579
X-17.967 Y-4.56
X-17.999 Y-4.407
X-18 Y-4.4
Y-2.435
S5000
Y-0.604 Z-2.764 F10
Y-4.5 Z-2.9
X-18.002 Y-4.509
X-18.023 Y-4.566
X-18.024 Y-4.582
X-18.015 Y-4.595
X-18 Y-4.6
S1000
X-17.9 F40
Y4.6
X-18.1
Y-4.6
X-18
G0 Z15

(2D Pocket1 5)
X-16 Y-2.718
Z15
Z3
G1 Z2.5 F25
S5000
Y-4.524 Z2.437 F10
Y-0.604 Z2.3
Y-4.524 Z2.163
Y-0.604 Z2.026
Y-4.524 Z1.889
Y-0.604 Z1.753
Y-4.524 Z1.616
Y-0.604 Z1.479
Y-4.524 Z1.342
Y-0.604 Z1.205
Y-4.524 Z1.068
Y-0.604 Z0.931
Y-4.524 Z0.794
Y-0.604 Z0.657
Y-4.524 Z0.52
Y-0.604 Z0.384
Y-4.524 Z0.247
Y-0.604 Z0.11
Y-4.524 Z-0.027
Y-0.604 Z-0.164
Y-4.5 Z-0.3
X-16.002 Y-4.509
X-16.023 Y-4.566
X-16.024 Y-4.582
X-16.015 Y-4.595
X-16 Y-4.6
S1000
X-15.9 F50
Y4.6
X-16.1
Y-4.6
X-16
X-15.981 Y-4.594
X-15.969 Y-4.579
X-15.967 Y-4.56
X-15.999 Y-4.407
X-16 Y-4.4
Y-3.749
S5000
Y-4.524 Z-0.327 F10
Y-0.604 Z-0.464
Y-4.5 Z-0.6
X-16.002 Y-4.509
X-16.023 Y-4.566
X-16.024 Y-4.582
X-16.015 Y-4.595
X-16 Y-4.6
S1000
X-15.9 F50
Y4.6
X-16.1
Y-4.6
X-16
X-15.981 Y-4.594
X-15.969 Y-4.579
X-15.967 Y-4.56
X-15.999 Y-4.407
X-16 Y-4.4
Y-3.749
S5000
Y-4.524 Z-0.627 F10
Y-0.604 Z-0.764
Y-4.5 Z-0.9
X-16.002 Y-4.509
X-16.023 Y-4.566
X-16.024 Y-4.582
X-16.015 Y-4.595
X-16 Y-4.6
S1000
X-15.9 F50
Y4.6
X-16.1
Y-4.6
X-16
X-15.981 Y-4.594
X-15.969 Y-4.579
X-15.967 Y-4.56
X-15.999 Y-4.407
X-16 Y-4.4
Y-3.749
S5000
Y-4.524 Z-0.927 F10
Y-0.604 Z-1.064
Y-4.5 Z-1.2
X-16.002 Y-4.509
X-16.023 Y-4.566
X-16.024 Y-4.582
X-16.015 Y-4.595
X-16 Y-4.6
S1000
X-15.9 F50
Y4.6
X-16.1
Y-4.6
X-16
X-15.981 Y-4.594
X-15.969 Y-4.579
X-15.967 Y-4.56
X-15.999 Y-4.407
X-16 Y-4.4
Y-3.749
S5000
Y-4.524 Z-1.227 F10
Y-0.604 Z-1.364
Y-4.5 Z-1.5
X-16.002 Y-4.509
X-16.023 Y-4.566
X-16.024 Y-4.582
X-16.015 Y-4.595
X-16 Y-4.6
S1000
X-15.9 F50
Y4.6
X-16.1
Y-4.6
X-16
X-15.981 Y-4.594
X-15.969 Y-4.579
X-15.967 Y-4.56
X-15.999 Y-4.407
X-16 Y-4.4
Y-3.749
S5000
Y-4.524 Z-1.527 F10
Y-0.604 Z-1.664
Y-4.5 Z-1.8
X-16.002 Y-4.509
X-16.023 Y-4.566
X-16.024 Y-4.582
X-16.015 Y-4.595
X-16 Y-4.6
S1000
X-15.9 F50
Y4.6
X-16.1
Y-4.6
X-16
X-15.981 Y-4.594
X-15.969 Y-4.579
X-15.967 Y-4.56
X-15.999 Y-4.407
X-16 Y-4.4
Y-3.749
S5000
Y-4.524 Z-1.827 F10
Y-0.604 Z-1.964
Y-4.5 Z-2.1
X-16.002 Y-4.509
X-16.023 Y-4.566
X-16.024 Y-4.582
X-16.015 Y-4.595
X-16 Y-4.6
S1000
X-15.9 F50
Y4.6
X-16.1
Y-4.6
X-16
X-15.981 Y-4.594
X-15.969 Y-4.579
X-15.967 Y-4.56
X-15.999 Y-4.407
X-16 Y-4.4
Y-3.749
S5000
Y-4.524 Z-2.127 F10
Y-0.604 Z-2.264
Y-4.5 Z-2.4
X-16.002 Y-4.509
X-16.023 Y-4.566
X-16.024 Y-4.582
X-16.015 Y-4.595
X-16 Y-4.6
S1000
X-15.9 F50
Y4.6
X-16.1
Y-4.6
X-16
X-15.981 Y-4.594
X-15.969 Y-4.579
X-15.967 Y-4.56
X-15.999 Y-4.407
X-16 Y-4.4
Y-3.749
S5000
Y-4.524 Z-2.427 F10
Y-0.604 Z-2.564
Y-4.5 Z-2.7
X-16.002 Y-4.509
X-16.023 Y-4.566
X-16.024 Y-4.582
X-16.015 Y-4.595
X-16 Y-4.6
S1000
X-15.9 F50
Y4.6
X-16.1
Y-4.6
X-16
X-15.981 Y-4.594
X-15.969 Y-4.579
X-15.967 Y-4.56
X-15.999 Y-4.407
X-16 Y-4.4
Y-2.435
S5000
Y-0.604 Z-2.764 F10
Y-4.5 Z-2.9
X-16.002 Y-4.509
X-16.023 Y-4.566
X-16.024 Y-4.582
X-16.015 Y-4.595
X-16 Y-4.6
S1000
X-15.9 F50
Y4.6
X-16.1
Y-4.6
X-16
G0 Z15

(2D Pocket1 6)
X-14 Y-2.718
Z15
Z3
G1 Z2.5 F25
S5000
Y-4.524 Z2.437 F10
Y-0.604 Z2.3
Y-4.524 Z2.163
Y-0.604 Z2.026
Y-4.524 Z1.889
Y-0.604 Z1.753
Y-4.524 Z1.616
Y-0.604 Z1.479
Y-4.524 Z1.342
Y-0.604 Z1.205
Y-4.524 Z1.068
Y-0.604 Z0.931
Y-4.524 Z0.794
Y-0.604 Z0.657
Y-4.524 Z0.52
Y-0.604 Z0.384
Y-4.524 Z0.247
Y-0.604 Z0.11
Y-4.524 Z-0.027
Y-0.604 Z-0.164
Y-4.5 Z-0.3
X-14.002 Y-4.509
X-14.023 Y-4.566
X-14.024 Y-4.582
X-14.015 Y-4.595
X-14 Y-4.6
S1000
X-13.9 F60
Y4.6
X-14.1
Y-4.6
X-14
X-13.981 Y-4.594
X-13.969 Y-4.579
X-13.967 Y-4.56
X-13.999 Y-4.407
X-14 Y-4.4
Y-3.749
S5000
Y-4.524 Z-0.327 F10
Y-0.604 Z-0.464
Y-4.5 Z-0.6
X-14.002 Y-4.509
X-14.023 Y-4.566
X-14.024 Y-4.582
X-14.015 Y-4.595
X-14 Y-4.6
S1000
X-13.9 F60
Y4.6
X-14.1
Y-4.6
X-14
X-13.981 Y-4.594
X-13.969 Y-4.579
X-13.967 Y-4.56
X-13.999 Y-4.407
X-14 Y-4.4
Y-3.749
S5000
Y-4.524 Z-0.627 F10
Y-0.604 Z-0.764
Y-4.5 Z-0.9
X-14.002 Y-4.509
X-14.023 Y-4.566
X-14.024 Y-4.582
X-14.015 Y-4.595
X-14 Y-4.6
S1000
X-13.9 F60
Y4.6
X-14.1
Y-4.6
X-14
X-13.981 Y-4.594
X-13.969 Y-4.579
X-13.967 Y-4.56
X-13.999 Y-4.407
X-14 Y-4.4
Y-3.749
S5000
Y-4.524 Z-0.927 F10
Y-0.604 Z-1.064
Y-4.5 Z-1.2
X-14.002 Y-4.509
X-14.023 Y-4.566
X-14.024 Y-4.582
X-14.015 Y-4.595
X-14 Y-4.6
S1000
X-13.9 F60
Y4.6
X-14.1
Y-4.6
X-14
X-13.981 Y-4.594
X-13.969 Y-4.579
X-13.967 Y-4.56
X-13.999 Y-4.407
X-14 Y-4.4
Y-3.749
S5000
Y-4.524 Z-1.227 F10
Y-0.604 Z-1.364
Y-4.5 Z-1.5
X-14.002 Y-4.509
X-14.023 Y-4.566
X-14.024 Y-4.582
X-14.015 Y-4.595
X-14 Y-4.6
S1000
X-13.9 F60
Y4.6
X-14.1
Y-4.6
X-14
X-13.981 Y-4.594
X-13.969 Y-4.579
X-13.967 Y-4.56
X-13.999 Y-4.407
X-14 Y-4.4
Y-3.749
S5000
Y-4.524 Z-1.527 F10
Y-0.604 Z-1.664
Y-4.5 Z-1.8
X-14.002 Y-4.509
X-14.023 Y-4.566
X-14.024 Y-4.582
X-14.015 Y-4.595
X-14 Y-4.6
S1000
X-13.9 F60
Y4.6
X-14.1
Y-4.6
X-14
X-13.981 Y-4.594
X-13.969 Y-4.579
X-13.967 Y-4.56
X-13.999 Y-4.407
X-14 Y-4.4
Y-3.749
S5000
Y-4.524 Z-1.827 F10
Y-0.604 Z-1.964
Y-4.5 Z-2.1
X-14.002 Y-4.509
X-14.023 Y-4.566
X-14.024 Y-4.582
X-14.015 Y-4.595
X-14 Y-4.6
S1000
X-13.9 F60
Y4.6
X-14.1
Y-4.6
X-14
X-13.981 Y-4.594
X-13.969 Y-4.579
X-13.967 Y-4.56
X-13.999 Y-4.407
X-14 Y-4.4
Y-3.749
S5000
Y-4.524 Z-2.127 F10
Y-0.604 Z-2.264
Y-4.5 Z-2.4
X-14.002 Y-4.509
X-14.023 Y-4.566
X-14.024 Y-4.582
X-14.015 Y-4.595
X-14 Y-4.6
S1000
X-13.9 F60
Y4.6
X-14.1
Y-4.6
X-14
X-13.981 Y-4.594
X-13.969 Y-4.579
X-13.967 Y-4.56
X-13.999 Y-4.407
X-14 Y-4.4
Y-3.749
S5000
Y-4.524 Z-2.427 F10
Y-0.604 Z-2.564
Y-4.5 Z-2.7
X-14.002 Y-4.509
X-14.023 Y-4.566
X-14.024 Y-4.582
X-14.015 Y-4.595
X-14 Y-4.6
S1000
X-13.9 F60
Y4.6
X-14.1
Y-4.6
X-14
X-13.981 Y-4.594
X-13.969 Y-4.579
X-13.967 Y-4.56
X-13.999 Y-4.407
X-14 Y-4.4
Y-2.435
S5000
Y-0.604 Z-2.764 F10
Y-4.5 Z-2.9
X-14.002 Y-4.509
X-14.023 Y-4.566
X-14.024 Y-4.582
X-14.015 Y-4.595
X-14 Y-4.6
S1000
X-13.9 F60
Y4.6
X-14.1
Y-4.6
X-14
G0 Z15

(2D Pocket1 7)
X-12 Y-2.718
Z15
Z3
G1 Z2.5 F25
S5000
Y-4.524 Z2.437 F10
Y-0.604 Z2.3
Y-4.524 Z2.163
Y-0.604 Z2.026
Y-4.524 Z1.889
Y-0.604 Z1.753
Y-4.524 Z1.616
Y-0.604 Z1.479
Y-4.524 Z1.342
Y-0.604 Z1.205
Y-4.524 Z1.068
Y-0.604 Z0.931
Y-4.524 Z0.794
Y-0.604 Z0.657
Y-4.524 Z0.52
Y-0.604 Z0.384
Y-4.524 Z0.247
Y-0.604 Z0.11
Y-4.524 Z-0.027
Y-0.604 Z-0.164
Y-4.5 Z-0.3
X-12.002 Y-4.509
X-12.023 Y-4.566
X-12.024 Y-4.582
X-12.015 Y-4.595
X-12 Y-4.6
S1000
X-11.9 F70
Y4.6
X-12.1
Y-4.6
X-12
X-11.981 Y-4.594
X-11.969 Y-4.579
X-11.967 Y-4.56
X-11.999 Y-4.407
X-12 Y-4.4
Y-3.749
S5000
Y-4.524 Z-0.327 F10
Y-0.604 Z-0.464
Y-4.5 Z-0.6
X-12.002 Y-4.509
X-12.023 Y-4.566
X-12.024 Y-4.582
X-12.015 Y-4.595
X-12 Y-4.6
S1000
X-11.9 F70
Y4.6
X-12.1
Y-4.6
X-12
X-11.981 Y-4.594
X-11.969 Y-4.579
X-11.967 Y-4.56
X-11.999 Y-4.407
X-12 Y-4.4
Y-3.749
S5000
Y-4.524 Z-0.627 F10
Y-0.604 Z-0.764
Y-4.5 Z-0.9
X-12.002 Y-4.509
X-12.023 Y-4.566
X-12.024 Y-4.582
X-12.015 Y-4.595
X-12 Y-4.6
S1000
X-11.9 F70
Y4.6
X-12.1
Y-4.6
X-12
X-11.981 Y-4.594
X-11.969 Y-4.579
X-11.967 Y-4.56
X-11.999 Y-4.407
X-12 Y-4.4
Y-3.749
S5000
Y-4.524 Z-0.927 F10
Y-0.604 Z-1.064
Y-4.5 Z-1.2
X-12.002 Y-4.509
X-12.023 Y-4.566
X-12.024 Y-4.582
X-12.015 Y-4.595
X-12 Y-4.6
S1000
X-11.9 F70
Y4.6
X-12.1
Y-4.6
X-12
X-11.981 Y-4.594
X-11.969 Y-4.579
X-11.967 Y-4.56
X-11.999 Y-4.407
X-12 Y-4.4
Y-3.749
S5000
Y-4.524 Z-1.227 F10
Y-0.604 Z-1.364
Y-4.5 Z-1.5
X-12.002 Y-4.509
X-12.023 Y-4.566
X-12.024 Y-4.582
X-12.015 Y-4.595
X-12 Y-4.6
S1000
X-11.9 F70
Y4.6
X-12.1
Y-4.6
X-12
X-11.981 Y-4.594
X-11.969 Y-4.579
X-11.967 Y-4.56
X-11.999 Y-4.407
X-12 Y-4.4
Y-3.749
S5000
Y-4.524 Z-1.527 F10
Y-0.604 Z-1.664
Y-4.5 Z-1.8
X-12.002 Y-4.509
X-12.023 Y-4.566
X-12.024 Y-4.582
X-12.015 Y-4.595
X-12 Y-4.6
S1000
X-11.9 F70
Y4.6
X-12.1
Y-4.6
X-12
X-11.981 Y-4.594
X-11.969 Y-4.579
X-11.967 Y-4.56
X-11.999 Y-4.407
X-12 Y-4.4
Y-3.749
S5000
Y-4.524 Z-1.827 F10
Y-0.604 Z-1.964
Y-4.5 Z-2.1
X-12.002 Y-4.509
X-12.023 Y-4.566
X-12.024 Y-4.582
X-12.015 Y-4.595
X-12 Y-4.6
S1000
X-11.9 F70
Y4.6
X-12.1
Y-4.6
X-12
X-11.981 Y-4.594
X-11.969 Y-4.579
X-11.967 Y-4.56
X-11.999 Y-4.407
X-12 Y-4.4
Y-3.749
S5000
Y-4.524 Z-2.127 F10
Y-0.604 Z-2.264
Y-4.5 Z-2.4
X-12.002 Y-4.509
X-12.023 Y-4.566
X-12.024 Y-4.582
X-12.015 Y-4.595
X-12 Y-4.6
S1000
X-11.9 F70
Y4.6
X-12.1
Y-4.6
X-12
X-11.981 Y-4.594
X-11.969 Y-4.579
X-11.967 Y-4.56
X-11.999 Y-4.407
X-12 Y-4.4
Y-3.749
S5000
Y-4.524 Z-2.427 F10
Y-0.604 Z-2.564
Y-4.5 Z-2.7
X-12.002 Y-4.509
X-12.023 Y-4.566
X-12.024 Y-4.582
X-12.015 Y-4.595
X-12 Y-4.6
S1000
X-11.9 F70
Y4.6
X-12.1
Y-4.6
X-12
X-11.981 Y-4.594
X-11.969 Y-4.579
X-11.967 Y-4.56
X-11.999 Y-4.407
X-12 Y-4.4
Y-2.435
S5000
Y-0.604 Z-2.764 F10
Y-4.5 Z-2.9
X-12.002 Y-4.509
X-12.023 Y-4.566
X-12.024 Y-4.582
X-12.015 Y-4.595
X-12 Y-4.6
S1000
X-11.9 F70
Y4.6
X-12.1
Y-4.6
X-12
G0 Z15

(2D Pocket1 8)
X-10 Y-2.718
Z15
Z3
G1 Z2.5 F25
S5000
Y-4.524 Z2.437 F10
Y-0.604 Z2.3
Y-4.524 Z2.163
Y-0.604 Z2.026
Y-4.524 Z1.889
Y-0.604 Z1.753
Y-4.524 Z1.616
Y-0.604 Z1.479
Y-4.524 Z1.342
Y-0.604 Z1.205
Y-4.524 Z1.068
Y-0.604 Z0.931
Y-4.524 Z0.794
Y-0.604 Z0.657
Y-4.524 Z0.52
Y-0.604 Z0.384
Y-4.524 Z0.247
Y-0.604 Z0.11
Y-4.524 Z-0.027
Y-0.604 Z-0.164
Y-4.5 Z-0.3
X-10.002 Y-4.509
X-10.023 Y-4.566
X-10.024 Y-4.582
X-10.015 Y-4.595
X-10 Y-4.6
S1000
X-9.9 F80
Y4.6
X-10.1
Y-4.6
X-10
X-9.981 Y-4.594
X-9.969 Y-4.579
X-9.967 Y-4.56
X-9.999 Y-4.407
X-10 Y-4.4
Y-3.749
S5000
Y-4.524 Z-0.327 F10
Y-0.604 Z-0.464
Y-4.5 Z-0.6
X-10.002 Y-4.509
X-10.023 Y-4.566
X-10.024 Y-4.582
X-10.015 Y-4.595
X-10 Y-4.6
S1000
X-9.9 F80
Y4.6
X-10.1
Y-4.6
X-10
X-9.981 Y-4.594
X-9.969 Y-4.579
X-9.967 Y-4.56
X-9.999 Y-4.407
X-10 Y-4.4
Y-3.749
S5000
Y-4.524 Z-0.627 F10
Y-0.604 Z-0.764
Y-4.5 Z-0.9
X-10.002 Y-4.509
X-10.023 Y-4.566
X-10.024 Y-4.582
X-10.015 Y-4.595
X-10 Y-4.6
S1000
X-9.9 F80
Y4.6
X-10.1
Y-4.6
X-10
X-9.981 Y-4.594
X-9.969 Y-4.579
X-9.967 Y-4.56
X-9.999 Y-4.407
X-10 Y-4.4
Y-3.749
S5000
Y-4.524 Z-0.927 F10
Y-0.604 Z-1.064
Y-4.5 Z-1.2
X-10.002 Y-4.509
X-10.023 Y-4.566
X-10.024 Y-4.582
X-10.015 Y-4.595
X-10 Y-4.6
S1000
X-9.9 F80
Y4.6
X-10.1
Y-4.6
X-10
X-9.981 Y-4.594
X-9.969 Y-4.579
X-9.967 Y-4.56
X-9.999 Y-4.407
X-10 Y-4.4
Y-3.749
S5000
Y-4.524 Z-1.227 F10
Y-0.604 Z-1.364
Y-4.5 Z-1.5
X-10.002 Y-4.509
X-10.023 Y-4.566
X-10.024 Y-4.582
X-10.015 Y-4.595
X-10 Y-4.6
S1000
X-9.9 F80
Y4.6
X-10.1
Y-4.6
X-10
X-9.981 Y-4.594
X-9.969 Y-4.579
X-9.967 Y-4.56
X-9.999 Y-4.407
X-10 Y-4.4
Y-3.749
S5000
Y-4.524 Z-1.527 F10
Y-0.604 Z-1.664
Y-4.5 Z-1.8
X-10.002 Y-4.509
X-10.023 Y-4.566
X-10.024 Y-4.582
X-10.015 Y-4.595
X-10 Y-4.6
S1000
X-9.9 F80
Y4.6
X-10.1
Y-4.6
X-10
X-9.981 Y-4.594
X-9.969 Y-4.579
X-9.967 Y-4.56
X-9.999 Y-4.407
X-10 Y-4.4
Y-3.749
S5000
Y-4.524 Z-1.827 F10
Y-0.604 Z-1.964
Y-4.5 Z-2.1
X-10.002 Y-4.509
X-10.023 Y-4.566
X-10.024 Y-4.582
X-10.015 Y-4.595
X-10 Y-4.6
S1000
X-9.9 F80
Y4.6
X-10.1
Y-4.6
X-10
X-9.981 Y-4.594
X-9.969 Y-4.579
X-9.967 Y-4.56
X-9.999 Y-4.407
X-10 Y-4.4
Y-3.749
S5000
Y-4.524 Z-2.127 F10
Y-0.604 Z-2.264
Y-4.5 Z-2.4
X-10.002 Y-4.509
X-10.023 Y-4.566
X-10.024 Y-4.582
X-10.015 Y-4.595
X-10 Y-4.6
S1000
X-9.9 F80
Y4.6
X-10.1
Y-4.6
X-10
X-9.981 Y-4.594
X-9.969 Y-4.579
X-9.967 Y-4.56
X-9.999 Y-4.407
X-10 Y-4.4
Y-3.749
S5000
Y-4.524 Z-2.427 F10
Y-0.604 Z-2.564
Y-4.5 Z-2.7
X-10.002 Y-4.509
X-10.023 Y-4.566
X-10.024 Y-4.582
X-10.015 Y-4.595
X-10 Y-4.6
S1000
X-9.9 F80
Y4.6
X-10.1
Y-4.6
X-10
X-9.981 Y-4.594
X-9.969 Y-4.579
X-9.967 Y-4.56
X-9.999 Y-4.407
X-10 Y-4.4
Y-2.435
S5000
Y-0.604 Z-2.764 F10
Y-4.5 Z-2.9
X-10.002 Y-4.509
X-10.023 Y-4.566
X-10.024 Y-4.582
X-10.015 Y-4.595
X-10 Y-4.6
S1000
X-9.9 F80
Y4.6
X-10.1
Y-4.6
X-10
G0 Z15

(2D Pocket1 9)
X-8 Y-2.718
Z15
Z3
G1 Z2.5 F25
S5000
Y-4.524 Z2.437 F10
Y-0.604 Z2.3
Y-4.524 Z2.163
Y-0.604 Z2.026
Y-4.524 Z1.889
Y-0.604 Z1.753
Y-4.524 Z1.616
Y-0.604 Z1.479
Y-4.524 Z1.342
Y-0.604 Z1.205
Y-4.524 Z1.068
Y-0.604 Z0.931
Y-4.524 Z0.794
Y-0.604 Z0.657
Y-4.524 Z0.52
Y-0.604 Z0.384
Y-4.524 Z0.247
Y-0.604 Z0.11
Y-4.524 Z-0.027
Y-0.604 Z-0.164
Y-4.5 Z-0.3
X-7.993 Y-4.525
X-7.975 Y-4.543
X-7.95 Y-4.55
X-7.925 Y-4.543
X-7.907 Y-4.525
X-7.9 Y-4.5
S1000
Y4.6 F90
X-8.1
Y-4.6
X-7.9
Y-4.5
X-7.904 Y-4.484
X-7.916 Y-4.472
X-7.984 Y-4.428
X-7.996 Y-4.416
X-8 Y-4.4
Y-3.749
S5000
Y-4.524 Z-0.327 F10
Y-0.604 Z-0.464
Y-4.5 Z-0.6
X-7.993 Y-4.525
X-7.975 Y-4.543
X-7.95 Y-4.55
X-7.925 Y-4.543
X-7.907 Y-4.525
X-7.9 Y-4.5
S1000
Y4.6 F90
X-8.1
Y-4.6
X-7.9
Y-4.5
X-7.904 Y-4.484
X-7.916 Y-4.472
X-7.984 Y-4.428
X-7.996 Y-4.416
X-8 Y-4.4
Y-3.749
S5000
Y-4.524 Z-0.627 F10
Y-0.604 Z-0.764
Y-4.5 Z-0.9
X-7.993 Y-4.525
X-7.975 Y-4.543
X-7.95 Y-4.55
X-7.925 Y-4.543
X-7.907 Y-4.525
X-7.9 Y-4.5
S1000
Y4.6 F90
X-8.1
Y-4.6
X-7.9
Y-4.5
X-7.904 Y-4.484
X-7.916 Y-4.472
X-7.984 Y-4.428
X-7.996 Y-4.416
X-8 Y-4.4
Y-3.749
S5000
Y-4.524 Z-0.927 F10
Y-0.604 Z-1.064
Y-4.5 Z-1.2
X-7.993 Y-4.525
X-7.975 Y-4.543
X-7.95 Y-4.55
X-7.925 Y-4.543
X-7.907 Y-4.525
X-7.9 Y-4.5
S1000
Y4.6 F90
X-8.1
Y-4.6
X-7.9
Y-4.5
X-7.904 Y-4.484
X-7.916 Y-4.472
X-7.984 Y-4.428
X-7.996 Y-4.416
X-8 Y-4.4
Y-3.749
S5000
Y-4.524 Z-1.227 F10
Y-0.604 Z-1.364
Y-4.5 Z-1.5
X-7.993 Y-4.525
X-7.975 Y-4.543
X-7.95 Y-4.55
X-7.925 Y-4.543
X-7.907 Y-4.525
X-7.9 Y-4.5
S1000
Y4.6 F90
X-8.1
Y-4.6
X-7.9
Y-4.5
X-7.904 Y-4.484
X-7.916 Y-4.472
X-7.984 Y-4.428
X-7.996 Y-4.416
X-8 Y-4.4
Y-3.749
S5000
Y-4.524 Z-1.527 F10
Y-0.604 Z-1.664
Y-4.5 Z-1.8
X-7.993 Y-4.525
X-7.975 Y-4.543
X-7.95 Y-4.55
X-7.925 Y-4.543
X-7.907 Y-4.525
X-7.9 Y-4.5
S1000
Y4.6 F90
X-8.1
Y-4.6
X-7.9
Y-4.5
X-7.904 Y-4.484
X-7.916 Y-4.472
X-7.984 Y-4.428
X-7.996 Y-4.416
X-8 Y-4.4
Y-3.749
S5000
Y-4.524 Z-1.827 F10
Y-0.604 Z-1.964
Y-4.5 Z-2.1
X-7.993 Y-4.525
X-7.975 Y-4.543
X-7.95 Y-4.55
X-7.925 Y-4.543
X-7.907 Y-4.525
X-7.9 Y-4.5
S1000
Y4.6 F90
X-8.1
Y-4.6
X-7.9
Y-4.5
X-7.904 Y-4.484
X-7.916 Y-4.472
X-7.984 Y-4.428
X-7.996 Y-4.416
X-8 Y-4.4
Y-3.749
S5000
Y-4.524 Z-2.127 F10
Y-0.604 Z-2.264
Y-4.5 Z-2.4
X-7.993 Y-4.525
X-7.975 Y-4.543
X-7.95 Y-4.55
X-7.925 Y-4.543
X-7.907 Y-4.525
X-7.9 Y-4.5
S1000
Y4.6 F90
X-8.1
Y-4.6
X-7.9
Y-4.5
X-7.904 Y-4.484
X-7.916 Y-4.472
X-7.984 Y-4.428
X-7.996 Y-4.416
X-8 Y-4.4
Y-3.749
S5000
Y-4.524 Z-2.427 F10
Y-0.604 Z-2.564
Y-4.5 Z-2.7
X-7.993 Y-4.525
X-7.975 Y-4.543
X-7.95 Y-4.55
X-7.925 Y-4.543
X-7.907 Y-4.525
X-7.9 Y-4.5
S1000
Y4.6 F90
X-8.1
Y-4.6
X-7.9
Y-4.5
X-7.904 Y-4.484
X-7.916 Y-4.472
X-7.984 Y-4.428
X-7.996 Y-4.416
X-8 Y-4.4
Y-2.435
S5000
Y-0.604 Z-2.764 F10
Y-4.5 Z-2.9
X-7.993 Y-4.525
X-7.975 Y-4.543
X-7.95 Y-4.55
X-7.925 Y-4.543
X-7.907 Y-4.525
X-7.9 Y-4.5
S1000
Y4.6 F90
X-8.1
Y-4.6
X-7.9
Y-4.5
G0 Z15

(2D Pocket1 10)
X-6 Y-2.718
Z15
Z3
G1 Z2.5 F25
S5000
Y-4.524 Z2.437 F10
Y-0.604 Z2.3
Y-4.524 Z2.163
Y-0.604 Z2.026
Y-4.524 Z1.889
Y-0.604 Z1.753
Y-4.524 Z1.616
Y-0.604 Z1.479
Y-4.524 Z1.342
Y-0.604 Z1.205
Y-4.524 Z1.068
Y-0.604 Z0.931
Y-4.524 Z0.794
Y-0.604 Z0.657
Y-4.524 Z0.52
Y-0.604 Z0.384
Y-4.524 Z0.247
Y-0.604 Z0.11
Y-4.524 Z-0.027
Y-0.604 Z-0.164
Y-4.5 Z-0.3
X-6.002 Y-4.509
X-6.023 Y-4.566
X-6.024 Y-4.582
X-6.015 Y-4.595
X-6 Y-4.6
S1000
X-5.9 F100
Y4.6
X-6.1
Y-4.6
X-6
X-5.981 Y-4.594
X-5.969 Y-4.579
X-5.967 Y-4.56
X-5.999 Y-4.407
X-6 Y-4.4
Y-3.749
S5000
Y-4.524 Z-0.327 F10
Y-0.604 Z-0.464
Y-4.5 Z-0.6
X-6.002 Y-4.509
X-6.023 Y-4.566
X-6.024 Y-4.582
X-6.015 Y-4.595
X-6 Y-4.6
S1000
X-5.9 F100
Y4.6
X-6.1
Y-4.6
X-6
X-5.981 Y-4.594
X-5.969 Y-4.579
X-5.967 Y-4.56
X-5.999 Y-4.407
X-6 Y-4.4
Y-3.749
S5000
Y-4.524 Z-0.627 F10
Y-0.604 Z-0.764
Y-4.5 Z-0.9
X-6.002 Y-4.509
X-6.023 Y-4.566
X-6.024 Y-4.582
X-6.015 Y-4.595
X-6 Y-4.6
S1000
X-5.9 F100
Y4.6
X-6.1
Y-4.6
X-6
X-5.981 Y-4.594
X-5.969 Y-4.579
X-5.967 Y-4.56
X-5.999 Y-4.407
X-6 Y-4.4
Y-3.749
S5000
Y-4.524 Z-0.927 F10
Y-0.604 Z-1.064
Y-4.5 Z-1.2
X-6.002 Y-4.509
X-6.023 Y-4.566
X-6.024 Y-4.582
X-6.015 Y-4.595
X-6 Y-4.6
S1000
X-5.9 F100
Y4.6
X-6.1
Y-4.6
X-6
X-5.981 Y-4.594
X-5.969 Y-4.579
X-5.967 Y-4.56
X-5.999 Y-4.407
X-6 Y-4.4
Y-3.749
S5000
Y-4.524 Z-1.227 F10
Y-0.604 Z-1.364
Y-4.5 Z-1.5
X-6.002 Y-4.509
X-6.023 Y-4.566
X-6.024 Y-4.582
X-6.015 Y-4.595
X-6 Y-4.6
S1000
X-5.9 F100
Y4.6
X-6.1
Y-4.6
X-6
X-5.981 Y-4.594
X-5.969 Y-4.579
X-5.967 Y-4.56
X-5.999 Y-4.407
X-6 Y-4.4
Y-3.749
S5000
Y-4.524 Z-1.527 F10
Y-0.604 Z-1.664
Y-4.5 Z-1.8
X-6.002 Y-4.509
X-6.023 Y-4.566
X-6.024 Y-4.582
X-6.015 Y-4.595
X-6 Y-4.6
S1000
X-5.9 F100
Y4.6
X-6.1
Y-4.6
X-6
X-5.981 Y-4.594
X-5.969 Y-4.579
X-5.967 Y-4.56
X-5.999 Y-4.407
X-6 Y-4.4
Y-3.749
S5000
Y-4.524 Z-1.827 F10
Y-0.604 Z-1.964
Y-4.5 Z-2.1
X-6.002 Y-4.509
X-6.023 Y-4.566
X-6.024 Y-4.582
X-6.015 Y-4.595
X-6 Y-4.6
S1000
X-5.9 F100
Y4.6
X-6.1
Y-4.6
X-6
X-5.981 Y-4.594
X-5.969 Y-4.579
X-5.967 Y-4.56
X-5.999 Y-4.407
X-6 Y-4.4
Y-3.749
S5000
Y-4.524 Z-2.127 F10
Y-0.604 Z-2.264
Y-4.5 Z-2.4
X-6.002 Y-4.509
X-6.023 Y-4.566
X-6.024 Y-4.582
X-6.015 Y-4.595
X-6 Y-4.6
S1000
X-5.9 F100
Y4.6
X-6.1
Y-4.6
X-6
X-5.981 Y-4.594
X-5.969 Y-4.579
X-5.967 Y-4.56
X-5.999 Y-4.407
X-6 Y-4.4
Y-3.749
S5000
Y-4.524 Z-2.427 F10
Y-0.604 Z-2.564
Y-4.5 Z-2.7
X-6.002 Y-4.509
X-6.023 Y-4.566
X-6.024 Y-4.582
X-6.015 Y-4.595
X-6 Y-4.6
S1000
X-5.9 F100
Y4.6
X-6.1
Y-4.6
X-6
X-5.981 Y-4.594
X-5.969 Y-4.579
X-5.967 Y-4.56
X-5.999 Y-4.407
X-6 Y-4.4
Y-2.435
S5000
Y-0.604 Z-2.764 F10
Y-4.5 Z-2.9
X-6.002 Y-4.509
X-6.023 Y-4.566
X-6.024 Y-4.582
X-6.015 Y-4.595
X-6 Y-4.6
S1000
X-5.9 F100
Y4.6
X-6.1
Y-4.6
X-6
G0 Z15

(2D Pocket1 11)
X-4 Y-2.718
Z15
Z3
G1 Z2.5 F25
S5000
Y-4.524 Z2.437 F10
Y-0.604 Z2.3
Y-4.524 Z2.163
Y-0.604 Z2.026
Y-4.524 Z1.889
Y-0.604 Z1.753
Y-4.524 Z1.616
Y-0.604 Z1.479
Y-4.524 Z1.342
Y-0.604 Z1.205
Y-4.524 Z1.068
Y-0.604 Z0.931
Y-4.524 Z0.794
Y-0.604 Z0.657
Y-4.524 Z0.52
Y-0.604 Z0.384
Y-4.524 Z0.247
Y-0.604 Z0.11
Y-4.524 Z-0.027
Y-0.604 Z-0.164
Y-4.5 Z-0.3
X-4.002 Y-4.509
X-4.023 Y-4.566
X-4.024 Y-4.582
X-4.015 Y-4.595
X-4 Y-4.6
S1000
X-3.9 F110
Y4.6
X-4.1
Y-4.6
X-4
X-3.981 Y-4.594
X-3.969 Y-4.579
X-3.967 Y-4.56
X-3.999 Y-4.407
X-4 Y-4.4
Y-3.749
S5000
Y-4.524 Z-0.327 F10
Y-0.604 Z-0.464
Y-4.5 Z-0.6
X-4.002 Y-4.509
X-4.023 Y-4.566
X-4.024 Y-4.582
X-4.015 Y-4.595
X-4 Y-4.6
S1000
X-3.9 F110
Y4.6
X-4.1
Y-4.6
X-4
X-3.981 Y-4.594
X-3.969 Y-4.579
X-3.967 Y-4.56
X-3.999 Y-4.407
X-4 Y-4.4
Y-3.749
S5000
Y-4.524 Z-0.627 F10
Y-0.604 Z-0.764
Y-4.5 Z-0.9
X-4.002 Y-4.509
X-4.023 Y-4.566
X-4.024 Y-4.582
X-4.015 Y-4.595
X-4 Y-4.6
S1000
X-3.9 F110
Y4.6
X-4.1
Y-4.6
X-4
X-3.981 Y-4.594
X-3.969 Y-4.579
X-3.967 Y-4.56
X-3.999 Y-4.407
X-4 Y-4.4
Y-3.749
S5000
Y-4.524 Z-0.927 F10
Y-0.604 Z-1.064
Y-4.5 Z-1.2
X-4.002 Y-4.509
X-4.023 Y-4.566
X-4.024 Y-4.582
X-4.015 Y-4.595
X-4 Y-4.6
S1000
X-3.9 F110
Y4.6
X-4.1
Y-4.6
X-4
X-3.981 Y-4.594
X-3.969 Y-4.579
X-3.967 Y-4.56
X-3.999 Y-4.407
X-4 Y-4.4
Y-3.749
S5000
Y-4.524 Z-1.227 F10
Y-0.604 Z-1.364
Y-4.5 Z-1.5
X-4.002 Y-4.509
X-4.023 Y-4.566
X-4.024 Y-4.582
X-4.015 Y-4.595
X-4 Y-4.6
S1000
X-3.9 F110
Y4.6
X-4.1
Y-4.6
X-4
X-3.981 Y-4.594
X-3.969 Y-4.579
X-3.967 Y-4.56
X-3.999 Y-4.407
X-4 Y-4.4
Y-3.749
S5000
Y-4.524 Z-1.527 F10
Y-0.604 Z-1.664
Y-4.5 Z-1.8
X-4.002 Y-4.509
X-4.023 Y-4.566
X-4.024 Y-4.582
X-4.015 Y-4.595
X-4 Y-4.6
S1000
X-3.9 F110
Y4.6
X-4.1
Y-4.6
X-4
X-3.981 Y-4.594
X-3.969 Y-4.579
X-3.967 Y-4.56
X-3.999 Y-4.407
X-4 Y-4.4
Y-3.749
S5000
Y-4.524 Z-1.827 F10
Y-0.604 Z-1.964
Y-4.5 Z-2.1
X-4.002 Y-4.509
X-4.023 Y-4.566
X-4.024 Y-4.582
X-4.015 Y-4.595
X-4 Y-4.6
S1000
X-3.9 F110
Y4.6
X-4.1
Y-4.6
X-4
X-3.981 Y-4.594
X-3.969 Y-4.579
X-3.967 Y-4.56
X-3.999 Y-4.407
X-4 Y-4.4
Y-3.749
S5000
Y-4.524 Z-2.127 F10
Y-0.604 Z-2.264
Y-4.5 Z-2.4
X-4.002 Y-4.509
X-4.023 Y-4.566
X-4.024 Y-4.582
X-4.015 Y-4.595
X-4 Y-4.6
S1000
X-3.9 F110
Y4.6
X-4.1
Y-4.6
X-4
X-3.981 Y-4.594
X-3.969 Y-4.579
X-3.967 Y-4.56
X-3.999 Y-4.407
X-4 Y-4.4
Y-3.749
S5000
Y-4.524 Z-2.427 F10
Y-0.604 Z-2.564
Y-4.5 Z-2.7
X-4.002 Y-4.509
X-4.023 Y-4.566
X-4.024 Y-4.582
X-4.015 Y-4.595
X-4 Y-4.6
S1000
X-3.9 F110
Y4.6
X-4.1
Y-4.6
X-4
X-3.981 Y-4.594
X-3.969 Y-4.579
X-3.967 Y-4.56
X-3.999 Y-4.407
X-4 Y-4.4
Y-2.435
S5000
Y-0.604 Z-2.764 F10
Y-4.5 Z-2.9
X-4.002 Y-4.509
X-4.023 Y-4.566
X-4.024 Y-4.582
X-4.015 Y-4.595
X-4 Y-4.6
S1000
X-3.9 F110
Y4.6
X-4.1
Y-4.6
X-4
G0 Z15

(2D Pocket1 12)
X-2 Y-2.718
Z15
Z3
G1 Z2.5 F25
S5000
Y-4.524 Z2.437 F10
Y-0.604 Z2.3
Y-4.524 Z2.163
Y-0.604 Z2.026
Y-4.524 Z1.889
Y-0.604 Z1.753
Y-4.524 Z1.616
Y-0.604 Z1.479
Y-4.524 Z1.342
Y-0.604 Z1.205
Y-4.524 Z1.068
Y-0.604 Z0.931
Y-4.524 Z0.794
Y-0.604 Z0.657
Y-4.524 Z0.52
Y-0.604 Z0.384
Y-4.524 Z0.247
Y-0.604 Z0.11
Y-4.524 Z-0.027
Y-0.604 Z-0.164
Y-4.5 Z-0.3
X-2.002 Y-4.509
X-2.023 Y-4.566
X-2.024 Y-4.582
X-2.015 Y-4.595
X-2 Y-4.6
S1000
X-1.9 F120
Y4.6
X-2.1
Y-4.6
X-2
X-1.981 Y-4.594
X-1.969 Y-4.579
X-1.967 Y-4.56
X-1.999 Y-4.407
X-2 Y-4.4
Y-3.749
S5000
Y-4.524 Z-0.327 F10
Y-0.604 Z-0.464
Y-4.5 Z-0.6
X-2.002 Y-4.509
X-2.023 Y-4.566
X-2.024 Y-4.582
X-2.015 Y-4.595
X-2 Y-4.6
S1000
X-1.9 F120
Y4.6
X-2.1
Y-4.6
X-2
X-1.981 Y-4.594
X-1.969 Y-4.579
X-1.967 Y-4.56
X-1.999 Y-4.407
X-2 Y-4.4
Y-3.749
S5000
Y-4.524 Z-0.627 F10
Y-0.604 Z-0.764
Y-4.5 Z-0.9
X-2.002 Y-4.509
X-2.023 Y-4.566
X-2.024 Y-4.582
X-2.015 Y-4.595
X-2 Y-4.6
S1000
X-1.9 F120
Y4.6
X-2.1
Y-4.6
X-2
X-1.981 Y-4.594
X-1.969 Y-4.579
X-1.967 Y-4.56
X-1.999 Y-4.407
X-2 Y-4.4
Y-3.749
S5000
Y-4.524 Z-0.927 F10
Y-0.604 Z-1.064
Y-4.5 Z-1.2
X-2.002 Y-4.509
X-2.023 Y-4.566
X-2.024 Y-4.582
X-2.015 Y-4.595
X-2 Y-4.6
S1000
X-1.9 F120
Y4.6
X-2.1
Y-4.6
X-2
X-1.981 Y-4.594
X-1.969 Y-4.579
X-1.967 Y-4.56
X-1.999 Y-4.407
X-2 Y-4.4
Y-3.749
S5000
Y-4.524 Z-1.227 F10
Y-0.604 Z-1.364
Y-4.5 Z-1.5
X-2.002 Y-4.509
X-2.023 Y-4.566
X-2.024 Y-4.582
X-2.015 Y-4.595
X-2 Y-4.6
S1000
X-1.9 F120
Y4.6
X-2.1
Y-4.6
X-2
X-1.981 Y-4.594
X-1.969 Y-4.579
X-1.967 Y-4.56
X-1.999 Y-4.407
X-2 Y-4.4
Y-3.749
S5000
Y-4.524 Z-1.527 F10
Y-0.604 Z-1.664
Y-4.5 Z-1.8
X-2.002 Y-4.509
X-2.023 Y-4.566
X-2.024 Y-4.582
X-2.015 Y-4.595
X-2 Y-4.6
S1000
X-1.9 F120
Y4.6
X-2.1
Y-4.6
X-2
X-1.981 Y-4.594
X-1.969 Y-4.579
X-1.967 Y-4.56
X-1.999 Y-4.407
X-2 Y-4.4
Y-3.749
S5000
Y-4.524 Z-1.827 F10
Y-0.604 Z-1.964
Y-4.5 Z-2.1
X-2.002 Y-4.509
X-2.023 Y-4.566
X-2.024 Y-4.582
X-2.015 Y-4.595
X-2 Y-4.6
S1000
X-1.9 F120
Y4.6
X-2.1
Y-4.6
X-2
X-1.981 Y-4.594
X-1.969 Y-4.579
X-1.967 Y-4.56
X-1.999 Y-4.407
X-2 Y-4.4
Y-3.749
S5000
Y-4.524 Z-2.127 F10
Y-0.604 Z-2.264
Y-4.5 Z-2.4
X-2.002 Y-4.509
X-2.023 Y-4.566
X-2.024 Y-4.582
X-2.015 Y-4.595
X-2 Y-4.6
S1000
X-1.9 F120
Y4.6
X-2.1
Y-4.6
X-2
X-1.981 Y-4.594
X-1.969 Y-4.579
X-1.967 Y-4.56
X-1.999 Y-4.407
X-2 Y-4.4
Y-3.749
S5000
Y-4.524 Z-2.427 F10
Y-0.604 Z-2.564
Y-4.5 Z-2.7
X-2.002 Y-4.509
X-2.023 Y-4.566
X-2.024 Y-4.582
X-2.015 Y-4.595
X-2 Y-4.6
S1000
X-1.9 F120
Y4.6
X-2.1
Y-4.6
X-2
X-1.981 Y-4.594
X-1.969 Y-4.579
X-1.967 Y-4.56
X-1.999 Y-4.407
X-2 Y-4.4
Y-2.435
S5000
Y-0.604 Z-2.764 F10
Y-4.5 Z-2.9
X-2.002 Y-4.509
X-2.023 Y-4.566
X-2.024 Y-4.582
X-2.015 Y-4.595
X-2 Y-4.6
S1000
X-1.9 F120
Y4.6
X-2.1
Y-4.6
X-2
G0 Z15

(2D Pocket1 13)
X0 Y-2.718
Z15
Z3
G1 Z2.5 F25
S5000
Y-4.524 Z2.437 F10
Y-0.604 Z2.3
Y-4.524 Z2.163
Y-0.604 Z2.026
Y-4.524 Z1.889
Y-0.604 Z1.753
Y-4.524 Z1.616
Y-0.604 Z1.479
Y-4.524 Z1.342
Y-0.604 Z1.205
Y-4.524 Z1.068
Y-0.604 Z0.931
Y-4.524 Z0.794
Y-0.604 Z0.657
Y-4.524 Z0.52
Y-0.604 Z0.384
Y-4.524 Z0.247
Y-0.604 Z0.11
Y-4.524 Z-0.027
Y-0.604 Z-0.164
Y-4.5 Z-0.3
X-0.002 Y-4.509
X-0.023 Y-4.566
X-0.024 Y-4.582
X-0.015 Y-4.595
X0 Y-4.6
S1000
X0.1 F130
Y4.6
X-0.1
Y-4.6
X0
X0.019 Y-4.594
X0.031 Y-4.579
X0.033 Y-4.56
X0.001 Y-4.407
X0 Y-4.4
Y-3.749
S5000
Y-4.524 Z-0.327 F10
Y-0.604 Z-0.464
Y-4.5 Z-0.6
X-0.002 Y-4.509
X-0.023 Y-4.566
X-0.024 Y-4.582
X-0.015 Y-4.595
X0 Y-4.6
S1000
X0.1 F130
Y4.6
X-0.1
Y-4.6
X0
X0.019 Y-4.594
X0.031 Y-4.579
X0.033 Y-4.56
X0.001 Y-4.407
X0 Y-4.4
Y-3.749
S5000
Y-4.524 Z-0.627 F10
Y-0.604 Z-0.764
Y-4.5 Z-0.9
X-0.002 Y-4.509
X-0.023 Y-4.566
X-0.024 Y-4.582
X-0.015 Y-4.595
X0 Y-4.6
S1000
X0.1 F130
Y4.6
X-0.1
Y-4.6
X0
X0.019 Y-4.594
X0.031 Y-4.579
X0.033 Y-4.56
X0.001 Y-4.407
X0 Y-4.4
Y-3.749
S5000
Y-4.524 Z-0.927 F10
Y-0.604 Z-1.064
Y-4.5 Z-1.2
X-0.002 Y-4.509
X-0.023 Y-4.566
X-0.024 Y-4.582
X-0.015 Y-4.595
X0 Y-4.6
S1000
X0.1 F130
Y4.6
X-0.1
Y-4.6
X0
X0.019 Y-4.594
X0.031 Y-4.579
X0.033 Y-4.56
X0.001 Y-4.407
X0 Y-4.4
Y-3.749
S5000
Y-4.524 Z-1.227 F10
Y-0.604 Z-1.364
Y-4.5 Z-1.5
X-0.002 Y-4.509
X-0.023 Y-4.566
X-0.024 Y-4.582
X-0.015 Y-4.595
X0 Y-4.6
S1000
X0.1 F130
Y4.6
X-0.1
Y-4.6
X0
X0.019 Y-4.594
X0.031 Y-4.579
X0.033 Y-4.56
X0.001 Y-4.407
X0 Y-4.4
Y-3.749
S5000
Y-4.524 Z-1.527 F10
Y-0.604 Z-1.664
Y-4.5 Z-1.8
X-0.002 Y-4.509
X-0.023 Y-4.566
X-0.024 Y-4.582
X-0.015 Y-4.595
X0 Y-4.6
S1000
X0.1 F130
Y4.6
X-0.1
Y-4.6
X0
X0.019 Y-4.594
X0.031 Y-4.579
X0.033 Y-4.56
X0.001 Y-4.407
X0 Y-4.4
Y-3.749
S5000
Y-4.524 Z-1.827 F10
Y-0.604 Z-1.964
Y-4.5 Z-2.1
X-0.002 Y-4.509
X-0.023 Y-4.566
X-0.024 Y-4.582
X-0.015 Y-4.595
X0 Y-4.6
S1000
X0.1 F130
Y4.6
X-0.1
Y-4.6
X0
X0.019 Y-4.594
X0.031 Y-4.579
X0.033 Y-4.56
X0.001 Y-4.407
X0 Y-4.4
Y-3.749
S5000
Y-4.524 Z-2.127 F10
Y-0.604 Z-2.264
Y-4.5 Z-2.4
X-0.002 Y-4.509
X-0.023 Y-4.566
X-0.024 Y-4.582
X-0.015 Y-4.595
X0 Y-4.6
S1000
X0.1 F130
Y4.6
X-0.1
Y-4.6
X0
X0.019 Y-4.594
X0.031 Y-4.579
X0.033 Y-4.56
X0.001 Y-4.407
X0 Y-4.4
Y-3.749
S5000
Y-4.524 Z-2.427 F10
Y-0.604 Z-2.564
Y-4.5 Z-2.7
X-0.002 Y-4.509
X-0.023 Y-4.566
X-0.024 Y-4.582
X-0.015 Y-4.595
X0 Y-4.6
S1000
X0.1 F130
Y4.6
X-0.1
Y-4.6
X0
X0.019 Y-4.594
X0.031 Y-4.579
X0.033 Y-4.56
X0.001 Y-4.407
X0 Y-4.4
Y-2.435
S5000
Y-0.604 Z-2.764 F10
Y-4.5 Z-2.9
X-0.002 Y-4.509
X-0.023 Y-4.566
X-0.024 Y-4.582
X-0.015 Y-4.595
X0 Y-4.6
S1000
X0.1 F130
Y4.6
X-0.1
Y-4.6
X0
G0 Z15

(2D Pocket1 14)
X2 Y-2.718
Z15
Z3
G1 Z2.5 F25
S5000
Y-4.524 Z2.437 F10
Y-0.604 Z2.3
Y-4.524 Z2.163
Y-0.604 Z2.026
Y-4.524 Z1.889
Y-0.604 Z1.753
Y-4.524 Z1.616
Y-0.604 Z1.479
Y-4.524 Z1.342
Y-0.604 Z1.205
Y-4.524 Z1.068
Y-0.604 Z0.931
Y-4.524 Z0.794
Y-0.604 Z0.657
Y-4.524 Z0.52
Y-0.604 Z0.384
Y-4.524 Z0.247
Y-0.604 Z0.11
Y-4.524 Z-0.027
Y-0.604 Z-0.164
Y-4.5 Z-0.3
X1.998 Y-4.509
X1.977 Y-4.566
X1.976 Y-4.582
X1.985 Y-4.595
X2 Y-4.6
S1000
X2.1 F140
Y4.6
X1.9
Y-4.6
X2
X2.019 Y-4.594
X2.031 Y-4.579
X2.033 Y-4.56
X2.001 Y-4.407
X2 Y-4.4
Y-3.749
S5000
Y-4.524 Z-0.327 F10
Y-0.604 Z-0.464
Y-4.5 Z-0.6
X1.998 Y-4.509
X1.977 Y-4.566
X1.976 Y-4.582
X1.985 Y-4.595
X2 Y-4.6
S1000
X2.1 F140
Y4.6
X1.9
Y-4.6
X2
X2.019 Y-4.594
X2.031 Y-4.579
X2.033 Y-4.56
X2.001 Y-4.407
X2 Y-4.4
Y-3.749
S5000
Y-4.524 Z-0.627 F10
Y-0.604 Z-0.764
Y-4.5 Z-0.9
X1.998 Y-4.509
X1.977 Y-4.566
X1.976 Y-4.582
X1.985 Y-4.595
X2 Y-4.6
S1000
X2.1 F140
Y4.6
X1.9
Y-4.6
X2
X2.019 Y-4.594
X2.031 Y-4.579
X2.033 Y-4.56
X2.001 Y-4.407
X2 Y-4.4
Y-3.749
S5000
Y-4.524 Z-0.927 F10
Y-0.604 Z-1.064
Y-4.5 Z-1.2
X1.998 Y-4.509
X1.977 Y-4.566
X1.976 Y-4.582
X1.985 Y-4.595
X2 Y-4.6
S1000
X2.1 F140
Y4.6
X1.9
Y-4.6
X2
X2.019 Y-4.594
X2.031 Y-4.579
X2.033 Y-4.56
X2.001 Y-4.407
X2 Y-4.4
Y-3.749
S5000
Y-4.524 Z-1.227 F10
Y-0.604 Z-1.364
Y-4.5 Z-1.5
X1.998 Y-4.509
X1.977 Y-4.566
X1.976 Y-4.582
X1.985 Y-4.595
X2 Y-4.6
S1000
X2.1 F140
Y4.6
X1.9
Y-4.6
X2
X2.019 Y-4.594
X2.031 Y-4.579
X2.033 Y-4.56
X2.001 Y-4.407
X2 Y-4.4
Y-3.749
S5000
Y-4.524 Z-1.527 F10
Y-0.604 Z-1.664
Y-4.5 Z-1.8
X1.998 Y-4.509
X1.977 Y-4.566
X1.976 Y-4.582
X1.985 Y-4.595
X2 Y-4.6
S1000
X2.1 F140
Y4.6
X1.9
Y-4.6
X2
X2.019 Y-4.594
X2.031 Y-4.579
X2.033 Y-4.56
X2.001 Y-4.407
X2 Y-4.4
Y-3.749
S5000
Y-4.524 Z-1.827 F10
Y-0.604 Z-1.964
Y-4.5 Z-2.1
X1.998 Y-4.509
X1.977 Y-4.566
X1.976 Y-4.582
X1.985 Y-4.595
X2 Y-4.6
S1000
X2.1 F140
Y4.6
X1.9
Y-4.6
X2
X2.019 Y-4.594
X2.031 Y-4.579
X2.033 Y-4.56
X2.001 Y-4.407
X2 Y-4.4
Y-3.749
S5000
Y-4.524 Z-2.127 F10
Y-0.604 Z-2.264
Y-4.5 Z-2.4
X1.998 Y-4.509
X1.977 Y-4.566
X1.976 Y-4.582
X1.985 Y-4.595
X2 Y-4.6
S1000
X2.1 F140
Y4.6
X1.9
Y-4.6
X2
X2.019 Y-4.594
X2.031 Y-4.579
X2.033 Y-4.56
X2.001 Y-4.407
X2 Y-4.4
Y-3.749
S5000
Y-4.524 Z-2.427 F10
Y-0.604 Z-2.564
Y-4.5 Z-2.7
X1.998 Y-4.509
X1.977 Y-4.566
X1.976 Y-4.582
X1.985 Y-4.595
X2 Y-4.6
S1000
X2.1 F140
Y4.6
X1.9
Y-4.6
X2
X2.019 Y-4.594
X2.031 Y-4.579
X2.033 Y-4.56
X2.001 Y-4.407
X2 Y-4.4
Y-2.435
S5000
Y-0.604 Z-2.764 F10
Y-4.5 Z-2.9
X1.998 Y-4.509
X1.977 Y-4.566
X1.976 Y-4.582
X1.985 Y-4.595
X2 Y-4.6
S1000
X2.1 F140
Y4.6
X1.9
Y-4.6
X2
G0 Z15

(2D Pocket1 15)
X4 Y-2.718
Z15
Z3
G1 Z2.5 F25
S5000
Y-4.524 Z2.437 F10
Y-0.604 Z2.3
Y-4.524 Z2.163
Y-0.604 Z2.026
Y-4.524 Z1.889
Y-0.604 Z1.753
Y-4.524 Z1.616
Y-0.604 Z1.479
Y-4.524 Z1.342
Y-0.604 Z1.205
Y-4.524 Z1.068
Y-0.604 Z0.931
Y-4.524 Z0.794
Y-0.604 Z0.657
Y-4.524 Z0.52
Y-0.604 Z0.384
Y-4.524 Z0.247
Y-0.604 Z0.11
Y-4.524 Z-0.027
Y-0.604 Z-0.164
Y-4.5 Z-0.3
X3.998 Y-4.509
X3.977 Y-4.566
X3.976 Y-4.582
X3.985 Y-4.595
X4 Y-4.6
S1000
X4.1 F150
Y4.6
X3.9
Y-4.6
X4
X4.019 Y-4.594
X4.031 Y-4.579
X4.033 Y-4.56
X4.001 Y-4.407
X4 Y-4.4
Y-3.749
S5000
Y-4.524 Z-0.327 F10
Y-0.604 Z-0.464
Y-4.5 Z-0.6
X3.998 Y-4.509
X3.977 Y-4.566
X3.976 Y-4.582
X3.985 Y-4.595
X4 Y-4.6
S1000
X4.1 F150
Y4.6
X3.9
Y-4.6
X4
X4.019 Y-4.594
X4.031 Y-4.579
X4.033 Y-4.56
X4.001 Y-4.407
X4 Y-4.4
Y-3.749
S5000
Y-4.524 Z-0.627 F10
Y-0.604 Z-0.764
Y-4.5 Z-0.9
X3.998 Y-4.509
X3.977 Y-4.566
X3.976 Y-4.582
X3.985 Y-4.595
X4 Y-4.6
S1000
X4.1 F150
Y4.6
X3.9
Y-4.6
X4
X4.019 Y-4.594
X4.031 Y-4.579
X4.033 Y-4.56
X4.001 Y-4.407
X4 Y-4.4
Y-3.749
S5000
Y-4.524 Z-0.927 F10
Y-0.604 Z-1.064
Y-4.5 Z-1.2
X3.998 Y-4.509
X3.977 Y-4.566
X3.976 Y-4.582
X3.985 Y-4.595
X4 Y-4.6
S1000
X4.1 F150
Y4.6
X3.9
Y-4.6
X4
X4.019 Y-4.594
X4.031 Y-4.579
X4.033 Y-4.56
X4.001 Y-4.407
X4 Y-4.4
Y-3.749
S5000
Y-4.524 Z-1.227 F10
Y-0.604 Z-1.364
Y-4.5 Z-1.5
X3.998 Y-4.509
X3.977 Y-4.566
X3.976 Y-4.582
X3.985 Y-4.595
X4 Y-4.6
S1000
X4.1 F150
Y4.6
X3.9
Y-4.6
X4
X4.019 Y-4.594
X4.031 Y-4.579
X4.033 Y-4.56
X4.001 Y-4.407
X4 Y-4.4
Y-3.749
S5000
Y-4.524 Z-1.527 F10
Y-0.604 Z-1.664
Y-4.5 Z-1.8
X3.998 Y-4.509
X3.977 Y-4.566
X3.976 Y-4.582
X3.985 Y-4.595
X4 Y-4.6
S1000
X4.1 F150
Y4.6
X3.9
Y-4.6
X4
X4.019 Y-4.594
X4.031 Y-4.579
X4.033 Y-4.56
X4.001 Y-4.407
X4 Y-4.4
Y-3.749
S5000
Y-4.524 Z-1.827 F10
Y-0.604 Z-1.964
Y-4.5 Z-2.1
X3.998 Y-4.509
X3.977 Y-4.566
X3.976 Y-4.582
X3.985 Y-4.595
X4 Y-4.6
S1000
X4.1 F150
Y4.6
X3.9
Y-4.6
X4
X4.019 Y-4.594
X4.031 Y-4.579
X4.033 Y-4.56
X4.001 Y-4.407
X4 Y-4.4
Y-3.749
S5000
Y-4.524 Z-2.127 F10
Y-0.604 Z-2.264
Y-4.5 Z-2.4
X3.998 Y-4.509
X3.977 Y-4.566
X3.976 Y-4.582
X3.985 Y-4.595
X4 Y-4.6
S1000
X4.1 F150
Y4.6
X3.9
Y-4.6
X4
X4.019 Y-4.594
X4.031 Y-4.579
X4.033 Y-4.56
X4.001 Y-4.407
X4 Y-4.4
Y-3.749
S5000
Y-4.524 Z-2.427 F10
Y-0.604 Z-2.564
Y-4.5 Z-2.7
X3.998 Y-4.509
X3.977 Y-4.566
X3.976 Y-4.582
X3.985 Y-4.595
X4 Y-4.6
S1000
X4.1 F150
Y4.6
X3.9
Y-4.6
X4
X4.019 Y-4.594
X4.031 Y-4.579
X4.033 Y-4.56
X4.001 Y-4.407
X4 Y-4.4
Y-2.435
S5000
Y-0.604 Z-2.764 F10
Y-4.5 Z-2.9
X3.998 Y-4.509
X3.977 Y-4.566
X3.976 Y-4.582
X3.985 Y-4.595
X4 Y-4.6
S1000
X4.1 F150
Y4.6
X3.9
Y-4.6
X4
G0 Z15

(2D Pocket1 16)
X6 Y-2.718
Z15
Z3
G1 Z2.5 F25
S5000
Y-4.524 Z2.437 F10
Y-0.604 Z2.3
Y-4.524 Z2.163
Y-0.604 Z2.026
Y-4.524 Z1.889
Y-0.604 Z1.753
Y-4.524 Z1.616
Y-0.604 Z1.479
Y-4.524 Z1.342
Y-0.604 Z1.205
Y-4.524 Z1.068
Y-0.604 Z0.931
Y-4.524 Z0.794
Y-0.604 Z0.657
Y-4.524 Z0.52
Y-0.604 Z0.384
Y-4.524 Z0.247
Y-0.604 Z0.11
Y-4.524 Z-0.027
Y-0.604 Z-0.164
Y-4.5 Z-0.3
X5.998 Y-4.509
X5.977 Y-4.566
X5.976 Y-4.582
X5.985 Y-4.595
X6 Y-4.6
S1000
X6.1 F160
Y4.6
X5.9
Y-4.6
X6
X6.019 Y-4.594
X6.031 Y-4.579
X6.033 Y-4.56
X6.001 Y-4.407
X6 Y-4.4
Y-3.749
S5000
Y-4.524 Z-0.327 F10
Y-0.604 Z-0.464
Y-4.5 Z-0.6
X5.998 Y-4.509
X5.977 Y-4.566
X5.976 Y-4.582
X5.985 Y-4.595
X6 Y-4.6
S1000
X6.1 F160
Y4.6
X5.9
Y-4.6
X6
X6.019 Y-4.594
X6.031 Y-4.579
X6.033 Y-4.56
X6.001 Y-4.407
X6 Y-4.4
Y-3.749
S5000
Y-4.524 Z-0.627 F10
Y-0.604 Z-0.764
Y-4.5 Z-0.9
X5.998 Y-4.509
X5.977 Y-4.566
X5.976 Y-4.582
X5.985 Y-4.595
X6 Y-4.6
S1000
X6.1 F160
Y4.6
X5.9
Y-4.6
X6
X6.019 Y-4.594
X6.031 Y-4.579
X6.033 Y-4.56
X6.001 Y-4.407
X6 Y-4.4
Y-3.749
S5000
Y-4.524 Z-0.927 F10
Y-0.604 Z-1.064
Y-4.5 Z-1.2
X5.998 Y-4.509
X5.977 Y-4.566
X5.976 Y-4.582
X5.985 Y-4.595
X6 Y-4.6
S1000
X6.1 F160
Y4.6
X5.9
Y-4.6
X6
X6.019 Y-4.594
X6.031 Y-4.579
X6.033 Y-4.56
X6.001 Y-4.407
X6 Y-4.4
Y-3.749
S5000
Y-4.524 Z-1.227 F10
Y-0.604 Z-1.364
Y-4.5 Z-1.5
X5.998 Y-4.509
X5.977 Y-4.566
X5.976 Y-4.582
X5.985 Y-4.595
X6 Y-4.6
S1000
X6.1 F160
Y4.6
X5.9
Y-4.6
X6
X6.019 Y-4.594
X6.031 Y-4.579
X6.033 Y-4.56
X6.001 Y-4.407
X6 Y-4.4
Y-3.749
S5000
Y-4.524 Z-1.527 F10
Y-0.604 Z-1.664
Y-4.5 Z-1.8
X5.998 Y-4.509
X5.977 Y-4.566
X5.976 Y-4.582
X5.985 Y-4.595
X6 Y-4.6
S1000
X6.1 F160
Y4.6
X5.9
Y-4.6
X6
X6.019 Y-4.594
X6.031 Y-4.579
X6.033 Y-4.56
X6.001 Y-4.407
X6 Y-4.4
Y-3.749
S5000
Y-4.524 Z-1.827 F10
Y-0.604 Z-1.964
Y-4.5 Z-2.1
X5.998 Y-4.509
X5.977 Y-4.566
X5.976 Y-4.582
X5.985 Y-4.595
X6 Y-4.6
S1000
X6.1 F160
Y4.6
X5.9
Y-4.6
X6
X6.019 Y-4.594
X6.031 Y-4.579
X6.033 Y-4.56
X6.001 Y-4.407
X6 Y-4.4
Y-3.749
S5000
Y-4.524 Z-2.127 F10
Y-0.604 Z-2.264
Y-4.5 Z-2.4
X5.998 Y-4.509
X5.977 Y-4.566
X5.976 Y-4.582
X5.985 Y-4.595
X6 Y-4.6
S1000
X6.1 F160
Y4.6
X5.9
Y-4.6
X6
X6.019 Y-4.594
X6.031 Y-4.579
X6.033 Y-4.56
X6.001 Y-4.407
X6 Y-4.4
Y-3.749
S5000
Y-4.524 Z-2.427 F10
Y-0.604 Z-2.564
Y-4.5 Z-2.7
X5.998 Y-4.509
X5.977 Y-4.566
X5.976 Y-4.582
X5.985 Y-4.595
X6 Y-4.6
S1000
X6.1 F160
Y4.6
X5.9
Y-4.6
X6
X6.019 Y-4.594
X6.031 Y-4.579
X6.033 Y-4.56
X6.001 Y-4.407
X6 Y-4.4
Y-2.435
S5000
Y-0.604 Z-2.764 F10
Y-4.5 Z-2.9
X5.998 Y-4.509
X5.977 Y-4.566
X5.976 Y-4.582
X5.985 Y-4.595
X6 Y-4.6
S1000
X6.1 F160
Y4.6
X5.9
Y-4.6
X6
G0 Z15

(2D Pocket1 17)
X8 Y-2.718
Z15
Z3
G1 Z2.5 F25
S5000
Y-4.524 Z2.437 F10
Y-0.604 Z2.3
Y-4.524 Z2.163
Y-0.604 Z2.026
Y-4.524 Z1.889
Y-0.604 Z1.753
Y-4.524 Z1.616
Y-0.604 Z1.479
Y-4.524 Z1.342
Y-0.604 Z1.205
Y-4.524 Z1.068
Y-0.604 Z0.931
Y-4.524 Z0.794
Y-0.604 Z0.657
Y-4.524 Z0.52
Y-0.604 Z0.384
Y-4.524 Z0.247
Y-0.604 Z0.11
Y-4.524 Z-0.027
Y-0.604 Z-0.164
Y-4.5 Z-0.3
X7.998 Y-4.509
X7.977 Y-4.566
X7.976 Y-4.582
X7.985 Y-4.595
X8 Y-4.6
S1000
X8.1 F170
Y4.6
X7.9
Y-4.6
X8
X8.019 Y-4.594
X8.031 Y-4.579
X8.033 Y-4.56
X8.001 Y-4.407
X8 Y-4.4
Y-3.749
S5000
Y-4.524 Z-0.327 F10
Y-0.604 Z-0.464
Y-4.5 Z-0.6
X7.998 Y-4.509
X7.977 Y-4.566
X7.976 Y-4.582
X7.985 Y-4.595
X8 Y-4.6
S1000
X8.1 F170
Y4.6
X7.9
Y-4.6
X8
X8.019 Y-4.594
X8.031 Y-4.579
X8.033 Y-4.56
X8.001 Y-4.407
X8 Y-4.4
Y-3.749
S5000
Y-4.524 Z-0.627 F10
Y-0.604 Z-0.764
Y-4.5 Z-0.9
X7.998 Y-4.509
X7.977 Y-4.566
X7.976 Y-4.582
X7.985 Y-4.595
X8 Y-4.6
S1000
X8.1 F170
Y4.6
X7.9
Y-4.6
X8
X8.019 Y-4.594
X8.031 Y-4.579
X8.033 Y-4.56
X8.001 Y-4.407
X8 Y-4.4
Y-3.749
S5000
Y-4.524 Z-0.927 F10
Y-0.604 Z-1.064
Y-4.5 Z-1.2
X7.998 Y-4.509
X7.977 Y-4.566
X7.976 Y-4.582
X7.985 Y-4.595
X8 Y-4.6
S1000
X8.1 F170
Y4.6
X7.9
Y-4.6
X8
X8.019 Y-4.594
X8.031 Y-4.579
X8.033 Y-4.56
X8.001 Y-4.407
X8 Y-4.4
Y-3.749
S5000
Y-4.524 Z-1.227 F10
Y-0.604 Z-1.364
Y-4.5 Z-1.5
X7.998 Y-4.509
X7.977 Y-4.566
X7.976 Y-4.582
X7.985 Y-4.595
X8 Y-4.6
S1000
X8.1 F170
Y4.6
X7.9
Y-4.6
X8
X8.019 Y-4.594
X8.031 Y-4.579
X8.033 Y-4.56
X8.001 Y-4.407
X8 Y-4.4
Y-3.749
S5000
Y-4.524 Z-1.527 F10
Y-0.604 Z-1.664
Y-4.5 Z-1.8
X7.998 Y-4.509
X7.977 Y-4.566
X7.976 Y-4.582
X7.985 Y-4.595
X8 Y-4.6
S1000
X8.1 F170
Y4.6
X7.9
Y-4.6
X8
X8.019 Y-4.594
X8.031 Y-4.579
X8.033 Y-4.56
X8.001 Y-4.407
X8 Y-4.4
Y-3.749
S5000
Y-4.524 Z-1.827 F10
Y-0.604 Z-1.964
Y-4.5 Z-2.1
X7.998 Y-4.509
X7.977 Y-4.566
X7.976 Y-4.582
X7.985 Y-4.595
X8 Y-4.6
S1000
X8.1 F170
Y4.6
X7.9
Y-4.6
X8
X8.019 Y-4.594
X8.031 Y-4.579
X8.033 Y-4.56
X8.001 Y-4.407
X8 Y-4.4
Y-3.749
S5000
Y-4.524 Z-2.127 F10
Y-0.604 Z-2.264
Y-4.5 Z-2.4
X7.998 Y-4.509
X7.977 Y-4.566
X7.976 Y-4.582
X7.985 Y-4.595
X8 Y-4.6
S1000
X8.1 F170
Y4.6
X7.9
Y-4.6
X8
X8.019 Y-4.594
X8.031 Y-4.579
X8.033 Y-4.56
X8.001 Y-4.407
X8 Y-4.4
Y-3.749
S5000
Y-4.524 Z-2.427 F10
Y-0.604 Z-2.564
Y-4.5 Z-2.7
X7.998 Y-4.509
X7.977 Y-4.566
X7.976 Y-4.582
X7.985 Y-4.595
X8 Y-4.6
S1000
X8.1 F170
Y4.6
X7.9
Y-4.6
X8
X8.019 Y-4.594
X8.031 Y-4.579
X8.033 Y-4.56
X8.001 Y-4.407
X8 Y-4.4
Y-2.435
S5000
Y-0.604 Z-2.764 F10
Y-4.5 Z-2.9
X7.998 Y-4.509
X7.977 Y-4.566
X7.976 Y-4.582
X7.985 Y-4.595
X8 Y-4.6
S1000
X8.1 F170
Y4.6
X7.9
Y-4.6
X8
G0 Z15

(2D Pocket1 18)
X10 Y-2.718
Z15
Z3
G1 Z2.5 F25
S5000
Y-4.524 Z2.437 F10
Y-0.604 Z2.3
Y-4.524 Z2.163
Y-0.604 Z2.026
Y-4.524 Z1.889
Y-0.604 Z1.753
Y-4.524 Z1.616
Y-0.604 Z1.479
Y-4.524 Z1.342
Y-0.604 Z1.205
Y-4.524 Z1.068
Y-0.604 Z0.931
Y-4.524 Z0.794
Y-0.604 Z0.657
Y-4.524 Z0.52
Y-0.604 Z0.384
Y-4.524 Z0.247
Y-0.604 Z0.11
Y-4.524 Z-0.027
Y-0.604 Z-0.164
Y-4.5 Z-0.3
X9.998 Y-4.509
X9.977 Y-4.566
X9.976 Y-4.582
X9.985 Y-4.595
X10 Y-4.6
S1000
X10.1 F180
Y4.6
X9.9
Y-4.6
X10
X10.019 Y-4.594
X10.031 Y-4.579
X10.033 Y-4.56
X10.001 Y-4.407
X10 Y-4.4
Y-3.749
S5000
Y-4.524 Z-0.327 F10
Y-0.604 Z-0.464
Y-4.5 Z-0.6
X9.998 Y-4.509
X9.977 Y-4.566
X9.976 Y-4.582
X9.985 Y-4.595
X10 Y-4.6
S1000
X10.1 F180
Y4.6
X9.9
Y-4.6
X10
X10.019 Y-4.594
X10.031 Y-4.579
X10.033 Y-4.56
X10.001 Y-4.407
X10 Y-4.4
Y-3.749
S5000
Y-4.524 Z-0.627 F10
Y-0.604 Z-0.764
Y-4.5 Z-0.9
X9.998 Y-4.509
X9.977 Y-4.566
X9.976 Y-4.582
X9.985 Y-4.595
X10 Y-4.6
S1000
X10.1 F180
Y4.6
X9.9
Y-4.6
X10
X10.019 Y-4.594
X10.031 Y-4.579
X10.033 Y-4.56
X10.001 Y-4.407
X10 Y-4.4
Y-3.749
S5000
Y-4.524 Z-0.927 F10
Y-0.604 Z-1.064
Y-4.5 Z-1.2
X9.998 Y-4.509
X9.977 Y-4.566
X9.976 Y-4.582
X9.985 Y-4.595
X10 Y-4.6
S1000
X10.1 F180
Y4.6
X9.9
Y-4.6
X10
X10.019 Y-4.594
X10.031 Y-4.579
X10.033 Y-4.56
X10.001 Y-4.407
X10 Y-4.4
Y-3.749
S5000
Y-4.524 Z-1.227 F10
Y-0.604 Z-1.364
Y-4.5 Z-1.5
X9.998 Y-4.509
X9.977 Y-4.566
X9.976 Y-4.582
X9.985 Y-4.595
X10 Y-4.6
S1000
X10.1 F180
Y4.6
X9.9
Y-4.6
X10
X10.019 Y-4.594
X10.031 Y-4.579
X10.033 Y-4.56
X10.001 Y-4.407
X10 Y-4.4
Y-3.749
S5000
Y-4.524 Z-1.527 F10
Y-0.604 Z-1.664
Y-4.5 Z-1.8
X9.998 Y-4.509
X9.977 Y-4.566
X9.976 Y-4.582
X9.985 Y-4.595
X10 Y-4.6
S1000
X10.1 F180
Y4.6
X9.9
Y-4.6
X10
X10.019 Y-4.594
X10.031 Y-4.579
X10.033 Y-4.56
X10.001 Y-4.407
X10 Y-4.4
Y-3.749
S5000
Y-4.524 Z-1.827 F10
Y-0.604 Z-1.964
Y-4.5 Z-2.1
X9.998 Y-4.509
X9.977 Y-4.566
X9.976 Y-4.582
X9.985 Y-4.595
X10 Y-4.6
S1000
X10.1 F180
Y4.6
X9.9
Y-4.6
X10
X10.019 Y-4.594
X10.031 Y-4.579
X10.033 Y-4.56
X10.001 Y-4.407
X10 Y-4.4
Y-3.749
S5000
Y-4.524 Z-2.127 F10
Y-0.604 Z-2.264
Y-4.5 Z-2.4
X9.998 Y-4.509
X9.977 Y-4.566
X9.976 Y-4.582
X9.985 Y-4.595
X10 Y-4.6
S1000
X10.1 F180
Y4.6
X9.9
Y-4.6
X10
X10.019 Y-4.594
X10.031 Y-4.579
X10.033 Y-4.56
X10.001 Y-4.407
X10 Y-4.4
Y-3.749
S5000
Y-4.524 Z-2.427 F10
Y-0.604 Z-2.564
Y-4.5 Z-2.7
X9.998 Y-4.509
X9.977 Y-4.566
X9.976 Y-4.582
X9.985 Y-4.595
X10 Y-4.6
S1000
X10.1 F180
Y4.6
X9.9
Y-4.6
X10
X10.019 Y-4.594
X10.031 Y-4.579
X10.033 Y-4.56
X10.001 Y-4.407
X10 Y-4.4
Y-2.435
S5000
Y-0.604 Z-2.764 F10
Y-4.5 Z-2.9
X9.998 Y-4.509
X9.977 Y-4.566
X9.976 Y-4.582
X9.985 Y-4.595
X10 Y-4.6
S1000
X10.1 F180
Y4.6
X9.9
Y-4.6
X10
G0 Z15

(2D Pocket1 19)
X12 Y-2.718
Z15
Z3
G1 Z2.5 F25
S5000
Y-4.524 Z2.437 F10
Y-0.604 Z2.3
Y-4.524 Z2.163
Y-0.604 Z2.026
Y-4.524 Z1.889
Y-0.604 Z1.753
Y-4.524 Z1.616
Y-0.604 Z1.479
Y-4.524 Z1.342
Y-0.604 Z1.205
Y-4.524 Z1.068
Y-0.604 Z0.931
Y-4.524 Z0.794
Y-0.604 Z0.657
Y-4.524 Z0.52
Y-0.604 Z0.384
Y-4.524 Z0.247
Y-0.604 Z0.11
Y-4.524 Z-0.027
Y-0.604 Z-0.164
Y-4.5 Z-0.3
X11.998 Y-4.509
X11.977 Y-4.566
X11.976 Y-4.582
X11.985 Y-4.595
X12 Y-4.6
S1000
X12.1 F190
Y4.6
X11.9
Y-4.6
X12
X12.019 Y-4.594
X12.031 Y-4.579
X12.033 Y-4.56
X12.001 Y-4.407
X12 Y-4.4
Y-3.749
S5000
Y-4.524 Z-0.327 F10
Y-0.604 Z-0.464
Y-4.5 Z-0.6
X11.998 Y-4.509
X11.977 Y-4.566
X11.976 Y-4.582
X11.985 Y-4.595
X12 Y-4.6
S1000
X12.1 F190
Y4.6
X11.9
Y-4.6
X12
X12.019 Y-4.594
X12.031 Y-4.579
X12.033 Y-4.56
X12.001 Y-4.407
X12 Y-4.4
Y-3.749
S5000
Y-4.524 Z-0.627 F10
Y-0.604 Z-0.764
Y-4.5 Z-0.9
X11.998 Y-4.509
X11.977 Y-4.566
X11.976 Y-4.582
X11.985 Y-4.595
X12 Y-4.6
S1000
X12.1 F190
Y4.6
X11.9
Y-4.6
X12
X12.019 Y-4.594
X12.031 Y-4.579
X12.033 Y-4.56
X12.001 Y-4.407
X12 Y-4.4
Y-3.749
S5000
Y-4.524 Z-0.927 F10
Y-0.604 Z-1.064
Y-4.5 Z-1.2
X11.998 Y-4.509
X11.977 Y-4.566
X11.976 Y-4.582
X11.985 Y-4.595
X12 Y-4.6
S1000
X12.1 F190
Y4.6
X11.9
Y-4.6
X12
X12.019 Y-4.594
X12.031 Y-4.579
X12.033 Y-4.56
X12.001 Y-4.407
X12 Y-4.4
Y-3.749
S5000
Y-4.524 Z-1.227 F10
Y-0.604 Z-1.364
Y-4.5 Z-1.5
X11.998 Y-4.509
X11.977 Y-4.566
X11.976 Y-4.582
X11.985 Y-4.595
X12 Y-4.6
S1000
X12.1 F190
Y4.6
X11.9
Y-4.6
X12
X12.019 Y-4.594
X12.031 Y-4.579
X12.033 Y-4.56
X12.001 Y-4.407
X12 Y-4.4
Y-3.749
S5000
Y-4.524 Z-1.527 F10
Y-0.604 Z-1.664
Y-4.5 Z-1.8
X11.998 Y-4.509
X11.977 Y-4.566
X11.976 Y-4.582
X11.985 Y-4.595
X12 Y-4.6
S1000
X12.1 F190
Y4.6
X11.9
Y-4.6
X12
X12.019 Y-4.594
X12.031 Y-4.579
X12.033 Y-4.56
X12.001 Y-4.407
X12 Y-4.4
Y-3.749
S5000
Y-4.524 Z-1.827 F10
Y-0.604 Z-1.964
Y-4.5 Z-2.1
X11.998 Y-4.509
X11.977 Y-4.566
X11.976 Y-4.582
X11.985 Y-4.595
X12 Y-4.6
S1000
X12.1 F190
Y4.6
X11.9
Y-4.6
X12
X12.019 Y-4.594
X12.031 Y-4.579
X12.033 Y-4.56
X12.001 Y-4.407
X12 Y-4.4
Y-3.749
S5000
Y-4.524 Z-2.127 F10
Y-0.604 Z-2.264
Y-4.5 Z-2.4
X11.998 Y-4.509
X11.977 Y-4.566
X11.976 Y-4.582
X11.985 Y-4.595
X12 Y-4.6
S1000
X12.1 F190
Y4.6
X11.9
Y-4.6
X12
X12.019 Y-4.594
X12.031 Y-4.579
X12.033 Y-4.56
X12.001 Y-4.407
X12 Y-4.4
Y-3.749
S5000
Y-4.524 Z-2.427 F10
Y-0.604 Z-2.564
Y-4.5 Z-2.7
X11.998 Y-4.509
X11.977 Y-4.566
X11.976 Y-4.582
X11.985 Y-4.595
X12 Y-4.6
S1000
X12.1 F190
Y4.6
X11.9
Y-4.6
X12
X12.019 Y-4.594
X12.031 Y-4.579
X12.033 Y-4.56
X12.001 Y-4.407
X12 Y-4.4
Y-2.435
S5000
Y-0.604 Z-2.764 F10
Y-4.5 Z-2.9
X11.998 Y-4.509
X11.977 Y-4.566
X11.976 Y-4.582
X11.985 Y-4.595
X12 Y-4.6
S1000
X12.1 F190
Y4.6
X11.9
Y-4.6
X12
G0 Z15

(2D Pocket1 20)
X14 Y-2.718
Z15
Z3
G1 Z2.5 F25
S5000
Y-4.524 Z2.437 F10
Y-0.604 Z2.3
Y-4.524 Z2.163
Y-0.604 Z2.026
Y-4.524 Z1.889
Y-0.604 Z1.753
Y-4.524 Z1.616
Y-0.604 Z1.479
Y-4.524 Z1.342
Y-0.604 Z1.205
Y-4.524 Z1.068
Y-0.604 Z0.931
Y-4.524 Z0.794
Y-0.604 Z0.657
Y-4.524 Z0.52
Y-0.604 Z0.384
Y-4.524 Z0.247
Y-0.604 Z0.11
Y-4.524 Z-0.027
Y-0.604 Z-0.164
Y-4.5 Z-0.3
X13.998 Y-4.509
X13.977 Y-4.566
X13.976 Y-4.582
X13.985 Y-4.595
X14 Y-4.6
S1000
X14.1 F200
Y4.6
X13.9
Y-4.6
X14
X14.019 Y-4.594
X14.031 Y-4.579
X14.033 Y-4.56
X14.001 Y-4.407
X14 Y-4.4
Y-3.749
S5000
Y-4.524 Z-0.327 F10
Y-0.604 Z-0.464
Y-4.5 Z-0.6
X13.998 Y-4.509
X13.977 Y-4.566
X13.976 Y-4.582
X13.985 Y-4.595
X14 Y-4.6
S1000
X14.1 F200
Y4.6
X13.9
Y-4.6
X14
X14.019 Y-4.594
X14.031 Y-4.579
X14.033 Y-4.56
X14.001 Y-4.407
X14 Y-4.4
Y-3.749
S5000
Y-4.524 Z-0.627 F10
Y-0.604 Z-0.764
Y-4.5 Z-0.9
X13.998 Y-4.509
X13.977 Y-4.566
X13.976 Y-4.582
X13.985 Y-4.595
X14 Y-4.6
S1000
X14.1 F200
Y4.6
X13.9
Y-4.6
X14
X14.019 Y-4.594
X14.031 Y-4.579
X14.033 Y-4.56
X14.001 Y-4.407
X14 Y-4.4
Y-3.749
S5000
Y-4.524 Z-0.927 F10
Y-0.604 Z-1.064
Y-4.5 Z-1.2
X13.998 Y-4.509
X13.977 Y-4.566
X13.976 Y-4.582
X13.985 Y-4.595
X14 Y-4.6
S1000
X14.1 F200
Y4.6
X13.9
Y-4.6
X14
X14.019 Y-4.594
X14.031 Y-4.579
X14.033 Y-4.56
X14.001 Y-4.407
X14 Y-4.4
Y-3.749
S5000
Y-4.524 Z-1.227 F10
Y-0.604 Z-1.364
Y-4.5 Z-1.5
X13.998 Y-4.509
X13.977 Y-4.566
X13.976 Y-4.582
X13.985 Y-4.595
X14 Y-4.6
S1000
X14.1 F200
Y4.6
X13.9
Y-4.6
X14
X14.019 Y-4.594
X14.031 Y-4.579
X14.033 Y-4.56
X14.001 Y-4.407
X14 Y-4.4
Y-3.749
S5000
Y-4.524 Z-1.527 F10
Y-0.604 Z-1.664
Y-4.5 Z-1.8
X13.998 Y-4.509
X13.977 Y-4.566
X13.976 Y-4.582
X13.985 Y-4.595
X14 Y-4.6
S1000
X14.1 F200
Y4.6
X13.9
Y-4.6
X14
X14.019 Y-4.594
X14.031 Y-4.579
X14.033 Y-4.56
X14.001 Y-4.407
X14 Y-4.4
Y-3.749
S5000
Y-4.524 Z-1.827 F10
Y-0.604 Z-1.964
Y-4.5 Z-2.1
X13.998 Y-4.509
X13.977 Y-4.566
X13.976 Y-4.582
X13.985 Y-4.595
X14 Y-4.6
S1000
X14.1 F200
Y4.6
X13.9
Y-4.6
X14
X14.019 Y-4.594
X14.031 Y-4.579
X14.033 Y-4.56
X14.001 Y-4.407
X14 Y-4.4
Y-3.749
S5000
Y-4.524 Z-2.127 F10
Y-0.604 Z-2.264
Y-4.5 Z-2.4
X13.998 Y-4.509
X13.977 Y-4.566
X13.976 Y-4.582
X13.985 Y-4.595
X14 Y-4.6
S1000
X14.1 F200
Y4.6
X13.9
Y-4.6
X14
X14.019 Y-4.594
X14.031 Y-4.579
X14.033 Y-4.56
X14.001 Y-4.407
X14 Y-4.4
Y-3.749
S5000
Y-4.524 Z-2.427 F10
Y-0.604 Z-2.564
Y-4.5 Z-2.7
X13.998 Y-4.509
X13.977 Y-4.566
X13.976 Y-4.582
X13.985 Y-4.595
X14 Y-4.6
S1000
X14.1 F200
Y4.6
X13.9
Y-4.6
X14
X14.019 Y-4.594
X14.031 Y-4.579
X14.033 Y-4.56
X14.001 Y-4.407
X14 Y-4.4
Y-2.435
S5000
Y-0.604 Z-2.764 F10
Y-4.5 Z-2.9
X13.998 Y-4.509
X13.977 Y-4.566
X13.976 Y-4.582
X13.985 Y-4.595
X14 Y-4.6
S1000
X14.1 F200
Y4.6
X13.9
Y-4.6
X14
G0 Z15

(2D Pocket1 21)
X16 Y-2.718
Z15
Z3
G1 Z2.5 F25
S5000
Y-4.524 Z2.437 F10
Y-0.604 Z2.3
Y-4.524 Z2.163
Y-0.604 Z2.026
Y-4.524 Z1.889
Y-0.604 Z1.753
Y-4.524 Z1.616
Y-0.604 Z1.479
Y-4.524 Z1.342
Y-0.604 Z1.205
Y-4.524 Z1.068
Y-0.604 Z0.931
Y-4.524 Z0.794
Y-0.604 Z0.657
Y-4.524 Z0.52
Y-0.604 Z0.384
Y-4.524 Z0.247
Y-0.604 Z0.11
Y-4.524 Z-0.027
Y-0.604 Z-0.164
Y-4.5 Z-0.3
X15.998 Y-4.509
X15.977 Y-4.566
X15.976 Y-4.582
X15.985 Y-4.595
X16 Y-4.6
S1000
X16.1 F210
Y4.6
X15.9
Y-4.6
X16
X16.019 Y-4.594
X16.031 Y-4.579
X16.033 Y-4.56
X16.001 Y-4.407
X16 Y-4.4
Y-3.749
S5000
Y-4.524 Z-0.327 F10
Y-0.604 Z-0.464
Y-4.5 Z-0.6
X15.998 Y-4.509
X15.977 Y-4.566
X15.976 Y-4.582
X15.985 Y-4.595
X16 Y-4.6
S1000
X16.1 F210
Y4.6
X15.9
Y-4.6
X16
X16.019 Y-4.594
X16.031 Y-4.579
X16.033 Y-4.56
X16.001 Y-4.407
X16 Y-4.4
Y-3.749
S5000
Y-4.524 Z-0.627 F10
Y-0.604 Z-0.764
Y-4.5 Z-0.9
X15.998 Y-4.509
X15.977 Y-4.566
X15.976 Y-4.582
X15.985 Y-4.595
X16 Y-4.6
S1000
X16.1 F210
Y4.6
X15.9
Y-4.6
X16
X16.019 Y-4.594
X16.031 Y-4.579
X16.033 Y-4.56
X16.001 Y-4.407
X16 Y-4.4
Y-3.749
S5000
Y-4.524 Z-0.927 F10
Y-0.604 Z-1.064
Y-4.5 Z-1.2
X15.998 Y-4.509
X15.977 Y-4.566
X15.976 Y-4.582
X15.985 Y-4.595
X16 Y-4.6
S1000
X16.1 F210
Y4.6
X15.9
Y-4.6
X16
X16.019 Y-4.594
X16.031 Y-4.579
X16.033 Y-4.56
X16.001 Y-4.407
X16 Y-4.4
Y-3.749
S5000
Y-4.524 Z-1.227 F10
Y-0.604 Z-1.364
Y-4.5 Z-1.5
X15.998 Y-4.509
X15.977 Y-4.566
X15.976 Y-4.582
X15.985 Y-4.595
X16 Y-4.6
S1000
X16.1 F210
Y4.6
X15.9
Y-4.6
X16
X16.019 Y-4.594
X16.031 Y-4.579
X16.033 Y-4.56
X16.001 Y-4.407
X16 Y-4.4
Y-3.749
S5000
Y-4.524 Z-1.527 F10
Y-0.604 Z-1.664
Y-4.5 Z-1.8
X15.998 Y-4.509
X15.977 Y-4.566
X15.976 Y-4.582
X15.985 Y-4.595
X16 Y-4.6
S1000
X16.1 F210
Y4.6
X15.9
Y-4.6
X16
X16.019 Y-4.594
X16.031 Y-4.579
X16.033 Y-4.56
X16.001 Y-4.407
X16 Y-4.4
Y-3.749
S5000
Y-4.524 Z-1.827 F10
Y-0.604 Z-1.964
Y-4.5 Z-2.1
X15.998 Y-4.509
X15.977 Y-4.566
X15.976 Y-4.582
X15.985 Y-4.595
X16 Y-4.6
S1000
X16.1 F210
Y4.6
X15.9
Y-4.6
X16
X16.019 Y-4.594
X16.031 Y-4.579
X16.033 Y-4.56
X16.001 Y-4.407
X16 Y-4.4
Y-3.749
S5000
Y-4.524 Z-2.127 F10
Y-0.604 Z-2.264
Y-4.5 Z-2.4
X15.998 Y-4.509
X15.977 Y-4.566
X15.976 Y-4.582
X15.985 Y-4.595
X16 Y-4.6
S1000
X16.1 F210
Y4.6
X15.9
Y-4.6
X16
X16.019 Y-4.594
X16.031 Y-4.579
X16.033 Y-4.56
X16.001 Y-4.407
X16 Y-4.4
Y-3.749
S5000
Y-4.524 Z-2.427 F10
Y-0.604 Z-2.564
Y-4.5 Z-2.7
X15.998 Y-4.509
X15.977 Y-4.566
X15.976 Y-4.582
X15.985 Y-4.595
X16 Y-4.6
S1000
X16.1 F210
Y4.6
X15.9
Y-4.6
X16
X16.019 Y-4.594
X16.031 Y-4.579
X16.033 Y-4.56
X16.001 Y-4.407
X16 Y-4.4
Y-2.435
S5000
Y-0.604 Z-2.764 F10
Y-4.5 Z-2.9
X15.998 Y-4.509
X15.977 Y-4.566
X15.976 Y-4.582
X15.985 Y-4.595
X16 Y-4.6
S1000
X16.1 F210
Y4.6
X15.9
Y-4.6
X16
G0 Z15

(2D Pocket1 22)
X18 Y-2.718
Z15
Z3
G1 Z2.5 F25
S5000
Y-4.524 Z2.437 F10
Y-0.604 Z2.3
Y-4.524 Z2.163
Y-0.604 Z2.026
Y-4.524 Z1.889
Y-0.604 Z1.753
Y-4.524 Z1.616
Y-0.604 Z1.479
Y-4.524 Z1.342
Y-0.604 Z1.205
Y-4.524 Z1.068
Y-0.604 Z0.931
Y-4.524 Z0.794
Y-0.604 Z0.657
Y-4.524 Z0.52
Y-0.604 Z0.384
Y-4.524 Z0.247
Y-0.604 Z0.11
Y-4.524 Z-0.027
Y-0.604 Z-0.164
Y-4.5 Z-0.3
X17.998 Y-4.509
X17.977 Y-4.566
X17.976 Y-4.582
X17.985 Y-4.595
X18 Y-4.6
S1000
X18.1 F220
Y4.6
X17.9
Y-4.6
X18
X18.019 Y-4.594
X18.031 Y-4.579
X18.033 Y-4.56
X18.001 Y-4.407
X18 Y-4.4
Y-3.749
S5000
Y-4.524 Z-0.327 F10
Y-0.604 Z-0.464
Y-4.5 Z-0.6
X17.998 Y-4.509
X17.977 Y-4.566
X17.976 Y-4.582
X17.985 Y-4.595
X18 Y-4.6
S1000
X18.1 F220
Y4.6
X17.9
Y-4.6
X18
X18.019 Y-4.594
X18.031 Y-4.579
X18.033 Y-4.56
X18.001 Y-4.407
X18 Y-4.4
Y-3.749
S5000
Y-4.524 Z-0.627 F10
Y-0.604 Z-0.764
Y-4.5 Z-0.9
X17.998 Y-4.509
X17.977 Y-4.566
X17.976 Y-4.582
X17.985 Y-4.595
X18 Y-4.6
S1000
X18.1 F220
Y4.6
X17.9
Y-4.6
X18
X18.019 Y-4.594
X18.031 Y-4.579
X18.033 Y-4.56
X18.001 Y-4.407
X18 Y-4.4
Y-3.749
S5000
Y-4.524 Z-0.927 F10
Y-0.604 Z-1.064
Y-4.5 Z-1.2
X17.998 Y-4.509
X17.977 Y-4.566
X17.976 Y-4.582
X17.985 Y-4.595
X18 Y-4.6
S1000
X18.1 F220
Y4.6
X17.9
Y-4.6
X18
X18.019 Y-4.594
X18.031 Y-4.579
X18.033 Y-4.56
X18.001 Y-4.407
X18 Y-4.4
Y-3.749
S5000
Y-4.524 Z-1.227 F10
Y-0.604 Z-1.364
Y-4.5 Z-1.5
X17.998 Y-4.509
X17.977 Y-4.566
X17.976 Y-4.582
X17.985 Y-4.595
X18 Y-4.6
S1000
X18.1 F220
Y4.6
X17.9
Y-4.6
X18
X18.019 Y-4.594
X18.031 Y-4.579
X18.033 Y-4.56
X18.001 Y-4.407
X18 Y-4.4
Y-3.749
S5000
Y-4.524 Z-1.527 F10
Y-0.604 Z-1.664
Y-4.5 Z-1.8
X17.998 Y-4.509
X17.977 Y-4.566
X17.976 Y-4.582
X17.985 Y-4.595
X18 Y-4.6
S1000
X18.1 F220
Y4.6
X17.9
Y-4.6
X18
X18.019 Y-4.594
X18.031 Y-4.579
X18.033 Y-4.56
X18.001 Y-4.407
X18 Y-4.4
Y-3.749
S5000
Y-4.524 Z-1.827 F10
Y-0.604 Z-1.964
Y-4.5 Z-2.1
X17.998 Y-4.509
X17.977 Y-4.566
X17.976 Y-4.582
X17.985 Y-4.595
X18 Y-4.6
S1000
X18.1 F220
Y4.6
X17.9
Y-4.6
X18
X18.019 Y-4.594
X18.031 Y-4.579
X18.033 Y-4.56
X18.001 Y-4.407
X18 Y-4.4
Y-3.749
S5000
Y-4.524 Z-2.127 F10
Y-0.604 Z-2.264
Y-4.5 Z-2.4
X17.998 Y-4.509
X17.977 Y-4.566
X17.976 Y-4.582
X17.985 Y-4.595
X18 Y-4.6
S1000
X18.1 F220
Y4.6
X17.9
Y-4.6
X18
X18.019 Y-4.594
X18.031 Y-4.579
X18.033 Y-4.56
X18.001 Y-4.407
X18 Y-4.4
Y-3.749
S5000
Y-4.524 Z-2.427 F10
Y-0.604 Z-2.564
Y-4.5 Z-2.7
X17.998 Y-4.509
X17.977 Y-4.566
X17.976 Y-4.582
X17.985 Y-4.595
X18 Y-4.6
S1000
X18.1 F220
Y4.6
X17.9
Y-4.6
X18
X18.019 Y-4.594
X18.031 Y-4.579
X18.033 Y-4.56
X18.001 Y-4.407
X18 Y-4.4
Y-2.435
S5000
Y-0.604 Z-2.764 F10
Y-4.5 Z-2.9
X17.998 Y-4.509
X17.977 Y-4.566
X17.976 Y-4.582
X17.985 Y-4.595
X18 Y-4.6
S1000
X18.1 F220
Y4.6
X17.9
Y-4.6
X18
G0 Z15

(2D Pocket1 23)
X20 Y-2.718
Z15
Z3
G1 Z2.5 F25
S5000
Y-4.524 Z2.437 F10
Y-0.604 Z2.3
Y-4.524 Z2.163
Y-0.604 Z2.026
Y-4.524 Z1.889
Y-0.604 Z1.753
Y-4.524 Z1.616
Y-0.604 Z1.479
Y-4.524 Z1.342
Y-0.604 Z1.205
Y-4.524 Z1.068
Y-0.604 Z0.931
Y-4.524 Z0.794
Y-0.604 Z0.657
Y-4.524 Z0.52
Y-0.604 Z0.384
Y-4.524 Z0.247
Y-0.604 Z0.11
Y-4.524 Z-0.027
Y-0.604 Z-0.164
Y-4.5 Z-0.3
X19.998 Y-4.509
X19.977 Y-4.566
X19.976 Y-4.582
X19.985 Y-4.595
X20 Y-4.6
S1000
X20.1 F230
Y4.6
X19.9
Y-4.6
X20
X20.019 Y-4.594
X20.031 Y-4.579
X20.033 Y-4.56
X20.001 Y-4.407
X20 Y-4.4
Y-3.749
S5000
Y-4.524 Z-0.327 F10
Y-0.604 Z-0.464
Y-4.5 Z-0.6
X19.998 Y-4.509
X19.977 Y-4.566
X19.976 Y-4.582
X19.985 Y-4.595
X20 Y-4.6
S1000
X20.1 F230
Y4.6
X19.9
Y-4.6
X20
X20.019 Y-4.594
X20.031 Y-4.579
X20.033 Y-4.56
X20.001 Y-4.407
X20 Y-4.4
Y-3.749
S5000
Y-4.524 Z-0.627 F10
Y-0.604 Z-0.764
Y-4.5 Z-0.9
X19.998 Y-4.509
X19.977 Y-4.566
X19.976 Y-4.582
X19.985 Y-4.595
X20 Y-4.6
S1000
X20.1 F230
Y4.6
X19.9
Y-4.6
X20
X20.019 Y-4.594
X20.031 Y-4.579
X20.033 Y-4.56
X20.001 Y-4.407
X20 Y-4.4
Y-3.749
S5000
Y-4.524 Z-0.927 F10
Y-0.604 Z-1.064
Y-4.5 Z-1.2
X19.998 Y-4.509
X19.977 Y-4.566
X19.976 Y-4.582
X19.985 Y-4.595
X20 Y-4.6
S1000
X20.1 F230
Y4.6
X19.9
Y-4.6
X20
X20.019 Y-4.594
X20.031 Y-4.579
X20.033 Y-4.56
X20.001 Y-4.407
X20 Y-4.4
Y-3.749
S5000
Y-4.524 Z-1.227 F10
Y-0.604 Z-1.364
Y-4.5 Z-1.5
X19.998 Y-4.509
X19.977 Y-4.566
X19.976 Y-4.582
X19.985 Y-4.595
X20 Y-4.6
S1000
X20.1 F230
Y4.6
X19.9
Y-4.6
X20
X20.019 Y-4.594
X20.031 Y-4.579
X20.033 Y-4.56
X20.001 Y-4.407
X20 Y-4.4
Y-3.749
S5000
Y-4.524 Z-1.527 F10
Y-0.604 Z-1.664
Y-4.5 Z-1.8
X19.998 Y-4.509
X19.977 Y-4.566
X19.976 Y-4.582
X19.985 Y-4.595
X20 Y-4.6
S1000
X20.1 F230
Y4.6
X19.9
Y-4.6
X20
X20.019 Y-4.594
X20.031 Y-4.579
X20.033 Y-4.56
X20.001 Y-4.407
X20 Y-4.4
Y-3.749
S5000
Y-4.524 Z-1.827 F10
Y-0.604 Z-1.964
Y-4.5 Z-2.1
X19.998 Y-4.509
X19.977 Y-4.566
X19.976 Y-4.582
X19.985 Y-4.595
X20 Y-4.6
S1000
X20.1 F230
Y4.6
X19.9
Y-4.6
X20
X20.019 Y-4.594
X20.031 Y-4.579
X20.033 Y-4.56
X20.001 Y-4.407
X20 Y-4.4
Y-3.749
S5000
Y-4.524 Z-2.127 F10
Y-0.604 Z-2.264
Y-4.5 Z-2.4
X19.998 Y-4.509
X19.977 Y-4.566
X19.976 Y-4.582
X19.985 Y-4.595
X20 Y-4.6
S1000
X20.1 F230
Y4.6
X19.9
Y-4.6
X20
X20.019 Y-4.594
X20.031 Y-4.579
X20.033 Y-4.56
X20.001 Y-4.407
X20 Y-4.4
Y-3.749
S5000
Y-4.524 Z-2.427 F10
Y-0.604 Z-2.564
Y-4.5 Z-2.7
X19.998 Y-4.509
X19.977 Y-4.566
X19.976 Y-4.582
X19.985 Y-4.595
X20 Y-4.6
S1000
X20.1 F230
Y4.6
X19.9
Y-4.6
X20
X20.019 Y-4.594
X20.031 Y-4.579
X20.033 Y-4.56
X20.001 Y-4.407
X20 Y-4.4
Y-2.435
S5000
Y-0.604 Z-2.764 F10
Y-4.5 Z-2.9
X19.998 Y-4.509
X19.977 Y-4.566
X19.976 Y-4.582
X19.985 Y-4.595
X20 Y-4.6
S1000
X20.1 F230
Y4.6
X19.9
Y-4.6
X20
G0 Z15

(2D Pocket1 24)
X22 Y-2.718
Z15
Z3
G1 Z2.5 F25
S5000
Y-4.524 Z2.437 F10
Y-0.604 Z2.3
Y-4.524 Z2.163
Y-0.604 Z2.026
Y-4.524 Z1.889
Y-0.604 Z1.753
Y-4.524 Z1.616
Y-0.604 Z1.479
Y-4.524 Z1.342
Y-0.604 Z1.205
Y-4.524 Z1.068
Y-0.604 Z0.931
Y-4.524 Z0.794
Y-0.604 Z0.657
Y-4.524 Z0.52
Y-0.604 Z0.384
Y-4.524 Z0.247
Y-0.604 Z0.11
Y-4.524 Z-0.027
Y-0.604 Z-0.164
Y-4.5 Z-0.3
X21.998 Y-4.509
X21.977 Y-4.566
X21.976 Y-4.582
X21.985 Y-4.595
X22 Y-4.6
S1000
X22.1 F240
Y4.6
X21.9
Y-4.6
X22
X22.019 Y-4.594
X22.031 Y-4.579
X22.033 Y-4.56
X22.001 Y-4.407
X22 Y-4.4
Y-3.749
S5000
Y-4.524 Z-0.327 F10
Y-0.604 Z-0.464
Y-4.5 Z-0.6
X21.998 Y-4.509
X21.977 Y-4.566
X21.976 Y-4.582
X21.985 Y-4.595
X22 Y-4.6
S1000
X22.1 F240
Y4.6
X21.9
Y-4.6
X22
X22.019 Y-4.594
X22.031 Y-4.579
X22.033 Y-4.56
X22.001 Y-4.407
X22 Y-4.4
Y-3.749
S5000
Y-4.524 Z-0.627 F10
Y-0.604 Z-0.764
Y-4.5 Z-0.9
X21.998 Y-4.509
X21.977 Y-4.566
X21.976 Y-4.582
X21.985 Y-4.595
X22 Y-4.6
S1000
X22.1 F240
Y4.6
X21.9
Y-4.6
X22
X22.019 Y-4.594
X22.031 Y-4.579
X22.033 Y-4.56
X22.001 Y-4.407
X22 Y-4.4
Y-3.749
S5000
Y-4.524 Z-0.927 F10
Y-0.604 Z-1.064
Y-4.5 Z-1.2
X21.998 Y-4.509
X21.977 Y-4.566
X21.976 Y-4.582
X21.985 Y-4.595
X22 Y-4.6
S1000
X22.1 F240
Y4.6
X21.9
Y-4.6
X22
X22.019 Y-4.594
X22.031 Y-4.579
X22.033 Y-4.56
X22.001 Y-4.407
X22 Y-4.4
Y-3.749
S5000
Y-4.524 Z-1.227 F10
Y-0.604 Z-1.364
Y-4.5 Z-1.5
X21.998 Y-4.509
X21.977 Y-4.566
X21.976 Y-4.582
X21.985 Y-4.595
X22 Y-4.6
S1000
X22.1 F240
Y4.6
X21.9
Y-4.6
X22
X22.019 Y-4.594
X22.031 Y-4.579
X22.033 Y-4.56
X22.001 Y-4.407
X22 Y-4.4
Y-3.749
S5000
Y-4.524 Z-1.527 F10
Y-0.604 Z-1.664
Y-4.5 Z-1.8
X21.998 Y-4.509
X21.977 Y-4.566
X21.976 Y-4.582
X21.985 Y-4.595
X22 Y-4.6
S1000
X22.1 F240
Y4.6
X21.9
Y-4.6
X22
X22.019 Y-4.594
X22.031 Y-4.579
X22.033 Y-4.56
X22.001 Y-4.407
X22 Y-4.4
Y-3.749
S5000
Y-4.524 Z-1.827 F10
Y-0.604 Z-1.964
Y-4.5 Z-2.1
X21.998 Y-4.509
X21.977 Y-4.566
X21.976 Y-4.582
X21.985 Y-4.595
X22 Y-4.6
S1000
X22.1 F240
Y4.6
X21.9
Y-4.6
X22
X22.019 Y-4.594
X22.031 Y-4.579
X22.033 Y-4.56
X22.001 Y-4.407
X22 Y-4.4
Y-3.749
S5000
Y-4.524 Z-2.127 F10
Y-0.604 Z-2.264
Y-4.5 Z-2.4
X21.998 Y-4.509
X21.977 Y-4.566
X21.976 Y-4.582
X21.985 Y-4.595
X22 Y-4.6
S1000
X22.1 F240
Y4.6
X21.9
Y-4.6
X22
X22.019 Y-4.594
X22.031 Y-4.579
X22.033 Y-4.56
X22.001 Y-4.407
X22 Y-4.4
Y-3.749
S5000
Y-4.524 Z-2.427 F10
Y-0.604 Z-2.564
Y-4.5 Z-2.7
X21.998 Y-4.509
X21.977 Y-4.566
X21.976 Y-4.582
X21.985 Y-4.595
X22 Y-4.6
S1000
X22.1 F240
Y4.6
X21.9
Y-4.6
X22
X22.019 Y-4.594
X22.031 Y-4.579
X22.033 Y-4.56
X22.001 Y-4.407
X22 Y-4.4
Y-2.435
S5000
Y-0.604 Z-2.764 F10
Y-4.5 Z-2.9
X21.998 Y-4.509
X21.977 Y-4.566
X21.976 Y-4.582
X21.985 Y-4.595
X22 Y-4.6
S1000
X22.1 F240
Y4.6
X21.9
Y-4.6
X22
G0 Z15

(2D Pocket1 25)
X24 Y-2.718
Z15
Z3
G1 Z2.5 F25
S5000
Y-4.524 Z2.437 F10
Y-0.604 Z2.3
Y-4.524 Z2.163
Y-0.604 Z2.026
Y-4.524 Z1.889
Y-0.604 Z1.753
Y-4.524 Z1.616
Y-0.604 Z1.479
Y-4.524 Z1.342
Y-0.604 Z1.205
Y-4.524 Z1.068
Y-0.604 Z0.931
Y-4.524 Z0.794
Y-0.604 Z0.657
Y-4.524 Z0.52
Y-0.604 Z0.384
Y-4.524 Z0.247
Y-0.604 Z0.11
Y-4.524 Z-0.027
Y-0.604 Z-0.164
Y-4.5 Z-0.3
X23.998 Y-4.509
X23.977 Y-4.566
X23.976 Y-4.582
X23.985 Y-4.595
X24 Y-4.6
S1000
X24.1 F250
Y4.6
X23.9
Y-4.6
X24
X24.019 Y-4.594
X24.031 Y-4.579
X24.033 Y-4.56
X24.001 Y-4.407
X24 Y-4.4
Y-3.749
S5000
Y-4.524 Z-0.327 F10
Y-0.604 Z-0.464
Y-4.5 Z-0.6
X23.998 Y-4.509
X23.977 Y-4.566
X23.976 Y-4.582
X23.985 Y-4.595
X24 Y-4.6
S1000
X24.1 F250
Y4.6
X23.9
Y-4.6
X24
X24.019 Y-4.594
X24.031 Y-4.579
X24.033 Y-4.56
X24.001 Y-4.407
X24 Y-4.4
Y-3.749
S5000
Y-4.524 Z-0.627 F10
Y-0.604 Z-0.764
Y-4.5 Z-0.9
X23.998 Y-4.509
X23.977 Y-4.566
X23.976 Y-4.582
X23.985 Y-4.595
X24 Y-4.6
S1000
X24.1 F250
Y4.6
X23.9
Y-4.6
X24
X24.019 Y-4.594
X24.031 Y-4.579
X24.033 Y-4.56
X24.001 Y-4.407
X24 Y-4.4
Y-3.749
S5000
Y-4.524 Z-0.927 F10
Y-0.604 Z-1.064
Y-4.5 Z-1.2
X23.998 Y-4.509
X23.977 Y-4.566
X23.976 Y-4.582
X23.985 Y-4.595
X24 Y-4.6
S1000
X24.1 F250
Y4.6
X23.9
Y-4.6
X24
X24.019 Y-4.594
X24.031 Y-4.579
X24.033 Y-4.56
X24.001 Y-4.407
X24 Y-4.4
Y-3.749
S5000
Y-4.524 Z-1.227 F10
Y-0.604 Z-1.364
Y-4.5 Z-1.5
X23.998 Y-4.509
X23.977 Y-4.566
X23.976 Y-4.582
X23.985 Y-4.595
X24 Y-4.6
S1000
X24.1 F250
Y4.6
X23.9
Y-4.6
X24
X24.019 Y-4.594
X24.031 Y-4.579
X24.033 Y-4.56
X24.001 Y-4.407
X24 Y-4.4
Y-3.749
S5000
Y-4.524 Z-1.527 F10
Y-0.604 Z-1.664
Y-4.5 Z-1.8
X23.998 Y-4.509
X23.977 Y-4.566
X23.976 Y-4.582
X23.985 Y-4.595
X24 Y-4.6
S1000
X24.1 F250
Y4.6
X23.9
Y-4.6
X24
X24.019 Y-4.594
X24.031 Y-4.579
X24.033 Y-4.56
X24.001 Y-4.407
X24 Y-4.4
Y-3.749
S5000
Y-4.524 Z-1.827 F10
Y-0.604 Z-1.964
Y-4.5 Z-2.1
X23.998 Y-4.509
X23.977 Y-4.566
X23.976 Y-4.582
X23.985 Y-4.595
X24 Y-4.6
S1000
X24.1 F250
Y4.6
X23.9
Y-4.6
X24
X24.019 Y-4.594
X24.031 Y-4.579
X24.033 Y-4.56
X24.001 Y-4.407
X24 Y-4.4
Y-3.749
S5000
Y-4.524 Z-2.127 F10
Y-0.604 Z-2.264
Y-4.5 Z-2.4
X23.998 Y-4.509
X23.977 Y-4.566
X23.976 Y-4.582
X23.985 Y-4.595
X24 Y-4.6
S1000
X24.1 F250
Y4.6
X23.9
Y-4.6
X24
X24.019 Y-4.594
X24.031 Y-4.579
X24.033 Y-4.56
X24.001 Y-4.407
X24 Y-4.4
Y-3.749
S5000
Y-4.524 Z-2.427 F10
Y-0.604 Z-2.564
Y-4.5 Z-2.7
X23.998 Y-4.509
X23.977 Y-4.566
X23.976 Y-4.582
X23.985 Y-4.595
X24 Y-4.6
S1000
X24.1 F250
Y4.6
X23.9
Y-4.6
X24
X24.019 Y-4.594
X24.031 Y-4.579
X24.033 Y-4.56
X24.001 Y-4.407
X24 Y-4.4
Y-2.435
S5000
Y-0.604 Z-2.764 F10
Y-4.5 Z-2.9
X23.998 Y-4.509
X23.977 Y-4.566
X23.976 Y-4.582
X23.985 Y-4.595
X24 Y-4.6
S1000
X24.1 F250
Y4.6
X23.9
Y-4.6
X24
G0 Z15
M9
M5
M30
