(1001)
(T1  D=0.8 CR=0 - ZMIN=-2.9 - flat end mill)
G90 G94
G17
G21

(2D Pocket1 8)
T1
S1000 M3
G54
M8
G0 X-10.1 Y0.206
Z15
Z3
G1 Z2.5 F25
S5000
Y-4.6 Z2.332 F100
X-9.9 Z2.325
Y4.6 Z2.004
X-10.1 Z1.997
Y-4.6 Z1.676
X-9.9 Z1.669
Y4.6 Z1.347
X-10.1 Z1.34
Y-4.6 Z1.019
X-9.9 Z1.012
Y4.6 Z0.691
X-10.1 Z0.684
Y-4.6 Z0.363
X-9.9 Z0.356
Y4.6 Z0.034
X-10.1 Z0.027
Y-4.6 Z-0.294
X-9.924 Z-0.3
S1000
X-9.9 F80
Y4.6
X-10.1
Y-4.6
X-9.924
S5000
X-9.9 Z-0.301 F100
Y3.967 Z-0.6
S1000
Y4.6 F80
X-10.1
Y-4.6
X-9.924
X-9.9
Y3.967
S5000
Y4.6 Z-0.622 F100
X-10.1 Z-0.629
Y-3.158 Z-0.9
S1000
Y-4.6 F80
X-9.9
Y3.967
Y4.6
X-10.1
Y-3.158
S5000
Y-4.6 Z-0.95 F100
X-9.9 Z-0.957
Y2.349 Z-1.2
S1000
Y4.6 F80
X-10.1
Y-3.158
Y-4.6
X-9.9
Y2.349
S5000
Y4.6 Z-1.279 F100
X-10.1 Z-1.286
Y-1.54 Z-1.5
S1000
Y-4.6 F80
X-9.9
Y2.349
Y4.6
X-10.1
Y-1.54
S5000
Y-4.6 Z-1.607 F100
X-9.9 Z-1.614
Y0.73 Z-1.8
S1000
Y4.6 F80
X-10.1
Y-1.54
Y-4.6
X-9.9
Y0.73
S5000
Y4.6 Z-1.935 F100
X-10.1 Z-1.942
Y0.079 Z-2.1
S1000
Y-4.6 F80
X-9.9
Y0.73
Y4.6
X-10.1
Y0.079
S5000
Y-4.6 Z-2.263 F100
X-9.9 Z-2.27
Y-0.888 Z-2.4
S1000
Y4.6 F80
X-10.1
Y-4.6
X-9.9
Y-0.888
S5000
Y4.6 Z-2.592 F100
X-10.1 Z-2.599
Y1.697 Z-2.7
S1000
Y-4.6 F80
X-9.9
Y4.6
X-10.1
Y1.697
S5000
Y-4.03 Z-2.9 F100
S1000
Y-4.6 F80
X-9.9
Y4.6
X-10.1
Y-4.03
G0 Z15

(2D Pocket1 9)
X-8.1 Y0.006
Z15
Z3
G1 Z2.5 F25
S5000
Y-4.6 Z2.339 F100
X-7.9 Z2.332
Y4.6 Z2.011
X-8.1 Z2.004
Y-4.6 Z1.683
X-7.9 Z1.676
Y4.6 Z1.354
X-8.1 Z1.347
Y-4.6 Z1.026
X-7.9 Z1.019
Y4.6 Z0.698
X-8.1 Z0.691
Y-4.6 Z0.37
X-7.9 Z0.363
Y4.6 Z0.041
X-8.1 Z0.034
Y-4.6 Z-0.287
X-7.9 Z-0.294
Y-4.424 Z-0.3
S1000
Y4.6 F90
X-8.1
Y-4.6
X-7.9
Y-4.424
S5000
Y4.167 Z-0.6 F100
S1000
Y4.6 F90
X-8.1
Y-4.6
X-7.9
Y4.167
S5000
Y4.6 Z-0.615 F100
X-8.1 Z-0.622
Y-3.358 Z-0.9
S1000
Y-4.6 F90
X-7.9
Y4.167
Y4.6
X-8.1
Y-3.358
S5000
Y-4.6 Z-0.943 F100
X-7.9 Z-0.95
Y2.549 Z-1.2
S1000
Y4.6 F90
X-8.1
Y-3.358
Y-4.6
X-7.9
Y2.549
S5000
Y4.6 Z-1.272 F100
X-8.1 Z-1.279
Y-1.74 Z-1.5
S1000
Y-4.6 F90
X-7.9
Y2.549
Y4.6
X-8.1
Y-1.74
S5000
Y-4.6 Z-1.6 F100
X-7.9 Z-1.607
Y0.93 Z-1.8
S1000
Y4.6 F90
X-8.1
Y-1.74
Y-4.6
X-7.9
Y0.93
S5000
Y4.6 Z-1.928 F100
X-8.1 Z-1.935
Y-0.121 Z-2.1
S1000
Y-4.6 F90
X-7.9
Y0.93
Y4.6
X-8.1
Y-0.121
S5000
Y-4.6 Z-2.256 F100
X-7.9 Z-2.263
Y-0.688 Z-2.4
S1000
Y4.6 F90
X-8.1
Y-0.121
Y-4.6
X-7.9
Y-0.688
S5000
Y4.6 Z-2.585 F100
X-8.1 Z-2.592
Y1.497 Z-2.7
S1000
Y-4.6 F90
X-7.9
Y4.6
X-8.1
Y1.497
S5000
Y-4.23 Z-2.9 F100
S1000
Y-4.6 F90
X-7.9
Y4.6
X-8.1
Y-4.23
G0 Z15

(2D Pocket1 10)
X-6.1 Y0.206
Z15
Z3
G1 Z2.5 F25
S5000
Y-4.6 Z2.332 F100
X-5.9 Z2.325
Y4.6 Z2.004
X-6.1 Z1.997
Y-4.6 Z1.676
X-5.9 Z1.669
Y4.6 Z1.347
X-6.1 Z1.34
Y-4.6 Z1.019
X-5.9 Z1.012
Y4.6 Z0.691
X-6.1 Z0.684
Y-4.6 Z0.363
X-5.9 Z0.356
Y4.6 Z0.034
X-6.1 Z0.027
Y-4.6 Z-0.294
X-5.924 Z-0.3
S1000
X-5.9
Y4.6
X-6.1
Y-4.6
X-5.924
S5000
X-5.9 Z-0.301
Y3.967 Z-0.6
S1000
Y4.6
X-6.1
Y-4.6
X-5.924
X-5.9
Y3.967
S5000
Y4.6 Z-0.622
X-6.1 Z-0.629
Y-3.158 Z-0.9
S1000
Y-4.6
X-5.9
Y3.967
Y4.6
X-6.1
Y-3.158
S5000
Y-4.6 Z-0.95
X-5.9 Z-0.957
Y2.349 Z-1.2
S1000
Y4.6
X-6.1
Y-3.158
Y-4.6
X-5.9
Y2.349
S5000
Y4.6 Z-1.279
X-6.1 Z-1.286
Y-1.54 Z-1.5
S1000
Y-4.6
X-5.9
Y2.349
Y4.6
X-6.1
Y-1.54
S5000
Y-4.6 Z-1.607
X-5.9 Z-1.614
Y0.73 Z-1.8
S1000
Y4.6
X-6.1
Y-1.54
Y-4.6
X-5.9
Y0.73
S5000
Y4.6 Z-1.935
X-6.1 Z-1.942
Y0.079 Z-2.1
S1000
Y-4.6
X-5.9
Y0.73
Y4.6
X-6.1
Y0.079
S5000
Y-4.6 Z-2.263
X-5.9 Z-2.27
Y-0.888 Z-2.4
S1000
Y4.6
X-6.1
Y-4.6
X-5.9
Y-0.888
S5000
Y4.6 Z-2.592
X-6.1 Z-2.599
Y1.697 Z-2.7
S1000
Y-4.6
X-5.9
Y4.6
X-6.1
Y1.697
S5000
Y-4.03 Z-2.9
S1000
Y-4.6
X-5.9
Y4.6
X-6.1
Y-4.03
G0 Z15

(2D Pocket1 11)
X-4.1 Y0.206
Z15
Z3
G1 Z2.5 F25
S5000
Y-4.6 Z2.332 F100
X-3.9 Z2.325
Y4.6 Z2.004
X-4.1 Z1.997
Y-4.6 Z1.676
X-3.9 Z1.669
Y4.6 Z1.347
X-4.1 Z1.34
Y-4.6 Z1.019
X-3.9 Z1.012
Y4.6 Z0.691
X-4.1 Z0.684
Y-4.6 Z0.363
X-3.9 Z0.356
Y4.6 Z0.034
X-4.1 Z0.027
Y-4.6 Z-0.294
X-3.924 Z-0.3
S1000
X-3.9 F110
Y4.6
X-4.1
Y-4.6
X-3.924
S5000
X-3.9 Z-0.301 F100
Y3.967 Z-0.6
S1000
Y4.6 F110
X-4.1
Y-4.6
X-3.924
X-3.9
Y3.967
S5000
Y4.6 Z-0.622 F100
X-4.1 Z-0.629
Y-3.158 Z-0.9
S1000
Y-4.6 F110
X-3.9
Y3.967
Y4.6
X-4.1
Y-3.158
S5000
Y-4.6 Z-0.95 F100
X-3.9 Z-0.957
Y2.349 Z-1.2
S1000
Y4.6 F110
X-4.1
Y-3.158
Y-4.6
X-3.9
Y2.349
S5000
Y4.6 Z-1.279 F100
X-4.1 Z-1.286
Y-1.54 Z-1.5
S1000
Y-4.6 F110
X-3.9
Y2.349
Y4.6
X-4.1
Y-1.54
S5000
Y-4.6 Z-1.607 F100
X-3.9 Z-1.614
Y0.73 Z-1.8
S1000
Y4.6 F110
X-4.1
Y-1.54
Y-4.6
X-3.9
Y0.73
S5000
Y4.6 Z-1.935 F100
X-4.1 Z-1.942
Y0.079 Z-2.1
S1000
Y-4.6 F110
X-3.9
Y0.73
Y4.6
X-4.1
Y0.079
S5000
Y-4.6 Z-2.263 F100
X-3.9 Z-2.27
Y-0.888 Z-2.4
S1000
Y4.6 F110
X-4.1
Y-4.6
X-3.9
Y-0.888
S5000
Y4.6 Z-2.592 F100
X-4.1 Z-2.599
Y1.697 Z-2.7
S1000
Y-4.6 F110
X-3.9
Y4.6
X-4.1
Y1.697
S5000
Y-4.03 Z-2.9 F100
S1000
Y-4.6 F110
X-3.9
Y4.6
X-4.1
Y-4.03
G0 Z15

(2D Pocket1 12)
X-2.1 Y0.206
Z15
Z3
G1 Z2.5 F25
S5000
Y-4.6 Z2.332 F100
X-1.9 Z2.325
Y4.6 Z2.004
X-2.1 Z1.997
Y-4.6 Z1.676
X-1.9 Z1.669
Y4.6 Z1.347
X-2.1 Z1.34
Y-4.6 Z1.019
X-1.9 Z1.012
Y4.6 Z0.691
X-2.1 Z0.684
Y-4.6 Z0.363
X-1.9 Z0.356
Y4.6 Z0.034
X-2.1 Z0.027
Y-4.6 Z-0.294
X-1.924 Z-0.3
S1000
X-1.9 F120
Y4.6
X-2.1
Y-4.6
X-1.924
S5000
X-1.9 Z-0.301 F100
Y3.967 Z-0.6
S1000
Y4.6 F120
X-2.1
Y-4.6
X-1.924
X-1.9
Y3.967
S5000
Y4.6 Z-0.622 F100
X-2.1 Z-0.629
Y-3.158 Z-0.9
S1000
Y-4.6 F120
X-1.9
Y3.967
Y4.6
X-2.1
Y-3.158
S5000
Y-4.6 Z-0.95 F100
X-1.9 Z-0.957
Y2.349 Z-1.2
S1000
Y4.6 F120
X-2.1
Y-3.158
Y-4.6
X-1.9
Y2.349
S5000
Y4.6 Z-1.279 F100
X-2.1 Z-1.286
Y-1.54 Z-1.5
S1000
Y-4.6 F120
X-1.9
Y2.349
Y4.6
X-2.1
Y-1.54
S5000
Y-4.6 Z-1.607 F100
X-1.9 Z-1.614
Y0.73 Z-1.8
S1000
Y4.6 F120
X-2.1
Y-1.54
Y-4.6
X-1.9
Y0.73
S5000
Y4.6 Z-1.935 F100
X-2.1 Z-1.942
Y0.079 Z-2.1
S1000
Y-4.6 F120
X-1.9
Y0.73
Y4.6
X-2.1
Y0.079
S5000
Y-4.6 Z-2.263 F100
X-1.9 Z-2.27
Y-0.888 Z-2.4
S1000
Y4.6 F120
X-2.1
Y-4.6
X-1.9
Y-0.888
S5000
Y4.6 Z-2.592 F100
X-2.1 Z-2.599
Y1.697 Z-2.7
S1000
Y-4.6 F120
X-1.9
Y4.6
X-2.1
Y1.697
S5000
Y-4.03 Z-2.9 F100
S1000
Y-4.6 F120
X-1.9
Y4.6
X-2.1
Y-4.03
G0 Z15

(2D Pocket1 13)
X-0.1 Y0.206
Z15
Z3
G1 Z2.5 F25
S5000
Y-4.6 Z2.332 F100
X0.1 Z2.325
Y4.6 Z2.004
X-0.1 Z1.997
Y-4.6 Z1.676
X0.1 Z1.669
Y4.6 Z1.347
X-0.1 Z1.34
Y-4.6 Z1.019
X0.1 Z1.012
Y4.6 Z0.691
X-0.1 Z0.684
Y-4.6 Z0.363
X0.1 Z0.356
Y4.6 Z0.034
X-0.1 Z0.027
Y-4.6 Z-0.294
X0.076 Z-0.3
S1000
X0.1 F130
Y4.6
X-0.1
Y-4.6
X0.076
S5000
X0.1 Z-0.301 F100
Y3.967 Z-0.6
S1000
Y4.6 F130
X-0.1
Y-4.6
X0.076
X0.1
Y3.967
S5000
Y4.6 Z-0.622 F100
X-0.1 Z-0.629
Y-3.158 Z-0.9
S1000
Y-4.6 F130
X0.1
Y3.967
Y4.6
X-0.1
Y-3.158
S5000
Y-4.6 Z-0.95 F100
X0.1 Z-0.957
Y2.349 Z-1.2
S1000
Y4.6 F130
X-0.1
Y-3.158
Y-4.6
X0.1
Y2.349
S5000
Y4.6 Z-1.279 F100
X-0.1 Z-1.286
Y-1.54 Z-1.5
S1000
Y-4.6 F130
X0.1
Y2.349
Y4.6
X-0.1
Y-1.54
S5000
Y-4.6 Z-1.607 F100
X0.1 Z-1.614
Y0.73 Z-1.8
S1000
Y4.6 F130
X-0.1
Y-1.54
Y-4.6
X0.1
Y0.73
S5000
Y4.6 Z-1.935 F100
X-0.1 Z-1.942
Y0.079 Z-2.1
S1000
Y-4.6 F130
X0.1
Y0.73
Y4.6
X-0.1
Y0.079
S5000
Y-4.6 Z-2.263 F100
X0.1 Z-2.27
Y-0.888 Z-2.4
S1000
Y4.6 F130
X-0.1
Y-4.6
X0.1
Y-0.888
S5000
Y4.6 Z-2.592 F100
X-0.1 Z-2.599
Y1.697 Z-2.7
S1000
Y-4.6 F130
X0.1
Y4.6
X-0.1
Y1.697
S5000
Y-4.03 Z-2.9 F100
S1000
Y-4.6 F130
X0.1
Y4.6
X-0.1
Y-4.03
G0 Z15

(2D Pocket1 14)
X1.9 Y0.206
Z15
Z3
G1 Z2.5 F25
S5000
Y-4.6 Z2.332 F100
X2.1 Z2.325
Y4.6 Z2.004
X1.9 Z1.997
Y-4.6 Z1.676
X2.1 Z1.669
Y4.6 Z1.347
X1.9 Z1.34
Y-4.6 Z1.019
X2.1 Z1.012
Y4.6 Z0.691
X1.9 Z0.684
Y-4.6 Z0.363
X2.1 Z0.356
Y4.6 Z0.034
X1.9 Z0.027
Y-4.6 Z-0.294
X2.076 Z-0.3
S1000
X2.1 F140
Y4.6
X1.9
Y-4.6
X2.076
S5000
X2.1 Z-0.301 F100
Y3.967 Z-0.6
S1000
Y4.6 F140
X1.9
Y-4.6
X2.076
X2.1
Y3.967
S5000
Y4.6 Z-0.622 F100
X1.9 Z-0.629
Y-3.158 Z-0.9
S1000
Y-4.6 F140
X2.1
Y3.967
Y4.6
X1.9
Y-3.158
S5000
Y-4.6 Z-0.95 F100
X2.1 Z-0.957
Y2.349 Z-1.2
S1000
Y4.6 F140
X1.9
Y-3.158
Y-4.6
X2.1
Y2.349
S5000
Y4.6 Z-1.279 F100
X1.9 Z-1.286
Y-1.54 Z-1.5
S1000
Y-4.6 F140
X2.1
Y2.349
Y4.6
X1.9
Y-1.54
S5000
Y-4.6 Z-1.607 F100
X2.1 Z-1.614
Y0.73 Z-1.8
S1000
Y4.6 F140
X1.9
Y-1.54
Y-4.6
X2.1
Y0.73
S5000
Y4.6 Z-1.935 F100
X1.9 Z-1.942
Y0.079 Z-2.1
S1000
Y-4.6 F140
X2.1
Y0.73
Y4.6
X1.9
Y0.079
S5000
Y-4.6 Z-2.263 F100
X2.1 Z-2.27
Y-0.888 Z-2.4
S1000
Y4.6 F140
X1.9
Y-4.6
X2.1
Y-0.888
S5000
Y4.6 Z-2.592 F100
X1.9 Z-2.599
Y1.697 Z-2.7
S1000
Y-4.6 F140
X2.1
Y4.6
X1.9
Y1.697
S5000
Y-4.03 Z-2.9 F100
S1000
Y-4.6 F140
X2.1
Y4.6
X1.9
Y-4.03
G0 Z15

(2D Pocket1 15)
X3.9 Y0.206
Z15
Z3
G1 Z2.5 F25
S5000
Y-4.6 Z2.332 F100
X4.1 Z2.325
Y4.6 Z2.004
X3.9 Z1.997
Y-4.6 Z1.676
X4.1 Z1.669
Y4.6 Z1.347
X3.9 Z1.34
Y-4.6 Z1.019
X4.1 Z1.012
Y4.6 Z0.691
X3.9 Z0.684
Y-4.6 Z0.363
X4.1 Z0.356
Y4.6 Z0.034
X3.9 Z0.027
Y-4.6 Z-0.294
X4.076 Z-0.3
S1000
X4.1 F150
Y4.6
X3.9
Y-4.6
X4.076
S5000
X4.1 Z-0.301 F100
Y3.967 Z-0.6
S1000
Y4.6 F150
X3.9
Y-4.6
X4.076
X4.1
Y3.967
S5000
Y4.6 Z-0.622 F100
X3.9 Z-0.629
Y-3.158 Z-0.9
S1000
Y-4.6 F150
X4.1
Y3.967
Y4.6
X3.9
Y-3.158
S5000
Y-4.6 Z-0.95 F100
X4.1 Z-0.957
Y2.349 Z-1.2
S1000
Y4.6 F150
X3.9
Y-3.158
Y-4.6
X4.1
Y2.349
S5000
Y4.6 Z-1.279 F100
X3.9 Z-1.286
Y-1.54 Z-1.5
S1000
Y-4.6 F150
X4.1
Y2.349
Y4.6
X3.9
Y-1.54
S5000
Y-4.6 Z-1.607 F100
X4.1 Z-1.614
Y0.73 Z-1.8
S1000
Y4.6 F150
X3.9
Y-1.54
Y-4.6
X4.1
Y0.73
S5000
Y4.6 Z-1.935 F100
X3.9 Z-1.942
Y0.079 Z-2.1
S1000
Y-4.6 F150
X4.1
Y0.73
Y4.6
X3.9
Y0.079
S5000
Y-4.6 Z-2.263 F100
X4.1 Z-2.27
Y-0.888 Z-2.4
S1000
Y4.6 F150
X3.9
Y-4.6
X4.1
Y-0.888
S5000
Y4.6 Z-2.592 F100
X3.9 Z-2.599
Y1.697 Z-2.7
S1000
Y-4.6 F150
X4.1
Y4.6
X3.9
Y1.697
S5000
Y-4.03 Z-2.9 F100
S1000
Y-4.6 F150
X4.1
Y4.6
X3.9
Y-4.03
G0 Z15

(2D Pocket1 16)
X5.9 Y0.206
Z15
Z3
G1 Z2.5 F25
S5000
Y-4.6 Z2.332 F100
X6.1 Z2.325
Y4.6 Z2.004
X5.9 Z1.997
Y-4.6 Z1.676
X6.1 Z1.669
Y4.6 Z1.347
X5.9 Z1.34
Y-4.6 Z1.019
X6.1 Z1.012
Y4.6 Z0.691
X5.9 Z0.684
Y-4.6 Z0.363
X6.1 Z0.356
Y4.6 Z0.034
X5.9 Z0.027
Y-4.6 Z-0.294
X6.076 Z-0.3
S1000
X6.1 F160
Y4.6
X5.9
Y-4.6
X6.076
S5000
X6.1 Z-0.301 F100
Y3.967 Z-0.6
S1000
Y4.6 F160
X5.9
Y-4.6
X6.076
X6.1
Y3.967
S5000
Y4.6 Z-0.622 F100
X5.9 Z-0.629
Y-3.158 Z-0.9
S1000
Y-4.6 F160
X6.1
Y3.967
Y4.6
X5.9
Y-3.158
S5000
Y-4.6 Z-0.95 F100
X6.1 Z-0.957
Y2.349 Z-1.2
S1000
Y4.6 F160
X5.9
Y-3.158
Y-4.6
X6.1
Y2.349
S5000
Y4.6 Z-1.279 F100
X5.9 Z-1.286
Y-1.54 Z-1.5
S1000
Y-4.6 F160
X6.1
Y2.349
Y4.6
X5.9
Y-1.54
S5000
Y-4.6 Z-1.607 F100
X6.1 Z-1.614
Y0.73 Z-1.8
S1000
Y4.6 F160
X5.9
Y-1.54
Y-4.6
X6.1
Y0.73
S5000
Y4.6 Z-1.935 F100
X5.9 Z-1.942
Y0.079 Z-2.1
S1000
Y-4.6 F160
X6.1
Y0.73
Y4.6
X5.9
Y0.079
S5000
Y-4.6 Z-2.263 F100
X6.1 Z-2.27
Y-0.888 Z-2.4
S1000
Y4.6 F160
X5.9
Y-4.6
X6.1
Y-0.888
S5000
Y4.6 Z-2.592 F100
X5.9 Z-2.599
Y1.697 Z-2.7
S1000
Y-4.6 F160
X6.1
Y4.6
X5.9
Y1.697
S5000
Y-4.03 Z-2.9 F100
S1000
Y-4.6 F160
X6.1
Y4.6
X5.9
Y-4.03
G0 Z15

(2D Pocket1 17)
X7.9 Y0.206
Z15
Z3
G1 Z2.5 F25
S5000
Y-4.6 Z2.332 F100
X8.1 Z2.325
Y4.6 Z2.004
X7.9 Z1.997
Y-4.6 Z1.676
X8.1 Z1.669
Y4.6 Z1.347
X7.9 Z1.34
Y-4.6 Z1.019
X8.1 Z1.012
Y4.6 Z0.691
X7.9 Z0.684
Y-4.6 Z0.363
X8.1 Z0.356
Y4.6 Z0.034
X7.9 Z0.027
Y-4.6 Z-0.294
X8.076 Z-0.3
S1000
X8.1 F170
Y4.6
X7.9
Y-4.6
X8.076
S5000
X8.1 Z-0.301 F100
Y3.967 Z-0.6
S1000
Y4.6 F170
X7.9
Y-4.6
X8.076
X8.1
Y3.967
S5000
Y4.6 Z-0.622 F100
X7.9 Z-0.629
Y-3.158 Z-0.9
S1000
Y-4.6 F170
X8.1
Y3.967
Y4.6
X7.9
Y-3.158
S5000
Y-4.6 Z-0.95 F100
X8.1 Z-0.957
Y2.349 Z-1.2
S1000
Y4.6 F170
X7.9
Y-3.158
Y-4.6
X8.1
Y2.349
S5000
Y4.6 Z-1.279 F100
X7.9 Z-1.286
Y-1.54 Z-1.5
S1000
Y-4.6 F170
X8.1
Y2.349
Y4.6
X7.9
Y-1.54
S5000
Y-4.6 Z-1.607 F100
X8.1 Z-1.614
Y0.73 Z-1.8
S1000
Y4.6 F170
X7.9
Y-1.54
Y-4.6
X8.1
Y0.73
S5000
Y4.6 Z-1.935 F100
X7.9 Z-1.942
Y0.079 Z-2.1
S1000
Y-4.6 F170
X8.1
Y0.73
Y4.6
X7.9
Y0.079
S5000
Y-4.6 Z-2.263 F100
X8.1 Z-2.27
Y-0.888 Z-2.4
S1000
Y4.6 F170
X7.9
Y-4.6
X8.1
Y-0.888
S5000
Y4.6 Z-2.592 F100
X7.9 Z-2.599
Y1.697 Z-2.7
S1000
Y-4.6 F170
X8.1
Y4.6
X7.9
Y1.697
S5000
Y-4.03 Z-2.9 F100
S1000
Y-4.6 F170
X8.1
Y4.6
X7.9
Y-4.03
G0 Z15

(2D Pocket1 18)
X9.9 Y0.206
Z15
Z3
G1 Z2.5 F25
S5000
Y-4.6 Z2.332 F100
X10.1 Z2.325
Y4.6 Z2.004
X9.9 Z1.997
Y-4.6 Z1.676
X10.1 Z1.669
Y4.6 Z1.347
X9.9 Z1.34
Y-4.6 Z1.019
X10.1 Z1.012
Y4.6 Z0.691
X9.9 Z0.684
Y-4.6 Z0.363
X10.1 Z0.356
Y4.6 Z0.034
X9.9 Z0.027
Y-4.6 Z-0.294
X10.076 Z-0.3
S1000
X10.1 F180
Y4.6
X9.9
Y-4.6
X10.076
S5000
X10.1 Z-0.301 F100
Y3.967 Z-0.6
S1000
Y4.6 F180
X9.9
Y-4.6
X10.076
X10.1
Y3.967
S5000
Y4.6 Z-0.622 F100
X9.9 Z-0.629
Y-3.158 Z-0.9
S1000
Y-4.6 F180
X10.1
Y3.967
Y4.6
X9.9
Y-3.158
S5000
Y-4.6 Z-0.95 F100
X10.1 Z-0.957
Y2.349 Z-1.2
S1000
Y4.6 F180
X9.9
Y-3.158
Y-4.6
X10.1
Y2.349
S5000
Y4.6 Z-1.279 F100
X9.9 Z-1.286
Y-1.54 Z-1.5
S1000
Y-4.6 F180
X10.1
Y2.349
Y4.6
X9.9
Y-1.54
S5000
Y-4.6 Z-1.607 F100
X10.1 Z-1.614
Y0.73 Z-1.8
S1000
Y4.6 F180
X9.9
Y-1.54
Y-4.6
X10.1
Y0.73
S5000
Y4.6 Z-1.935 F100
X9.9 Z-1.942
Y0.079 Z-2.1
S1000
Y-4.6 F180
X10.1
Y0.73
Y4.6
X9.9
Y0.079
S5000
Y-4.6 Z-2.263 F100
X10.1 Z-2.27
Y-0.888 Z-2.4
S1000
Y4.6 F180
X9.9
Y-4.6
X10.1
Y-0.888
S5000
Y4.6 Z-2.592 F100
X9.9 Z-2.599
Y1.697 Z-2.7
S1000
Y-4.6 F180
X10.1
Y4.6
X9.9
Y1.697
S5000
Y-4.03 Z-2.9 F100
S1000
Y-4.6 F180
X10.1
Y4.6
X9.9
Y-4.03
G0 Z15

(2D Pocket1 19)
X11.9 Y0.206
Z15
Z3
G1 Z2.5 F25
S5000
Y-4.6 Z2.332 F100
X12.1 Z2.325
Y4.6 Z2.004
X11.9 Z1.997
Y-4.6 Z1.676
X12.1 Z1.669
Y4.6 Z1.347
X11.9 Z1.34
Y-4.6 Z1.019
X12.1 Z1.012
Y4.6 Z0.691
X11.9 Z0.684
Y-4.6 Z0.363
X12.1 Z0.356
Y4.6 Z0.034
X11.9 Z0.027
Y-4.6 Z-0.294
X12.076 Z-0.3
S1000
X12.1 F190
Y4.6
X11.9
Y-4.6
X12.076
S5000
X12.1 Z-0.301 F100
Y3.967 Z-0.6
S1000
Y4.6 F190
X11.9
Y-4.6
X12.076
X12.1
Y3.967
S5000
Y4.6 Z-0.622 F100
X11.9 Z-0.629
Y-3.158 Z-0.9
S1000
Y-4.6 F190
X12.1
Y3.967
Y4.6
X11.9
Y-3.158
S5000
Y-4.6 Z-0.95 F100
X12.1 Z-0.957
Y2.349 Z-1.2
S1000
Y4.6 F190
X11.9
Y-3.158
Y-4.6
X12.1
Y2.349
S5000
Y4.6 Z-1.279 F100
X11.9 Z-1.286
Y-1.54 Z-1.5
S1000
Y-4.6 F190
X12.1
Y2.349
Y4.6
X11.9
Y-1.54
S5000
Y-4.6 Z-1.607 F100
X12.1 Z-1.614
Y0.73 Z-1.8
S1000
Y4.6 F190
X11.9
Y-1.54
Y-4.6
X12.1
Y0.73
S5000
Y4.6 Z-1.935 F100
X11.9 Z-1.942
Y0.079 Z-2.1
S1000
Y-4.6 F190
X12.1
Y0.73
Y4.6
X11.9
Y0.079
S5000
Y-4.6 Z-2.263 F100
X12.1 Z-2.27
Y-0.888 Z-2.4
S1000
Y4.6 F190
X11.9
Y-4.6
X12.1
Y-0.888
S5000
Y4.6 Z-2.592 F100
X11.9 Z-2.599
Y1.697 Z-2.7
S1000
Y-4.6 F190
X12.1
Y4.6
X11.9
Y1.697
S5000
Y-4.03 Z-2.9 F100
S1000
Y-4.6 F190
X12.1
Y4.6
X11.9
Y-4.03
G0 Z15

(2D Pocket1 20)
X13.9 Y0.206
Z15
Z3
G1 Z2.5 F25
S5000
Y-4.6 Z2.332 F100
X14.1 Z2.325
Y4.6 Z2.004
X13.9 Z1.997
Y-4.6 Z1.676
X14.1 Z1.669
Y4.6 Z1.347
X13.9 Z1.34
Y-4.6 Z1.019
X14.1 Z1.012
Y4.6 Z0.691
X13.9 Z0.684
Y-4.6 Z0.363
X14.1 Z0.356
Y4.6 Z0.034
X13.9 Z0.027
Y-4.6 Z-0.294
X14.076 Z-0.3
S1000
X14.1 F200
Y4.6
X13.9
Y-4.6
X14.076
S5000
X14.1 Z-0.301 F100
Y3.967 Z-0.6
S1000
Y4.6 F200
X13.9
Y-4.6
X14.076
X14.1
Y3.967
S5000
Y4.6 Z-0.622 F100
X13.9 Z-0.629
Y-3.158 Z-0.9
S1000
Y-4.6 F200
X14.1
Y3.967
Y4.6
X13.9
Y-3.158
S5000
Y-4.6 Z-0.95 F100
X14.1 Z-0.957
Y2.349 Z-1.2
S1000
Y4.6 F200
X13.9
Y-3.158
Y-4.6
X14.1
Y2.349
S5000
Y4.6 Z-1.279 F100
X13.9 Z-1.286
Y-1.54 Z-1.5
S1000
Y-4.6 F200
X14.1
Y2.349
Y4.6
X13.9
Y-1.54
S5000
Y-4.6 Z-1.607 F100
X14.1 Z-1.614
Y0.73 Z-1.8
S1000
Y4.6 F200
X13.9
Y-1.54
Y-4.6
X14.1
Y0.73
S5000
Y4.6 Z-1.935 F100
X13.9 Z-1.942
Y0.079 Z-2.1
S1000
Y-4.6 F200
X14.1
Y0.73
Y4.6
X13.9
Y0.079
S5000
Y-4.6 Z-2.263 F100
X14.1 Z-2.27
Y-0.888 Z-2.4
S1000
Y4.6 F200
X13.9
Y-4.6
X14.1
Y-0.888
S5000
Y4.6 Z-2.592 F100
X13.9 Z-2.599
Y1.697 Z-2.7
S1000
Y-4.6 F200
X14.1
Y4.6
X13.9
Y1.697
S5000
Y-4.03 Z-2.9 F100
S1000
Y-4.6 F200
X14.1
Y4.6
X13.9
Y-4.03
G0 Z15

(2D Pocket1 21)
X15.9 Y0.206
Z15
Z3
G1 Z2.5 F25
S5000
Y-4.6 Z2.332 F100
X16.1 Z2.325
Y4.6 Z2.004
X15.9 Z1.997
Y-4.6 Z1.676
X16.1 Z1.669
Y4.6 Z1.347
X15.9 Z1.34
Y-4.6 Z1.019
X16.1 Z1.012
Y4.6 Z0.691
X15.9 Z0.684
Y-4.6 Z0.363
X16.1 Z0.356
Y4.6 Z0.034
X15.9 Z0.027
Y-4.6 Z-0.294
X16.076 Z-0.3
S1000
X16.1 F210
Y4.6
X15.9
Y-4.6
X16.076
S5000
X16.1 Z-0.301 F100
Y3.967 Z-0.6
S1000
Y4.6 F210
X15.9
Y-4.6
X16.076
X16.1
Y3.967
S5000
Y4.6 Z-0.622 F100
X15.9 Z-0.629
Y-3.158 Z-0.9
S1000
Y-4.6 F210
X16.1
Y3.967
Y4.6
X15.9
Y-3.158
S5000
Y-4.6 Z-0.95 F100
X16.1 Z-0.957
Y2.349 Z-1.2
S1000
Y4.6 F210
X15.9
Y-3.158
Y-4.6
X16.1
Y2.349
S5000
Y4.6 Z-1.279 F100
X15.9 Z-1.286
Y-1.54 Z-1.5
S1000
Y-4.6 F210
X16.1
Y2.349
Y4.6
X15.9
Y-1.54
S5000
Y-4.6 Z-1.607 F100
X16.1 Z-1.614
Y0.73 Z-1.8
S1000
Y4.6 F210
X15.9
Y-1.54
Y-4.6
X16.1
Y0.73
S5000
Y4.6 Z-1.935 F100
X15.9 Z-1.942
Y0.079 Z-2.1
S1000
Y-4.6 F210
X16.1
Y0.73
Y4.6
X15.9
Y0.079
S5000
Y-4.6 Z-2.263 F100
X16.1 Z-2.27
Y-0.888 Z-2.4
S1000
Y4.6 F210
X15.9
Y-4.6
X16.1
Y-0.888
S5000
Y4.6 Z-2.592 F100
X15.9 Z-2.599
Y1.697 Z-2.7
S1000
Y-4.6 F210
X16.1
Y4.6
X15.9
Y1.697
S5000
Y-4.03 Z-2.9 F100
S1000
Y-4.6 F210
X16.1
Y4.6
X15.9
Y-4.03
G0 Z15

(2D Pocket1 22)
X17.9 Y0.206
Z15
Z3
G1 Z2.5 F25
S5000
Y-4.6 Z2.332 F100
X18.1 Z2.325
Y4.6 Z2.004
X17.9 Z1.997
Y-4.6 Z1.676
X18.1 Z1.669
Y4.6 Z1.347
X17.9 Z1.34
Y-4.6 Z1.019
X18.1 Z1.012
Y4.6 Z0.691
X17.9 Z0.684
Y-4.6 Z0.363
X18.1 Z0.356
Y4.6 Z0.034
X17.9 Z0.027
Y-4.6 Z-0.294
X18.076 Z-0.3
S1000
X18.1 F220
Y4.6
X17.9
Y-4.6
X18.076
S5000
X18.1 Z-0.301 F100
Y3.967 Z-0.6
S1000
Y4.6 F220
X17.9
Y-4.6
X18.076
X18.1
Y3.967
S5000
Y4.6 Z-0.622 F100
X17.9 Z-0.629
Y-3.158 Z-0.9
S1000
Y-4.6 F220
X18.1
Y3.967
Y4.6
X17.9
Y-3.158
S5000
Y-4.6 Z-0.95 F100
X18.1 Z-0.957
Y2.349 Z-1.2
S1000
Y4.6 F220
X17.9
Y-3.158
Y-4.6
X18.1
Y2.349
S5000
Y4.6 Z-1.279 F100
X17.9 Z-1.286
Y-1.54 Z-1.5
S1000
Y-4.6 F220
X18.1
Y2.349
Y4.6
X17.9
Y-1.54
S5000
Y-4.6 Z-1.607 F100
X18.1 Z-1.614
Y0.73 Z-1.8
S1000
Y4.6 F220
X17.9
Y-1.54
Y-4.6
X18.1
Y0.73
S5000
Y4.6 Z-1.935 F100
X17.9 Z-1.942
Y0.079 Z-2.1
S1000
Y-4.6 F220
X18.1
Y0.73
Y4.6
X17.9
Y0.079
S5000
Y-4.6 Z-2.263 F100
X18.1 Z-2.27
Y-0.888 Z-2.4
S1000
Y4.6 F220
X17.9
Y-4.6
X18.1
Y-0.888
S5000
Y4.6 Z-2.592 F100
X17.9 Z-2.599
Y1.697 Z-2.7
S1000
Y-4.6 F220
X18.1
Y4.6
X17.9
Y1.697
S5000
Y-4.03 Z-2.9 F100
S1000
Y-4.6 F220
X18.1
Y4.6
X17.9
Y-4.03
G0 Z15

(2D Pocket1 23)
X19.9 Y0.206
Z15
Z3
G1 Z2.5 F25
S5000
Y-4.6 Z2.332 F100
X20.1 Z2.325
Y4.6 Z2.004
X19.9 Z1.997
Y-4.6 Z1.676
X20.1 Z1.669
Y4.6 Z1.347
X19.9 Z1.34
Y-4.6 Z1.019
X20.1 Z1.012
Y4.6 Z0.691
X19.9 Z0.684
Y-4.6 Z0.363
X20.1 Z0.356
Y4.6 Z0.034
X19.9 Z0.027
Y-4.6 Z-0.294
X20.076 Z-0.3
S1000
X20.1 F230
Y4.6
X19.9
Y-4.6
X20.076
S5000
X20.1 Z-0.301 F100
Y3.967 Z-0.6
S1000
Y4.6 F230
X19.9
Y-4.6
X20.076
X20.1
Y3.967
S5000
Y4.6 Z-0.622 F100
X19.9 Z-0.629
Y-3.158 Z-0.9
S1000
Y-4.6 F230
X20.1
Y3.967
Y4.6
X19.9
Y-3.158
S5000
Y-4.6 Z-0.95 F100
X20.1 Z-0.957
Y2.349 Z-1.2
S1000
Y4.6 F230
X19.9
Y-3.158
Y-4.6
X20.1
Y2.349
S5000
Y4.6 Z-1.279 F100
X19.9 Z-1.286
Y-1.54 Z-1.5
S1000
Y-4.6 F230
X20.1
Y2.349
Y4.6
X19.9
Y-1.54
S5000
Y-4.6 Z-1.607 F100
X20.1 Z-1.614
Y0.73 Z-1.8
S1000
Y4.6 F230
X19.9
Y-1.54
Y-4.6
X20.1
Y0.73
S5000
Y4.6 Z-1.935 F100
X19.9 Z-1.942
Y0.079 Z-2.1
S1000
Y-4.6 F230
X20.1
Y0.73
Y4.6
X19.9
Y0.079
S5000
Y-4.6 Z-2.263 F100
X20.1 Z-2.27
Y-0.888 Z-2.4
S1000
Y4.6 F230
X19.9
Y-4.6
X20.1
Y-0.888
S5000
Y4.6 Z-2.592 F100
X19.9 Z-2.599
Y1.697 Z-2.7
S1000
Y-4.6 F230
X20.1
Y4.6
X19.9
Y1.697
S5000
Y-4.03 Z-2.9 F100
S1000
Y-4.6 F230
X20.1
Y4.6
X19.9
Y-4.03
G0 Z15

(2D Pocket1 24)
X21.9 Y0.206
Z15
Z3
G1 Z2.5 F25
S5000
Y-4.6 Z2.332 F100
X22.1 Z2.325
Y4.6 Z2.004
X21.9 Z1.997
Y-4.6 Z1.676
X22.1 Z1.669
Y4.6 Z1.347
X21.9 Z1.34
Y-4.6 Z1.019
X22.1 Z1.012
Y4.6 Z0.691
X21.9 Z0.684
Y-4.6 Z0.363
X22.1 Z0.356
Y4.6 Z0.034
X21.9 Z0.027
Y-4.6 Z-0.294
X22.076 Z-0.3
S1000
X22.1 F240
Y4.6
X21.9
Y-4.6
X22.076
S5000
X22.1 Z-0.301 F100
Y3.967 Z-0.6
S1000
Y4.6 F240
X21.9
Y-4.6
X22.076
X22.1
Y3.967
S5000
Y4.6 Z-0.622 F100
X21.9 Z-0.629
Y-3.158 Z-0.9
S1000
Y-4.6 F240
X22.1
Y3.967
Y4.6
X21.9
Y-3.158
S5000
Y-4.6 Z-0.95 F100
X22.1 Z-0.957
Y2.349 Z-1.2
S1000
Y4.6 F240
X21.9
Y-3.158
Y-4.6
X22.1
Y2.349
S5000
Y4.6 Z-1.279 F100
X21.9 Z-1.286
Y-1.54 Z-1.5
S1000
Y-4.6 F240
X22.1
Y2.349
Y4.6
X21.9
Y-1.54
S5000
Y-4.6 Z-1.607 F100
X22.1 Z-1.614
Y0.73 Z-1.8
S1000
Y4.6 F240
X21.9
Y-1.54
Y-4.6
X22.1
Y0.73
S5000
Y4.6 Z-1.935 F100
X21.9 Z-1.942
Y0.079 Z-2.1
S1000
Y-4.6 F240
X22.1
Y0.73
Y4.6
X21.9
Y0.079
S5000
Y-4.6 Z-2.263 F100
X22.1 Z-2.27
Y-0.888 Z-2.4
S1000
Y4.6 F240
X21.9
Y-4.6
X22.1
Y-0.888
S5000
Y4.6 Z-2.592 F100
X21.9 Z-2.599
Y1.697 Z-2.7
S1000
Y-4.6 F240
X22.1
Y4.6
X21.9
Y1.697
S5000
Y-4.03 Z-2.9 F100
S1000
Y-4.6 F240
X22.1
Y4.6
X21.9
Y-4.03
G0 Z15

(2D Pocket1 25)
X23.9 Y0.206
Z15
Z3
G1 Z2.5 F25
S5000
Y-4.6 Z2.332 F100
X24.1 Z2.325
Y4.6 Z2.004
X23.9 Z1.997
Y-4.6 Z1.676
X24.1 Z1.669
Y4.6 Z1.347
X23.9 Z1.34
Y-4.6 Z1.019
X24.1 Z1.012
Y4.6 Z0.691
X23.9 Z0.684
Y-4.6 Z0.363
X24.1 Z0.356
Y4.6 Z0.034
X23.9 Z0.027
Y-4.6 Z-0.294
X24.076 Z-0.3
S1000
X24.1 F250
Y4.6
X23.9
Y-4.6
X24.076
S5000
X24.1 Z-0.301 F100
Y3.967 Z-0.6
S1000
Y4.6 F250
X23.9
Y-4.6
X24.076
X24.1
Y3.967
S5000
Y4.6 Z-0.622 F100
X23.9 Z-0.629
Y-3.158 Z-0.9
S1000
Y-4.6 F250
X24.1
Y3.967
Y4.6
X23.9
Y-3.158
S5000
Y-4.6 Z-0.95 F100
X24.1 Z-0.957
Y2.349 Z-1.2
S1000
Y4.6 F250
X23.9
Y-3.158
Y-4.6
X24.1
Y2.349
S5000
Y4.6 Z-1.279 F100
X23.9 Z-1.286
Y-1.54 Z-1.5
S1000
Y-4.6 F250
X24.1
Y2.349
Y4.6
X23.9
Y-1.54
S5000
Y-4.6 Z-1.607 F100
X24.1 Z-1.614
Y0.73 Z-1.8
S1000
Y4.6 F250
X23.9
Y-1.54
Y-4.6
X24.1
Y0.73
S5000
Y4.6 Z-1.935 F100
X23.9 Z-1.942
Y0.079 Z-2.1
S1000
Y-4.6 F250
X24.1
Y0.73
Y4.6
X23.9
Y0.079
S5000
Y-4.6 Z-2.263 F100
X24.1 Z-2.27
Y-0.888 Z-2.4
S1000
Y4.6 F250
X23.9
Y-4.6
X24.1
Y-0.888
S5000
Y4.6 Z-2.592 F100
X23.9 Z-2.599
Y1.697 Z-2.7
S1000
Y-4.6 F250
X24.1
Y4.6
X23.9
Y1.697
S5000
Y-4.03 Z-2.9 F100
S1000
Y-4.6 F250
X24.1
Y4.6
X23.9
Y-4.03
G0 Z15
M9
M5
M30
