(1001)
(T8  D=1.5 CR=0 - ZMIN=-4 - flat end mill)
G90 G94
G17
G21

(2D Pocket2)
T8
S1000 M3
G54
M8
G0 X-22.866 Y-10.737
Z15
Z5
G1 Z2.65 F150
S5000
X-22.859 Y-10.755 Z2.576
X-22.837 Y-10.803 Z2.522
X-22.802 Y-10.867 Z2.5
G3 X-21.596 Y-10.107 Z2.422 I0.603 J0.38
X-22.802 Y-10.867 Z2.344 I-0.603 J-0.38
X-21.596 Y-10.107 Z2.266 I0.603 J0.38
X-22.802 Y-10.867 Z2.187 I-0.603 J-0.38
X-21.596 Y-10.107 Z2.109 I0.603 J0.38
X-22.802 Y-10.867 Z2.031 I-0.603 J-0.38
X-21.596 Y-10.107 Z1.953 I0.603 J0.38
X-22.802 Y-10.867 Z1.875 I-0.603 J-0.38
X-21.596 Y-10.107 Z1.797 I0.603 J0.38
X-22.802 Y-10.867 Z1.718 I-0.603 J-0.38
X-21.596 Y-10.107 Z1.64 I0.603 J0.38
X-22.802 Y-10.867 Z1.562 I-0.603 J-0.38
X-21.596 Y-10.107 Z1.484 I0.603 J0.38
X-22.802 Y-10.867 Z1.406 I-0.603 J-0.38
X-21.596 Y-10.107 Z1.328 I0.603 J0.38
X-22.802 Y-10.867 Z1.249 I-0.603 J-0.38
X-21.596 Y-10.107 Z1.171 I0.603 J0.38
X-22.802 Y-10.867 Z1.093 I-0.603 J-0.38
X-21.596 Y-10.107 Z1.015 I0.603 J0.38
X-22.802 Y-10.867 Z0.937 I-0.603 J-0.38
X-21.596 Y-10.107 Z0.859 I0.603 J0.38
X-22.802 Y-10.867 Z0.78 I-0.603 J-0.38
X-21.596 Y-10.107 Z0.702 I0.603 J0.38
X-22.802 Y-10.867 Z0.624 I-0.603 J-0.38
X-21.596 Y-10.107 Z0.546 I0.603 J0.38
X-22.802 Y-10.867 Z0.468 I-0.603 J-0.38
X-21.596 Y-10.107 Z0.39 I0.603 J0.38
X-22.802 Y-10.867 Z0.311 I-0.603 J-0.38
X-21.596 Y-10.107 Z0.233 I0.603 J0.38
X-22.802 Y-10.867 Z0.155 I-0.603 J-0.38
X-21.596 Y-10.107 Z0.077 I0.603 J0.38
X-22.802 Y-10.867 Z-0.001 I-0.603 J-0.38
X-21.596 Y-10.107 Z-0.079 I0.603 J0.38
X-22.802 Y-10.867 Z-0.158 I-0.603 J-0.38
X-21.596 Y-10.107 Z-0.236 I0.603 J0.38
X-22.911 Y-10.487 Z-0.3 I-0.603 J-0.38
S1000
X-21.536 Y-10.487 I0.688 J0
X-24.336 Y-10.487 I-1.4 J0
X-20.111 Y-10.487 I2.112 J0
X-25.761 Y-10.487 I-2.825 J0
X-18.686 Y-10.487 I3.538 J0
X-27.186 Y-10.487 I-4.25 J0
X-18.686 Y-10.487 I4.25 J0
G1 X-18.692 Y-10.458
X-18.708 Y-10.434
X-18.732 Y-10.418
X-18.761 Y-10.412
X-20.822 Y-10.4
X-22.768 Y-10.724
X-22.795 Y-10.734
X-22.816 Y-10.753
X-22.828 Y-10.779
X-22.83 Y-10.807
X-22.821 Y-10.834
S5000
G3 X-21.577 Y-10.14 Z-0.378 I0.622 J0.347
X-22.821 Y-10.834 Z-0.456 I-0.622 J-0.347
X-21.577 Y-10.14 Z-0.534 I0.622 J0.347
X-22.911 Y-10.487 Z-0.6 I-0.622 J-0.347
S1000
X-21.536 Y-10.487 I0.688 J0
X-24.336 Y-10.487 I-1.4 J0
X-20.111 Y-10.487 I2.112 J0
X-25.761 Y-10.487 I-2.825 J0
X-18.686 Y-10.487 I3.538 J0
X-27.186 Y-10.487 I-4.25 J0
X-18.686 Y-10.487 I4.25 J0
G1 X-18.692 Y-10.458
X-18.708 Y-10.434
X-18.732 Y-10.418
X-18.761 Y-10.412
X-20.822 Y-10.4
X-22.768 Y-10.724
X-22.795 Y-10.734
X-22.816 Y-10.753
X-22.828 Y-10.779
X-22.83 Y-10.807
X-22.821 Y-10.834
S5000
G3 X-21.577 Y-10.14 Z-0.678 I0.622 J0.347
X-22.821 Y-10.834 Z-0.756 I-0.622 J-0.347
X-21.577 Y-10.14 Z-0.834 I0.622 J0.347
X-22.911 Y-10.487 Z-0.9 I-0.622 J-0.347
S1000
X-21.536 Y-10.487 I0.688 J0
X-24.336 Y-10.487 I-1.4 J0
X-20.111 Y-10.487 I2.112 J0
X-25.761 Y-10.487 I-2.825 J0
X-18.686 Y-10.487 I3.538 J0
X-27.186 Y-10.487 I-4.25 J0
X-18.686 Y-10.487 I4.25 J0
G1 X-18.692 Y-10.458
X-18.708 Y-10.434
X-18.732 Y-10.418
X-18.761 Y-10.412
X-20.822 Y-10.4
X-22.768 Y-10.724
X-22.795 Y-10.734
X-22.816 Y-10.753
X-22.828 Y-10.779
X-22.83 Y-10.807
X-22.821 Y-10.834
S5000
G3 X-21.577 Y-10.14 Z-0.978 I0.622 J0.347
X-22.821 Y-10.834 Z-1.056 I-0.622 J-0.347
X-21.577 Y-10.14 Z-1.134 I0.622 J0.347
X-22.911 Y-10.487 Z-1.2 I-0.622 J-0.347
S1000
X-21.536 Y-10.487 I0.688 J0
X-24.336 Y-10.487 I-1.4 J0
X-20.111 Y-10.487 I2.112 J0
X-25.761 Y-10.487 I-2.825 J0
X-18.686 Y-10.487 I3.538 J0
X-27.186 Y-10.487 I-4.25 J0
X-18.686 Y-10.487 I4.25 J0
G1 X-18.692 Y-10.458
X-18.708 Y-10.434
X-18.732 Y-10.418
X-18.761 Y-10.412
X-20.822 Y-10.4
X-22.768 Y-10.724
X-22.795 Y-10.734
X-22.816 Y-10.753
X-22.828 Y-10.779
X-22.83 Y-10.807
X-22.821 Y-10.834
S5000
G3 X-21.577 Y-10.14 Z-1.278 I0.622 J0.347
X-22.821 Y-10.834 Z-1.356 I-0.622 J-0.347
X-21.577 Y-10.14 Z-1.434 I0.622 J0.347
X-22.911 Y-10.487 Z-1.5 I-0.622 J-0.347
S1000
X-21.536 Y-10.487 I0.688 J0
X-24.336 Y-10.487 I-1.4 J0
X-20.111 Y-10.487 I2.112 J0
X-25.761 Y-10.487 I-2.825 J0
X-18.686 Y-10.487 I3.538 J0
X-27.186 Y-10.487 I-4.25 J0
X-18.686 Y-10.487 I4.25 J0
G1 X-18.692 Y-10.458
X-18.708 Y-10.434
X-18.732 Y-10.418
X-18.761 Y-10.412
X-20.822 Y-10.4
X-22.768 Y-10.724
X-22.795 Y-10.734
X-22.816 Y-10.753
X-22.828 Y-10.779
X-22.83 Y-10.807
X-22.821 Y-10.834
S5000
G3 X-21.577 Y-10.14 Z-1.578 I0.622 J0.347
X-22.821 Y-10.834 Z-1.656 I-0.622 J-0.347
X-21.577 Y-10.14 Z-1.734 I0.622 J0.347
X-22.911 Y-10.487 Z-1.8 I-0.622 J-0.347
S1000
X-21.536 Y-10.487 I0.688 J0
X-24.336 Y-10.487 I-1.4 J0
X-20.111 Y-10.487 I2.112 J0
X-25.761 Y-10.487 I-2.825 J0
X-18.686 Y-10.487 I3.538 J0
X-27.186 Y-10.487 I-4.25 J0
X-18.686 Y-10.487 I4.25 J0
G1 X-18.692 Y-10.458
X-18.708 Y-10.434
X-18.732 Y-10.418
X-18.761 Y-10.412
X-20.822 Y-10.4
X-22.768 Y-10.724
X-22.795 Y-10.734
X-22.816 Y-10.753
X-22.828 Y-10.779
X-22.83 Y-10.807
X-22.821 Y-10.834
S5000
G3 X-21.577 Y-10.14 Z-1.878 I0.622 J0.347
X-22.821 Y-10.834 Z-1.956 I-0.622 J-0.347
X-21.577 Y-10.14 Z-2.034 I0.622 J0.347
X-22.911 Y-10.487 Z-2.1 I-0.622 J-0.347
S1000
X-21.536 Y-10.487 I0.688 J0
X-24.336 Y-10.487 I-1.4 J0
X-20.111 Y-10.487 I2.112 J0
X-25.761 Y-10.487 I-2.825 J0
X-18.686 Y-10.487 I3.538 J0
X-27.186 Y-10.487 I-4.25 J0
X-18.686 Y-10.487 I4.25 J0
G1 X-18.692 Y-10.458
X-18.708 Y-10.434
X-18.732 Y-10.418
X-18.761 Y-10.412
X-20.822 Y-10.4
X-22.768 Y-10.724
X-22.795 Y-10.734
X-22.816 Y-10.753
X-22.828 Y-10.779
X-22.83 Y-10.807
X-22.821 Y-10.834
S5000
G3 X-21.577 Y-10.14 Z-2.178 I0.622 J0.347
X-22.821 Y-10.834 Z-2.256 I-0.622 J-0.347
X-21.577 Y-10.14 Z-2.334 I0.622 J0.347
X-22.911 Y-10.487 Z-2.4 I-0.622 J-0.347
S1000
X-21.536 Y-10.487 I0.688 J0
X-24.336 Y-10.487 I-1.4 J0
X-20.111 Y-10.487 I2.112 J0
X-25.761 Y-10.487 I-2.825 J0
X-18.686 Y-10.487 I3.538 J0
X-27.186 Y-10.487 I-4.25 J0
X-18.686 Y-10.487 I4.25 J0
G1 X-18.692 Y-10.458
X-18.708 Y-10.434
X-18.732 Y-10.418
X-18.761 Y-10.412
X-20.822 Y-10.4
X-22.768 Y-10.724
X-22.795 Y-10.734
X-22.816 Y-10.753
X-22.828 Y-10.779
X-22.83 Y-10.807
X-22.821 Y-10.834
S5000
G3 X-21.577 Y-10.14 Z-2.478 I0.622 J0.347
X-22.821 Y-10.834 Z-2.556 I-0.622 J-0.347
X-21.577 Y-10.14 Z-2.634 I0.622 J0.347
X-22.911 Y-10.487 Z-2.7 I-0.622 J-0.347
S1000
X-21.536 Y-10.487 I0.688 J0
X-24.336 Y-10.487 I-1.4 J0
X-20.111 Y-10.487 I2.112 J0
X-25.761 Y-10.487 I-2.825 J0
X-18.686 Y-10.487 I3.538 J0
X-27.186 Y-10.487 I-4.25 J0
X-18.686 Y-10.487 I4.25 J0
G1 X-18.692 Y-10.458
X-18.708 Y-10.434
X-18.732 Y-10.418
X-18.761 Y-10.412
X-20.822 Y-10.4
X-22.768 Y-10.724
X-22.795 Y-10.734
X-22.816 Y-10.753
X-22.828 Y-10.779
X-22.83 Y-10.807
X-22.821 Y-10.834
S5000
G3 X-21.577 Y-10.14 Z-2.778 I0.622 J0.347
X-22.821 Y-10.834 Z-2.856 I-0.622 J-0.347
X-21.577 Y-10.14 Z-2.934 I0.622 J0.347
X-22.911 Y-10.487 Z-3 I-0.622 J-0.347
S1000
X-21.536 Y-10.487 I0.688 J0
X-24.336 Y-10.487 I-1.4 J0
X-20.111 Y-10.487 I2.112 J0
X-25.761 Y-10.487 I-2.825 J0
X-18.686 Y-10.487 I3.538 J0
X-27.186 Y-10.487 I-4.25 J0
X-18.686 Y-10.487 I4.25 J0
G1 X-18.692 Y-10.458
X-18.708 Y-10.434
X-18.732 Y-10.418
X-18.761 Y-10.412
X-20.822 Y-10.4
X-22.768 Y-10.724
X-22.795 Y-10.734
X-22.816 Y-10.753
X-22.828 Y-10.779
X-22.83 Y-10.807
X-22.821 Y-10.834
S5000
G3 X-21.577 Y-10.14 Z-3.078 I0.622 J0.347
X-22.821 Y-10.834 Z-3.156 I-0.622 J-0.347
X-21.577 Y-10.14 Z-3.234 I0.622 J0.347
X-22.911 Y-10.487 Z-3.3 I-0.622 J-0.347
S1000
X-21.536 Y-10.487 I0.688 J0
X-24.336 Y-10.487 I-1.4 J0
X-20.111 Y-10.487 I2.112 J0
X-25.761 Y-10.487 I-2.825 J0
X-18.686 Y-10.487 I3.538 J0
X-27.186 Y-10.487 I-4.25 J0
X-18.686 Y-10.487 I4.25 J0
G1 X-18.692 Y-10.458
X-18.708 Y-10.434
X-18.732 Y-10.418
X-18.761 Y-10.412
X-20.822 Y-10.4
X-22.768 Y-10.724
X-22.795 Y-10.734
X-22.816 Y-10.753
X-22.828 Y-10.779
X-22.83 Y-10.807
X-22.821 Y-10.834
S5000
G3 X-21.577 Y-10.14 Z-3.378 I0.622 J0.347
X-22.821 Y-10.834 Z-3.456 I-0.622 J-0.347
X-21.577 Y-10.14 Z-3.534 I0.622 J0.347
X-22.911 Y-10.487 Z-3.6 I-0.622 J-0.347
S1000
X-21.536 Y-10.487 I0.688 J0
X-24.336 Y-10.487 I-1.4 J0
X-20.111 Y-10.487 I2.112 J0
X-25.761 Y-10.487 I-2.825 J0
X-18.686 Y-10.487 I3.538 J0
X-27.186 Y-10.487 I-4.25 J0
X-18.686 Y-10.487 I4.25 J0
G1 X-18.692 Y-10.458
X-18.708 Y-10.434
X-18.732 Y-10.418
X-18.761 Y-10.412
X-20.822 Y-10.4
X-22.768 Y-10.724
X-22.795 Y-10.734
X-22.816 Y-10.753
X-22.828 Y-10.779
X-22.83 Y-10.807
X-22.821 Y-10.834
S5000
G3 X-21.577 Y-10.14 Z-3.678 I0.622 J0.347
X-22.821 Y-10.834 Z-3.756 I-0.622 J-0.347
X-21.577 Y-10.14 Z-3.834 I0.622 J0.347
X-22.911 Y-10.487 Z-3.9 I-0.622 J-0.347
S1000
X-21.536 Y-10.487 I0.688 J0
X-24.336 Y-10.487 I-1.4 J0
X-20.111 Y-10.487 I2.112 J0
X-25.761 Y-10.487 I-2.825 J0
X-18.686 Y-10.487 I3.538 J0
X-27.186 Y-10.487 I-4.25 J0
X-18.686 Y-10.487 I4.25 J0
G1 X-18.692 Y-10.459
X-18.707 Y-10.436
X-18.73 Y-10.419
X-18.757 Y-10.412
X-21.29 Y-10.256
X-21.318 Y-10.257
X-21.343 Y-10.267
X-21.363 Y-10.285
X-21.851 Y-10.932
X-21.865 Y-10.96
Y-10.991
X-21.853 Y-11.02
X-21.831 Y-11.041
X-21.802 Y-11.052
X-21.771 Y-11.049
X-21.744 Y-11.035
S5000
G3 X-22.654 Y-9.939 Z-3.978 I-0.455 J0.548
X-22.911 Y-10.487 Z-4 I0.455 J-0.548
S1000
X-21.536 Y-10.487 I0.688 J0
X-24.336 Y-10.487 I-1.4 J0
X-20.111 Y-10.487 I2.112 J0
X-25.761 Y-10.487 I-2.825 J0
X-18.686 Y-10.487 I3.538 J0
X-27.186 Y-10.487 I-4.25 J0
X-18.686 Y-10.487 I4.25 J0
G1 X-18.691 Y-10.45 Z-3.99
X-18.705 Y-10.415 Z-3.98
X-18.72 Y-10.392 Z-3.952
X-18.739 Y-10.373 Z-3.925
X-18.755 Y-10.361 Z-3.85
G0 Z15
X-22.43 Y9.75
Z5
G1 Z2.65 F150
S5000
X-22.423 Y9.732 Z2.576
X-22.401 Y9.684 Z2.522
X-22.365 Y9.62 Z2.5
G3 X-21.16 Y10.38 Z2.422 I0.603 J0.38
X-22.365 Y9.62 Z2.344 I-0.603 J-0.38
X-21.16 Y10.38 Z2.266 I0.603 J0.38
X-22.365 Y9.62 Z2.187 I-0.603 J-0.38
X-21.16 Y10.38 Z2.109 I0.603 J0.38
X-22.365 Y9.62 Z2.031 I-0.603 J-0.38
X-21.16 Y10.38 Z1.953 I0.603 J0.38
X-22.365 Y9.62 Z1.875 I-0.603 J-0.38
X-21.16 Y10.38 Z1.797 I0.603 J0.38
X-22.365 Y9.62 Z1.718 I-0.603 J-0.38
X-21.16 Y10.38 Z1.64 I0.603 J0.38
X-22.365 Y9.62 Z1.562 I-0.603 J-0.38
X-21.16 Y10.38 Z1.484 I0.603 J0.38
X-22.365 Y9.62 Z1.406 I-0.603 J-0.38
X-21.16 Y10.38 Z1.328 I0.603 J0.38
X-22.365 Y9.62 Z1.249 I-0.603 J-0.38
X-21.16 Y10.38 Z1.171 I0.603 J0.38
X-22.365 Y9.62 Z1.093 I-0.603 J-0.38
X-21.16 Y10.38 Z1.015 I0.603 J0.38
X-22.365 Y9.62 Z0.937 I-0.603 J-0.38
X-21.16 Y10.38 Z0.859 I0.603 J0.38
X-22.365 Y9.62 Z0.78 I-0.603 J-0.38
X-21.16 Y10.38 Z0.702 I0.603 J0.38
X-22.365 Y9.62 Z0.624 I-0.603 J-0.38
X-21.16 Y10.38 Z0.546 I0.603 J0.38
X-22.365 Y9.62 Z0.468 I-0.603 J-0.38
X-21.16 Y10.38 Z0.39 I0.603 J0.38
X-22.365 Y9.62 Z0.311 I-0.603 J-0.38
X-21.16 Y10.38 Z0.233 I0.603 J0.38
X-22.365 Y9.62 Z0.155 I-0.603 J-0.38
X-21.16 Y10.38 Z0.077 I0.603 J0.38
X-22.365 Y9.62 Z-0.001 I-0.603 J-0.38
X-21.16 Y10.38 Z-0.079 I0.603 J0.38
X-22.365 Y9.62 Z-0.158 I-0.603 J-0.38
X-21.16 Y10.38 Z-0.236 I0.603 J0.38
X-22.475 Y10 Z-0.3 I-0.603 J-0.38
S1000
X-21.1 Y10 I0.688 J0
X-23.9 Y10 I-1.4 J0
X-19.675 Y10 I2.112 J0
X-25.325 Y10 I-2.825 J0
X-18.25 Y10 I3.538 J0
X-26.75 Y10 I-4.25 J0
X-18.25 Y10 I4.25 J0
G1 X-18.256 Y10.029
X-18.272 Y10.053
X-18.296 Y10.069
X-18.325 Y10.075
X-20.385 Y10.087
X-22.332 Y9.763
X-22.358 Y9.753
X-22.379 Y9.734
X-22.392 Y9.708
X-22.394 Y9.68
X-22.385 Y9.653
S5000
G3 X-21.14 Y10.347 Z-0.378 I0.622 J0.347
X-22.385 Y9.653 Z-0.456 I-0.622 J-0.347
X-21.14 Y10.347 Z-0.534 I0.622 J0.347
X-22.475 Y10 Z-0.6 I-0.622 J-0.347
S1000
X-21.1 Y10 I0.688 J0
X-23.9 Y10 I-1.4 J0
X-19.675 Y10 I2.112 J0
X-25.325 Y10 I-2.825 J0
X-18.25 Y10 I3.538 J0
X-26.75 Y10 I-4.25 J0
X-18.25 Y10 I4.25 J0
G1 X-18.256 Y10.029
X-18.272 Y10.053
X-18.296 Y10.069
X-18.325 Y10.075
X-20.385 Y10.087
X-22.332 Y9.763
X-22.358 Y9.753
X-22.379 Y9.734
X-22.392 Y9.708
X-22.394 Y9.68
X-22.385 Y9.653
S5000
G3 X-21.14 Y10.347 Z-0.678 I0.622 J0.347
X-22.385 Y9.653 Z-0.756 I-0.622 J-0.347
X-21.14 Y10.347 Z-0.834 I0.622 J0.347
X-22.475 Y10 Z-0.9 I-0.622 J-0.347
S1000
X-21.1 Y10 I0.688 J0
X-23.9 Y10 I-1.4 J0
X-19.675 Y10 I2.112 J0
X-25.325 Y10 I-2.825 J0
X-18.25 Y10 I3.538 J0
X-26.75 Y10 I-4.25 J0
X-18.25 Y10 I4.25 J0
G1 X-18.256 Y10.029
X-18.272 Y10.053
X-18.296 Y10.069
X-18.325 Y10.075
X-20.385 Y10.087
X-22.332 Y9.763
X-22.358 Y9.753
X-22.379 Y9.734
X-22.392 Y9.708
X-22.394 Y9.68
X-22.385 Y9.653
S5000
G3 X-21.14 Y10.347 Z-0.978 I0.622 J0.347
X-22.385 Y9.653 Z-1.056 I-0.622 J-0.347
X-21.14 Y10.347 Z-1.134 I0.622 J0.347
X-22.475 Y10 Z-1.2 I-0.622 J-0.347
S1000
X-21.1 Y10 I0.688 J0
X-23.9 Y10 I-1.4 J0
X-19.675 Y10 I2.112 J0
X-25.325 Y10 I-2.825 J0
X-18.25 Y10 I3.538 J0
X-26.75 Y10 I-4.25 J0
X-18.25 Y10 I4.25 J0
G1 X-18.256 Y10.029
X-18.272 Y10.053
X-18.296 Y10.069
X-18.325 Y10.075
X-20.385 Y10.087
X-22.332 Y9.763
X-22.358 Y9.753
X-22.379 Y9.734
X-22.392 Y9.708
X-22.394 Y9.68
X-22.385 Y9.653
S5000
G3 X-21.14 Y10.347 Z-1.278 I0.622 J0.347
X-22.385 Y9.653 Z-1.356 I-0.622 J-0.347
X-21.14 Y10.347 Z-1.434 I0.622 J0.347
X-22.475 Y10 Z-1.5 I-0.622 J-0.347
S1000
X-21.1 Y10 I0.688 J0
X-23.9 Y10 I-1.4 J0
X-19.675 Y10 I2.112 J0
X-25.325 Y10 I-2.825 J0
X-18.25 Y10 I3.538 J0
X-26.75 Y10 I-4.25 J0
X-18.25 Y10 I4.25 J0
G1 X-18.256 Y10.029
X-18.272 Y10.053
X-18.296 Y10.069
X-18.325 Y10.075
X-20.385 Y10.087
X-22.332 Y9.763
X-22.358 Y9.753
X-22.379 Y9.734
X-22.392 Y9.708
X-22.394 Y9.68
X-22.385 Y9.653
S5000
G3 X-21.14 Y10.347 Z-1.578 I0.622 J0.347
X-22.385 Y9.653 Z-1.656 I-0.622 J-0.347
X-21.14 Y10.347 Z-1.734 I0.622 J0.347
X-22.475 Y10 Z-1.8 I-0.622 J-0.347
S1000
X-21.1 Y10 I0.688 J0
X-23.9 Y10 I-1.4 J0
X-19.675 Y10 I2.112 J0
X-25.325 Y10 I-2.825 J0
X-18.25 Y10 I3.538 J0
X-26.75 Y10 I-4.25 J0
X-18.25 Y10 I4.25 J0
G1 X-18.256 Y10.029
X-18.272 Y10.053
X-18.296 Y10.069
X-18.325 Y10.075
X-20.385 Y10.087
X-22.332 Y9.763
X-22.358 Y9.753
X-22.379 Y9.734
X-22.392 Y9.708
X-22.394 Y9.68
X-22.385 Y9.653
S5000
G3 X-21.14 Y10.347 Z-1.878 I0.622 J0.347
X-22.385 Y9.653 Z-1.956 I-0.622 J-0.347
X-21.14 Y10.347 Z-2.034 I0.622 J0.347
X-22.475 Y10 Z-2.1 I-0.622 J-0.347
S1000
X-21.1 Y10 I0.688 J0
X-23.9 Y10 I-1.4 J0
X-19.675 Y10 I2.112 J0
X-25.325 Y10 I-2.825 J0
X-18.25 Y10 I3.538 J0
X-26.75 Y10 I-4.25 J0
X-18.25 Y10 I4.25 J0
G1 X-18.256 Y10.029
X-18.272 Y10.053
X-18.296 Y10.069
X-18.325 Y10.075
X-20.385 Y10.087
X-22.332 Y9.763
X-22.358 Y9.753
X-22.379 Y9.734
X-22.392 Y9.708
X-22.394 Y9.68
X-22.385 Y9.653
S5000
G3 X-21.14 Y10.347 Z-2.178 I0.622 J0.347
X-22.385 Y9.653 Z-2.256 I-0.622 J-0.347
X-21.14 Y10.347 Z-2.334 I0.622 J0.347
X-22.475 Y10 Z-2.4 I-0.622 J-0.347
S1000
X-21.1 Y10 I0.688 J0
X-23.9 Y10 I-1.4 J0
X-19.675 Y10 I2.112 J0
X-25.325 Y10 I-2.825 J0
X-18.25 Y10 I3.538 J0
X-26.75 Y10 I-4.25 J0
X-18.25 Y10 I4.25 J0
G1 X-18.256 Y10.029
X-18.272 Y10.053
X-18.296 Y10.069
X-18.325 Y10.075
X-20.385 Y10.087
X-22.332 Y9.763
X-22.358 Y9.753
X-22.379 Y9.734
X-22.392 Y9.708
X-22.394 Y9.68
X-22.385 Y9.653
S5000
G3 X-21.14 Y10.347 Z-2.478 I0.622 J0.347
X-22.385 Y9.653 Z-2.556 I-0.622 J-0.347
X-21.14 Y10.347 Z-2.634 I0.622 J0.347
X-22.475 Y10 Z-2.7 I-0.622 J-0.347
S1000
X-21.1 Y10 I0.688 J0
X-23.9 Y10 I-1.4 J0
X-19.675 Y10 I2.112 J0
X-25.325 Y10 I-2.825 J0
X-18.25 Y10 I3.538 J0
X-26.75 Y10 I-4.25 J0
X-18.25 Y10 I4.25 J0
G1 X-18.256 Y10.029
X-18.272 Y10.053
X-18.296 Y10.069
X-18.325 Y10.075
X-20.385 Y10.087
X-22.332 Y9.763
X-22.358 Y9.753
X-22.379 Y9.734
X-22.392 Y9.708
X-22.394 Y9.68
X-22.385 Y9.653
S5000
G3 X-21.14 Y10.347 Z-2.778 I0.622 J0.347
X-22.385 Y9.653 Z-2.856 I-0.622 J-0.347
X-21.14 Y10.347 Z-2.934 I0.622 J0.347
X-22.475 Y10 Z-3 I-0.622 J-0.347
S1000
X-21.1 Y10 I0.688 J0
X-23.9 Y10 I-1.4 J0
X-19.675 Y10 I2.112 J0
X-25.325 Y10 I-2.825 J0
X-18.25 Y10 I3.538 J0
X-26.75 Y10 I-4.25 J0
X-18.25 Y10 I4.25 J0
G1 X-18.256 Y10.029
X-18.272 Y10.053
X-18.296 Y10.069
X-18.325 Y10.075
X-20.385 Y10.087
X-22.332 Y9.763
X-22.358 Y9.753
X-22.379 Y9.734
X-22.392 Y9.708
X-22.394 Y9.68
X-22.385 Y9.653
S5000
G3 X-21.14 Y10.347 Z-3.078 I0.622 J0.347
X-22.385 Y9.653 Z-3.156 I-0.622 J-0.347
X-21.14 Y10.347 Z-3.234 I0.622 J0.347
X-22.475 Y10 Z-3.3 I-0.622 J-0.347
S1000
X-21.1 Y10 I0.688 J0
X-23.9 Y10 I-1.4 J0
X-19.675 Y10 I2.112 J0
X-25.325 Y10 I-2.825 J0
X-18.25 Y10 I3.538 J0
X-26.75 Y10 I-4.25 J0
X-18.25 Y10 I4.25 J0
G1 X-18.256 Y10.029
X-18.272 Y10.053
X-18.296 Y10.069
X-18.325 Y10.075
X-20.385 Y10.087
X-22.332 Y9.763
X-22.358 Y9.753
X-22.379 Y9.734
X-22.392 Y9.708
X-22.394 Y9.68
X-22.385 Y9.653
S5000
G3 X-21.14 Y10.347 Z-3.378 I0.622 J0.347
X-22.385 Y9.653 Z-3.456 I-0.622 J-0.347
X-21.14 Y10.347 Z-3.534 I0.622 J0.347
X-22.475 Y10 Z-3.6 I-0.622 J-0.347
S1000
X-21.1 Y10 I0.688 J0
X-23.9 Y10 I-1.4 J0
X-19.675 Y10 I2.112 J0
X-25.325 Y10 I-2.825 J0
X-18.25 Y10 I3.538 J0
X-26.75 Y10 I-4.25 J0
X-18.25 Y10 I4.25 J0
G1 X-18.256 Y10.029
X-18.272 Y10.053
X-18.296 Y10.069
X-18.325 Y10.075
X-20.385 Y10.087
X-22.332 Y9.763
X-22.358 Y9.753
X-22.379 Y9.734
X-22.392 Y9.708
X-22.394 Y9.68
X-22.385 Y9.653
S5000
G3 X-21.14 Y10.347 Z-3.678 I0.622 J0.347
X-22.385 Y9.653 Z-3.756 I-0.622 J-0.347
X-21.14 Y10.347 Z-3.834 I0.622 J0.347
X-22.475 Y10 Z-3.9 I-0.622 J-0.347
S1000
X-21.1 Y10 I0.688 J0
X-23.9 Y10 I-1.4 J0
X-19.675 Y10 I2.112 J0
X-25.325 Y10 I-2.825 J0
X-18.25 Y10 I3.538 J0
X-26.75 Y10 I-4.25 J0
X-18.25 Y10 I4.25 J0
G1 X-18.255 Y10.028
X-18.27 Y10.051
X-18.293 Y10.068
X-18.32 Y10.075
X-20.854 Y10.231
X-20.881 Y10.23
X-20.907 Y10.22
X-20.927 Y10.202
X-21.415 Y9.555
X-21.428 Y9.527
X-21.429 Y9.496
X-21.417 Y9.467
X-21.395 Y9.446
X-21.365 Y9.435
X-21.335 Y9.438
X-21.307 Y9.452
S5000
G3 X-22.218 Y10.548 Z-3.978 I-0.455 J0.548
X-22.475 Y10 Z-4 I0.455 J-0.548
S1000
X-21.1 Y10 I0.688 J0
X-23.9 Y10 I-1.4 J0
X-19.675 Y10 I2.112 J0
X-25.325 Y10 I-2.825 J0
X-18.25 Y10 I3.538 J0
X-26.75 Y10 I-4.25 J0
X-18.25 Y10 I4.25 J0
G1 X-18.255 Y10.037 Z-3.99
X-18.268 Y10.072 Z-3.98
X-18.284 Y10.095 Z-3.952
X-18.303 Y10.114 Z-3.925
X-18.319 Y10.126 Z-3.85
G0 Z15
X-2.513 Y-10.389
Z5
G1 Z2.65 F150
S5000
X-2.506 Y-10.407 Z2.576
X-2.484 Y-10.455 Z2.522
X-2.449 Y-10.519 Z2.5
G3 X-1.243 Y-9.76 Z2.422 I0.603 J0.38
X-2.449 Y-10.519 Z2.344 I-0.603 J-0.38
X-1.243 Y-9.76 Z2.266 I0.603 J0.38
X-2.449 Y-10.519 Z2.187 I-0.603 J-0.38
X-1.243 Y-9.76 Z2.109 I0.603 J0.38
X-2.449 Y-10.519 Z2.031 I-0.603 J-0.38
X-1.243 Y-9.76 Z1.953 I0.603 J0.38
X-2.449 Y-10.519 Z1.875 I-0.603 J-0.38
X-1.243 Y-9.76 Z1.797 I0.603 J0.38
X-2.449 Y-10.519 Z1.718 I-0.603 J-0.38
X-1.243 Y-9.76 Z1.64 I0.603 J0.38
X-2.449 Y-10.519 Z1.562 I-0.603 J-0.38
X-1.243 Y-9.76 Z1.484 I0.603 J0.38
X-2.449 Y-10.519 Z1.406 I-0.603 J-0.38
X-1.243 Y-9.76 Z1.328 I0.603 J0.38
X-2.449 Y-10.519 Z1.249 I-0.603 J-0.38
X-1.243 Y-9.76 Z1.171 I0.603 J0.38
X-2.449 Y-10.519 Z1.093 I-0.603 J-0.38
X-1.243 Y-9.76 Z1.015 I0.603 J0.38
X-2.449 Y-10.519 Z0.937 I-0.603 J-0.38
X-1.243 Y-9.76 Z0.859 I0.603 J0.38
X-2.449 Y-10.519 Z0.78 I-0.603 J-0.38
X-1.243 Y-9.76 Z0.702 I0.603 J0.38
X-2.449 Y-10.519 Z0.624 I-0.603 J-0.38
X-1.243 Y-9.76 Z0.546 I0.603 J0.38
X-2.449 Y-10.519 Z0.468 I-0.603 J-0.38
X-1.243 Y-9.76 Z0.39 I0.603 J0.38
X-2.449 Y-10.519 Z0.311 I-0.603 J-0.38
X-1.243 Y-9.76 Z0.233 I0.603 J0.38
X-2.449 Y-10.519 Z0.155 I-0.603 J-0.38
X-1.243 Y-9.76 Z0.077 I0.603 J0.38
X-2.449 Y-10.519 Z-0.001 I-0.603 J-0.38
X-1.243 Y-9.76 Z-0.079 I0.603 J0.38
X-2.449 Y-10.519 Z-0.158 I-0.603 J-0.38
X-1.243 Y-9.76 Z-0.236 I0.603 J0.38
X-2.558 Y-10.139 Z-0.3 I-0.603 J-0.38
S1000
G1 Y-10.448
G3 X-2.239 Y-10.767 I0.319 J0
G1 X-1.622
G3 X-1.302 Y-10.448 I0 J0.319
G1 Y-9.83
G3 X-1.622 Y-9.511 I-0.319 J0
G1 X-2.239
G3 X-2.558 Y-9.83 I0 J-0.319
G1 Y-10.139
G2 X-3.028 Y-10.985 I-0.996 J0
G3 X-2.762 Y-11.916 I0.266 J-0.427
G1 X-0.473
G3 X-0.154 Y-11.596 I0 J0.319
G1 Y-8.682
G3 X-0.473 Y-8.363 I-0.319 J0
G1 X-3.387
G3 X-3.707 Y-8.682 I0 J-0.319
G1 Y-11.596
G3 X-3.387 Y-11.916 I0.319 J0
G1 X-2.762
G2 X-1.903 Y-12.489 I0 J-0.931
G3 X-1.043 Y-13.062 I0.86 J0.358
G1 X0.814
G3 X1.055 Y-12.767 I0 J0.245
G2 X0.998 Y-12.46 I7.808 J1.6
X0.973 Y-12.149 I1.891 J0.311
G1 Y-8.129
G2 X0.998 Y-7.818 I1.917 J0
X1.055 Y-7.511 I7.865 J-1.293
G3 X0.814 Y-7.217 I-0.24 J0.049
G1 X-4.675
G3 X-4.915 Y-7.511 I0 J-0.245
G2 X-4.859 Y-7.818 I-7.808 J-1.6
X-4.833 Y-8.129 I-1.891 J-0.311
G1 Y-12.149
G2 X-4.859 Y-12.46 I-1.917 J0
X-4.915 Y-12.767 I-7.865 J1.293
G3 X-4.675 Y-13.062 I0.24 J-0.049
G1 X-1.043
G2 X-0.163 Y-13.648 I0 J-0.953
G3 X0.717 Y-14.235 I0.88 J0.367
G1 X1.851
G3 X2.167 Y-13.932 I0 J0.316
G2 X2.267 Y-13.397 I1.903 J-0.077
G3 X2.267 Y-12.762 I-0.935 J0.318
G2 X2.181 Y-12.46 I2.895 J0.983
X2.146 Y-12.149 I1.36 J0.311
G1 Y-8.129
G2 X2.181 Y-7.818 I1.395 J0
X2.267 Y-7.517 I2.98 J-0.682
G3 X2.267 Y-6.882 I-0.935 J0.318
G2 X2.167 Y-6.347 I1.803 J0.612
G3 X1.851 Y-6.043 I-0.316 J-0.013
G1 X-5.712
G3 X-6.028 Y-6.347 I0 J-0.316
G2 X-6.127 Y-6.882 I-1.903 J0.077
G3 X-6.127 Y-7.517 I0.935 J-0.318
G2 X-6.042 Y-7.818 I-2.895 J-0.983
X-6.007 Y-8.129 I-1.36 J-0.311
G1 Y-12.149
G2 X-6.042 Y-12.46 I-1.395 J0
X-6.127 Y-12.762 I-2.98 J0.682
G3 X-6.127 Y-13.397 I0.935 J-0.318
G2 X-6.028 Y-13.932 I-1.803 J-0.612
G3 X-5.712 Y-14.235 I0.316 J0.013
G1 X0.717
G3 X0.736 Y-13.836 I0 J0.2
G1 X-9.146 Y-12.867
G3 X-9.195 Y-13.292 I-0.025 J-0.213
X-9.146 Y-12.867 I0.025 J0.213
G1 X-9.183 Z-0.29
X-9.219 Y-12.877 Z-0.28
X-9.243 Y-12.889 Z-0.252
X-9.265 Y-12.906 Z-0.225
X-9.279 Y-12.92 Z-0.15
G0 Z5
X-4.582 Y-7.873
G1 Z1.3 F150
Z-0.15
X-4.589 Y-7.872 Z-0.196
X-4.61 Y-7.868 Z-0.238
X-4.643 Y-7.863 Z-0.271
X-4.684 Y-7.857 Z-0.293
X-4.73 Y-7.849 Z-0.3
X-8.672 Y-7.222
G3 X-8.956 Y-7.199 I-0.284 J-1.784
G1 X-9.019 Y-7.184
X-9.051 Y-7.183
X-9.081 Y-7.196
X-9.102 Y-7.221
X-9.11 Y-7.252
X-9.102 Y-7.284
X-9.082 Y-7.309
X-9.052 Y-7.323
X-9.02 Y-7.322
X-8.991 Y-7.306
X-8.972 Y-7.28
X-8.96 Y-7.24
X-8.956 Y-7.199
Y-7.198
G3 X-9.384 Y-7.2 I-0.214 J-0.001
X-8.972 Y-7.28 I0.214 J0.001
G1 X-8.96 Y-7.24 Z-0.288
X-8.956 Y-7.199 Z-0.275
Y-7.198
X-8.962 Y-7.15 Z-0.221
X-8.967 Y-7.133 Z-0.15
Z1.3
X0.803 Y-9.029
Z-0.15
X0.809 Y-9.027 Z-0.196
X0.829 Y-9.019 Z-0.238
X0.86 Y-9.006 Z-0.271
X0.899 Y-8.99 Z-0.293
X0.942 Y-8.973 Z-0.3
X0.966 Y-8.957
X0.983 Y-8.932
X0.988 Y-8.903
X0.973 Y-7.373
X0.981 Y-7.34
X1.003 Y-7.313
G2 X1.784 Y-7.125 I0.601 J-0.781
G3 X2.584 Y-7.199 I0.8 J4.297
G1 X3.647
G3 X4.392 Y-7.016 I0 J1.604
G2 X5.111 Y-7.28 I0.24 J-0.458
G3 X5.508 Y-7.119 I0.198 J0.081
X5.111 Y-7.28 I-0.198 J-0.081
G1 X5.126 Y-7.308 Z-0.293
X5.144 Y-7.335 Z-0.286
X5.181 Y-7.37 Z-0.245
X5.21 Y-7.389 Z-0.15
G0 Z5
X0.721 Y-12.405
G1 Z1.3 F150
Z-0.15
X0.728 Y-12.407 Z-0.196
X0.75 Y-12.41 Z-0.238
X0.782 Y-12.415 Z-0.271
X0.824 Y-12.422 Z-0.293
X0.869 Y-12.429 Z-0.3
X4.812 Y-13.057
G3 X5.096 Y-13.079 I0.284 J1.784
G1 X5.158 Y-13.094
X5.19 Y-13.096
X5.22 Y-13.083
X5.241 Y-13.058
X5.249 Y-13.026
X5.242 Y-12.994
X5.221 Y-12.969
X5.191 Y-12.956
X5.159 Y-12.957
X5.13 Y-12.972
X5.111 Y-12.999
G3 X5.508 Y-13.16 I0.198 J-0.081
X5.111 Y-12.999 I-0.198 J0.081
G2 X4.295 Y-13.244 I-0.507 J0.206
X3.607 Y-12.74 I7.652 J11.151
X3.32 Y-12.149 I0.462 J0.59
G1 Y-8.129
G2 X4.67 Y-7.679 I0.75 J0
G3 X5.95 Y-6.719 I0.64 J0.48
X4.67 Y-6.719 I-0.64 J-0.48
G2 X3.32 Y-6.269 I-0.6 J0.45
G1 Y-4.889
X-7.18
Y-6.269
G2 X-8.53 Y-6.719 I-0.75 J0
G3 X-9.81 Y-7.679 I-0.64 J-0.48
X-8.53 Y-7.679 I0.64 J0.48
G2 X-7.18 Y-8.129 I0.6 J-0.45
G1 Y-12.149
G2 X-8.53 Y-12.599 I-0.75 J0
G3 X-9.81 Y-13.559 I-0.64 J-0.48
X-8.53 Y-13.559 I0.64 J0.48
G2 X-7.18 Y-14.009 I0.6 J-0.45
G1 Y-15.389
X3.32
Y-14.009
G2 X4.67 Y-13.559 I0.75 J0
G3 X5.95 Y-12.599 I0.64 J0.48
X4.67 Y-12.599 I-0.64 J-0.48
G2 X3.607 Y-12.74 I-0.6 J0.45
G3 X3.36 Y-13.055 I-0.123 J-0.157
X3.447 Y-13.094 I0.123 J0.157
G1 X5.778 Y-13.534
X5.832 Y-13.537
X5.884 Y-13.525
X5.931 Y-13.5
X5.97 Y-13.464
X5.998 Y-13.418
S5000
G3 X4.696 Y-12.84 Z-0.378 I-0.651 J0.289
X5.998 Y-13.418 Z-0.456 I0.651 J-0.289
X4.696 Y-12.84 Z-0.534 I-0.651 J0.289
X5.774 Y-13.699 Z-0.6 I0.651 J-0.289
X5.181 Y-12.908 I-0.297 J0.396
S1000
X5.438 Y-13.25 I0.128 J-0.171
X5.181 Y-12.908 I-0.128 J0.171
G1 X5.154 Y-12.934 Z-0.59
X5.135 Y-12.966 Z-0.58
X5.126 Y-12.992 Z-0.552
X5.121 Y-13.019 Z-0.525
X5.122 Y-13.039 Z-0.45
G0 Z5
X4.575 Y-7.433
G1 Z2.35 F150
S5000
X4.581 Y-7.451 Z2.276
X4.602 Y-7.5 Z2.222
X4.636 Y-7.564 Z2.2
G3 X5.859 Y-6.832 Z2.122 I0.611 J0.366
X4.636 Y-7.564 Z2.044 I-0.611 J-0.366
X5.859 Y-6.832 Z1.966 I0.611 J0.366
X4.636 Y-7.564 Z1.887 I-0.611 J-0.366
X5.859 Y-6.832 Z1.809 I0.611 J0.366
X4.636 Y-7.564 Z1.731 I-0.611 J-0.366
X5.859 Y-6.832 Z1.653 I0.611 J0.366
X4.636 Y-7.564 Z1.575 I-0.611 J-0.366
X5.859 Y-6.832 Z1.497 I0.611 J0.366
X4.636 Y-7.564 Z1.418 I-0.611 J-0.366
X5.859 Y-6.832 Z1.34 I0.611 J0.366
X4.636 Y-7.564 Z1.262 I-0.611 J-0.366
X5.859 Y-6.832 Z1.184 I0.611 J0.366
X4.636 Y-7.564 Z1.106 I-0.611 J-0.366
X5.859 Y-6.832 Z1.028 I0.611 J0.366
X4.636 Y-7.564 Z0.949 I-0.611 J-0.366
X5.859 Y-6.832 Z0.871 I0.611 J0.366
X4.636 Y-7.564 Z0.793 I-0.611 J-0.366
X5.859 Y-6.832 Z0.715 I0.611 J0.366
X4.636 Y-7.564 Z0.637 I-0.611 J-0.366
X5.859 Y-6.832 Z0.559 I0.611 J0.366
X4.636 Y-7.564 Z0.48 I-0.611 J-0.366
X5.859 Y-6.832 Z0.402 I0.611 J0.366
X4.636 Y-7.564 Z0.324 I-0.611 J-0.366
X5.859 Y-6.832 Z0.246 I0.611 J0.366
X4.636 Y-7.564 Z0.168 I-0.611 J-0.366
X5.859 Y-6.832 Z0.09 I0.611 J0.366
X4.636 Y-7.564 Z0.011 I-0.611 J-0.366
X5.859 Y-6.832 Z-0.067 I0.611 J0.366
X4.636 Y-7.564 Z-0.145 I-0.611 J-0.366
X5.859 Y-6.832 Z-0.223 I0.611 J0.366
X4.636 Y-7.564 Z-0.301 I-0.611 J-0.366
X5.859 Y-6.832 Z-0.379 I0.611 J0.366
X4.636 Y-7.564 Z-0.458 I-0.611 J-0.366
X5.859 Y-6.832 Z-0.536 I0.611 J0.366
X4.535 Y-7.182 Z-0.6 I-0.611 J-0.366
X5.018 Y-7.687 I0.494 J-0.011
X5.524 Y-7.204 I0.011 J0.494
S1000
X5.096 Y-7.194 I-0.214 J0.005
X5.524 Y-7.204 I0.214 J-0.005
G1 X5.52 Y-7.167 Z-0.59
X5.507 Y-7.132 Z-0.58
X5.492 Y-7.109 Z-0.552
X5.473 Y-7.089 Z-0.525
X5.457 Y-7.076 Z-0.45
G0 Z5
X-2.181 Y-9.556
G1 Z2.35 F150
S5000
X-2.198 Y-9.563 Z2.276
X-2.247 Y-9.585 Z2.222
X-2.31 Y-9.621 Z2.2
G3 X-1.551 Y-10.827 Z2.122 I0.38 J-0.603
X-2.31 Y-9.621 Z2.044 I-0.38 J0.603
X-1.551 Y-10.827 Z1.966 I0.38 J-0.603
X-2.31 Y-9.621 Z1.887 I-0.38 J0.603
X-1.551 Y-10.827 Z1.809 I0.38 J-0.603
X-2.31 Y-9.621 Z1.731 I-0.38 J0.603
X-1.551 Y-10.827 Z1.653 I0.38 J-0.603
X-2.31 Y-9.621 Z1.575 I-0.38 J0.603
X-1.551 Y-10.827 Z1.497 I0.38 J-0.603
X-2.31 Y-9.621 Z1.418 I-0.38 J0.603
X-1.551 Y-10.827 Z1.34 I0.38 J-0.603
X-2.31 Y-9.621 Z1.262 I-0.38 J0.603
X-1.551 Y-10.827 Z1.184 I0.38 J-0.603
X-2.31 Y-9.621 Z1.106 I-0.38 J0.603
X-1.551 Y-10.827 Z1.028 I0.38 J-0.603
X-2.31 Y-9.621 Z0.949 I-0.38 J0.603
X-1.551 Y-10.827 Z0.871 I0.38 J-0.603
X-2.31 Y-9.621 Z0.793 I-0.38 J0.603
X-1.551 Y-10.827 Z0.715 I0.38 J-0.603
X-2.31 Y-9.621 Z0.637 I-0.38 J0.603
X-1.551 Y-10.827 Z0.559 I0.38 J-0.603
X-2.31 Y-9.621 Z0.48 I-0.38 J0.603
X-1.551 Y-10.827 Z0.402 I0.38 J-0.603
X-2.31 Y-9.621 Z0.324 I-0.38 J0.603
X-1.551 Y-10.827 Z0.246 I0.38 J-0.603
X-2.31 Y-9.621 Z0.168 I-0.38 J0.603
X-1.551 Y-10.827 Z0.09 I0.38 J-0.603
X-2.31 Y-9.621 Z0.011 I-0.38 J0.603
X-1.551 Y-10.827 Z-0.067 I0.38 J-0.603
X-2.31 Y-9.621 Z-0.145 I-0.38 J0.603
X-1.551 Y-10.827 Z-0.223 I0.38 J-0.603
X-2.31 Y-9.621 Z-0.301 I-0.38 J0.603
X-1.551 Y-10.827 Z-0.379 I0.38 J-0.603
X-2.31 Y-9.621 Z-0.458 I-0.38 J0.603
X-1.551 Y-10.827 Z-0.536 I0.38 J-0.603
X-1.93 Y-9.511 Z-0.6 I-0.38 J0.603
S1000
G1 X-2.239
G3 X-2.558 Y-9.83 I0 J-0.319
G1 Y-10.448
G3 X-2.239 Y-10.767 I0.319 J0
G1 X-1.622
G3 X-1.302 Y-10.448 I0 J0.319
G1 Y-9.83
G3 X-1.622 Y-9.511 I-0.319 J0
G1 X-1.927
X-1.93
G2 X-2.776 Y-9.041 I0 J0.996
G3 X-3.707 Y-9.307 I-0.427 J-0.266
G1 Y-11.596
G3 X-3.387 Y-11.916 I0.319 J0
G1 X-0.473
G3 X-0.154 Y-11.596 I0 J0.319
G1 Y-8.682
G3 X-0.473 Y-8.363 I-0.319 J0
G1 X-3.387
G3 X-3.707 Y-8.682 I0 J-0.319
G1 Y-9.307
G2 X-4.27 Y-10.152 I-0.915 J0
G3 X-4.833 Y-10.997 I0.352 J-0.845
G1 Y-12.149
G2 X-4.859 Y-12.46 I-1.917 J0
X-4.915 Y-12.767 I-7.865 J1.293
G3 X-4.675 Y-13.062 I0.24 J-0.049
G1 X0.814
G3 X1.055 Y-12.767 I0 J0.245
G2 X0.998 Y-12.46 I7.808 J1.6
X0.973 Y-12.149 I1.891 J0.311
G1 Y-8.129
G2 X0.998 Y-7.818 I1.917 J0
X1.055 Y-7.511 I7.865 J-1.293
G3 X0.814 Y-7.217 I-0.24 J0.049
G1 X-4.675
G3 X-4.915 Y-7.511 I0 J-0.245
G2 X-4.859 Y-7.818 I-7.808 J-1.6
X-4.833 Y-8.129 I-1.891 J-0.311
G1 Y-10.997
G2 X-5.407 Y-11.922 I-1.033 J0
G3 X-6.121 Y-12.744 I0.629 J-1.268
G1 X-6.127 Y-12.762
G3 X-6.127 Y-13.397 I0.935 J-0.318
G2 X-6.028 Y-13.932 I-1.803 J-0.612
G3 X-5.712 Y-14.235 I0.316 J0.013
G1 X1.851
G3 X2.167 Y-13.932 I0 J0.316
G2 X2.267 Y-13.397 I1.903 J-0.077
G3 X2.267 Y-12.762 I-0.935 J0.318
G2 X2.181 Y-12.46 I2.895 J0.983
X2.146 Y-12.149 I1.36 J0.311
G1 Y-8.129
G2 X2.181 Y-7.818 I1.395 J0
X2.267 Y-7.517 I2.98 J-0.682
G3 X2.267 Y-6.882 I-0.935 J0.318
G2 X2.167 Y-6.347 I1.803 J0.612
G3 X1.851 Y-6.043 I-0.316 J-0.013
G1 X-5.712
G3 X-6.028 Y-6.347 I0 J-0.316
G2 X-6.127 Y-6.882 I-1.903 J0.077
G3 X-6.127 Y-7.517 I0.935 J-0.318
G2 X-6.042 Y-7.818 I-2.895 J-0.983
X-6.007 Y-8.129 I-1.36 J-0.311
G1 Y-12.149
G2 X-6.042 Y-12.46 I-1.395 J0
X-6.121 Y-12.744 I-2.98 J0.682
G1 X-6.101 Y-12.996
X-6.104 Y-13.027
X-6.12 Y-13.054
X-6.145 Y-13.073
X-6.176 Y-13.079
X-8.956
X-8.988 Y-13.072
X-9.014 Y-13.05
X-9.129 Y-12.895
X-9.147 Y-12.878
X-9.169 Y-12.868
X-9.194 Y-12.866
G3 X-9.147 Y-13.292 I0.023 J-0.213
X-9.194 Y-12.866 I-0.023 J0.213
G1 X-9.23 Y-12.875 Z-0.59
X-9.263 Y-12.893 Z-0.58
X-9.284 Y-12.91 Z-0.552
X-9.302 Y-12.931 Z-0.525
X-9.312 Y-12.949 Z-0.45
G0 Z5
X-4.582 Y-7.873
G1 Z1 F150
Z-0.45
X-4.589 Y-7.872 Z-0.496
X-4.61 Y-7.868 Z-0.538
X-4.643 Y-7.863 Z-0.571
X-4.684 Y-7.857 Z-0.593
X-4.73 Y-7.849 Z-0.6
X-8.672 Y-7.222
G3 X-8.956 Y-7.199 I-0.284 J-1.784
G1 X-9.019 Y-7.184
X-9.051 Y-7.183
X-9.081 Y-7.196
X-9.102 Y-7.221
X-9.11 Y-7.252
X-9.102 Y-7.284
X-9.082 Y-7.309
X-9.052 Y-7.323
X-9.02 Y-7.322
X-8.991 Y-7.306
X-8.972 Y-7.28
G3 X-9.369 Y-7.119 I-0.198 J0.081
X-8.972 Y-7.28 I0.198 J-0.081
G2 X-8.155 Y-7.034 I0.507 J-0.206
X-7.468 Y-7.539 I-7.652 J-11.151
X-7.18 Y-8.129 I-0.462 J-0.59
G1 Y-12.149
G2 X-8.53 Y-12.599 I-0.75 J0
G3 X-9.81 Y-13.559 I-0.64 J-0.48
X-8.53 Y-13.559 I0.64 J0.48
G2 X-7.18 Y-14.009 I0.6 J-0.45
G1 Y-15.389
X3.32
Y-14.009
G2 X4.67 Y-13.559 I0.75 J0
G3 X5.95 Y-12.599 I0.64 J0.48
X4.67 Y-12.599 I-0.64 J-0.48
G2 X3.32 Y-12.149 I-0.6 J0.45
G1 Y-8.129
G2 X4.67 Y-7.679 I0.75 J0
G3 X5.95 Y-6.719 I0.64 J0.48
X4.67 Y-6.719 I-0.64 J-0.48
G2 X3.32 Y-6.269 I-0.6 J0.45
G1 Y-4.889
X-7.18
Y-6.269
G2 X-8.53 Y-6.719 I-0.75 J0
G3 X-9.81 Y-7.679 I-0.64 J-0.48
X-8.53 Y-7.679 I0.64 J0.48
G2 X-7.468 Y-7.539 I0.6 J-0.45
G1 X-7.439 Y-7.553
X-7.407
X-7.378 Y-7.541
X-7.357 Y-7.517
X-7.347 Y-7.487
X-7.351 Y-7.455
X-7.367 Y-7.428
X-7.393 Y-7.41
X-7.561 Y-7.348
X-9.104 Y-7.351
X-9.799 Y-7.435
X-9.826 Y-7.445
X-9.848 Y-7.464
X-9.862 Y-7.49
X-9.864 Y-7.519
X-9.855 Y-7.546
S5000
G3 X-8.611 Y-6.852 Z-0.678 I0.622 J0.347
X-9.855 Y-7.546 Z-0.756 I-0.622 J-0.347
X-8.611 Y-6.852 Z-0.834 I0.622 J0.347
X-9.945 Y-7.199 Z-0.9 I-0.622 J-0.347
X-8.956 Y-7.199 I0.494 J0
S1000
X-9.384 Y-7.199 I-0.214 J0
X-8.956 Y-7.199 I0.214 J0
G1 X-8.96 Y-7.162 Z-0.89
X-8.969 Y-7.126 Z-0.88
X-8.995 Y-7.077 Z-0.825
X-9.007 Y-7.061 Z-0.75
G0 Z5
X-8.933 Y-12.346
G1 Z2.05 F150
S5000
X-8.951 Y-12.34 Z1.976
X-9.003 Y-12.329 Z1.922
X-9.075 Y-12.319 Z1.9
G3 X-9.191 Y-13.739 Z1.822 I-0.058 J-0.71
X-9.075 Y-12.319 Z1.744 I0.058 J0.71
X-9.191 Y-13.739 Z1.666 I-0.058 J-0.71
X-9.075 Y-12.319 Z1.587 I0.058 J0.71
X-9.191 Y-13.739 Z1.509 I-0.058 J-0.71
X-9.075 Y-12.319 Z1.431 I0.058 J0.71
X-9.191 Y-13.739 Z1.353 I-0.058 J-0.71
X-9.075 Y-12.319 Z1.275 I0.058 J0.71
X-9.191 Y-13.739 Z1.197 I-0.058 J-0.71
X-9.075 Y-12.319 Z1.118 I0.058 J0.71
X-9.191 Y-13.739 Z1.04 I-0.058 J-0.71
X-9.075 Y-12.319 Z0.962 I0.058 J0.71
X-9.191 Y-13.739 Z0.884 I-0.058 J-0.71
X-9.075 Y-12.319 Z0.806 I0.058 J0.71
X-9.191 Y-13.739 Z0.728 I-0.058 J-0.71
X-9.075 Y-12.319 Z0.649 I0.058 J0.71
X-9.191 Y-13.739 Z0.571 I-0.058 J-0.71
X-9.075 Y-12.319 Z0.493 I0.058 J0.71
X-9.191 Y-13.739 Z0.415 I-0.058 J-0.71
X-9.075 Y-12.319 Z0.337 I0.058 J0.71
X-9.191 Y-13.739 Z0.259 I-0.058 J-0.71
X-9.075 Y-12.319 Z0.18 I0.058 J0.71
X-9.191 Y-13.739 Z0.102 I-0.058 J-0.71
X-9.075 Y-12.319 Z0.024 I0.058 J0.71
X-9.191 Y-13.739 Z-0.054 I-0.058 J-0.71
X-9.075 Y-12.319 Z-0.132 I0.058 J0.71
X-9.191 Y-13.739 Z-0.21 I-0.058 J-0.71
X-9.075 Y-12.319 Z-0.289 I0.058 J0.71
X-9.191 Y-13.739 Z-0.367 I-0.058 J-0.71
X-9.075 Y-12.319 Z-0.445 I0.058 J0.71
X-9.191 Y-13.739 Z-0.523 I-0.058 J-0.71
X-9.075 Y-12.319 Z-0.601 I0.058 J0.71
X-9.191 Y-13.739 Z-0.679 I-0.058 J-0.71
X-9.075 Y-12.319 Z-0.758 I0.058 J0.71
X-9.191 Y-13.739 Z-0.836 I-0.058 J-0.71
X-8.706 Y-12.459 Z-0.9 I0.058 J0.71
X-9.299 Y-13.25 I-0.297 J-0.396
S1000
X-9.042 Y-12.908 I0.128 J0.171
X-9.299 Y-13.25 I-0.128 J-0.171
G1 X-9.266 Y-13.269 Z-0.89
X-9.23 Y-13.279 Z-0.88
X-9.203 Y-13.28 Z-0.852
X-9.176 Y-13.277 Z-0.825
X-9.156 Y-13.271 Z-0.75
G0 Z5
X-2.513 Y-10.389
G1 Z2.05 F150
S5000
X-2.506 Y-10.407 Z1.976
X-2.484 Y-10.455 Z1.922
X-2.449 Y-10.519 Z1.9
G3 X-1.243 Y-9.76 Z1.822 I0.603 J0.38
X-2.449 Y-10.519 Z1.744 I-0.603 J-0.38
X-1.243 Y-9.76 Z1.666 I0.603 J0.38
X-2.449 Y-10.519 Z1.587 I-0.603 J-0.38
X-1.243 Y-9.76 Z1.509 I0.603 J0.38
X-2.449 Y-10.519 Z1.431 I-0.603 J-0.38
X-1.243 Y-9.76 Z1.353 I0.603 J0.38
X-2.449 Y-10.519 Z1.275 I-0.603 J-0.38
X-1.243 Y-9.76 Z1.197 I0.603 J0.38
X-2.449 Y-10.519 Z1.118 I-0.603 J-0.38
X-1.243 Y-9.76 Z1.04 I0.603 J0.38
X-2.449 Y-10.519 Z0.962 I-0.603 J-0.38
X-1.243 Y-9.76 Z0.884 I0.603 J0.38
X-2.449 Y-10.519 Z0.806 I-0.603 J-0.38
X-1.243 Y-9.76 Z0.728 I0.603 J0.38
X-2.449 Y-10.519 Z0.649 I-0.603 J-0.38
X-1.243 Y-9.76 Z0.571 I0.603 J0.38
X-2.449 Y-10.519 Z0.493 I-0.603 J-0.38
X-1.243 Y-9.76 Z0.415 I0.603 J0.38
X-2.449 Y-10.519 Z0.337 I-0.603 J-0.38
X-1.243 Y-9.76 Z0.259 I0.603 J0.38
X-2.449 Y-10.519 Z0.18 I-0.603 J-0.38
X-1.243 Y-9.76 Z0.102 I0.603 J0.38
X-2.449 Y-10.519 Z0.024 I-0.603 J-0.38
X-1.243 Y-9.76 Z-0.054 I0.603 J0.38
X-2.449 Y-10.519 Z-0.132 I-0.603 J-0.38
X-1.243 Y-9.76 Z-0.21 I0.603 J0.38
X-2.449 Y-10.519 Z-0.289 I-0.603 J-0.38
X-1.243 Y-9.76 Z-0.367 I0.603 J0.38
X-2.449 Y-10.519 Z-0.445 I-0.603 J-0.38
X-1.243 Y-9.76 Z-0.523 I0.603 J0.38
X-2.449 Y-10.519 Z-0.601 I-0.603 J-0.38
X-1.243 Y-9.76 Z-0.679 I0.603 J0.38
X-2.449 Y-10.519 Z-0.758 I-0.603 J-0.38
X-1.243 Y-9.76 Z-0.836 I0.603 J0.38
X-2.558 Y-10.139 Z-0.9 I-0.603 J-0.38
S1000
G1 Y-10.448
G3 X-2.239 Y-10.767 I0.319 J0
G1 X-1.934
X-1.622
G3 X-1.302 Y-10.448 I0 J0.319
G1 Y-9.83
G3 X-1.622 Y-9.511 I-0.319 J0
G1 X-2.239
G3 X-2.558 Y-9.83 I0 J-0.319
G1 Y-10.139
G2 X-3.028 Y-10.985 I-0.996 J0
G3 X-2.762 Y-11.916 I0.266 J-0.427
G1 X-0.473
G3 X-0.154 Y-11.596 I0 J0.319
G1 Y-8.682
G3 X-0.473 Y-8.363 I-0.319 J0
G1 X-3.387
G3 X-3.707 Y-8.682 I0 J-0.319
G1 Y-11.596
G3 X-3.387 Y-11.916 I0.319 J0
G1 X-2.762
G2 X-1.903 Y-12.489 I0 J-0.931
G3 X-1.043 Y-13.062 I0.86 J0.358
G1 X0.814
G3 X1.055 Y-12.767 I0 J0.245
G2 X0.998 Y-12.46 I7.808 J1.6
X0.973 Y-12.149 I1.891 J0.311
G1 Y-8.129
G2 X0.998 Y-7.818 I1.917 J0
X1.055 Y-7.511 I7.865 J-1.293
G3 X0.814 Y-7.217 I-0.24 J0.049
G1 X-4.675
G3 X-4.915 Y-7.511 I0 J-0.245
G2 X-4.859 Y-7.818 I-7.808 J-1.6
X-4.833 Y-8.129 I-1.891 J-0.311
G1 Y-12.149
G2 X-4.859 Y-12.46 I-1.917 J0
X-4.915 Y-12.767 I-7.865 J1.293
G3 X-4.675 Y-13.062 I0.24 J-0.049
G1 X-1.043
G2 X-0.163 Y-13.648 I0 J-0.953
G3 X0.717 Y-14.235 I0.88 J0.367
G1 X1.851
G3 X2.167 Y-13.932 I0 J0.316
G2 X2.267 Y-13.397 I1.903 J-0.077
G3 X2.267 Y-12.762 I-0.935 J0.318
G2 X2.181 Y-12.46 I2.895 J0.983
X2.146 Y-12.149 I1.36 J0.311
G1 Y-8.129
G2 X2.181 Y-7.818 I1.395 J0
X2.267 Y-7.517 I2.98 J-0.682
G3 X2.267 Y-6.882 I-0.935 J0.318
G2 X2.167 Y-6.347 I1.803 J0.612
G3 X1.851 Y-6.043 I-0.316 J-0.013
G1 X-5.712
G3 X-6.028 Y-6.347 I0 J-0.316
G2 X-6.127 Y-6.882 I-1.903 J0.077
G3 X-6.127 Y-7.517 I0.935 J-0.318
G2 X-6.042 Y-7.818 I-2.895 J-0.983
X-6.007 Y-8.129 I-1.36 J-0.311
G1 Y-12.149
G2 X-6.042 Y-12.46 I-1.395 J0
X-6.127 Y-12.762 I-2.98 J0.682
G3 X-6.127 Y-13.397 I0.935 J-0.318
G2 X-6.028 Y-13.932 I-1.803 J-0.612
G3 X-5.712 Y-14.235 I0.316 J0.013
G1 X0.717
X0.754 Y-14.23 Z-0.89
X0.789 Y-14.217 Z-0.88
X0.811 Y-14.201 Z-0.852
X0.831 Y-14.182 Z-0.825
X0.843 Y-14.166 Z-0.75
Z0.7
X0.721 Y-12.405
Z-0.75
X0.728 Y-12.407 Z-0.796
X0.75 Y-12.41 Z-0.838
X0.782 Y-12.415 Z-0.871
X0.824 Y-12.422 Z-0.893
X0.869 Y-12.429 Z-0.9
X4.812 Y-13.057
G3 X5.096 Y-13.079 I0.284 J1.784
G1 X5.158 Y-13.094
X5.19 Y-13.096
X5.22 Y-13.083
X5.241 Y-13.058
X5.249 Y-13.026
X5.242 Y-12.994
X5.221 Y-12.969
X5.191 Y-12.956
X5.159 Y-12.957
X5.13 Y-12.972
X5.111 Y-12.999
G3 X5.508 Y-13.16 I0.198 J-0.081
X5.111 Y-12.999 I-0.198 J0.081
G1 X5.1 Y-13.034 Z-0.89
X5.096 Y-13.072 Z-0.88
X5.101 Y-13.126 Z-0.825
X5.106 Y-13.146 Z-0.75
G0 Z5
X0.803 Y-9.029
G1 Z0.7 F150
Z-0.75
X0.809 Y-9.027 Z-0.796
X0.829 Y-9.019 Z-0.838
X0.86 Y-9.006 Z-0.871
X0.899 Y-8.99 Z-0.893
X0.942 Y-8.973 Z-0.9
X0.966 Y-8.957
X0.983 Y-8.932
X0.988 Y-8.903
X0.973 Y-7.373
X0.981 Y-7.34
X1.003 Y-7.313
G2 X1.784 Y-7.125 I0.601 J-0.781
G3 X2.584 Y-7.199 I0.8 J4.297
G1 X3.647
G3 X4.392 Y-7.016 I0 J1.604
G2 X5.111 Y-7.28 I0.24 J-0.458
G3 X5.508 Y-7.119 I0.198 J0.081
X5.111 Y-7.28 I-0.198 J-0.081
G2 X5.103 Y-7.671 I-0.458 J-0.186
G3 X5.316 Y-7.999 I0.211 J-0.096
X5.303 Y-6.399 I-0.006 J0.8
X4.67 Y-6.719 I0.006 J-0.8
G2 X3.32 Y-6.269 I-0.6 J0.45
G1 Y-4.889
X-7.18
Y-6.269
G2 X-8.53 Y-6.719 I-0.75 J0
G3 X-9.81 Y-7.679 I-0.64 J-0.48
X-8.53 Y-7.679 I0.64 J0.48
G2 X-7.18 Y-8.129 I0.6 J-0.45
G1 Y-12.149
G2 X-8.53 Y-12.599 I-0.75 J0
G3 X-9.81 Y-13.559 I-0.64 J-0.48
X-8.53 Y-13.559 I0.64 J0.48
G2 X-7.18 Y-14.009 I0.6 J-0.45
G1 Y-15.389
X3.32
Y-14.009
G2 X4.67 Y-13.559 I0.75 J0
G3 X5.95 Y-12.599 I0.64 J0.48
X4.67 Y-12.599 I-0.64 J-0.48
G2 X3.32 Y-12.149 I-0.6 J0.45
G1 Y-8.129
G2 X4.67 Y-7.679 I0.75 J0
G3 X5.316 Y-7.999 I0.64 J0.48
X5.427 Y-7.634 I-0.002 J0.2
G1 X4.912 Y-7.284
G3 X4.625 Y-7.546 I-0.113 J-0.165
S5000
X5.869 Y-6.852 Z-0.978 I0.622 J0.347
X4.625 Y-7.546 Z-1.056 I-0.622 J-0.347
X5.869 Y-6.852 Z-1.134 I0.622 J0.347
X4.535 Y-7.199 Z-1.2 I-0.622 J-0.347
X5.524 Y-7.199 I0.494 J0
S1000
X5.096 Y-7.199 I-0.214 J0
X5.524 Y-7.199 I0.214 J0
G1 X5.519 Y-7.162 Z-1.19
X5.505 Y-7.127 Z-1.18
X5.49 Y-7.105 Z-1.152
X5.471 Y-7.085 Z-1.125
X5.455 Y-7.073 Z-1.05
G0 Z5
X6.048 Y-12.856
G1 Z1.75 F150
S5000
X6.041 Y-12.838 Z1.676
X6.021 Y-12.789 Z1.622
X5.988 Y-12.724 Z1.6
G3 X4.756 Y-13.439 Z1.522 I-0.616 J-0.357
X5.988 Y-12.724 Z1.444 I0.616 J0.357
X4.756 Y-13.439 Z1.366 I-0.616 J-0.357
X5.988 Y-12.724 Z1.287 I0.616 J0.357
X4.756 Y-13.439 Z1.209 I-0.616 J-0.357
X5.988 Y-12.724 Z1.131 I0.616 J0.357
X4.756 Y-13.439 Z1.053 I-0.616 J-0.357
X5.988 Y-12.724 Z0.975 I0.616 J0.357
X4.756 Y-13.439 Z0.897 I-0.616 J-0.357
X5.988 Y-12.724 Z0.818 I0.616 J0.357
X4.756 Y-13.439 Z0.74 I-0.616 J-0.357
X5.988 Y-12.724 Z0.662 I0.616 J0.357
X4.756 Y-13.439 Z0.584 I-0.616 J-0.357
X5.988 Y-12.724 Z0.506 I0.616 J0.357
X4.756 Y-13.439 Z0.428 I-0.616 J-0.357
X5.988 Y-12.724 Z0.349 I0.616 J0.357
X4.756 Y-13.439 Z0.271 I-0.616 J-0.357
X5.988 Y-12.724 Z0.193 I0.616 J0.357
X4.756 Y-13.439 Z0.115 I-0.616 J-0.357
X5.988 Y-12.724 Z0.037 I0.616 J0.357
X4.756 Y-13.439 Z-0.041 I-0.616 J-0.357
X5.988 Y-12.724 Z-0.12 I0.616 J0.357
X4.756 Y-13.439 Z-0.198 I-0.616 J-0.357
X5.988 Y-12.724 Z-0.276 I0.616 J0.357
X4.756 Y-13.439 Z-0.354 I-0.616 J-0.357
X5.988 Y-12.724 Z-0.432 I0.616 J0.357
X4.756 Y-13.439 Z-0.51 I-0.616 J-0.357
X5.988 Y-12.724 Z-0.589 I0.616 J0.357
X4.756 Y-13.439 Z-0.667 I-0.616 J-0.357
X5.988 Y-12.724 Z-0.745 I0.616 J0.357
X4.756 Y-13.439 Z-0.823 I-0.616 J-0.357
X5.988 Y-12.724 Z-0.901 I0.616 J0.357
X4.756 Y-13.439 Z-0.979 I-0.616 J-0.357
X5.988 Y-12.724 Z-1.058 I0.616 J0.357
X4.756 Y-13.439 Z-1.136 I-0.616 J-0.357
X6.084 Y-13.107 Z-1.2 I0.616 J0.357
X5.608 Y-12.595 I-0.494 J0.018
X5.096 Y-13.071 I-0.018 J-0.494
S1000
X5.523 Y-13.087 I0.214 J-0.008
X5.096 Y-13.071 I-0.214 J0.008
G1 X5.098 Y-13.109 Z-1.19
X5.106 Y-13.145 Z-1.18
X5.13 Y-13.195 Z-1.125
X5.141 Y-13.211 Z-1.05
G0 Z5
X-2.181 Y-9.556
G1 Z1.75 F150
S5000
X-2.198 Y-9.563 Z1.676
X-2.247 Y-9.585 Z1.622
X-2.31 Y-9.621 Z1.6
G3 X-1.551 Y-10.827 Z1.522 I0.38 J-0.603
X-2.31 Y-9.621 Z1.444 I-0.38 J0.603
X-1.551 Y-10.827 Z1.366 I0.38 J-0.603
X-2.31 Y-9.621 Z1.287 I-0.38 J0.603
X-1.551 Y-10.827 Z1.209 I0.38 J-0.603
X-2.31 Y-9.621 Z1.131 I-0.38 J0.603
X-1.551 Y-10.827 Z1.053 I0.38 J-0.603
X-2.31 Y-9.621 Z0.975 I-0.38 J0.603
X-1.551 Y-10.827 Z0.897 I0.38 J-0.603
X-2.31 Y-9.621 Z0.818 I-0.38 J0.603
X-1.551 Y-10.827 Z0.74 I0.38 J-0.603
X-2.31 Y-9.621 Z0.662 I-0.38 J0.603
X-1.551 Y-10.827 Z0.584 I0.38 J-0.603
X-2.31 Y-9.621 Z0.506 I-0.38 J0.603
X-1.551 Y-10.827 Z0.428 I0.38 J-0.603
X-2.31 Y-9.621 Z0.349 I-0.38 J0.603
X-1.551 Y-10.827 Z0.271 I0.38 J-0.603
X-2.31 Y-9.621 Z0.193 I-0.38 J0.603
X-1.551 Y-10.827 Z0.115 I0.38 J-0.603
X-2.31 Y-9.621 Z0.037 I-0.38 J0.603
X-1.551 Y-10.827 Z-0.041 I0.38 J-0.603
X-2.31 Y-9.621 Z-0.12 I-0.38 J0.603
X-1.551 Y-10.827 Z-0.198 I0.38 J-0.603
X-2.31 Y-9.621 Z-0.276 I-0.38 J0.603
X-1.551 Y-10.827 Z-0.354 I0.38 J-0.603
X-2.31 Y-9.621 Z-0.432 I-0.38 J0.603
X-1.551 Y-10.827 Z-0.51 I0.38 J-0.603
X-2.31 Y-9.621 Z-0.589 I-0.38 J0.603
X-1.551 Y-10.827 Z-0.667 I0.38 J-0.603
X-2.31 Y-9.621 Z-0.745 I-0.38 J0.603
X-1.551 Y-10.827 Z-0.823 I0.38 J-0.603
X-2.31 Y-9.621 Z-0.901 I-0.38 J0.603
X-1.551 Y-10.827 Z-0.979 I0.38 J-0.603
X-2.31 Y-9.621 Z-1.058 I-0.38 J0.603
X-1.551 Y-10.827 Z-1.136 I0.38 J-0.603
X-1.93 Y-9.511 Z-1.2 I-0.38 J0.603
S1000
G1 X-2.239
G3 X-2.558 Y-9.83 I0 J-0.319
G1 Y-10.448
G3 X-2.239 Y-10.767 I0.319 J0
G1 X-1.622
G3 X-1.302 Y-10.448 I0 J0.319
G1 Y-9.83
G3 X-1.622 Y-9.511 I-0.319 J0
G1 X-1.927
X-1.93
G2 X-2.776 Y-9.041 I0 J0.996
G3 X-3.707 Y-9.307 I-0.427 J-0.266
G1 Y-11.596
G3 X-3.387 Y-11.916 I0.319 J0
G1 X-0.473
G3 X-0.154 Y-11.596 I0 J0.319
G1 Y-8.682
G3 X-0.473 Y-8.363 I-0.319 J0
G1 X-3.387
G3 X-3.707 Y-8.682 I0 J-0.319
G1 Y-9.307
G2 X-4.27 Y-10.152 I-0.915 J0
G3 X-4.833 Y-10.997 I0.352 J-0.845
G1 Y-12.149
G2 X-4.859 Y-12.46 I-1.917 J0
X-4.915 Y-12.767 I-7.865 J1.293
G3 X-4.675 Y-13.062 I0.24 J-0.049
G1 X0.814
G3 X1.055 Y-12.767 I0 J0.245
G2 X0.998 Y-12.46 I7.808 J1.6
X0.973 Y-12.149 I1.891 J0.311
G1 Y-8.129
G2 X0.998 Y-7.818 I1.917 J0
X1.055 Y-7.511 I7.865 J-1.293
G3 X0.814 Y-7.217 I-0.24 J0.049
G1 X-4.675
G3 X-4.915 Y-7.511 I0 J-0.245
G2 X-4.859 Y-7.818 I-7.808 J-1.6
X-4.833 Y-8.129 I-1.891 J-0.311
G1 Y-10.997
G2 X-5.407 Y-11.922 I-1.033 J0
G3 X-6.121 Y-12.744 I0.629 J-1.268
G1 X-6.127 Y-12.762
G3 X-6.127 Y-13.397 I0.935 J-0.318
G2 X-6.028 Y-13.932 I-1.803 J-0.612
G3 X-5.712 Y-14.235 I0.316 J0.013
G1 X1.851
G3 X2.167 Y-13.932 I0 J0.316
G2 X2.267 Y-13.397 I1.903 J-0.077
G3 X2.267 Y-12.762 I-0.935 J0.318
G2 X2.181 Y-12.46 I2.895 J0.983
X2.146 Y-12.149 I1.36 J0.311
G1 Y-8.129
G2 X2.181 Y-7.818 I1.395 J0
X2.267 Y-7.517 I2.98 J-0.682
G3 X2.267 Y-6.882 I-0.935 J0.318
G2 X2.167 Y-6.347 I1.803 J0.612
G3 X1.851 Y-6.043 I-0.316 J-0.013
G1 X-5.712
G3 X-6.028 Y-6.347 I0 J-0.316
G2 X-6.127 Y-6.882 I-1.903 J0.077
G3 X-6.127 Y-7.517 I0.935 J-0.318
G2 X-6.042 Y-7.818 I-2.895 J-0.983
X-6.007 Y-8.129 I-1.36 J-0.311
G1 Y-12.149
G2 X-6.042 Y-12.46 I-1.395 J0
X-6.121 Y-12.744 I-2.98 J0.682
G1 X-6.101 Y-12.996
X-6.104 Y-13.027
X-6.12 Y-13.054
X-6.145 Y-13.073
X-6.176 Y-13.079
X-8.956
X-8.988 Y-13.072
X-9.014 Y-13.05
X-9.129 Y-12.895
X-9.147 Y-12.878
X-9.169 Y-12.868
X-9.194 Y-12.866
G3 X-9.147 Y-13.292 I0.023 J-0.213
X-9.194 Y-12.866 I-0.023 J0.213
G1 X-9.23 Y-12.875 Z-1.19
X-9.263 Y-12.893 Z-1.18
X-9.284 Y-12.91 Z-1.152
X-9.302 Y-12.931 Z-1.125
X-9.312 Y-12.949 Z-1.05
G0 Z5
X-4.582 Y-7.873
G1 Z0.4 F150
Z-1.05
X-4.589 Y-7.872 Z-1.096
X-4.61 Y-7.868 Z-1.138
X-4.643 Y-7.863 Z-1.171
X-4.684 Y-7.857 Z-1.193
X-4.73 Y-7.849 Z-1.2
X-8.672 Y-7.222
G3 X-8.956 Y-7.199 I-0.284 J-1.784
G1 X-9.019 Y-7.184
X-9.051 Y-7.183
X-9.081 Y-7.196
X-9.102 Y-7.221
X-9.11 Y-7.252
X-9.102 Y-7.284
X-9.082 Y-7.309
X-9.052 Y-7.323
X-9.02 Y-7.322
X-8.991 Y-7.306
X-8.972 Y-7.28
G3 X-9.369 Y-7.119 I-0.198 J0.081
X-8.972 Y-7.28 I0.198 J-0.081
G2 X-8.155 Y-7.034 I0.507 J-0.206
X-7.468 Y-7.539 I-7.652 J-11.151
X-7.18 Y-8.129 I-0.462 J-0.59
G1 Y-12.149
G2 X-8.53 Y-12.599 I-0.75 J0
G3 X-9.81 Y-13.559 I-0.64 J-0.48
X-8.53 Y-13.559 I0.64 J0.48
G2 X-7.18 Y-14.009 I0.6 J-0.45
G1 Y-15.389
X3.32
Y-14.009
G2 X4.67 Y-13.559 I0.75 J0
G3 X5.95 Y-12.599 I0.64 J0.48
X4.67 Y-12.599 I-0.64 J-0.48
G2 X3.32 Y-12.149 I-0.6 J0.45
G1 Y-8.129
G2 X4.67 Y-7.679 I0.75 J0
G3 X5.95 Y-6.719 I0.64 J0.48
X4.67 Y-6.719 I-0.64 J-0.48
G2 X3.32 Y-6.269 I-0.6 J0.45
G1 Y-4.889
X-7.18
Y-6.269
G2 X-8.53 Y-6.719 I-0.75 J0
G3 X-9.81 Y-7.679 I-0.64 J-0.48
X-8.53 Y-7.679 I0.64 J0.48
G2 X-7.468 Y-7.539 I0.6 J-0.45
G1 X-7.439 Y-7.553
X-7.407
X-7.378 Y-7.541
X-7.357 Y-7.517
X-7.347 Y-7.487
X-7.351 Y-7.455
X-7.367 Y-7.428
X-7.393 Y-7.41
X-7.561 Y-7.348
X-9.104 Y-7.351
X-9.799 Y-7.435
X-9.826 Y-7.445
X-9.848 Y-7.464
X-9.862 Y-7.49
X-9.864 Y-7.519
X-9.855 Y-7.546
S5000
G3 X-8.611 Y-6.852 Z-1.278 I0.622 J0.347
X-9.855 Y-7.546 Z-1.356 I-0.622 J-0.347
X-8.611 Y-6.852 Z-1.434 I0.622 J0.347
X-9.945 Y-7.199 Z-1.5 I-0.622 J-0.347
X-8.956 Y-7.199 I0.494 J0
S1000
X-9.384 Y-7.199 I-0.214 J0
X-8.956 Y-7.199 I0.214 J0
G1 X-8.96 Y-7.162 Z-1.49
X-8.969 Y-7.126 Z-1.48
X-8.995 Y-7.077 Z-1.425
X-9.007 Y-7.061 Z-1.35
G0 Z5
X-8.933 Y-12.346
G1 Z1.45 F150
S5000
X-8.951 Y-12.34 Z1.376
X-9.003 Y-12.329 Z1.322
X-9.075 Y-12.319 Z1.3
G3 X-9.191 Y-13.739 Z1.222 I-0.058 J-0.71
X-9.075 Y-12.319 Z1.144 I0.058 J0.71
X-9.191 Y-13.739 Z1.066 I-0.058 J-0.71
X-9.075 Y-12.319 Z0.987 I0.058 J0.71
X-9.191 Y-13.739 Z0.909 I-0.058 J-0.71
X-9.075 Y-12.319 Z0.831 I0.058 J0.71
X-9.191 Y-13.739 Z0.753 I-0.058 J-0.71
X-9.075 Y-12.319 Z0.675 I0.058 J0.71
X-9.191 Y-13.739 Z0.597 I-0.058 J-0.71
X-9.075 Y-12.319 Z0.518 I0.058 J0.71
X-9.191 Y-13.739 Z0.44 I-0.058 J-0.71
X-9.075 Y-12.319 Z0.362 I0.058 J0.71
X-9.191 Y-13.739 Z0.284 I-0.058 J-0.71
X-9.075 Y-12.319 Z0.206 I0.058 J0.71
X-9.191 Y-13.739 Z0.128 I-0.058 J-0.71
X-9.075 Y-12.319 Z0.049 I0.058 J0.71
X-9.191 Y-13.739 Z-0.029 I-0.058 J-0.71
X-9.075 Y-12.319 Z-0.107 I0.058 J0.71
X-9.191 Y-13.739 Z-0.185 I-0.058 J-0.71
X-9.075 Y-12.319 Z-0.263 I0.058 J0.71
X-9.191 Y-13.739 Z-0.341 I-0.058 J-0.71
X-9.075 Y-12.319 Z-0.42 I0.058 J0.71
X-9.191 Y-13.739 Z-0.498 I-0.058 J-0.71
X-9.075 Y-12.319 Z-0.576 I0.058 J0.71
X-9.191 Y-13.739 Z-0.654 I-0.058 J-0.71
X-9.075 Y-12.319 Z-0.732 I0.058 J0.71
X-9.191 Y-13.739 Z-0.81 I-0.058 J-0.71
X-9.075 Y-12.319 Z-0.889 I0.058 J0.71
X-9.191 Y-13.739 Z-0.967 I-0.058 J-0.71
X-9.075 Y-12.319 Z-1.045 I0.058 J0.71
X-9.191 Y-13.739 Z-1.123 I-0.058 J-0.71
X-9.075 Y-12.319 Z-1.201 I0.058 J0.71
X-9.191 Y-13.739 Z-1.279 I-0.058 J-0.71
X-9.075 Y-12.319 Z-1.358 I0.058 J0.71
X-9.191 Y-13.739 Z-1.436 I-0.058 J-0.71
X-8.706 Y-12.459 Z-1.5 I0.058 J0.71
X-9.299 Y-13.25 I-0.297 J-0.396
S1000
X-9.042 Y-12.908 I0.128 J0.171
X-9.299 Y-13.25 I-0.128 J-0.171
G1 X-9.266 Y-13.269 Z-1.49
X-9.23 Y-13.279 Z-1.48
X-9.203 Y-13.28 Z-1.452
X-9.176 Y-13.277 Z-1.425
X-9.156 Y-13.271 Z-1.35
G0 Z5
X-2.513 Y-10.389
G1 Z1.45 F150
S5000
X-2.506 Y-10.407 Z1.376
X-2.484 Y-10.455 Z1.322
X-2.449 Y-10.519 Z1.3
G3 X-1.243 Y-9.76 Z1.222 I0.603 J0.38
X-2.449 Y-10.519 Z1.144 I-0.603 J-0.38
X-1.243 Y-9.76 Z1.066 I0.603 J0.38
X-2.449 Y-10.519 Z0.987 I-0.603 J-0.38
X-1.243 Y-9.76 Z0.909 I0.603 J0.38
X-2.449 Y-10.519 Z0.831 I-0.603 J-0.38
X-1.243 Y-9.76 Z0.753 I0.603 J0.38
X-2.449 Y-10.519 Z0.675 I-0.603 J-0.38
X-1.243 Y-9.76 Z0.597 I0.603 J0.38
X-2.449 Y-10.519 Z0.518 I-0.603 J-0.38
X-1.243 Y-9.76 Z0.44 I0.603 J0.38
X-2.449 Y-10.519 Z0.362 I-0.603 J-0.38
X-1.243 Y-9.76 Z0.284 I0.603 J0.38
X-2.449 Y-10.519 Z0.206 I-0.603 J-0.38
X-1.243 Y-9.76 Z0.128 I0.603 J0.38
X-2.449 Y-10.519 Z0.049 I-0.603 J-0.38
X-1.243 Y-9.76 Z-0.029 I0.603 J0.38
X-2.449 Y-10.519 Z-0.107 I-0.603 J-0.38
X-1.243 Y-9.76 Z-0.185 I0.603 J0.38
X-2.449 Y-10.519 Z-0.263 I-0.603 J-0.38
X-1.243 Y-9.76 Z-0.341 I0.603 J0.38
X-2.449 Y-10.519 Z-0.42 I-0.603 J-0.38
X-1.243 Y-9.76 Z-0.498 I0.603 J0.38
X-2.449 Y-10.519 Z-0.576 I-0.603 J-0.38
X-1.243 Y-9.76 Z-0.654 I0.603 J0.38
X-2.449 Y-10.519 Z-0.732 I-0.603 J-0.38
X-1.243 Y-9.76 Z-0.81 I0.603 J0.38
X-2.449 Y-10.519 Z-0.889 I-0.603 J-0.38
X-1.243 Y-9.76 Z-0.967 I0.603 J0.38
X-2.449 Y-10.519 Z-1.045 I-0.603 J-0.38
X-1.243 Y-9.76 Z-1.123 I0.603 J0.38
X-2.449 Y-10.519 Z-1.201 I-0.603 J-0.38
X-1.243 Y-9.76 Z-1.279 I0.603 J0.38
X-2.449 Y-10.519 Z-1.358 I-0.603 J-0.38
X-1.243 Y-9.76 Z-1.436 I0.603 J0.38
X-2.558 Y-10.139 Z-1.5 I-0.603 J-0.38
S1000
G1 Y-10.448
G3 X-2.239 Y-10.767 I0.319 J0
G1 X-1.934
X-1.622
G3 X-1.302 Y-10.448 I0 J0.319
G1 Y-9.83
G3 X-1.622 Y-9.511 I-0.319 J0
G1 X-2.239
G3 X-2.558 Y-9.83 I0 J-0.319
G1 Y-10.139
G2 X-3.028 Y-10.985 I-0.996 J0
G3 X-2.762 Y-11.916 I0.266 J-0.427
G1 X-0.473
G3 X-0.154 Y-11.596 I0 J0.319
G1 Y-8.682
G3 X-0.473 Y-8.363 I-0.319 J0
G1 X-3.387
G3 X-3.707 Y-8.682 I0 J-0.319
G1 Y-11.596
G3 X-3.387 Y-11.916 I0.319 J0
G1 X-2.762
G2 X-1.903 Y-12.489 I0 J-0.931
G3 X-1.043 Y-13.062 I0.86 J0.358
G1 X0.814
G3 X1.055 Y-12.767 I0 J0.245
G2 X0.998 Y-12.46 I7.808 J1.6
X0.973 Y-12.149 I1.891 J0.311
G1 Y-8.129
G2 X0.998 Y-7.818 I1.917 J0
X1.055 Y-7.511 I7.865 J-1.293
G3 X0.814 Y-7.217 I-0.24 J0.049
G1 X-4.675
G3 X-4.915 Y-7.511 I0 J-0.245
G2 X-4.859 Y-7.818 I-7.808 J-1.6
X-4.833 Y-8.129 I-1.891 J-0.311
G1 Y-12.149
G2 X-4.859 Y-12.46 I-1.917 J0
X-4.915 Y-12.767 I-7.865 J1.293
G3 X-4.675 Y-13.062 I0.24 J-0.049
G1 X-1.043
G2 X-0.163 Y-13.648 I0 J-0.953
G3 X0.717 Y-14.235 I0.88 J0.367
G1 X1.851
G3 X2.167 Y-13.932 I0 J0.316
G2 X2.267 Y-13.397 I1.903 J-0.077
G3 X2.267 Y-12.762 I-0.935 J0.318
G2 X2.181 Y-12.46 I2.895 J0.983
X2.146 Y-12.149 I1.36 J0.311
G1 Y-8.129
G2 X2.181 Y-7.818 I1.395 J0
X2.267 Y-7.517 I2.98 J-0.682
G3 X2.267 Y-6.882 I-0.935 J0.318
G2 X2.167 Y-6.347 I1.803 J0.612
G3 X1.851 Y-6.043 I-0.316 J-0.013
G1 X-5.712
G3 X-6.028 Y-6.347 I0 J-0.316
G2 X-6.127 Y-6.882 I-1.903 J0.077
G3 X-6.127 Y-7.517 I0.935 J-0.318
G2 X-6.042 Y-7.818 I-2.895 J-0.983
X-6.007 Y-8.129 I-1.36 J-0.311
G1 Y-12.149
G2 X-6.042 Y-12.46 I-1.395 J0
X-6.127 Y-12.762 I-2.98 J0.682
G3 X-6.127 Y-13.397 I0.935 J-0.318
G2 X-6.028 Y-13.932 I-1.803 J-0.612
G3 X-5.712 Y-14.235 I0.316 J0.013
G1 X0.717
X0.754 Y-14.23 Z-1.49
X0.789 Y-14.217 Z-1.48
X0.811 Y-14.201 Z-1.452
X0.831 Y-14.182 Z-1.425
X0.843 Y-14.166 Z-1.35
Z0.1
X0.721 Y-12.405
Z-1.35
X0.728 Y-12.407 Z-1.396
X0.75 Y-12.41 Z-1.438
X0.782 Y-12.415 Z-1.471
X0.824 Y-12.422 Z-1.493
X0.869 Y-12.429 Z-1.5
X4.812 Y-13.057
G3 X5.096 Y-13.079 I0.284 J1.784
G1 X5.158 Y-13.094
X5.19 Y-13.096
X5.22 Y-13.083
X5.241 Y-13.058
X5.249 Y-13.026
X5.242 Y-12.994
X5.221 Y-12.969
X5.191 Y-12.956
X5.159 Y-12.957
X5.13 Y-12.972
X5.111 Y-12.999
G3 X5.508 Y-13.16 I0.198 J-0.081
X5.111 Y-12.999 I-0.198 J0.081
G1 X5.1 Y-13.034 Z-1.49
X5.096 Y-13.072 Z-1.48
X5.101 Y-13.126 Z-1.425
X5.106 Y-13.146 Z-1.35
G0 Z5
X0.803 Y-9.029
G1 Z0.1 F150
Z-1.35
X0.809 Y-9.027 Z-1.396
X0.829 Y-9.019 Z-1.438
X0.86 Y-9.006 Z-1.471
X0.899 Y-8.99 Z-1.493
X0.942 Y-8.973 Z-1.5
X0.966 Y-8.957
X0.983 Y-8.932
X0.988 Y-8.903
X0.973 Y-7.373
X0.981 Y-7.34
X1.003 Y-7.313
G2 X1.784 Y-7.125 I0.601 J-0.781
G3 X2.584 Y-7.199 I0.8 J4.297
G1 X3.647
G3 X4.392 Y-7.016 I0 J1.604
G2 X5.111 Y-7.28 I0.24 J-0.458
G3 X5.508 Y-7.119 I0.198 J0.081
X5.111 Y-7.28 I-0.198 J-0.081
G2 X5.103 Y-7.671 I-0.458 J-0.186
G3 X5.316 Y-7.999 I0.211 J-0.096
X5.303 Y-6.399 I-0.006 J0.8
X4.67 Y-6.719 I0.006 J-0.8
G2 X3.32 Y-6.269 I-0.6 J0.45
G1 Y-4.889
X-7.18
Y-6.269
G2 X-8.53 Y-6.719 I-0.75 J0
G3 X-9.81 Y-7.679 I-0.64 J-0.48
X-8.53 Y-7.679 I0.64 J0.48
G2 X-7.18 Y-8.129 I0.6 J-0.45
G1 Y-12.149
G2 X-8.53 Y-12.599 I-0.75 J0
G3 X-9.81 Y-13.559 I-0.64 J-0.48
X-8.53 Y-13.559 I0.64 J0.48
G2 X-7.18 Y-14.009 I0.6 J-0.45
G1 Y-15.389
X3.32
Y-14.009
G2 X4.67 Y-13.559 I0.75 J0
G3 X5.95 Y-12.599 I0.64 J0.48
X4.67 Y-12.599 I-0.64 J-0.48
G2 X3.32 Y-12.149 I-0.6 J0.45
G1 Y-8.129
G2 X4.67 Y-7.679 I0.75 J0
G3 X5.316 Y-7.999 I0.64 J0.48
X5.427 Y-7.634 I-0.002 J0.2
G1 X4.912 Y-7.284
G3 X4.625 Y-7.546 I-0.113 J-0.165
S5000
X5.869 Y-6.852 Z-1.578 I0.622 J0.347
X4.625 Y-7.546 Z-1.656 I-0.622 J-0.347
X5.869 Y-6.852 Z-1.734 I0.622 J0.347
X4.535 Y-7.199 Z-1.8 I-0.622 J-0.347
X5.524 Y-7.199 I0.494 J0
S1000
X5.096 Y-7.199 I-0.214 J0
X5.524 Y-7.199 I0.214 J0
G1 X5.519 Y-7.162 Z-1.79
X5.505 Y-7.127 Z-1.78
X5.49 Y-7.105 Z-1.752
X5.471 Y-7.085 Z-1.725
X5.455 Y-7.073 Z-1.65
G0 Z5
X6.048 Y-12.856
G1 Z1.15 F150
S5000
X6.041 Y-12.838 Z1.076
X6.021 Y-12.789 Z1.022
X5.988 Y-12.724 Z1
G3 X4.756 Y-13.439 Z0.922 I-0.616 J-0.357
X5.988 Y-12.724 Z0.844 I0.616 J0.357
X4.756 Y-13.439 Z0.766 I-0.616 J-0.357
X5.988 Y-12.724 Z0.687 I0.616 J0.357
X4.756 Y-13.439 Z0.609 I-0.616 J-0.357
X5.988 Y-12.724 Z0.531 I0.616 J0.357
X4.756 Y-13.439 Z0.453 I-0.616 J-0.357
X5.988 Y-12.724 Z0.375 I0.616 J0.357
X4.756 Y-13.439 Z0.297 I-0.616 J-0.357
X5.988 Y-12.724 Z0.218 I0.616 J0.357
X4.756 Y-13.439 Z0.14 I-0.616 J-0.357
X5.988 Y-12.724 Z0.062 I0.616 J0.357
X4.756 Y-13.439 Z-0.016 I-0.616 J-0.357
X5.988 Y-12.724 Z-0.094 I0.616 J0.357
X4.756 Y-13.439 Z-0.172 I-0.616 J-0.357
X5.988 Y-12.724 Z-0.251 I0.616 J0.357
X4.756 Y-13.439 Z-0.329 I-0.616 J-0.357
X5.988 Y-12.724 Z-0.407 I0.616 J0.357
X4.756 Y-13.439 Z-0.485 I-0.616 J-0.357
X5.988 Y-12.724 Z-0.563 I0.616 J0.357
X4.756 Y-13.439 Z-0.641 I-0.616 J-0.357
X5.988 Y-12.724 Z-0.72 I0.616 J0.357
X4.756 Y-13.439 Z-0.798 I-0.616 J-0.357
X5.988 Y-12.724 Z-0.876 I0.616 J0.357
X4.756 Y-13.439 Z-0.954 I-0.616 J-0.357
X5.988 Y-12.724 Z-1.032 I0.616 J0.357
X4.756 Y-13.439 Z-1.11 I-0.616 J-0.357
X5.988 Y-12.724 Z-1.189 I0.616 J0.357
X4.756 Y-13.439 Z-1.267 I-0.616 J-0.357
X5.988 Y-12.724 Z-1.345 I0.616 J0.357
X4.756 Y-13.439 Z-1.423 I-0.616 J-0.357
X5.988 Y-12.724 Z-1.501 I0.616 J0.357
X4.756 Y-13.439 Z-1.579 I-0.616 J-0.357
X5.988 Y-12.724 Z-1.658 I0.616 J0.357
X4.756 Y-13.439 Z-1.736 I-0.616 J-0.357
X6.084 Y-13.107 Z-1.8 I0.616 J0.357
X5.608 Y-12.595 I-0.494 J0.018
X5.096 Y-13.071 I-0.018 J-0.494
S1000
X5.523 Y-13.087 I0.214 J-0.008
X5.096 Y-13.071 I-0.214 J0.008
G1 X5.098 Y-13.109 Z-1.79
X5.106 Y-13.145 Z-1.78
X5.13 Y-13.195 Z-1.725
X5.141 Y-13.211 Z-1.65
G0 Z5
X-2.181 Y-9.556
G1 Z1.15 F150
S5000
X-2.198 Y-9.563 Z1.076
X-2.247 Y-9.585 Z1.022
X-2.31 Y-9.621 Z1
G3 X-1.551 Y-10.827 Z0.922 I0.38 J-0.603
X-2.31 Y-9.621 Z0.844 I-0.38 J0.603
X-1.551 Y-10.827 Z0.766 I0.38 J-0.603
X-2.31 Y-9.621 Z0.687 I-0.38 J0.603
X-1.551 Y-10.827 Z0.609 I0.38 J-0.603
X-2.31 Y-9.621 Z0.531 I-0.38 J0.603
X-1.551 Y-10.827 Z0.453 I0.38 J-0.603
X-2.31 Y-9.621 Z0.375 I-0.38 J0.603
X-1.551 Y-10.827 Z0.297 I0.38 J-0.603
X-2.31 Y-9.621 Z0.218 I-0.38 J0.603
X-1.551 Y-10.827 Z0.14 I0.38 J-0.603
X-2.31 Y-9.621 Z0.062 I-0.38 J0.603
X-1.551 Y-10.827 Z-0.016 I0.38 J-0.603
X-2.31 Y-9.621 Z-0.094 I-0.38 J0.603
X-1.551 Y-10.827 Z-0.172 I0.38 J-0.603
X-2.31 Y-9.621 Z-0.251 I-0.38 J0.603
X-1.551 Y-10.827 Z-0.329 I0.38 J-0.603
X-2.31 Y-9.621 Z-0.407 I-0.38 J0.603
X-1.551 Y-10.827 Z-0.485 I0.38 J-0.603
X-2.31 Y-9.621 Z-0.563 I-0.38 J0.603
X-1.551 Y-10.827 Z-0.641 I0.38 J-0.603
X-2.31 Y-9.621 Z-0.72 I-0.38 J0.603
X-1.551 Y-10.827 Z-0.798 I0.38 J-0.603
X-2.31 Y-9.621 Z-0.876 I-0.38 J0.603
X-1.551 Y-10.827 Z-0.954 I0.38 J-0.603
X-2.31 Y-9.621 Z-1.032 I-0.38 J0.603
X-1.551 Y-10.827 Z-1.11 I0.38 J-0.603
X-2.31 Y-9.621 Z-1.189 I-0.38 J0.603
X-1.551 Y-10.827 Z-1.267 I0.38 J-0.603
X-2.31 Y-9.621 Z-1.345 I-0.38 J0.603
X-1.551 Y-10.827 Z-1.423 I0.38 J-0.603
X-2.31 Y-9.621 Z-1.501 I-0.38 J0.603
X-1.551 Y-10.827 Z-1.579 I0.38 J-0.603
X-2.31 Y-9.621 Z-1.658 I-0.38 J0.603
X-1.551 Y-10.827 Z-1.736 I0.38 J-0.603
X-1.93 Y-9.511 Z-1.8 I-0.38 J0.603
S1000
G1 X-2.239
G3 X-2.558 Y-9.83 I0 J-0.319
G1 Y-10.448
G3 X-2.239 Y-10.767 I0.319 J0
G1 X-1.622
G3 X-1.302 Y-10.448 I0 J0.319
G1 Y-9.83
G3 X-1.622 Y-9.511 I-0.319 J0
G1 X-1.927
X-1.93
G2 X-2.776 Y-9.041 I0 J0.996
G3 X-3.707 Y-9.307 I-0.427 J-0.266
G1 Y-11.596
G3 X-3.387 Y-11.916 I0.319 J0
G1 X-0.473
G3 X-0.154 Y-11.596 I0 J0.319
G1 Y-8.682
G3 X-0.473 Y-8.363 I-0.319 J0
G1 X-3.387
G3 X-3.707 Y-8.682 I0 J-0.319
G1 Y-9.307
G2 X-4.27 Y-10.152 I-0.915 J0
G3 X-4.833 Y-10.997 I0.352 J-0.845
G1 Y-12.149
G2 X-4.859 Y-12.46 I-1.917 J0
X-4.915 Y-12.767 I-7.865 J1.293
G3 X-4.675 Y-13.062 I0.24 J-0.049
G1 X0.814
G3 X1.055 Y-12.767 I0 J0.245
G2 X0.998 Y-12.46 I7.808 J1.6
X0.973 Y-12.149 I1.891 J0.311
G1 Y-8.129
G2 X0.998 Y-7.818 I1.917 J0
X1.055 Y-7.511 I7.865 J-1.293
G3 X0.814 Y-7.217 I-0.24 J0.049
G1 X-4.675
G3 X-4.915 Y-7.511 I0 J-0.245
G2 X-4.859 Y-7.818 I-7.808 J-1.6
X-4.833 Y-8.129 I-1.891 J-0.311
G1 Y-10.997
G2 X-5.407 Y-11.922 I-1.033 J0
G3 X-6.121 Y-12.744 I0.629 J-1.268
G1 X-6.127 Y-12.762
G3 X-6.127 Y-13.397 I0.935 J-0.318
G2 X-6.028 Y-13.932 I-1.803 J-0.612
G3 X-5.712 Y-14.235 I0.316 J0.013
G1 X1.851
G3 X2.167 Y-13.932 I0 J0.316
G2 X2.267 Y-13.397 I1.903 J-0.077
G3 X2.267 Y-12.762 I-0.935 J0.318
G2 X2.181 Y-12.46 I2.895 J0.983
X2.146 Y-12.149 I1.36 J0.311
G1 Y-8.129
G2 X2.181 Y-7.818 I1.395 J0
X2.267 Y-7.517 I2.98 J-0.682
G3 X2.267 Y-6.882 I-0.935 J0.318
G2 X2.167 Y-6.347 I1.803 J0.612
G3 X1.851 Y-6.043 I-0.316 J-0.013
G1 X-5.712
G3 X-6.028 Y-6.347 I0 J-0.316
G2 X-6.127 Y-6.882 I-1.903 J0.077
G3 X-6.127 Y-7.517 I0.935 J-0.318
G2 X-6.042 Y-7.818 I-2.895 J-0.983
X-6.007 Y-8.129 I-1.36 J-0.311
G1 Y-12.149
G2 X-6.042 Y-12.46 I-1.395 J0
X-6.121 Y-12.744 I-2.98 J0.682
G1 X-6.101 Y-12.996
X-6.104 Y-13.027
X-6.12 Y-13.054
X-6.145 Y-13.073
X-6.176 Y-13.079
X-8.956
X-8.988 Y-13.072
X-9.014 Y-13.05
X-9.129 Y-12.895
X-9.147 Y-12.878
X-9.169 Y-12.868
X-9.194 Y-12.866
G3 X-9.147 Y-13.292 I0.023 J-0.213
X-9.194 Y-12.866 I-0.023 J0.213
G1 X-9.23 Y-12.875 Z-1.79
X-9.263 Y-12.893 Z-1.78
X-9.284 Y-12.91 Z-1.752
X-9.302 Y-12.931 Z-1.725
X-9.312 Y-12.949 Z-1.65
G0 Z5
X-4.582 Y-7.873
G1 Z-0.2 F150
Z-1.65
X-4.589 Y-7.872 Z-1.696
X-4.61 Y-7.868 Z-1.738
X-4.643 Y-7.863 Z-1.771
X-4.684 Y-7.857 Z-1.793
X-4.73 Y-7.849 Z-1.8
X-8.672 Y-7.222
G3 X-8.956 Y-7.199 I-0.284 J-1.784
G1 X-9.019 Y-7.184
X-9.051 Y-7.183
X-9.081 Y-7.196
X-9.102 Y-7.221
X-9.11 Y-7.252
X-9.102 Y-7.284
X-9.082 Y-7.309
X-9.052 Y-7.323
X-9.02 Y-7.322
X-8.991 Y-7.306
X-8.972 Y-7.28
G3 X-9.369 Y-7.119 I-0.198 J0.081
X-8.972 Y-7.28 I0.198 J-0.081
G2 X-8.155 Y-7.034 I0.507 J-0.206
X-7.468 Y-7.539 I-7.652 J-11.151
X-7.18 Y-8.129 I-0.462 J-0.59
G1 Y-12.149
G2 X-8.53 Y-12.599 I-0.75 J0
G3 X-9.81 Y-13.559 I-0.64 J-0.48
X-8.53 Y-13.559 I0.64 J0.48
G2 X-7.18 Y-14.009 I0.6 J-0.45
G1 Y-15.389
X3.32
Y-14.009
G2 X4.67 Y-13.559 I0.75 J0
G3 X5.95 Y-12.599 I0.64 J0.48
X4.67 Y-12.599 I-0.64 J-0.48
G2 X3.32 Y-12.149 I-0.6 J0.45
G1 Y-8.129
G2 X4.67 Y-7.679 I0.75 J0
G3 X5.95 Y-6.719 I0.64 J0.48
X4.67 Y-6.719 I-0.64 J-0.48
G2 X3.32 Y-6.269 I-0.6 J0.45
G1 Y-4.889
X-7.18
Y-6.269
G2 X-8.53 Y-6.719 I-0.75 J0
G3 X-9.81 Y-7.679 I-0.64 J-0.48
X-8.53 Y-7.679 I0.64 J0.48
G2 X-7.468 Y-7.539 I0.6 J-0.45
G1 X-7.439 Y-7.553
X-7.407
X-7.378 Y-7.541
X-7.357 Y-7.517
X-7.347 Y-7.487
X-7.351 Y-7.455
X-7.367 Y-7.428
X-7.393 Y-7.41
X-7.561 Y-7.348
X-9.104 Y-7.351
X-9.799 Y-7.435
X-9.826 Y-7.445
X-9.848 Y-7.464
X-9.862 Y-7.49
X-9.864 Y-7.519
X-9.855 Y-7.546
S5000
G3 X-8.611 Y-6.852 Z-1.878 I0.622 J0.347
X-9.855 Y-7.546 Z-1.956 I-0.622 J-0.347
X-8.611 Y-6.852 Z-2.034 I0.622 J0.347
X-9.945 Y-7.199 Z-2.1 I-0.622 J-0.347
X-8.956 Y-7.199 I0.494 J0
S1000
X-9.384 Y-7.199 I-0.214 J0
X-8.956 Y-7.199 I0.214 J0
G1 X-8.96 Y-7.162 Z-2.09
X-8.969 Y-7.126 Z-2.08
X-8.995 Y-7.077 Z-2.025
X-9.007 Y-7.061 Z-1.95
G0 Z5
X-8.933 Y-12.346
G1 Z0.85 F150
S5000
X-8.951 Y-12.34 Z0.776
X-9.003 Y-12.329 Z0.722
X-9.075 Y-12.319 Z0.7
G3 X-9.191 Y-13.739 Z0.622 I-0.058 J-0.71
X-9.075 Y-12.319 Z0.544 I0.058 J0.71
X-9.191 Y-13.739 Z0.466 I-0.058 J-0.71
X-9.075 Y-12.319 Z0.387 I0.058 J0.71
X-9.191 Y-13.739 Z0.309 I-0.058 J-0.71
X-9.075 Y-12.319 Z0.231 I0.058 J0.71
X-9.191 Y-13.739 Z0.153 I-0.058 J-0.71
X-9.075 Y-12.319 Z0.075 I0.058 J0.71
X-9.191 Y-13.739 Z-0.003 I-0.058 J-0.71
X-9.075 Y-12.319 Z-0.082 I0.058 J0.71
X-9.191 Y-13.739 Z-0.16 I-0.058 J-0.71
X-9.075 Y-12.319 Z-0.238 I0.058 J0.71
X-9.191 Y-13.739 Z-0.316 I-0.058 J-0.71
X-9.075 Y-12.319 Z-0.394 I0.058 J0.71
X-9.191 Y-13.739 Z-0.472 I-0.058 J-0.71
X-9.075 Y-12.319 Z-0.551 I0.058 J0.71
X-9.191 Y-13.739 Z-0.629 I-0.058 J-0.71
X-9.075 Y-12.319 Z-0.707 I0.058 J0.71
X-9.191 Y-13.739 Z-0.785 I-0.058 J-0.71
X-9.075 Y-12.319 Z-0.863 I0.058 J0.71
X-9.191 Y-13.739 Z-0.941 I-0.058 J-0.71
X-9.075 Y-12.319 Z-1.02 I0.058 J0.71
X-9.191 Y-13.739 Z-1.098 I-0.058 J-0.71
X-9.075 Y-12.319 Z-1.176 I0.058 J0.71
X-9.191 Y-13.739 Z-1.254 I-0.058 J-0.71
X-9.075 Y-12.319 Z-1.332 I0.058 J0.71
X-9.191 Y-13.739 Z-1.41 I-0.058 J-0.71
X-9.075 Y-12.319 Z-1.489 I0.058 J0.71
X-9.191 Y-13.739 Z-1.567 I-0.058 J-0.71
X-9.075 Y-12.319 Z-1.645 I0.058 J0.71
X-9.191 Y-13.739 Z-1.723 I-0.058 J-0.71
X-9.075 Y-12.319 Z-1.801 I0.058 J0.71
X-9.191 Y-13.739 Z-1.879 I-0.058 J-0.71
X-9.075 Y-12.319 Z-1.958 I0.058 J0.71
X-9.191 Y-13.739 Z-2.036 I-0.058 J-0.71
X-8.706 Y-12.459 Z-2.1 I0.058 J0.71
X-9.299 Y-13.25 I-0.297 J-0.396
S1000
X-9.042 Y-12.908 I0.128 J0.171
X-9.299 Y-13.25 I-0.128 J-0.171
G1 X-9.266 Y-13.269 Z-2.09
X-9.23 Y-13.279 Z-2.08
X-9.203 Y-13.28 Z-2.052
X-9.176 Y-13.277 Z-2.025
X-9.156 Y-13.271 Z-1.95
G0 Z5
X-2.513 Y-10.389
G1 Z0.85 F150
S5000
X-2.506 Y-10.407 Z0.776
X-2.484 Y-10.455 Z0.722
X-2.449 Y-10.519 Z0.7
G3 X-1.243 Y-9.76 Z0.622 I0.603 J0.38
X-2.449 Y-10.519 Z0.544 I-0.603 J-0.38
X-1.243 Y-9.76 Z0.466 I0.603 J0.38
X-2.449 Y-10.519 Z0.387 I-0.603 J-0.38
X-1.243 Y-9.76 Z0.309 I0.603 J0.38
X-2.449 Y-10.519 Z0.231 I-0.603 J-0.38
X-1.243 Y-9.76 Z0.153 I0.603 J0.38
X-2.449 Y-10.519 Z0.075 I-0.603 J-0.38
X-1.243 Y-9.76 Z-0.003 I0.603 J0.38
X-2.449 Y-10.519 Z-0.082 I-0.603 J-0.38
X-1.243 Y-9.76 Z-0.16 I0.603 J0.38
X-2.449 Y-10.519 Z-0.238 I-0.603 J-0.38
X-1.243 Y-9.76 Z-0.316 I0.603 J0.38
X-2.449 Y-10.519 Z-0.394 I-0.603 J-0.38
X-1.243 Y-9.76 Z-0.472 I0.603 J0.38
X-2.449 Y-10.519 Z-0.551 I-0.603 J-0.38
X-1.243 Y-9.76 Z-0.629 I0.603 J0.38
X-2.449 Y-10.519 Z-0.707 I-0.603 J-0.38
X-1.243 Y-9.76 Z-0.785 I0.603 J0.38
X-2.449 Y-10.519 Z-0.863 I-0.603 J-0.38
X-1.243 Y-9.76 Z-0.941 I0.603 J0.38
X-2.449 Y-10.519 Z-1.02 I-0.603 J-0.38
X-1.243 Y-9.76 Z-1.098 I0.603 J0.38
X-2.449 Y-10.519 Z-1.176 I-0.603 J-0.38
X-1.243 Y-9.76 Z-1.254 I0.603 J0.38
X-2.449 Y-10.519 Z-1.332 I-0.603 J-0.38
X-1.243 Y-9.76 Z-1.41 I0.603 J0.38
X-2.449 Y-10.519 Z-1.489 I-0.603 J-0.38
X-1.243 Y-9.76 Z-1.567 I0.603 J0.38
X-2.449 Y-10.519 Z-1.645 I-0.603 J-0.38
X-1.243 Y-9.76 Z-1.723 I0.603 J0.38
X-2.449 Y-10.519 Z-1.801 I-0.603 J-0.38
X-1.243 Y-9.76 Z-1.879 I0.603 J0.38
X-2.449 Y-10.519 Z-1.958 I-0.603 J-0.38
X-1.243 Y-9.76 Z-2.036 I0.603 J0.38
X-2.558 Y-10.139 Z-2.1 I-0.603 J-0.38
S1000
G1 Y-10.448
G3 X-2.239 Y-10.767 I0.319 J0
G1 X-1.934
X-1.622
G3 X-1.302 Y-10.448 I0 J0.319
G1 Y-9.83
G3 X-1.622 Y-9.511 I-0.319 J0
G1 X-2.239
G3 X-2.558 Y-9.83 I0 J-0.319
G1 Y-10.139
G2 X-3.028 Y-10.985 I-0.996 J0
G3 X-2.762 Y-11.916 I0.266 J-0.427
G1 X-0.473
G3 X-0.154 Y-11.596 I0 J0.319
G1 Y-8.682
G3 X-0.473 Y-8.363 I-0.319 J0
G1 X-3.387
G3 X-3.707 Y-8.682 I0 J-0.319
G1 Y-11.596
G3 X-3.387 Y-11.916 I0.319 J0
G1 X-2.762
G2 X-1.903 Y-12.489 I0 J-0.931
G3 X-1.043 Y-13.062 I0.86 J0.358
G1 X0.814
G3 X1.055 Y-12.767 I0 J0.245
G2 X0.998 Y-12.46 I7.808 J1.6
X0.973 Y-12.149 I1.891 J0.311
G1 Y-8.129
G2 X0.998 Y-7.818 I1.917 J0
X1.055 Y-7.511 I7.865 J-1.293
G3 X0.814 Y-7.217 I-0.24 J0.049
G1 X-4.675
G3 X-4.915 Y-7.511 I0 J-0.245
G2 X-4.859 Y-7.818 I-7.808 J-1.6
X-4.833 Y-8.129 I-1.891 J-0.311
G1 Y-12.149
G2 X-4.859 Y-12.46 I-1.917 J0
X-4.915 Y-12.767 I-7.865 J1.293
G3 X-4.675 Y-13.062 I0.24 J-0.049
G1 X-1.043
G2 X-0.163 Y-13.648 I0 J-0.953
G3 X0.717 Y-14.235 I0.88 J0.367
G1 X1.851
G3 X2.167 Y-13.932 I0 J0.316
G2 X2.267 Y-13.397 I1.903 J-0.077
G3 X2.267 Y-12.762 I-0.935 J0.318
G2 X2.181 Y-12.46 I2.895 J0.983
X2.146 Y-12.149 I1.36 J0.311
G1 Y-8.129
G2 X2.181 Y-7.818 I1.395 J0
X2.267 Y-7.517 I2.98 J-0.682
G3 X2.267 Y-6.882 I-0.935 J0.318
G2 X2.167 Y-6.347 I1.803 J0.612
G3 X1.851 Y-6.043 I-0.316 J-0.013
G1 X-5.712
G3 X-6.028 Y-6.347 I0 J-0.316
G2 X-6.127 Y-6.882 I-1.903 J0.077
G3 X-6.127 Y-7.517 I0.935 J-0.318
G2 X-6.042 Y-7.818 I-2.895 J-0.983
X-6.007 Y-8.129 I-1.36 J-0.311
G1 Y-12.149
G2 X-6.042 Y-12.46 I-1.395 J0
X-6.127 Y-12.762 I-2.98 J0.682
G3 X-6.127 Y-13.397 I0.935 J-0.318
G2 X-6.028 Y-13.932 I-1.803 J-0.612
G3 X-5.712 Y-14.235 I0.316 J0.013
G1 X0.717
X0.754 Y-14.23 Z-2.09
X0.789 Y-14.217 Z-2.08
X0.811 Y-14.201 Z-2.052
X0.831 Y-14.182 Z-2.025
X0.843 Y-14.166 Z-1.95
Z-0.5
X0.721 Y-12.405
Z-1.95
X0.728 Y-12.407 Z-1.996
X0.75 Y-12.41 Z-2.038
X0.782 Y-12.415 Z-2.071
X0.824 Y-12.422 Z-2.093
X0.869 Y-12.429 Z-2.1
X4.812 Y-13.057
G3 X5.096 Y-13.079 I0.284 J1.784
G1 X5.158 Y-13.094
X5.19 Y-13.096
X5.22 Y-13.083
X5.241 Y-13.058
X5.249 Y-13.026
X5.242 Y-12.994
X5.221 Y-12.969
X5.191 Y-12.956
X5.159 Y-12.957
X5.13 Y-12.972
X5.111 Y-12.999
G3 X5.508 Y-13.16 I0.198 J-0.081
X5.111 Y-12.999 I-0.198 J0.081
G1 X5.1 Y-13.034 Z-2.09
X5.096 Y-13.072 Z-2.08
X5.101 Y-13.126 Z-2.025
X5.106 Y-13.146 Z-1.95
G0 Z5
X0.803 Y-9.029
G1 Z-0.5 F150
Z-1.95
X0.809 Y-9.027 Z-1.996
X0.829 Y-9.019 Z-2.038
X0.86 Y-9.006 Z-2.071
X0.899 Y-8.99 Z-2.093
X0.942 Y-8.973 Z-2.1
X0.966 Y-8.957
X0.983 Y-8.932
X0.988 Y-8.903
X0.973 Y-7.373
X0.981 Y-7.34
X1.003 Y-7.313
G2 X1.784 Y-7.125 I0.601 J-0.781
G3 X2.584 Y-7.199 I0.8 J4.297
G1 X3.647
G3 X4.392 Y-7.016 I0 J1.604
G2 X5.111 Y-7.28 I0.24 J-0.458
G3 X5.508 Y-7.119 I0.198 J0.081
X5.111 Y-7.28 I-0.198 J-0.081
G2 X5.103 Y-7.671 I-0.458 J-0.186
G3 X5.316 Y-7.999 I0.211 J-0.096
X5.303 Y-6.399 I-0.006 J0.8
X4.67 Y-6.719 I0.006 J-0.8
G2 X3.32 Y-6.269 I-0.6 J0.45
G1 Y-4.889
X-7.18
Y-6.269
G2 X-8.53 Y-6.719 I-0.75 J0
G3 X-9.81 Y-7.679 I-0.64 J-0.48
X-8.53 Y-7.679 I0.64 J0.48
G2 X-7.18 Y-8.129 I0.6 J-0.45
G1 Y-12.149
G2 X-8.53 Y-12.599 I-0.75 J0
G3 X-9.81 Y-13.559 I-0.64 J-0.48
X-8.53 Y-13.559 I0.64 J0.48
G2 X-7.18 Y-14.009 I0.6 J-0.45
G1 Y-15.389
X3.32
Y-14.009
G2 X4.67 Y-13.559 I0.75 J0
G3 X5.95 Y-12.599 I0.64 J0.48
X4.67 Y-12.599 I-0.64 J-0.48
G2 X3.32 Y-12.149 I-0.6 J0.45
G1 Y-8.129
G2 X4.67 Y-7.679 I0.75 J0
G3 X5.316 Y-7.999 I0.64 J0.48
X5.427 Y-7.634 I-0.002 J0.2
G1 X4.912 Y-7.284
G3 X4.625 Y-7.546 I-0.113 J-0.165
S5000
X5.869 Y-6.852 Z-2.178 I0.622 J0.347
X4.625 Y-7.546 Z-2.256 I-0.622 J-0.347
X5.869 Y-6.852 Z-2.334 I0.622 J0.347
X4.535 Y-7.199 Z-2.4 I-0.622 J-0.347
X5.524 Y-7.199 I0.494 J0
S1000
X5.096 Y-7.199 I-0.214 J0
X5.524 Y-7.199 I0.214 J0
G1 X5.519 Y-7.162 Z-2.39
X5.505 Y-7.127 Z-2.38
X5.49 Y-7.105 Z-2.352
X5.471 Y-7.085 Z-2.325
X5.455 Y-7.073 Z-2.25
G0 Z5
X6.048 Y-12.856
G1 Z0.55 F150
S5000
X6.041 Y-12.838 Z0.476
X6.021 Y-12.789 Z0.422
X5.988 Y-12.724 Z0.4
G3 X4.756 Y-13.439 Z0.322 I-0.616 J-0.357
X5.988 Y-12.724 Z0.244 I0.616 J0.357
X4.756 Y-13.439 Z0.166 I-0.616 J-0.357
X5.988 Y-12.724 Z0.087 I0.616 J0.357
X4.756 Y-13.439 Z0.009 I-0.616 J-0.357
X5.988 Y-12.724 Z-0.069 I0.616 J0.357
X4.756 Y-13.439 Z-0.147 I-0.616 J-0.357
X5.988 Y-12.724 Z-0.225 I0.616 J0.357
X4.756 Y-13.439 Z-0.303 I-0.616 J-0.357
X5.988 Y-12.724 Z-0.382 I0.616 J0.357
X4.756 Y-13.439 Z-0.46 I-0.616 J-0.357
X5.988 Y-12.724 Z-0.538 I0.616 J0.357
X4.756 Y-13.439 Z-0.616 I-0.616 J-0.357
X5.988 Y-12.724 Z-0.694 I0.616 J0.357
X4.756 Y-13.439 Z-0.772 I-0.616 J-0.357
X5.988 Y-12.724 Z-0.851 I0.616 J0.357
X4.756 Y-13.439 Z-0.929 I-0.616 J-0.357
X5.988 Y-12.724 Z-1.007 I0.616 J0.357
X4.756 Y-13.439 Z-1.085 I-0.616 J-0.357
X5.988 Y-12.724 Z-1.163 I0.616 J0.357
X4.756 Y-13.439 Z-1.241 I-0.616 J-0.357
X5.988 Y-12.724 Z-1.32 I0.616 J0.357
X4.756 Y-13.439 Z-1.398 I-0.616 J-0.357
X5.988 Y-12.724 Z-1.476 I0.616 J0.357
X4.756 Y-13.439 Z-1.554 I-0.616 J-0.357
X5.988 Y-12.724 Z-1.632 I0.616 J0.357
X4.756 Y-13.439 Z-1.71 I-0.616 J-0.357
X5.988 Y-12.724 Z-1.789 I0.616 J0.357
X4.756 Y-13.439 Z-1.867 I-0.616 J-0.357
X5.988 Y-12.724 Z-1.945 I0.616 J0.357
X4.756 Y-13.439 Z-2.023 I-0.616 J-0.357
X5.988 Y-12.724 Z-2.101 I0.616 J0.357
X4.756 Y-13.439 Z-2.179 I-0.616 J-0.357
X5.988 Y-12.724 Z-2.258 I0.616 J0.357
X4.756 Y-13.439 Z-2.336 I-0.616 J-0.357
X6.084 Y-13.107 Z-2.4 I0.616 J0.357
X5.608 Y-12.595 I-0.494 J0.018
X5.096 Y-13.071 I-0.018 J-0.494
S1000
X5.523 Y-13.087 I0.214 J-0.008
X5.096 Y-13.071 I-0.214 J0.008
G1 X5.098 Y-13.109 Z-2.39
X5.106 Y-13.145 Z-2.38
X5.13 Y-13.195 Z-2.325
X5.141 Y-13.211 Z-2.25
G0 Z5
X-2.181 Y-9.556
G1 Z0.55 F150
S5000
X-2.198 Y-9.563 Z0.476
X-2.247 Y-9.585 Z0.422
X-2.31 Y-9.621 Z0.4
G3 X-1.551 Y-10.827 Z0.322 I0.38 J-0.603
X-2.31 Y-9.621 Z0.244 I-0.38 J0.603
X-1.551 Y-10.827 Z0.166 I0.38 J-0.603
X-2.31 Y-9.621 Z0.087 I-0.38 J0.603
X-1.551 Y-10.827 Z0.009 I0.38 J-0.603
X-2.31 Y-9.621 Z-0.069 I-0.38 J0.603
X-1.551 Y-10.827 Z-0.147 I0.38 J-0.603
X-2.31 Y-9.621 Z-0.225 I-0.38 J0.603
X-1.551 Y-10.827 Z-0.303 I0.38 J-0.603
X-2.31 Y-9.621 Z-0.382 I-0.38 J0.603
X-1.551 Y-10.827 Z-0.46 I0.38 J-0.603
X-2.31 Y-9.621 Z-0.538 I-0.38 J0.603
X-1.551 Y-10.827 Z-0.616 I0.38 J-0.603
X-2.31 Y-9.621 Z-0.694 I-0.38 J0.603
X-1.551 Y-10.827 Z-0.772 I0.38 J-0.603
X-2.31 Y-9.621 Z-0.851 I-0.38 J0.603
X-1.551 Y-10.827 Z-0.929 I0.38 J-0.603
X-2.31 Y-9.621 Z-1.007 I-0.38 J0.603
X-1.551 Y-10.827 Z-1.085 I0.38 J-0.603
X-2.31 Y-9.621 Z-1.163 I-0.38 J0.603
X-1.551 Y-10.827 Z-1.241 I0.38 J-0.603
X-2.31 Y-9.621 Z-1.32 I-0.38 J0.603
X-1.551 Y-10.827 Z-1.398 I0.38 J-0.603
X-2.31 Y-9.621 Z-1.476 I-0.38 J0.603
X-1.551 Y-10.827 Z-1.554 I0.38 J-0.603
X-2.31 Y-9.621 Z-1.632 I-0.38 J0.603
X-1.551 Y-10.827 Z-1.71 I0.38 J-0.603
X-2.31 Y-9.621 Z-1.789 I-0.38 J0.603
X-1.551 Y-10.827 Z-1.867 I0.38 J-0.603
X-2.31 Y-9.621 Z-1.945 I-0.38 J0.603
X-1.551 Y-10.827 Z-2.023 I0.38 J-0.603
X-2.31 Y-9.621 Z-2.101 I-0.38 J0.603
X-1.551 Y-10.827 Z-2.179 I0.38 J-0.603
X-2.31 Y-9.621 Z-2.258 I-0.38 J0.603
X-1.551 Y-10.827 Z-2.336 I0.38 J-0.603
X-1.93 Y-9.511 Z-2.4 I-0.38 J0.603
S1000
G1 X-2.239
G3 X-2.558 Y-9.83 I0 J-0.319
G1 Y-10.448
G3 X-2.239 Y-10.767 I0.319 J0
G1 X-1.622
G3 X-1.302 Y-10.448 I0 J0.319
G1 Y-9.83
G3 X-1.622 Y-9.511 I-0.319 J0
G1 X-1.927
X-1.93
G2 X-2.776 Y-9.041 I0 J0.996
G3 X-3.707 Y-9.307 I-0.427 J-0.266
G1 Y-11.596
G3 X-3.387 Y-11.916 I0.319 J0
G1 X-0.473
G3 X-0.154 Y-11.596 I0 J0.319
G1 Y-8.682
G3 X-0.473 Y-8.363 I-0.319 J0
G1 X-3.387
G3 X-3.707 Y-8.682 I0 J-0.319
G1 Y-9.307
G2 X-4.27 Y-10.152 I-0.915 J0
G3 X-4.833 Y-10.997 I0.352 J-0.845
G1 Y-12.149
G2 X-4.859 Y-12.46 I-1.917 J0
X-4.915 Y-12.767 I-7.865 J1.293
G3 X-4.675 Y-13.062 I0.24 J-0.049
G1 X0.814
G3 X1.055 Y-12.767 I0 J0.245
G2 X0.998 Y-12.46 I7.808 J1.6
X0.973 Y-12.149 I1.891 J0.311
G1 Y-8.129
G2 X0.998 Y-7.818 I1.917 J0
X1.055 Y-7.511 I7.865 J-1.293
G3 X0.814 Y-7.217 I-0.24 J0.049
G1 X-4.675
G3 X-4.915 Y-7.511 I0 J-0.245
G2 X-4.859 Y-7.818 I-7.808 J-1.6
X-4.833 Y-8.129 I-1.891 J-0.311
G1 Y-10.997
G2 X-5.407 Y-11.922 I-1.033 J0
G3 X-6.121 Y-12.744 I0.629 J-1.268
G1 X-6.127 Y-12.762
G3 X-6.127 Y-13.397 I0.935 J-0.318
G2 X-6.028 Y-13.932 I-1.803 J-0.612
G3 X-5.712 Y-14.235 I0.316 J0.013
G1 X1.851
G3 X2.167 Y-13.932 I0 J0.316
G2 X2.267 Y-13.397 I1.903 J-0.077
G3 X2.267 Y-12.762 I-0.935 J0.318
G2 X2.181 Y-12.46 I2.895 J0.983
X2.146 Y-12.149 I1.36 J0.311
G1 Y-8.129
G2 X2.181 Y-7.818 I1.395 J0
X2.267 Y-7.517 I2.98 J-0.682
G3 X2.267 Y-6.882 I-0.935 J0.318
G2 X2.167 Y-6.347 I1.803 J0.612
G3 X1.851 Y-6.043 I-0.316 J-0.013
G1 X-5.712
G3 X-6.028 Y-6.347 I0 J-0.316
G2 X-6.127 Y-6.882 I-1.903 J0.077
G3 X-6.127 Y-7.517 I0.935 J-0.318
G2 X-6.042 Y-7.818 I-2.895 J-0.983
X-6.007 Y-8.129 I-1.36 J-0.311
G1 Y-12.149
G2 X-6.042 Y-12.46 I-1.395 J0
X-6.121 Y-12.744 I-2.98 J0.682
G1 X-6.101 Y-12.996
X-6.104 Y-13.027
X-6.12 Y-13.054
X-6.145 Y-13.073
X-6.176 Y-13.079
X-8.956
X-8.988 Y-13.072
X-9.014 Y-13.05
X-9.129 Y-12.895
X-9.147 Y-12.878
X-9.169 Y-12.868
X-9.194 Y-12.866
G3 X-9.147 Y-13.292 I0.023 J-0.213
X-9.194 Y-12.866 I-0.023 J0.213
G1 X-9.23 Y-12.875 Z-2.39
X-9.263 Y-12.893 Z-2.38
X-9.284 Y-12.91 Z-2.352
X-9.302 Y-12.931 Z-2.325
X-9.312 Y-12.949 Z-2.25
G0 Z5
X-4.582 Y-7.873
G1 Z-0.8 F150
Z-2.25
X-4.589 Y-7.872 Z-2.296
X-4.61 Y-7.868 Z-2.338
X-4.643 Y-7.863 Z-2.371
X-4.684 Y-7.857 Z-2.393
X-4.73 Y-7.849 Z-2.4
X-8.672 Y-7.222
G3 X-8.956 Y-7.199 I-0.284 J-1.784
G1 X-9.019 Y-7.184
X-9.051 Y-7.183
X-9.081 Y-7.196
X-9.102 Y-7.221
X-9.11 Y-7.252
X-9.102 Y-7.284
X-9.082 Y-7.309
X-9.052 Y-7.323
X-9.02 Y-7.322
X-8.991 Y-7.306
X-8.972 Y-7.28
G3 X-9.369 Y-7.119 I-0.198 J0.081
X-8.972 Y-7.28 I0.198 J-0.081
G2 X-8.155 Y-7.034 I0.507 J-0.206
X-7.468 Y-7.539 I-7.652 J-11.151
X-7.18 Y-8.129 I-0.462 J-0.59
G1 Y-12.149
G2 X-8.53 Y-12.599 I-0.75 J0
G3 X-9.81 Y-13.559 I-0.64 J-0.48
X-8.53 Y-13.559 I0.64 J0.48
G2 X-7.18 Y-14.009 I0.6 J-0.45
G1 Y-15.389
X3.32
Y-14.009
G2 X4.67 Y-13.559 I0.75 J0
G3 X5.95 Y-12.599 I0.64 J0.48
X4.67 Y-12.599 I-0.64 J-0.48
G2 X3.32 Y-12.149 I-0.6 J0.45
G1 Y-8.129
G2 X4.67 Y-7.679 I0.75 J0
G3 X5.95 Y-6.719 I0.64 J0.48
X4.67 Y-6.719 I-0.64 J-0.48
G2 X3.32 Y-6.269 I-0.6 J0.45
G1 Y-4.889
X-7.18
Y-6.269
G2 X-8.53 Y-6.719 I-0.75 J0
G3 X-9.81 Y-7.679 I-0.64 J-0.48
X-8.53 Y-7.679 I0.64 J0.48
G2 X-7.468 Y-7.539 I0.6 J-0.45
G1 X-7.439 Y-7.553
X-7.407
X-7.378 Y-7.541
X-7.357 Y-7.517
X-7.347 Y-7.487
X-7.351 Y-7.455
X-7.367 Y-7.428
X-7.393 Y-7.41
X-7.561 Y-7.348
X-9.104 Y-7.351
X-9.799 Y-7.435
X-9.826 Y-7.445
X-9.848 Y-7.464
X-9.862 Y-7.49
X-9.864 Y-7.519
X-9.855 Y-7.546
S5000
G3 X-8.611 Y-6.852 Z-2.478 I0.622 J0.347
X-9.855 Y-7.546 Z-2.556 I-0.622 J-0.347
X-8.611 Y-6.852 Z-2.634 I0.622 J0.347
X-9.945 Y-7.199 Z-2.7 I-0.622 J-0.347
X-8.956 Y-7.199 I0.494 J0
S1000
X-9.384 Y-7.199 I-0.214 J0
X-8.956 Y-7.199 I0.214 J0
G1 X-8.96 Y-7.162 Z-2.69
X-8.969 Y-7.126 Z-2.68
X-8.995 Y-7.077 Z-2.625
X-9.007 Y-7.061 Z-2.55
G0 Z5
X-8.933 Y-12.346
G1 Z0.25 F150
S5000
X-8.951 Y-12.34 Z0.176
X-9.003 Y-12.329 Z0.122
X-9.075 Y-12.319 Z0.1
G3 X-9.191 Y-13.739 Z0.022 I-0.058 J-0.71
X-9.075 Y-12.319 Z-0.056 I0.058 J0.71
X-9.191 Y-13.739 Z-0.134 I-0.058 J-0.71
X-9.075 Y-12.319 Z-0.213 I0.058 J0.71
X-9.191 Y-13.739 Z-0.291 I-0.058 J-0.71
X-9.075 Y-12.319 Z-0.369 I0.058 J0.71
X-9.191 Y-13.739 Z-0.447 I-0.058 J-0.71
X-9.075 Y-12.319 Z-0.525 I0.058 J0.71
X-9.191 Y-13.739 Z-0.603 I-0.058 J-0.71
X-9.075 Y-12.319 Z-0.682 I0.058 J0.71
X-9.191 Y-13.739 Z-0.76 I-0.058 J-0.71
X-9.075 Y-12.319 Z-0.838 I0.058 J0.71
X-9.191 Y-13.739 Z-0.916 I-0.058 J-0.71
X-9.075 Y-12.319 Z-0.994 I0.058 J0.71
X-9.191 Y-13.739 Z-1.072 I-0.058 J-0.71
X-9.075 Y-12.319 Z-1.151 I0.058 J0.71
X-9.191 Y-13.739 Z-1.229 I-0.058 J-0.71
X-9.075 Y-12.319 Z-1.307 I0.058 J0.71
X-9.191 Y-13.739 Z-1.385 I-0.058 J-0.71
X-9.075 Y-12.319 Z-1.463 I0.058 J0.71
X-9.191 Y-13.739 Z-1.541 I-0.058 J-0.71
X-9.075 Y-12.319 Z-1.62 I0.058 J0.71
X-9.191 Y-13.739 Z-1.698 I-0.058 J-0.71
X-9.075 Y-12.319 Z-1.776 I0.058 J0.71
X-9.191 Y-13.739 Z-1.854 I-0.058 J-0.71
X-9.075 Y-12.319 Z-1.932 I0.058 J0.71
X-9.191 Y-13.739 Z-2.01 I-0.058 J-0.71
X-9.075 Y-12.319 Z-2.089 I0.058 J0.71
X-9.191 Y-13.739 Z-2.167 I-0.058 J-0.71
X-9.075 Y-12.319 Z-2.245 I0.058 J0.71
X-9.191 Y-13.739 Z-2.323 I-0.058 J-0.71
X-9.075 Y-12.319 Z-2.401 I0.058 J0.71
X-9.191 Y-13.739 Z-2.479 I-0.058 J-0.71
X-9.075 Y-12.319 Z-2.558 I0.058 J0.71
X-9.191 Y-13.739 Z-2.636 I-0.058 J-0.71
X-8.706 Y-12.459 Z-2.7 I0.058 J0.71
X-9.299 Y-13.25 I-0.297 J-0.396
S1000
X-9.042 Y-12.908 I0.128 J0.171
X-9.299 Y-13.25 I-0.128 J-0.171
G1 X-9.266 Y-13.269 Z-2.69
X-9.23 Y-13.279 Z-2.68
X-9.203 Y-13.28 Z-2.652
X-9.176 Y-13.277 Z-2.625
X-9.156 Y-13.271 Z-2.55
G0 Z5
X-2.513 Y-10.389
G1 Z0.25 F150
S5000
X-2.506 Y-10.407 Z0.176
X-2.484 Y-10.455 Z0.122
X-2.449 Y-10.519 Z0.1
G3 X-1.243 Y-9.76 Z0.022 I0.603 J0.38
X-2.449 Y-10.519 Z-0.056 I-0.603 J-0.38
X-1.243 Y-9.76 Z-0.134 I0.603 J0.38
X-2.449 Y-10.519 Z-0.213 I-0.603 J-0.38
X-1.243 Y-9.76 Z-0.291 I0.603 J0.38
X-2.449 Y-10.519 Z-0.369 I-0.603 J-0.38
X-1.243 Y-9.76 Z-0.447 I0.603 J0.38
X-2.449 Y-10.519 Z-0.525 I-0.603 J-0.38
X-1.243 Y-9.76 Z-0.603 I0.603 J0.38
X-2.449 Y-10.519 Z-0.682 I-0.603 J-0.38
X-1.243 Y-9.76 Z-0.76 I0.603 J0.38
X-2.449 Y-10.519 Z-0.838 I-0.603 J-0.38
X-1.243 Y-9.76 Z-0.916 I0.603 J0.38
X-2.449 Y-10.519 Z-0.994 I-0.603 J-0.38
X-1.243 Y-9.76 Z-1.072 I0.603 J0.38
X-2.449 Y-10.519 Z-1.151 I-0.603 J-0.38
X-1.243 Y-9.76 Z-1.229 I0.603 J0.38
X-2.449 Y-10.519 Z-1.307 I-0.603 J-0.38
X-1.243 Y-9.76 Z-1.385 I0.603 J0.38
X-2.449 Y-10.519 Z-1.463 I-0.603 J-0.38
X-1.243 Y-9.76 Z-1.541 I0.603 J0.38
X-2.449 Y-10.519 Z-1.62 I-0.603 J-0.38
X-1.243 Y-9.76 Z-1.698 I0.603 J0.38
X-2.449 Y-10.519 Z-1.776 I-0.603 J-0.38
X-1.243 Y-9.76 Z-1.854 I0.603 J0.38
X-2.449 Y-10.519 Z-1.932 I-0.603 J-0.38
X-1.243 Y-9.76 Z-2.01 I0.603 J0.38
X-2.449 Y-10.519 Z-2.089 I-0.603 J-0.38
X-1.243 Y-9.76 Z-2.167 I0.603 J0.38
X-2.449 Y-10.519 Z-2.245 I-0.603 J-0.38
X-1.243 Y-9.76 Z-2.323 I0.603 J0.38
X-2.449 Y-10.519 Z-2.401 I-0.603 J-0.38
X-1.243 Y-9.76 Z-2.479 I0.603 J0.38
X-2.449 Y-10.519 Z-2.558 I-0.603 J-0.38
X-1.243 Y-9.76 Z-2.636 I0.603 J0.38
X-2.558 Y-10.139 Z-2.7 I-0.603 J-0.38
S1000
G1 Y-10.448
G3 X-2.239 Y-10.767 I0.319 J0
G1 X-1.934
X-1.622
G3 X-1.302 Y-10.448 I0 J0.319
G1 Y-9.83
G3 X-1.622 Y-9.511 I-0.319 J0
G1 X-2.239
G3 X-2.558 Y-9.83 I0 J-0.319
G1 Y-10.139
G2 X-3.028 Y-10.985 I-0.996 J0
G3 X-2.762 Y-11.916 I0.266 J-0.427
G1 X-0.473
G3 X-0.154 Y-11.596 I0 J0.319
G1 Y-8.682
G3 X-0.473 Y-8.363 I-0.319 J0
G1 X-3.387
G3 X-3.707 Y-8.682 I0 J-0.319
G1 Y-11.596
G3 X-3.387 Y-11.916 I0.319 J0
G1 X-2.762
G2 X-1.903 Y-12.489 I0 J-0.931
G3 X-1.043 Y-13.062 I0.86 J0.358
G1 X0.814
G3 X1.055 Y-12.767 I0 J0.245
G2 X0.998 Y-12.46 I7.808 J1.6
X0.973 Y-12.149 I1.891 J0.311
G1 Y-8.129
G2 X0.998 Y-7.818 I1.917 J0
X1.055 Y-7.511 I7.865 J-1.293
G3 X0.814 Y-7.217 I-0.24 J0.049
G1 X-4.675
G3 X-4.915 Y-7.511 I0 J-0.245
G2 X-4.859 Y-7.818 I-7.808 J-1.6
X-4.833 Y-8.129 I-1.891 J-0.311
G1 Y-12.149
G2 X-4.859 Y-12.46 I-1.917 J0
X-4.915 Y-12.767 I-7.865 J1.293
G3 X-4.675 Y-13.062 I0.24 J-0.049
G1 X-1.043
G2 X-0.163 Y-13.648 I0 J-0.953
G3 X0.717 Y-14.235 I0.88 J0.367
G1 X1.851
G3 X2.167 Y-13.932 I0 J0.316
G2 X2.267 Y-13.397 I1.903 J-0.077
G3 X2.267 Y-12.762 I-0.935 J0.318
G2 X2.181 Y-12.46 I2.895 J0.983
X2.146 Y-12.149 I1.36 J0.311
G1 Y-8.129
G2 X2.181 Y-7.818 I1.395 J0
X2.267 Y-7.517 I2.98 J-0.682
G3 X2.267 Y-6.882 I-0.935 J0.318
G2 X2.167 Y-6.347 I1.803 J0.612
G3 X1.851 Y-6.043 I-0.316 J-0.013
G1 X-5.712
G3 X-6.028 Y-6.347 I0 J-0.316
G2 X-6.127 Y-6.882 I-1.903 J0.077
G3 X-6.127 Y-7.517 I0.935 J-0.318
G2 X-6.042 Y-7.818 I-2.895 J-0.983
X-6.007 Y-8.129 I-1.36 J-0.311
G1 Y-12.149
G2 X-6.042 Y-12.46 I-1.395 J0
X-6.127 Y-12.762 I-2.98 J0.682
G3 X-6.127 Y-13.397 I0.935 J-0.318
G2 X-6.028 Y-13.932 I-1.803 J-0.612
G3 X-5.712 Y-14.235 I0.316 J0.013
G1 X0.717
X0.754 Y-14.23 Z-2.69
X0.789 Y-14.217 Z-2.68
X0.811 Y-14.201 Z-2.652
X0.831 Y-14.182 Z-2.625
X0.843 Y-14.166 Z-2.55
Z-1.1
X0.721 Y-12.405
Z-2.55
X0.728 Y-12.407 Z-2.596
X0.75 Y-12.41 Z-2.638
X0.782 Y-12.415 Z-2.671
X0.824 Y-12.422 Z-2.693
X0.869 Y-12.429 Z-2.7
X4.812 Y-13.057
G3 X5.096 Y-13.079 I0.284 J1.784
G1 X5.158 Y-13.094
X5.19 Y-13.096
X5.22 Y-13.083
X5.241 Y-13.058
X5.249 Y-13.026
X5.242 Y-12.994
X5.221 Y-12.969
X5.191 Y-12.956
X5.159 Y-12.957
X5.13 Y-12.972
X5.111 Y-12.999
G3 X5.508 Y-13.16 I0.198 J-0.081
X5.111 Y-12.999 I-0.198 J0.081
G1 X5.1 Y-13.034 Z-2.69
X5.096 Y-13.072 Z-2.68
X5.101 Y-13.126 Z-2.625
X5.106 Y-13.146 Z-2.55
G0 Z5
X0.803 Y-9.029
G1 Z-1.1 F150
Z-2.55
X0.809 Y-9.027 Z-2.596
X0.829 Y-9.019 Z-2.638
X0.86 Y-9.006 Z-2.671
X0.899 Y-8.99 Z-2.693
X0.942 Y-8.973 Z-2.7
X0.966 Y-8.957
X0.983 Y-8.932
X0.988 Y-8.903
X0.973 Y-7.373
X0.981 Y-7.34
X1.003 Y-7.313
G2 X1.784 Y-7.125 I0.601 J-0.781
G3 X2.584 Y-7.199 I0.8 J4.297
G1 X3.647
G3 X4.392 Y-7.016 I0 J1.604
G2 X5.111 Y-7.28 I0.24 J-0.458
G3 X5.508 Y-7.119 I0.198 J0.081
X5.111 Y-7.28 I-0.198 J-0.081
G2 X5.103 Y-7.671 I-0.458 J-0.186
G3 X5.316 Y-7.999 I0.211 J-0.096
X5.303 Y-6.399 I-0.006 J0.8
X4.67 Y-6.719 I0.006 J-0.8
G2 X3.32 Y-6.269 I-0.6 J0.45
G1 Y-4.889
X-7.18
Y-6.269
G2 X-8.53 Y-6.719 I-0.75 J0
G3 X-9.81 Y-7.679 I-0.64 J-0.48
X-8.53 Y-7.679 I0.64 J0.48
G2 X-7.18 Y-8.129 I0.6 J-0.45
G1 Y-12.149
G2 X-8.53 Y-12.599 I-0.75 J0
G3 X-9.81 Y-13.559 I-0.64 J-0.48
X-8.53 Y-13.559 I0.64 J0.48
G2 X-7.18 Y-14.009 I0.6 J-0.45
G1 Y-15.389
X3.32
Y-14.009
G2 X4.67 Y-13.559 I0.75 J0
G3 X5.95 Y-12.599 I0.64 J0.48
X4.67 Y-12.599 I-0.64 J-0.48
G2 X3.32 Y-12.149 I-0.6 J0.45
G1 Y-8.129
G2 X4.67 Y-7.679 I0.75 J0
G3 X5.316 Y-7.999 I0.64 J0.48
X5.427 Y-7.634 I-0.002 J0.2
G1 X4.912 Y-7.284
G3 X4.625 Y-7.546 I-0.113 J-0.165
S5000
X5.869 Y-6.852 Z-2.778 I0.622 J0.347
X4.625 Y-7.546 Z-2.856 I-0.622 J-0.347
X5.869 Y-6.852 Z-2.934 I0.622 J0.347
X4.535 Y-7.199 Z-3 I-0.622 J-0.347
X5.524 Y-7.199 I0.494 J0
S1000
X5.096 Y-7.199 I-0.214 J0
X5.524 Y-7.199 I0.214 J0
G1 X5.519 Y-7.162 Z-2.99
X5.505 Y-7.127 Z-2.98
X5.49 Y-7.105 Z-2.952
X5.471 Y-7.085 Z-2.925
X5.455 Y-7.073 Z-2.85
G0 Z5
X6.048 Y-12.856
G1 Z-0.05 F150
S5000
X6.041 Y-12.838 Z-0.124
X6.021 Y-12.789 Z-0.178
X5.988 Y-12.724 Z-0.2
G3 X4.756 Y-13.439 Z-0.278 I-0.616 J-0.357
X5.988 Y-12.724 Z-0.356 I0.616 J0.357
X4.756 Y-13.439 Z-0.434 I-0.616 J-0.357
X5.988 Y-12.724 Z-0.513 I0.616 J0.357
X4.756 Y-13.439 Z-0.591 I-0.616 J-0.357
X5.988 Y-12.724 Z-0.669 I0.616 J0.357
X4.756 Y-13.439 Z-0.747 I-0.616 J-0.357
X5.988 Y-12.724 Z-0.825 I0.616 J0.357
X4.756 Y-13.439 Z-0.903 I-0.616 J-0.357
X5.988 Y-12.724 Z-0.982 I0.616 J0.357
X4.756 Y-13.439 Z-1.06 I-0.616 J-0.357
X5.988 Y-12.724 Z-1.138 I0.616 J0.357
X4.756 Y-13.439 Z-1.216 I-0.616 J-0.357
X5.988 Y-12.724 Z-1.294 I0.616 J0.357
X4.756 Y-13.439 Z-1.372 I-0.616 J-0.357
X5.988 Y-12.724 Z-1.451 I0.616 J0.357
X4.756 Y-13.439 Z-1.529 I-0.616 J-0.357
X5.988 Y-12.724 Z-1.607 I0.616 J0.357
X4.756 Y-13.439 Z-1.685 I-0.616 J-0.357
X5.988 Y-12.724 Z-1.763 I0.616 J0.357
X4.756 Y-13.439 Z-1.841 I-0.616 J-0.357
X5.988 Y-12.724 Z-1.92 I0.616 J0.357
X4.756 Y-13.439 Z-1.998 I-0.616 J-0.357
X5.988 Y-12.724 Z-2.076 I0.616 J0.357
X4.756 Y-13.439 Z-2.154 I-0.616 J-0.357
X5.988 Y-12.724 Z-2.232 I0.616 J0.357
X4.756 Y-13.439 Z-2.31 I-0.616 J-0.357
X5.988 Y-12.724 Z-2.389 I0.616 J0.357
X4.756 Y-13.439 Z-2.467 I-0.616 J-0.357
X5.988 Y-12.724 Z-2.545 I0.616 J0.357
X4.756 Y-13.439 Z-2.623 I-0.616 J-0.357
X5.988 Y-12.724 Z-2.701 I0.616 J0.357
X4.756 Y-13.439 Z-2.779 I-0.616 J-0.357
X5.988 Y-12.724 Z-2.858 I0.616 J0.357
X4.756 Y-13.439 Z-2.936 I-0.616 J-0.357
X6.084 Y-13.107 Z-3 I0.616 J0.357
X5.608 Y-12.595 I-0.494 J0.018
X5.096 Y-13.071 I-0.018 J-0.494
S1000
X5.523 Y-13.087 I0.214 J-0.008
X5.096 Y-13.071 I-0.214 J0.008
G1 X5.098 Y-13.109 Z-2.99
X5.106 Y-13.145 Z-2.98
X5.13 Y-13.195 Z-2.925
X5.141 Y-13.211 Z-2.85
G0 Z5
X-2.181 Y-9.556
G1 Z-0.05 F150
S5000
X-2.198 Y-9.563 Z-0.124
X-2.247 Y-9.585 Z-0.178
X-2.31 Y-9.621 Z-0.2
G3 X-1.551 Y-10.827 Z-0.278 I0.38 J-0.603
X-2.31 Y-9.621 Z-0.356 I-0.38 J0.603
X-1.551 Y-10.827 Z-0.434 I0.38 J-0.603
X-2.31 Y-9.621 Z-0.513 I-0.38 J0.603
X-1.551 Y-10.827 Z-0.591 I0.38 J-0.603
X-2.31 Y-9.621 Z-0.669 I-0.38 J0.603
X-1.551 Y-10.827 Z-0.747 I0.38 J-0.603
X-2.31 Y-9.621 Z-0.825 I-0.38 J0.603
X-1.551 Y-10.827 Z-0.903 I0.38 J-0.603
X-2.31 Y-9.621 Z-0.982 I-0.38 J0.603
X-1.551 Y-10.827 Z-1.06 I0.38 J-0.603
X-2.31 Y-9.621 Z-1.138 I-0.38 J0.603
X-1.551 Y-10.827 Z-1.216 I0.38 J-0.603
X-2.31 Y-9.621 Z-1.294 I-0.38 J0.603
X-1.551 Y-10.827 Z-1.372 I0.38 J-0.603
X-2.31 Y-9.621 Z-1.451 I-0.38 J0.603
X-1.551 Y-10.827 Z-1.529 I0.38 J-0.603
X-2.31 Y-9.621 Z-1.607 I-0.38 J0.603
X-1.551 Y-10.827 Z-1.685 I0.38 J-0.603
X-2.31 Y-9.621 Z-1.763 I-0.38 J0.603
X-1.551 Y-10.827 Z-1.841 I0.38 J-0.603
X-2.31 Y-9.621 Z-1.92 I-0.38 J0.603
X-1.551 Y-10.827 Z-1.998 I0.38 J-0.603
X-2.31 Y-9.621 Z-2.076 I-0.38 J0.603
X-1.551 Y-10.827 Z-2.154 I0.38 J-0.603
X-2.31 Y-9.621 Z-2.232 I-0.38 J0.603
X-1.551 Y-10.827 Z-2.31 I0.38 J-0.603
X-2.31 Y-9.621 Z-2.389 I-0.38 J0.603
X-1.551 Y-10.827 Z-2.467 I0.38 J-0.603
X-2.31 Y-9.621 Z-2.545 I-0.38 J0.603
X-1.551 Y-10.827 Z-2.623 I0.38 J-0.603
X-2.31 Y-9.621 Z-2.701 I-0.38 J0.603
X-1.551 Y-10.827 Z-2.779 I0.38 J-0.603
X-2.31 Y-9.621 Z-2.858 I-0.38 J0.603
X-1.551 Y-10.827 Z-2.936 I0.38 J-0.603
X-1.93 Y-9.511 Z-3 I-0.38 J0.603
S1000
G1 X-2.239
G3 X-2.558 Y-9.83 I0 J-0.319
G1 Y-10.448
G3 X-2.239 Y-10.767 I0.319 J0
G1 X-1.622
G3 X-1.302 Y-10.448 I0 J0.319
G1 Y-9.83
G3 X-1.622 Y-9.511 I-0.319 J0
G1 X-1.927
X-1.93
G2 X-2.776 Y-9.041 I0 J0.996
G3 X-3.707 Y-9.307 I-0.427 J-0.266
G1 Y-11.596
G3 X-3.387 Y-11.916 I0.319 J0
G1 X-0.473
G3 X-0.154 Y-11.596 I0 J0.319
G1 Y-8.682
G3 X-0.473 Y-8.363 I-0.319 J0
G1 X-3.387
G3 X-3.707 Y-8.682 I0 J-0.319
G1 Y-9.307
G2 X-4.27 Y-10.152 I-0.915 J0
G3 X-4.833 Y-10.997 I0.352 J-0.845
G1 Y-12.149
G2 X-4.859 Y-12.46 I-1.917 J0
X-4.915 Y-12.767 I-7.865 J1.293
G3 X-4.675 Y-13.062 I0.24 J-0.049
G1 X0.814
G3 X1.055 Y-12.767 I0 J0.245
G2 X0.998 Y-12.46 I7.808 J1.6
X0.973 Y-12.149 I1.891 J0.311
G1 Y-8.129
G2 X0.998 Y-7.818 I1.917 J0
X1.055 Y-7.511 I7.865 J-1.293
G3 X0.814 Y-7.217 I-0.24 J0.049
G1 X-4.675
G3 X-4.915 Y-7.511 I0 J-0.245
G2 X-4.859 Y-7.818 I-7.808 J-1.6
X-4.833 Y-8.129 I-1.891 J-0.311
G1 Y-10.997
G2 X-5.407 Y-11.922 I-1.033 J0
G3 X-6.121 Y-12.744 I0.629 J-1.268
G1 X-6.127 Y-12.762
G3 X-6.127 Y-13.397 I0.935 J-0.318
G2 X-6.028 Y-13.932 I-1.803 J-0.612
G3 X-5.712 Y-14.235 I0.316 J0.013
G1 X1.851
G3 X2.167 Y-13.932 I0 J0.316
G2 X2.267 Y-13.397 I1.903 J-0.077
G3 X2.267 Y-12.762 I-0.935 J0.318
G2 X2.181 Y-12.46 I2.895 J0.983
X2.146 Y-12.149 I1.36 J0.311
G1 Y-8.129
G2 X2.181 Y-7.818 I1.395 J0
X2.267 Y-7.517 I2.98 J-0.682
G3 X2.267 Y-6.882 I-0.935 J0.318
G2 X2.167 Y-6.347 I1.803 J0.612
G3 X1.851 Y-6.043 I-0.316 J-0.013
G1 X-5.712
G3 X-6.028 Y-6.347 I0 J-0.316
G2 X-6.127 Y-6.882 I-1.903 J0.077
G3 X-6.127 Y-7.517 I0.935 J-0.318
G2 X-6.042 Y-7.818 I-2.895 J-0.983
X-6.007 Y-8.129 I-1.36 J-0.311
G1 Y-12.149
G2 X-6.042 Y-12.46 I-1.395 J0
X-6.121 Y-12.744 I-2.98 J0.682
G1 X-6.101 Y-12.996
X-6.104 Y-13.027
X-6.12 Y-13.054
X-6.145 Y-13.073
X-6.176 Y-13.079
X-8.956
X-8.988 Y-13.072
X-9.014 Y-13.05
X-9.129 Y-12.895
X-9.147 Y-12.878
X-9.169 Y-12.868
X-9.194 Y-12.866
G3 X-9.147 Y-13.292 I0.023 J-0.213
X-9.194 Y-12.866 I-0.023 J0.213
G1 X-9.23 Y-12.875 Z-2.99
X-9.263 Y-12.893 Z-2.98
X-9.284 Y-12.91 Z-2.952
X-9.302 Y-12.931 Z-2.925
X-9.312 Y-12.949 Z-2.85
G0 Z5
X-4.582 Y-7.873
G1 Z-1.4 F150
Z-2.85
X-4.589 Y-7.872 Z-2.896
X-4.61 Y-7.868 Z-2.938
X-4.643 Y-7.863 Z-2.971
X-4.684 Y-7.857 Z-2.993
X-4.73 Y-7.849 Z-3
X-8.672 Y-7.222
G3 X-8.956 Y-7.199 I-0.284 J-1.784
G1 X-9.019 Y-7.184
X-9.051 Y-7.183
X-9.081 Y-7.196
X-9.102 Y-7.221
X-9.11 Y-7.252
X-9.102 Y-7.284
X-9.082 Y-7.309
X-9.052 Y-7.323
X-9.02 Y-7.322
X-8.991 Y-7.306
X-8.972 Y-7.28
G3 X-9.369 Y-7.119 I-0.198 J0.081
X-8.972 Y-7.28 I0.198 J-0.081
G2 X-8.155 Y-7.034 I0.507 J-0.206
X-7.468 Y-7.539 I-7.652 J-11.151
X-7.18 Y-8.129 I-0.462 J-0.59
G1 Y-12.149
G2 X-8.53 Y-12.599 I-0.75 J0
G3 X-9.81 Y-13.559 I-0.64 J-0.48
X-8.53 Y-13.559 I0.64 J0.48
G2 X-7.18 Y-14.009 I0.6 J-0.45
G1 Y-15.389
X3.32
Y-14.009
G2 X4.67 Y-13.559 I0.75 J0
G3 X5.95 Y-12.599 I0.64 J0.48
X4.67 Y-12.599 I-0.64 J-0.48
G2 X3.32 Y-12.149 I-0.6 J0.45
G1 Y-8.129
G2 X4.67 Y-7.679 I0.75 J0
G3 X5.95 Y-6.719 I0.64 J0.48
X4.67 Y-6.719 I-0.64 J-0.48
G2 X3.32 Y-6.269 I-0.6 J0.45
G1 Y-4.889
X-7.18
Y-6.269
G2 X-8.53 Y-6.719 I-0.75 J0
G3 X-9.81 Y-7.679 I-0.64 J-0.48
X-8.53 Y-7.679 I0.64 J0.48
G2 X-7.468 Y-7.539 I0.6 J-0.45
G1 X-7.439 Y-7.553
X-7.407
X-7.378 Y-7.541
X-7.357 Y-7.517
X-7.347 Y-7.487
X-7.351 Y-7.455
X-7.367 Y-7.428
X-7.393 Y-7.41
X-7.561 Y-7.348
X-9.104 Y-7.351
X-9.799 Y-7.435
X-9.826 Y-7.445
X-9.848 Y-7.464
X-9.862 Y-7.49
X-9.864 Y-7.519
X-9.855 Y-7.546
S5000
G3 X-8.611 Y-6.852 Z-3.078 I0.622 J0.347
X-9.855 Y-7.546 Z-3.156 I-0.622 J-0.347
X-8.611 Y-6.852 Z-3.234 I0.622 J0.347
X-9.945 Y-7.199 Z-3.3 I-0.622 J-0.347
X-8.956 Y-7.199 I0.494 J0
S1000
X-9.384 Y-7.199 I-0.214 J0
X-8.956 Y-7.199 I0.214 J0
G1 X-8.96 Y-7.162 Z-3.29
X-8.969 Y-7.126 Z-3.28
X-8.995 Y-7.077 Z-3.225
X-9.007 Y-7.061 Z-3.15
G0 Z5
X-8.933 Y-12.346
G1 Z-0.35 F150
S5000
X-8.951 Y-12.34 Z-0.424
X-9.003 Y-12.329 Z-0.478
X-9.075 Y-12.319 Z-0.5
G3 X-9.191 Y-13.739 Z-0.578 I-0.058 J-0.71
X-9.075 Y-12.319 Z-0.656 I0.058 J0.71
X-9.191 Y-13.739 Z-0.734 I-0.058 J-0.71
X-9.075 Y-12.319 Z-0.813 I0.058 J0.71
X-9.191 Y-13.739 Z-0.891 I-0.058 J-0.71
X-9.075 Y-12.319 Z-0.969 I0.058 J0.71
X-9.191 Y-13.739 Z-1.047 I-0.058 J-0.71
X-9.075 Y-12.319 Z-1.125 I0.058 J0.71
X-9.191 Y-13.739 Z-1.203 I-0.058 J-0.71
X-9.075 Y-12.319 Z-1.282 I0.058 J0.71
X-9.191 Y-13.739 Z-1.36 I-0.058 J-0.71
X-9.075 Y-12.319 Z-1.438 I0.058 J0.71
X-9.191 Y-13.739 Z-1.516 I-0.058 J-0.71
X-9.075 Y-12.319 Z-1.594 I0.058 J0.71
X-9.191 Y-13.739 Z-1.672 I-0.058 J-0.71
X-9.075 Y-12.319 Z-1.751 I0.058 J0.71
X-9.191 Y-13.739 Z-1.829 I-0.058 J-0.71
X-9.075 Y-12.319 Z-1.907 I0.058 J0.71
X-9.191 Y-13.739 Z-1.985 I-0.058 J-0.71
X-9.075 Y-12.319 Z-2.063 I0.058 J0.71
X-9.191 Y-13.739 Z-2.141 I-0.058 J-0.71
X-9.075 Y-12.319 Z-2.22 I0.058 J0.71
X-9.191 Y-13.739 Z-2.298 I-0.058 J-0.71
X-9.075 Y-12.319 Z-2.376 I0.058 J0.71
X-9.191 Y-13.739 Z-2.454 I-0.058 J-0.71
X-9.075 Y-12.319 Z-2.532 I0.058 J0.71
X-9.191 Y-13.739 Z-2.61 I-0.058 J-0.71
X-9.075 Y-12.319 Z-2.689 I0.058 J0.71
X-9.191 Y-13.739 Z-2.767 I-0.058 J-0.71
X-9.075 Y-12.319 Z-2.845 I0.058 J0.71
X-9.191 Y-13.739 Z-2.923 I-0.058 J-0.71
X-9.075 Y-12.319 Z-3.001 I0.058 J0.71
X-9.191 Y-13.739 Z-3.079 I-0.058 J-0.71
X-9.075 Y-12.319 Z-3.158 I0.058 J0.71
X-9.191 Y-13.739 Z-3.236 I-0.058 J-0.71
X-8.706 Y-12.459 Z-3.3 I0.058 J0.71
X-9.299 Y-13.25 I-0.297 J-0.396
S1000
X-9.042 Y-12.908 I0.128 J0.171
X-9.299 Y-13.25 I-0.128 J-0.171
G1 X-9.266 Y-13.269 Z-3.29
X-9.23 Y-13.279 Z-3.28
X-9.203 Y-13.28 Z-3.252
X-9.176 Y-13.277 Z-3.225
X-9.156 Y-13.271 Z-3.15
G0 Z5
X-2.513 Y-10.389
G1 Z-0.35 F150
S5000
X-2.506 Y-10.407 Z-0.424
X-2.484 Y-10.455 Z-0.478
X-2.449 Y-10.519 Z-0.5
G3 X-1.243 Y-9.76 Z-0.578 I0.603 J0.38
X-2.449 Y-10.519 Z-0.656 I-0.603 J-0.38
X-1.243 Y-9.76 Z-0.734 I0.603 J0.38
X-2.449 Y-10.519 Z-0.813 I-0.603 J-0.38
X-1.243 Y-9.76 Z-0.891 I0.603 J0.38
X-2.449 Y-10.519 Z-0.969 I-0.603 J-0.38
X-1.243 Y-9.76 Z-1.047 I0.603 J0.38
X-2.449 Y-10.519 Z-1.125 I-0.603 J-0.38
X-1.243 Y-9.76 Z-1.203 I0.603 J0.38
X-2.449 Y-10.519 Z-1.282 I-0.603 J-0.38
X-1.243 Y-9.76 Z-1.36 I0.603 J0.38
X-2.449 Y-10.519 Z-1.438 I-0.603 J-0.38
X-1.243 Y-9.76 Z-1.516 I0.603 J0.38
X-2.449 Y-10.519 Z-1.594 I-0.603 J-0.38
X-1.243 Y-9.76 Z-1.672 I0.603 J0.38
X-2.449 Y-10.519 Z-1.751 I-0.603 J-0.38
X-1.243 Y-9.76 Z-1.829 I0.603 J0.38
X-2.449 Y-10.519 Z-1.907 I-0.603 J-0.38
X-1.243 Y-9.76 Z-1.985 I0.603 J0.38
X-2.449 Y-10.519 Z-2.063 I-0.603 J-0.38
X-1.243 Y-9.76 Z-2.141 I0.603 J0.38
X-2.449 Y-10.519 Z-2.22 I-0.603 J-0.38
X-1.243 Y-9.76 Z-2.298 I0.603 J0.38
X-2.449 Y-10.519 Z-2.376 I-0.603 J-0.38
X-1.243 Y-9.76 Z-2.454 I0.603 J0.38
X-2.449 Y-10.519 Z-2.532 I-0.603 J-0.38
X-1.243 Y-9.76 Z-2.61 I0.603 J0.38
X-2.449 Y-10.519 Z-2.689 I-0.603 J-0.38
X-1.243 Y-9.76 Z-2.767 I0.603 J0.38
X-2.449 Y-10.519 Z-2.845 I-0.603 J-0.38
X-1.243 Y-9.76 Z-2.923 I0.603 J0.38
X-2.449 Y-10.519 Z-3.001 I-0.603 J-0.38
X-1.243 Y-9.76 Z-3.079 I0.603 J0.38
X-2.449 Y-10.519 Z-3.158 I-0.603 J-0.38
X-1.243 Y-9.76 Z-3.236 I0.603 J0.38
X-2.558 Y-10.139 Z-3.3 I-0.603 J-0.38
S1000
G1 Y-10.448
G3 X-2.239 Y-10.767 I0.319 J0
G1 X-1.934
X-1.622
G3 X-1.302 Y-10.448 I0 J0.319
G1 Y-9.83
G3 X-1.622 Y-9.511 I-0.319 J0
G1 X-2.239
G3 X-2.558 Y-9.83 I0 J-0.319
G1 Y-10.139
G2 X-3.028 Y-10.985 I-0.996 J0
G3 X-2.762 Y-11.916 I0.266 J-0.427
G1 X-0.473
G3 X-0.154 Y-11.596 I0 J0.319
G1 Y-8.682
G3 X-0.473 Y-8.363 I-0.319 J0
G1 X-3.387
G3 X-3.707 Y-8.682 I0 J-0.319
G1 Y-11.596
G3 X-3.387 Y-11.916 I0.319 J0
G1 X-2.762
G2 X-1.903 Y-12.489 I0 J-0.931
G3 X-1.043 Y-13.062 I0.86 J0.358
G1 X0.814
G3 X1.055 Y-12.767 I0 J0.245
G2 X0.998 Y-12.46 I7.808 J1.6
X0.973 Y-12.149 I1.891 J0.311
G1 Y-8.129
G2 X0.998 Y-7.818 I1.917 J0
X1.055 Y-7.511 I7.865 J-1.293
G3 X0.814 Y-7.217 I-0.24 J0.049
G1 X-4.675
G3 X-4.915 Y-7.511 I0 J-0.245
G2 X-4.859 Y-7.818 I-7.808 J-1.6
X-4.833 Y-8.129 I-1.891 J-0.311
G1 Y-12.149
G2 X-4.859 Y-12.46 I-1.917 J0
X-4.915 Y-12.767 I-7.865 J1.293
G3 X-4.675 Y-13.062 I0.24 J-0.049
G1 X-1.043
G2 X-0.163 Y-13.648 I0 J-0.953
G3 X0.717 Y-14.235 I0.88 J0.367
G1 X1.851
G3 X2.167 Y-13.932 I0 J0.316
G2 X2.267 Y-13.397 I1.903 J-0.077
G3 X2.267 Y-12.762 I-0.935 J0.318
G2 X2.181 Y-12.46 I2.895 J0.983
X2.146 Y-12.149 I1.36 J0.311
G1 Y-8.129
G2 X2.181 Y-7.818 I1.395 J0
X2.267 Y-7.517 I2.98 J-0.682
G3 X2.267 Y-6.882 I-0.935 J0.318
G2 X2.167 Y-6.347 I1.803 J0.612
G3 X1.851 Y-6.043 I-0.316 J-0.013
G1 X-5.712
G3 X-6.028 Y-6.347 I0 J-0.316
G2 X-6.127 Y-6.882 I-1.903 J0.077
G3 X-6.127 Y-7.517 I0.935 J-0.318
G2 X-6.042 Y-7.818 I-2.895 J-0.983
X-6.007 Y-8.129 I-1.36 J-0.311
G1 Y-12.149
G2 X-6.042 Y-12.46 I-1.395 J0
X-6.127 Y-12.762 I-2.98 J0.682
G3 X-6.127 Y-13.397 I0.935 J-0.318
G2 X-6.028 Y-13.932 I-1.803 J-0.612
G3 X-5.712 Y-14.235 I0.316 J0.013
G1 X0.717
X0.754 Y-14.23 Z-3.29
X0.789 Y-14.217 Z-3.28
X0.811 Y-14.201 Z-3.252
X0.831 Y-14.182 Z-3.225
X0.843 Y-14.166 Z-3.15
Z-1.7
X0.721 Y-12.405
Z-3.15
X0.728 Y-12.407 Z-3.196
X0.75 Y-12.41 Z-3.238
X0.782 Y-12.415 Z-3.271
X0.824 Y-12.422 Z-3.293
X0.869 Y-12.429 Z-3.3
X4.812 Y-13.057
G3 X5.096 Y-13.079 I0.284 J1.784
G1 X5.158 Y-13.094
X5.19 Y-13.096
X5.22 Y-13.083
X5.241 Y-13.058
X5.249 Y-13.026
X5.242 Y-12.994
X5.221 Y-12.969
X5.191 Y-12.956
X5.159 Y-12.957
X5.13 Y-12.972
X5.111 Y-12.999
G3 X5.508 Y-13.16 I0.198 J-0.081
X5.111 Y-12.999 I-0.198 J0.081
G1 X5.1 Y-13.034 Z-3.29
X5.096 Y-13.072 Z-3.28
X5.101 Y-13.126 Z-3.225
X5.106 Y-13.146 Z-3.15
G0 Z5
X0.803 Y-9.029
G1 Z-1.7 F150
Z-3.15
X0.809 Y-9.027 Z-3.196
X0.829 Y-9.019 Z-3.238
X0.86 Y-9.006 Z-3.271
X0.899 Y-8.99 Z-3.293
X0.942 Y-8.973 Z-3.3
X0.966 Y-8.957
X0.983 Y-8.932
X0.988 Y-8.903
X0.973 Y-7.373
X0.981 Y-7.34
X1.003 Y-7.313
G2 X1.784 Y-7.125 I0.601 J-0.781
G3 X2.584 Y-7.199 I0.8 J4.297
G1 X3.647
G3 X4.392 Y-7.016 I0 J1.604
G2 X5.111 Y-7.28 I0.24 J-0.458
G3 X5.508 Y-7.119 I0.198 J0.081
X5.111 Y-7.28 I-0.198 J-0.081
G2 X5.103 Y-7.671 I-0.458 J-0.186
G3 X5.316 Y-7.999 I0.211 J-0.096
X5.303 Y-6.399 I-0.006 J0.8
X4.67 Y-6.719 I0.006 J-0.8
G2 X3.32 Y-6.269 I-0.6 J0.45
G1 Y-4.889
X-7.18
Y-6.269
G2 X-8.53 Y-6.719 I-0.75 J0
G3 X-9.81 Y-7.679 I-0.64 J-0.48
X-8.53 Y-7.679 I0.64 J0.48
G2 X-7.18 Y-8.129 I0.6 J-0.45
G1 Y-12.149
G2 X-8.53 Y-12.599 I-0.75 J0
G3 X-9.81 Y-13.559 I-0.64 J-0.48
X-8.53 Y-13.559 I0.64 J0.48
G2 X-7.18 Y-14.009 I0.6 J-0.45
G1 Y-15.389
X3.32
Y-14.009
G2 X4.67 Y-13.559 I0.75 J0
G3 X5.95 Y-12.599 I0.64 J0.48
X4.67 Y-12.599 I-0.64 J-0.48
G2 X3.32 Y-12.149 I-0.6 J0.45
G1 Y-8.129
G2 X4.67 Y-7.679 I0.75 J0
G3 X5.316 Y-7.999 I0.64 J0.48
X5.427 Y-7.634 I-0.002 J0.2
G1 X4.912 Y-7.284
G3 X4.625 Y-7.546 I-0.113 J-0.165
S5000
X5.869 Y-6.852 Z-3.378 I0.622 J0.347
X4.625 Y-7.546 Z-3.456 I-0.622 J-0.347
X5.869 Y-6.852 Z-3.534 I0.622 J0.347
X4.535 Y-7.199 Z-3.6 I-0.622 J-0.347
X5.524 Y-7.199 I0.494 J0
S1000
X5.096 Y-7.199 I-0.214 J0
X5.524 Y-7.199 I0.214 J0
G1 X5.519 Y-7.162 Z-3.59
X5.505 Y-7.127 Z-3.58
X5.49 Y-7.105 Z-3.552
X5.471 Y-7.085 Z-3.525
X5.455 Y-7.073 Z-3.45
G0 Z5
X6.048 Y-12.856
G1 Z-0.65 F150
S5000
X6.041 Y-12.838 Z-0.724
X6.021 Y-12.789 Z-0.778
X5.988 Y-12.724 Z-0.8
G3 X4.756 Y-13.439 Z-0.878 I-0.616 J-0.357
X5.988 Y-12.724 Z-0.956 I0.616 J0.357
X4.756 Y-13.439 Z-1.034 I-0.616 J-0.357
X5.988 Y-12.724 Z-1.113 I0.616 J0.357
X4.756 Y-13.439 Z-1.191 I-0.616 J-0.357
X5.988 Y-12.724 Z-1.269 I0.616 J0.357
X4.756 Y-13.439 Z-1.347 I-0.616 J-0.357
X5.988 Y-12.724 Z-1.425 I0.616 J0.357
X4.756 Y-13.439 Z-1.503 I-0.616 J-0.357
X5.988 Y-12.724 Z-1.582 I0.616 J0.357
X4.756 Y-13.439 Z-1.66 I-0.616 J-0.357
X5.988 Y-12.724 Z-1.738 I0.616 J0.357
X4.756 Y-13.439 Z-1.816 I-0.616 J-0.357
X5.988 Y-12.724 Z-1.894 I0.616 J0.357
X4.756 Y-13.439 Z-1.972 I-0.616 J-0.357
X5.988 Y-12.724 Z-2.051 I0.616 J0.357
X4.756 Y-13.439 Z-2.129 I-0.616 J-0.357
X5.988 Y-12.724 Z-2.207 I0.616 J0.357
X4.756 Y-13.439 Z-2.285 I-0.616 J-0.357
X5.988 Y-12.724 Z-2.363 I0.616 J0.357
X4.756 Y-13.439 Z-2.441 I-0.616 J-0.357
X5.988 Y-12.724 Z-2.52 I0.616 J0.357
X4.756 Y-13.439 Z-2.598 I-0.616 J-0.357
X5.988 Y-12.724 Z-2.676 I0.616 J0.357
X4.756 Y-13.439 Z-2.754 I-0.616 J-0.357
X5.988 Y-12.724 Z-2.832 I0.616 J0.357
X4.756 Y-13.439 Z-2.91 I-0.616 J-0.357
X5.988 Y-12.724 Z-2.989 I0.616 J0.357
X4.756 Y-13.439 Z-3.067 I-0.616 J-0.357
X5.988 Y-12.724 Z-3.145 I0.616 J0.357
X4.756 Y-13.439 Z-3.223 I-0.616 J-0.357
X5.988 Y-12.724 Z-3.301 I0.616 J0.357
X4.756 Y-13.439 Z-3.379 I-0.616 J-0.357
X5.988 Y-12.724 Z-3.458 I0.616 J0.357
X4.756 Y-13.439 Z-3.536 I-0.616 J-0.357
X6.084 Y-13.107 Z-3.6 I0.616 J0.357
X5.608 Y-12.595 I-0.494 J0.018
X5.096 Y-13.071 I-0.018 J-0.494
S1000
X5.523 Y-13.087 I0.214 J-0.008
X5.096 Y-13.071 I-0.214 J0.008
G1 X5.098 Y-13.109 Z-3.59
X5.106 Y-13.145 Z-3.58
X5.13 Y-13.195 Z-3.525
X5.141 Y-13.211 Z-3.45
G0 Z5
X-2.181 Y-9.556
G1 Z-0.65 F150
S5000
X-2.198 Y-9.563 Z-0.724
X-2.247 Y-9.585 Z-0.778
X-2.31 Y-9.621 Z-0.8
G3 X-1.551 Y-10.827 Z-0.878 I0.38 J-0.603
X-2.31 Y-9.621 Z-0.956 I-0.38 J0.603
X-1.551 Y-10.827 Z-1.034 I0.38 J-0.603
X-2.31 Y-9.621 Z-1.113 I-0.38 J0.603
X-1.551 Y-10.827 Z-1.191 I0.38 J-0.603
X-2.31 Y-9.621 Z-1.269 I-0.38 J0.603
X-1.551 Y-10.827 Z-1.347 I0.38 J-0.603
X-2.31 Y-9.621 Z-1.425 I-0.38 J0.603
X-1.551 Y-10.827 Z-1.503 I0.38 J-0.603
X-2.31 Y-9.621 Z-1.582 I-0.38 J0.603
X-1.551 Y-10.827 Z-1.66 I0.38 J-0.603
X-2.31 Y-9.621 Z-1.738 I-0.38 J0.603
X-1.551 Y-10.827 Z-1.816 I0.38 J-0.603
X-2.31 Y-9.621 Z-1.894 I-0.38 J0.603
X-1.551 Y-10.827 Z-1.972 I0.38 J-0.603
X-2.31 Y-9.621 Z-2.051 I-0.38 J0.603
X-1.551 Y-10.827 Z-2.129 I0.38 J-0.603
X-2.31 Y-9.621 Z-2.207 I-0.38 J0.603
X-1.551 Y-10.827 Z-2.285 I0.38 J-0.603
X-2.31 Y-9.621 Z-2.363 I-0.38 J0.603
X-1.551 Y-10.827 Z-2.441 I0.38 J-0.603
X-2.31 Y-9.621 Z-2.52 I-0.38 J0.603
X-1.551 Y-10.827 Z-2.598 I0.38 J-0.603
X-2.31 Y-9.621 Z-2.676 I-0.38 J0.603
X-1.551 Y-10.827 Z-2.754 I0.38 J-0.603
X-2.31 Y-9.621 Z-2.832 I-0.38 J0.603
X-1.551 Y-10.827 Z-2.91 I0.38 J-0.603
X-2.31 Y-9.621 Z-2.989 I-0.38 J0.603
X-1.551 Y-10.827 Z-3.067 I0.38 J-0.603
X-2.31 Y-9.621 Z-3.145 I-0.38 J0.603
X-1.551 Y-10.827 Z-3.223 I0.38 J-0.603
X-2.31 Y-9.621 Z-3.301 I-0.38 J0.603
X-1.551 Y-10.827 Z-3.379 I0.38 J-0.603
X-2.31 Y-9.621 Z-3.458 I-0.38 J0.603
X-1.551 Y-10.827 Z-3.536 I0.38 J-0.603
X-1.93 Y-9.511 Z-3.6 I-0.38 J0.603
S1000
G1 X-2.239
G3 X-2.558 Y-9.83 I0 J-0.319
G1 Y-10.448
G3 X-2.239 Y-10.767 I0.319 J0
G1 X-1.622
G3 X-1.302 Y-10.448 I0 J0.319
G1 Y-9.83
G3 X-1.622 Y-9.511 I-0.319 J0
G1 X-1.927
X-1.93
G2 X-2.776 Y-9.041 I0 J0.996
G3 X-3.707 Y-9.307 I-0.427 J-0.266
G1 Y-11.596
G3 X-3.387 Y-11.916 I0.319 J0
G1 X-0.473
G3 X-0.154 Y-11.596 I0 J0.319
G1 Y-8.682
G3 X-0.473 Y-8.363 I-0.319 J0
G1 X-3.387
G3 X-3.707 Y-8.682 I0 J-0.319
G1 Y-9.307
G2 X-4.27 Y-10.152 I-0.915 J0
G3 X-4.833 Y-10.997 I0.352 J-0.845
G1 Y-12.149
G2 X-4.859 Y-12.46 I-1.917 J0
X-4.915 Y-12.767 I-7.865 J1.293
G3 X-4.675 Y-13.062 I0.24 J-0.049
G1 X0.814
G3 X1.055 Y-12.767 I0 J0.245
G2 X0.998 Y-12.46 I7.808 J1.6
X0.973 Y-12.149 I1.891 J0.311
G1 Y-8.129
G2 X0.998 Y-7.818 I1.917 J0
X1.055 Y-7.511 I7.865 J-1.293
G3 X0.814 Y-7.217 I-0.24 J0.049
G1 X-4.675
G3 X-4.915 Y-7.511 I0 J-0.245
G2 X-4.859 Y-7.818 I-7.808 J-1.6
X-4.833 Y-8.129 I-1.891 J-0.311
G1 Y-10.997
G2 X-5.407 Y-11.922 I-1.033 J0
G3 X-6.121 Y-12.744 I0.629 J-1.268
G1 X-6.127 Y-12.762
G3 X-6.127 Y-13.397 I0.935 J-0.318
G2 X-6.028 Y-13.932 I-1.803 J-0.612
G3 X-5.712 Y-14.235 I0.316 J0.013
G1 X1.851
G3 X2.167 Y-13.932 I0 J0.316
G2 X2.267 Y-13.397 I1.903 J-0.077
G3 X2.267 Y-12.762 I-0.935 J0.318
G2 X2.181 Y-12.46 I2.895 J0.983
X2.146 Y-12.149 I1.36 J0.311
G1 Y-8.129
G2 X2.181 Y-7.818 I1.395 J0
X2.267 Y-7.517 I2.98 J-0.682
G3 X2.267 Y-6.882 I-0.935 J0.318
G2 X2.167 Y-6.347 I1.803 J0.612
G3 X1.851 Y-6.043 I-0.316 J-0.013
G1 X-5.712
G3 X-6.028 Y-6.347 I0 J-0.316
G2 X-6.127 Y-6.882 I-1.903 J0.077
G3 X-6.127 Y-7.517 I0.935 J-0.318
G2 X-6.042 Y-7.818 I-2.895 J-0.983
X-6.007 Y-8.129 I-1.36 J-0.311
G1 Y-12.149
G2 X-6.042 Y-12.46 I-1.395 J0
X-6.121 Y-12.744 I-2.98 J0.682
G1 X-6.101 Y-12.996
X-6.104 Y-13.027
X-6.12 Y-13.054
X-6.145 Y-13.073
X-6.176 Y-13.079
X-8.956
X-8.988 Y-13.072
X-9.014 Y-13.05
X-9.129 Y-12.895
X-9.147 Y-12.878
X-9.169 Y-12.868
X-9.194 Y-12.866
G3 X-9.147 Y-13.292 I0.023 J-0.213
X-9.194 Y-12.866 I-0.023 J0.213
G1 X-9.23 Y-12.875 Z-3.59
X-9.263 Y-12.893 Z-3.58
X-9.284 Y-12.91 Z-3.552
X-9.302 Y-12.931 Z-3.525
X-9.312 Y-12.949 Z-3.45
G0 Z5
X-4.582 Y-7.873
G1 Z-2 F150
Z-3.45
X-4.589 Y-7.872 Z-3.496
X-4.61 Y-7.868 Z-3.538
X-4.643 Y-7.863 Z-3.571
X-4.684 Y-7.857 Z-3.593
X-4.73 Y-7.849 Z-3.6
X-8.672 Y-7.222
G3 X-8.956 Y-7.199 I-0.284 J-1.784
G1 X-9.019 Y-7.184
X-9.051 Y-7.183
X-9.081 Y-7.196
X-9.102 Y-7.221
X-9.11 Y-7.252
X-9.102 Y-7.284
X-9.082 Y-7.309
X-9.052 Y-7.323
X-9.02 Y-7.322
X-8.991 Y-7.306
X-8.972 Y-7.28
G3 X-9.369 Y-7.119 I-0.198 J0.081
X-8.972 Y-7.28 I0.198 J-0.081
G2 X-8.155 Y-7.034 I0.507 J-0.206
X-7.468 Y-7.539 I-7.652 J-11.151
X-7.18 Y-8.129 I-0.462 J-0.59
G1 Y-12.149
G2 X-8.53 Y-12.599 I-0.75 J0
G3 X-9.81 Y-13.559 I-0.64 J-0.48
X-8.53 Y-13.559 I0.64 J0.48
G2 X-7.18 Y-14.009 I0.6 J-0.45
G1 Y-15.389
X3.32
Y-14.009
G2 X4.67 Y-13.559 I0.75 J0
G3 X5.95 Y-12.599 I0.64 J0.48
X4.67 Y-12.599 I-0.64 J-0.48
G2 X3.32 Y-12.149 I-0.6 J0.45
G1 Y-8.129
G2 X4.67 Y-7.679 I0.75 J0
G3 X5.95 Y-6.719 I0.64 J0.48
X4.67 Y-6.719 I-0.64 J-0.48
G2 X3.32 Y-6.269 I-0.6 J0.45
G1 Y-4.889
X-7.18
Y-6.269
G2 X-8.53 Y-6.719 I-0.75 J0
G3 X-9.81 Y-7.679 I-0.64 J-0.48
X-8.53 Y-7.679 I0.64 J0.48
G2 X-7.468 Y-7.539 I0.6 J-0.45
G1 X-7.439 Y-7.553
X-7.407
X-7.378 Y-7.541
X-7.357 Y-7.517
X-7.347 Y-7.487
X-7.351 Y-7.455
X-7.367 Y-7.428
X-7.393 Y-7.41
X-7.561 Y-7.348
X-9.104 Y-7.351
