(1001)
(T1  D=0.8 CR=0 - ZMIN=-3 - flat end mill)
G90 G94
G17
G21

(2D Pocket1)
T1
S1000 M3
G54
M8
G0 X-19.084 Y9.945
Z15
Z5
G1 Z-0.178 F10
X-19.079 Z-0.206
X-19.064 Y9.942 Z-0.229
X-19.04 Y9.939 Z-0.245
X-19.013 Y9.934 Z-0.25
X-17.837 Y9.748
X-17.824 Y9.747
X-8.9
Y10.05
X-17.52
X-17.82
S5000
X-8.9 Z-0.373 F333.3
Y9.747 Z-0.377
X-17.824 Z-0.5
S1000
X-8.9 F10
Y10.05
X-17.52
X-17.82
S5000
X-8.9 Z-0.623 F333.3
Y9.747 Z-0.627
X-17.824 Z-0.75
S1000
X-8.9 F10
Y10.05
X-17.52
X-17.82
S5000
X-8.9 Z-0.873 F333.3
Y9.747 Z-0.877
X-17.824 Z-1
S1000
X-8.9 F10
Y10.05
X-17.52
X-17.82
S5000
X-8.9 Z-1.123 F333.3
Y9.747 Z-1.127
X-17.824 Z-1.25
S1000
X-8.9 F10
Y10.05
X-17.52
X-17.82
S5000
X-8.9 Z-1.373 F333.3
Y9.747 Z-1.377
X-17.824 Z-1.5
S1000
X-8.9 F10
Y10.05
X-17.52
X-17.82
S5000
X-8.9 Z-1.623 F333.3
Y9.747 Z-1.627
X-17.824 Z-1.75
S1000
X-8.9 F10
Y10.05
X-17.52
X-17.82
S5000
X-8.9 Z-1.873 F333.3
Y9.747 Z-1.877
X-17.824 Z-2
S1000
X-8.9 F10
Y10.05
X-17.52
X-17.82
S5000
X-8.9 Z-2.123 F333.3
Y9.747 Z-2.127
X-17.824 Z-2.25
S1000
X-8.9 F10
Y10.05
X-17.52
X-17.82
S5000
X-8.9 Z-2.373 F333.3
Y9.747 Z-2.377
X-17.824 Z-2.5
S1000
X-8.9 F10
Y10.05
X-17.52
X-17.82
S5000
X-8.9 Z-2.623 F333.3
Y9.747 Z-2.627
X-17.824 Z-2.75
S1000
X-8.9 F10
Y10.05
X-17.52
X-17.82
S5000
X-8.9 Z-2.873 F333.3
Y9.747 Z-2.877
X-17.824 Z-3
S1000
X-8.9 F10
Y10.05
X-17.52
X-17.82
X-17.833 Y10.049
X-18.228 Y9.986
X-18.258 Y9.982 Z-2.994
X-18.284 Y9.978 Z-2.977
X-18.301 Y9.975 Z-2.951
X-18.307 Y9.974 Z-2.92
G0 Z15
X12.354 Y5.417
Z5
G1 Z-0.17 F10
X12.349 Y5.421 Z-0.201
X12.337 Y5.433 Z-0.227
X12.318 Y5.451 Z-0.244
X12.296 Y5.472 Z-0.25
X11.26 Y6.464
X7.513 Y10.05
X-2
X-2.287
X-2.288
G3 X-2.288 Y9.65 I0 J-0.2
G1 X7.192
G2 X7.469 Y9.539 I0 J-0.4
G1 X10.983 Y6.175
X11.155 Y6.011
X11.275 Y5.896
G3 X11.552 Y6.185 I0.138 J0.145
G1 X11.53 Y6.206 Z-0.256
X11.511 Y6.224 Z-0.273
X11.498 Y6.236 Z-0.299
X11.494 Y6.24 Z-0.33
Z-0.42
X11.489 Y6.244 Z-0.451
X11.477 Y6.256 Z-0.477
X11.458 Y6.274 Z-0.494
X11.436 Y6.295 Z-0.5
X11.26 Y6.464
X7.513 Y10.05
X-2
X-2.287
X-2.288
G3 X-2.288 Y9.65 I0 J-0.2
G1 X7.192
G2 X7.469 Y9.539 I0 J-0.4
G1 X10.983 Y6.175
X11.155 Y6.011
X11.275 Y5.896
G3 X11.552 Y6.185 I0.138 J0.145
G1 X11.53 Y6.206 Z-0.506
X11.511 Y6.224 Z-0.523
X11.498 Y6.236 Z-0.549
X11.494 Y6.24 Z-0.58
Z-0.67
X11.489 Y6.244 Z-0.701
X11.477 Y6.256 Z-0.727
X11.458 Y6.274 Z-0.744
X11.436 Y6.295 Z-0.75
X11.26 Y6.464
X7.513 Y10.05
X-2
X-2.287
X-2.288
G3 X-2.288 Y9.65 I0 J-0.2
G1 X7.192
G2 X7.469 Y9.539 I0 J-0.4
G1 X10.983 Y6.175
X11.155 Y6.011
X11.275 Y5.896
G3 X11.552 Y6.185 I0.138 J0.145
G1 X11.53 Y6.206 Z-0.756
X11.511 Y6.224 Z-0.773
X11.498 Y6.236 Z-0.799
X11.494 Y6.24 Z-0.83
Z-0.92
X11.489 Y6.244 Z-0.951
X11.477 Y6.256 Z-0.977
X11.458 Y6.274 Z-0.994
X11.436 Y6.295 Z-1
X11.26 Y6.464
X7.513 Y10.05
X-2
X-2.287
X-2.288
G3 X-2.288 Y9.65 I0 J-0.2
G1 X7.192
G2 X7.469 Y9.539 I0 J-0.4
G1 X10.983 Y6.175
X11.155 Y6.011
X11.275 Y5.896
G3 X11.552 Y6.185 I0.138 J0.145
G1 X11.53 Y6.206 Z-1.006
X11.511 Y6.224 Z-1.023
X11.498 Y6.236 Z-1.049
X11.494 Y6.24 Z-1.08
Z-1.17
X11.489 Y6.244 Z-1.201
X11.477 Y6.256 Z-1.227
X11.458 Y6.274 Z-1.244
X11.436 Y6.295 Z-1.25
X11.26 Y6.464
X7.513 Y10.05
X-2
X-2.287
X-2.288
G3 X-2.288 Y9.65 I0 J-0.2
G1 X7.192
G2 X7.469 Y9.539 I0 J-0.4
G1 X10.983 Y6.175
X11.155 Y6.011
X11.275 Y5.896
G3 X11.552 Y6.185 I0.138 J0.145
G1 X11.53 Y6.206 Z-1.256
X11.511 Y6.224 Z-1.273
X11.498 Y6.236 Z-1.299
X11.494 Y6.24 Z-1.33
Z-1.42
X11.489 Y6.244 Z-1.451
X11.477 Y6.256 Z-1.477
X11.458 Y6.274 Z-1.494
X11.436 Y6.295 Z-1.5
X11.26 Y6.464
X7.513 Y10.05
X-2
X-2.287
X-2.288
G3 X-2.288 Y9.65 I0 J-0.2
G1 X7.192
G2 X7.469 Y9.539 I0 J-0.4
G1 X10.983 Y6.175
X11.155 Y6.011
X11.275 Y5.896
G3 X11.552 Y6.185 I0.138 J0.145
G1 X11.53 Y6.206 Z-1.506
X11.511 Y6.224 Z-1.523
X11.498 Y6.236 Z-1.549
X11.494 Y6.24 Z-1.58
Z-1.67
X11.489 Y6.244 Z-1.701
X11.477 Y6.256 Z-1.727
X11.458 Y6.274 Z-1.744
X11.436 Y6.295 Z-1.75
X11.26 Y6.464
X7.513 Y10.05
X-2
X-2.287
X-2.288
G3 X-2.288 Y9.65 I0 J-0.2
G1 X7.192
G2 X7.469 Y9.539 I0 J-0.4
G1 X10.983 Y6.175
X11.155 Y6.011
X11.275 Y5.896
G3 X11.552 Y6.185 I0.138 J0.145
G1 X11.53 Y6.206 Z-1.756
X11.511 Y6.224 Z-1.773
X11.498 Y6.236 Z-1.799
X11.494 Y6.24 Z-1.83
Z-1.92
X11.489 Y6.244 Z-1.951
X11.477 Y6.256 Z-1.977
X11.458 Y6.274 Z-1.994
X11.436 Y6.295 Z-2
X11.26 Y6.464
X7.513 Y10.05
X-2
X-2.287
X-2.288
G3 X-2.288 Y9.65 I0 J-0.2
G1 X7.192
G2 X7.469 Y9.539 I0 J-0.4
G1 X10.983 Y6.175
X11.155 Y6.011
X11.275 Y5.896
G3 X11.552 Y6.185 I0.138 J0.145
G1 X11.53 Y6.206 Z-2.006
X11.511 Y6.224 Z-2.023
X11.498 Y6.236 Z-2.049
X11.494 Y6.24 Z-2.08
Z-2.17
X11.489 Y6.244 Z-2.201
X11.477 Y6.256 Z-2.227
X11.458 Y6.274 Z-2.244
X11.436 Y6.295 Z-2.25
X11.26 Y6.464
X7.513 Y10.05
X-2
X-2.287
X-2.288
G3 X-2.288 Y9.65 I0 J-0.2
G1 X7.192
G2 X7.469 Y9.539 I0 J-0.4
G1 X10.983 Y6.175
X11.155 Y6.011
X11.275 Y5.896
G3 X11.552 Y6.185 I0.138 J0.145
G1 X11.53 Y6.206 Z-2.256
X11.511 Y6.224 Z-2.273
X11.498 Y6.236 Z-2.299
X11.494 Y6.24 Z-2.33
Z-2.42
X11.489 Y6.244 Z-2.451
X11.477 Y6.256 Z-2.477
X11.458 Y6.274 Z-2.494
X11.436 Y6.295 Z-2.5
X11.26 Y6.464
X7.513 Y10.05
X-2
X-2.287
X-2.288
G3 X-2.288 Y9.65 I0 J-0.2
G1 X7.192
G2 X7.469 Y9.539 I0 J-0.4
G1 X10.983 Y6.175
X11.155 Y6.011
X11.275 Y5.896
G3 X11.552 Y6.185 I0.138 J0.145
G1 X11.53 Y6.206 Z-2.506
X11.511 Y6.224 Z-2.523
X11.498 Y6.236 Z-2.549
X11.494 Y6.24 Z-2.58
Z-2.67
X11.489 Y6.244 Z-2.701
X11.477 Y6.256 Z-2.727
X11.458 Y6.274 Z-2.744
X11.436 Y6.295 Z-2.75
X11.26 Y6.464
X7.513 Y10.05
X-2
X-2.287
X-2.288
G3 X-2.288 Y9.65 I0 J-0.2
G1 X7.192
G2 X7.469 Y9.539 I0 J-0.4
G1 X10.983 Y6.175
X11.155 Y6.011
X11.275 Y5.896
G3 X11.552 Y6.185 I0.138 J0.145
G1 X11.53 Y6.206 Z-2.756
X11.511 Y6.224 Z-2.773
X11.498 Y6.236 Z-2.799
X11.494 Y6.24 Z-2.83
Z-2.92
X11.489 Y6.244 Z-2.951
X11.477 Y6.256 Z-2.977
X11.458 Y6.274 Z-2.994
X11.436 Y6.295 Z-3
X11.26 Y6.464
X7.513 Y10.05
X-2
X-2.287
X-2.288
G3 X-2.288 Y9.65 I0 J-0.2
G1 X7.192
G2 X7.469 Y9.539 I0 J-0.4
G1 X10.983 Y6.175
X11.155 Y6.011
X11.165 Y6.003
X11.493 Y5.775
X11.519 Y5.757 Z-2.994
X11.54 Y5.742 Z-2.977
X11.554 Y5.732 Z-2.951
X11.559 Y5.729 Z-2.92
G0 Z15
X11.986 Y4.984
Z5
G1 Z-0.178 F10
X11.982 Y4.98 Z-0.206
X11.972 Y4.968 Z-0.229
X11.958 Y4.95 Z-0.245
X11.94 Y4.929 Z-0.25
X11.17 Y3.994
X11.162 Y3.984
X11.083 Y3.85
X10.939 Y3.606
X5.346 Y-5.883
X5.289 Y-5.98
X5.284 Y-6.001
X5.29 Y-6.021
X5.305 Y-6.036
X5.327 Y-6.04
X5.503 Y-6.011
X5.518 Y-5.996
X5.537 Y-5.991
X5.557 Y-5.996
X5.662 Y-6.056
X5.682 Y-6.061
X5.702 Y-6.056
X5.717 Y-6.041
X5.888 Y-5.751
X11.283 Y3.403
X11.448 Y3.683
X11.348 Y3.906
X11.33 Y4.103
X11.32 Y4.124
X11.3 Y4.136
X11.276 Y4.135
X11.258 Y4.12
X11.24 Y4.095 Z-0.256
X11.225 Y4.074 Z-0.273
X11.215 Y4.06 Z-0.299
X11.212 Y4.055 Z-0.33
Z-0.42
X11.208 Y4.05 Z-0.451
X11.198 Y4.036 Z-0.477
X11.183 Y4.014 Z-0.494
X11.166 Y3.989 Z-0.5
X11.162 Y3.984
X11.083 Y3.85
X10.939 Y3.606
X5.346 Y-5.883
X5.289 Y-5.98
X5.284 Y-6.001
X5.29 Y-6.021
X5.305 Y-6.036
X5.327 Y-6.04
X5.503 Y-6.011
X5.518 Y-5.996
X5.537 Y-5.991
X5.557 Y-5.996
X5.662 Y-6.056
X5.682 Y-6.061
X5.702 Y-6.056
X5.717 Y-6.041
X5.888 Y-5.751
X11.283 Y3.403
X11.448 Y3.683
X11.348 Y3.906
X11.33 Y4.103
X11.32 Y4.124
X11.3 Y4.136
X11.276 Y4.135
X11.258 Y4.12
X11.24 Y4.095 Z-0.506
X11.225 Y4.074 Z-0.523
X11.215 Y4.06 Z-0.549
X11.212 Y4.055 Z-0.58
Z-0.67
X11.208 Y4.05 Z-0.701
X11.198 Y4.036 Z-0.727
X11.183 Y4.014 Z-0.744
X11.166 Y3.989 Z-0.75
X11.162 Y3.984
X11.083 Y3.85
X10.939 Y3.606
X5.346 Y-5.883
X5.289 Y-5.98
X5.284 Y-6.001
X5.29 Y-6.021
X5.305 Y-6.036
X5.327 Y-6.04
X5.503 Y-6.011
X5.518 Y-5.996
X5.537 Y-5.991
X5.557 Y-5.996
X5.662 Y-6.056
X5.682 Y-6.061
X5.702 Y-6.056
X5.717 Y-6.041
X5.888 Y-5.751
X11.283 Y3.403
X11.448 Y3.683
X11.348 Y3.906
X11.33 Y4.103
X11.32 Y4.124
X11.3 Y4.136
X11.276 Y4.135
X11.258 Y4.12
X11.24 Y4.095 Z-0.756
X11.225 Y4.074 Z-0.773
X11.215 Y4.06 Z-0.799
X11.212 Y4.055 Z-0.83
Z-0.92
X11.208 Y4.05 Z-0.951
X11.198 Y4.036 Z-0.977
X11.183 Y4.014 Z-0.994
X11.166 Y3.989 Z-1
X11.162 Y3.984
X11.083 Y3.85
X10.939 Y3.606
X5.346 Y-5.883
X5.289 Y-5.98
X5.284 Y-6.001
X5.29 Y-6.021
X5.305 Y-6.036
X5.327 Y-6.04
X5.503 Y-6.011
X5.518 Y-5.996
X5.537 Y-5.991
X5.557 Y-5.996
X5.662 Y-6.056
X5.682 Y-6.061
X5.702 Y-6.056
X5.717 Y-6.041
X5.888 Y-5.751
X11.283 Y3.403
X11.448 Y3.683
X11.348 Y3.906
X11.33 Y4.103
X11.32 Y4.124
X11.3 Y4.136
X11.276 Y4.135
X11.258 Y4.12
X11.24 Y4.095 Z-1.006
X11.225 Y4.074 Z-1.023
X11.215 Y4.06 Z-1.049
X11.212 Y4.055 Z-1.08
Z-1.17
X11.208 Y4.05 Z-1.201
X11.198 Y4.036 Z-1.227
X11.183 Y4.014 Z-1.244
X11.166 Y3.989 Z-1.25
X11.162 Y3.984
X11.083 Y3.85
X10.939 Y3.606
X5.346 Y-5.883
X5.289 Y-5.98
X5.284 Y-6.001
X5.29 Y-6.021
X5.305 Y-6.036
X5.327 Y-6.04
X5.503 Y-6.011
X5.518 Y-5.996
X5.537 Y-5.991
X5.557 Y-5.996
X5.662 Y-6.056
X5.682 Y-6.061
X5.702 Y-6.056
X5.717 Y-6.041
X5.888 Y-5.751
X11.283 Y3.403
X11.448 Y3.683
X11.348 Y3.906
X11.33 Y4.103
X11.32 Y4.124
X11.3 Y4.136
X11.276 Y4.135
X11.258 Y4.12
X11.24 Y4.095 Z-1.256
X11.225 Y4.074 Z-1.273
X11.215 Y4.06 Z-1.299
X11.212 Y4.055 Z-1.33
Z-1.42
X11.208 Y4.05 Z-1.451
X11.198 Y4.036 Z-1.477
X11.183 Y4.014 Z-1.494
X11.166 Y3.989 Z-1.5
X11.162 Y3.984
X11.083 Y3.85
X10.939 Y3.606
X5.346 Y-5.883
X5.289 Y-5.98
X5.284 Y-6.001
X5.29 Y-6.021
X5.305 Y-6.036
X5.327 Y-6.04
X5.503 Y-6.011
X5.518 Y-5.996
X5.537 Y-5.991
X5.557 Y-5.996
X5.662 Y-6.056
X5.682 Y-6.061
X5.702 Y-6.056
X5.717 Y-6.041
X5.888 Y-5.751
X11.283 Y3.403
X11.448 Y3.683
X11.348 Y3.906
X11.33 Y4.103
X11.32 Y4.124
X11.3 Y4.136
X11.276 Y4.135
X11.258 Y4.12
X11.24 Y4.095 Z-1.506
X11.225 Y4.074 Z-1.523
X11.215 Y4.06 Z-1.549
X11.212 Y4.055 Z-1.58
Z-1.67
X11.208 Y4.05 Z-1.701
X11.198 Y4.036 Z-1.727
X11.183 Y4.014 Z-1.744
X11.166 Y3.989 Z-1.75
X11.162 Y3.984
X11.083 Y3.85
X10.939 Y3.606
X5.346 Y-5.883
X5.289 Y-5.98
X5.284 Y-6.001
X5.29 Y-6.021
X5.305 Y-6.036
X5.327 Y-6.04
X5.503 Y-6.011
X5.518 Y-5.996
X5.537 Y-5.991
X5.557 Y-5.996
X5.662 Y-6.056
X5.682 Y-6.061
X5.702 Y-6.056
X5.717 Y-6.041
X5.888 Y-5.751
X11.283 Y3.403
X11.448 Y3.683
X11.348 Y3.906
X11.33 Y4.103
X11.32 Y4.124
X11.3 Y4.136
X11.276 Y4.135
X11.258 Y4.12
X11.24 Y4.095 Z-1.756
X11.225 Y4.074 Z-1.773
X11.215 Y4.06 Z-1.799
X11.212 Y4.055 Z-1.83
Z-1.92
X11.208 Y4.05 Z-1.951
X11.198 Y4.036 Z-1.977
X11.183 Y4.014 Z-1.994
X11.166 Y3.989 Z-2
X11.162 Y3.984
X11.083 Y3.85
X10.939 Y3.606
X5.346 Y-5.883
X5.289 Y-5.98
X5.284 Y-6.001
X5.29 Y-6.021
X5.305 Y-6.036
X5.327 Y-6.04
X5.503 Y-6.011
X5.518 Y-5.996
X5.537 Y-5.991
X5.557 Y-5.996
X5.662 Y-6.056
X5.682 Y-6.061
X5.702 Y-6.056
X5.717 Y-6.041
X5.888 Y-5.751
X11.283 Y3.403
X11.448 Y3.683
X11.348 Y3.906
X11.33 Y4.103
X11.32 Y4.124
X11.3 Y4.136
X11.276 Y4.135
X11.258 Y4.12
X11.24 Y4.095 Z-2.006
X11.225 Y4.074 Z-2.023
X11.215 Y4.06 Z-2.049
X11.212 Y4.055 Z-2.08
Z-2.17
X11.208 Y4.05 Z-2.201
X11.198 Y4.036 Z-2.227
X11.183 Y4.014 Z-2.244
X11.166 Y3.989 Z-2.25
X11.162 Y3.984
X11.083 Y3.85
X10.939 Y3.606
X5.346 Y-5.883
X5.289 Y-5.98
X5.284 Y-6.001
X5.29 Y-6.021
X5.305 Y-6.036
X5.327 Y-6.04
X5.503 Y-6.011
X5.518 Y-5.996
X5.537 Y-5.991
X5.557 Y-5.996
X5.662 Y-6.056
X5.682 Y-6.061
X5.702 Y-6.056
X5.717 Y-6.041
X5.888 Y-5.751
X11.283 Y3.403
X11.448 Y3.683
X11.348 Y3.906
X11.33 Y4.103
X11.32 Y4.124
X11.3 Y4.136
X11.276 Y4.135
X11.258 Y4.12
X11.24 Y4.095 Z-2.256
X11.225 Y4.074 Z-2.273
X11.215 Y4.06 Z-2.299
X11.212 Y4.055 Z-2.33
Z-2.42
X11.208 Y4.05 Z-2.451
X11.198 Y4.036 Z-2.477
X11.183 Y4.014 Z-2.494
X11.166 Y3.989 Z-2.5
X11.162 Y3.984
X11.083 Y3.85
X10.939 Y3.606
X5.346 Y-5.883
X5.289 Y-5.98
X5.284 Y-6.001
X5.29 Y-6.021
X5.305 Y-6.036
X5.327 Y-6.04
X5.503 Y-6.011
X5.518 Y-5.996
X5.537 Y-5.991
X5.557 Y-5.996
X5.662 Y-6.056
X5.682 Y-6.061
X5.702 Y-6.056
X5.717 Y-6.041
X5.888 Y-5.751
X11.283 Y3.403
X11.448 Y3.683
X11.348 Y3.906
X11.33 Y4.103
X11.32 Y4.124
X11.3 Y4.136
X11.276 Y4.135
X11.258 Y4.12
X11.24 Y4.095 Z-2.506
X11.225 Y4.074 Z-2.523
X11.215 Y4.06 Z-2.549
X11.212 Y4.055 Z-2.58
Z-2.67
X11.208 Y4.05 Z-2.701
X11.198 Y4.036 Z-2.727
X11.183 Y4.014 Z-2.744
X11.166 Y3.989 Z-2.75
X11.162 Y3.984
X11.083 Y3.85
X10.939 Y3.606
X5.346 Y-5.883
X5.289 Y-5.98
X5.284 Y-6.001
X5.29 Y-6.021
X5.305 Y-6.036
X5.327 Y-6.04
X5.503 Y-6.011
X5.518 Y-5.996
X5.537 Y-5.991
X5.557 Y-5.996
X5.662 Y-6.056
X5.682 Y-6.061
X5.702 Y-6.056
X5.717 Y-6.041
X5.888 Y-5.751
X11.283 Y3.403
X11.448 Y3.683
X11.348 Y3.906
X11.33 Y4.103
X11.32 Y4.124
X11.3 Y4.136
X11.276 Y4.135
X11.258 Y4.12
X11.24 Y4.095 Z-2.756
X11.225 Y4.074 Z-2.773
X11.215 Y4.06 Z-2.799
X11.212 Y4.055 Z-2.83
Z-2.92
X11.208 Y4.05 Z-2.951
X11.198 Y4.036 Z-2.977
X11.183 Y4.014 Z-2.994
X11.166 Y3.989 Z-3
X11.162 Y3.984
X11.083 Y3.85
X10.939 Y3.606
X5.346 Y-5.883
X5.289 Y-5.98
X5.284 Y-6.001
X5.29 Y-6.021
X5.305 Y-6.036
X5.327 Y-6.04
X5.503 Y-6.011
X5.518 Y-5.996
X5.537 Y-5.991
X5.557 Y-5.996
X5.662 Y-6.056
X5.682 Y-6.061
X5.702 Y-6.056
X5.717 Y-6.041
X5.888 Y-5.751
X11.283 Y3.403
X11.448 Y3.683
X11.454 Y3.695
X11.601 Y4.067
X11.612 Y4.095 Z-2.994
X11.621 Y4.119 Z-2.977
X11.628 Y4.135 Z-2.951
X11.63 Y4.141 Z-2.92
G0 Z15
X-9.136 Y-13.062
Z5
G1 Z-0.178 F10
X-9.141 Y-13.06 Z-0.206
X-9.156 Y-13.055 Z-0.229
X-9.178 Y-13.047 Z-0.245
X-9.204 Y-13.038 Z-0.25
X-10.307 Y-12.644
X-10.319 Y-12.64
X-10.527 Y-12.601
X-18.02 Y-11.19
X-18.303 Y-11.137
X-18.304
G3 X-18.514 Y-11.28 I-0.034 J-0.176
X-18.371 Y-11.49 I0.176 J-0.033
G1 X-18.078 Y-11.545
X-10.624 Y-12.949
X-10.391 Y-12.992
S5000
X-10.624 Y-12.949 Z-0.257 F333.3
X-18.078 Y-11.545 Z-0.491
X-18.371 Y-11.49 Z-0.5
S1000
X-18.078 Y-11.545 F10
X-10.624 Y-12.949
X-10.391 Y-12.992
X-10.387 Y-12.993
G3 X-10.176 Y-12.851 I0.034 J0.176
X-10.319 Y-12.64 I-0.176 J0.034
G1 X-10.527 Y-12.601
X-18.02 Y-11.19
X-18.303 Y-11.137
G3 X-18.483 Y-11.453 I-0.036 J-0.189
G1 X-18.531 Y-11.446
X-18.502 Y-11.454 Z-0.506
X-18.477 Y-11.461 Z-0.523
X-18.46 Y-11.466 Z-0.549
X-18.454 Y-11.467 Z-0.58
Z-0.67
X-18.448 Y-11.469 Z-0.701
X-18.431 Y-11.473 Z-0.727
X-18.406 Y-11.48 Z-0.744
X-18.377 Y-11.488 Z-0.75
X-18.371 Y-11.49
X-18.078 Y-11.545
X-10.624 Y-12.949
X-10.391 Y-12.992
X-10.387 Y-12.993
G3 X-10.176 Y-12.851 I0.034 J0.176
X-10.319 Y-12.64 I-0.176 J0.034
G1 X-10.527 Y-12.601
X-18.02 Y-11.19
X-18.303 Y-11.137
G3 X-18.483 Y-11.453 I-0.036 J-0.189
G1 X-18.531 Y-11.446
X-18.502 Y-11.454 Z-0.756
X-18.477 Y-11.461 Z-0.773
X-18.46 Y-11.466 Z-0.799
X-18.454 Y-11.467 Z-0.83
Z-0.92
X-18.448 Y-11.469 Z-0.951
X-18.431 Y-11.473 Z-0.977
X-18.406 Y-11.48 Z-0.994
X-18.377 Y-11.488 Z-1
X-18.371 Y-11.49
X-18.078 Y-11.545
X-10.624 Y-12.949
X-10.391 Y-12.992
X-10.387 Y-12.993
G3 X-10.176 Y-12.851 I0.034 J0.176
X-10.319 Y-12.64 I-0.176 J0.034
G1 X-10.527 Y-12.601
X-18.02 Y-11.19
X-18.303 Y-11.137
G3 X-18.483 Y-11.453 I-0.036 J-0.189
G1 X-18.531 Y-11.446
X-18.502 Y-11.454 Z-1.006
X-18.477 Y-11.461 Z-1.023
X-18.46 Y-11.466 Z-1.049
X-18.454 Y-11.467 Z-1.08
Z-1.17
X-18.448 Y-11.469 Z-1.201
X-18.431 Y-11.473 Z-1.227
X-18.406 Y-11.48 Z-1.244
X-18.377 Y-11.488 Z-1.25
X-18.371 Y-11.49
X-18.078 Y-11.545
X-10.624 Y-12.949
X-10.391 Y-12.992
X-10.387 Y-12.993
G3 X-10.176 Y-12.851 I0.034 J0.176
X-10.319 Y-12.64 I-0.176 J0.034
G1 X-10.527 Y-12.601
X-18.02 Y-11.19
X-18.303 Y-11.137
G3 X-18.483 Y-11.453 I-0.036 J-0.189
G1 X-18.531 Y-11.446
X-18.502 Y-11.454 Z-1.256
X-18.477 Y-11.461 Z-1.273
X-18.46 Y-11.466 Z-1.299
X-18.454 Y-11.467 Z-1.33
Z-1.42
X-18.448 Y-11.469 Z-1.451
X-18.431 Y-11.473 Z-1.477
X-18.406 Y-11.48 Z-1.494
X-18.377 Y-11.488 Z-1.5
X-18.371 Y-11.49
X-18.078 Y-11.545
X-10.624 Y-12.949
X-10.391 Y-12.992
X-10.387 Y-12.993
G3 X-10.176 Y-12.851 I0.034 J0.176
X-10.319 Y-12.64 I-0.176 J0.034
G1 X-10.527 Y-12.601
X-18.02 Y-11.19
X-18.303 Y-11.137
G3 X-18.483 Y-11.453 I-0.036 J-0.189
G1 X-18.531 Y-11.446
X-18.502 Y-11.454 Z-1.506
X-18.477 Y-11.461 Z-1.523
X-18.46 Y-11.466 Z-1.549
X-18.454 Y-11.467 Z-1.58
Z-1.67
X-18.448 Y-11.469 Z-1.701
X-18.431 Y-11.473 Z-1.727
X-18.406 Y-11.48 Z-1.744
X-18.377 Y-11.488 Z-1.75
X-18.371 Y-11.49
X-18.078 Y-11.545
X-10.624 Y-12.949
X-10.391 Y-12.992
X-10.387 Y-12.993
G3 X-10.176 Y-12.851 I0.034 J0.176
X-10.319 Y-12.64 I-0.176 J0.034
G1 X-10.527 Y-12.601
X-18.02 Y-11.19
X-18.303 Y-11.137
G3 X-18.483 Y-11.453 I-0.036 J-0.189
G1 X-18.531 Y-11.446
X-18.502 Y-11.454 Z-1.756
X-18.477 Y-11.461 Z-1.773
X-18.46 Y-11.466 Z-1.799
X-18.454 Y-11.467 Z-1.83
Z-1.92
X-18.448 Y-11.469 Z-1.951
X-18.431 Y-11.473 Z-1.977
X-18.406 Y-11.48 Z-1.994
X-18.377 Y-11.488 Z-2
X-18.371 Y-11.49
X-18.078 Y-11.545
X-10.624 Y-12.949
X-10.391 Y-12.992
X-10.387 Y-12.993
G3 X-10.176 Y-12.851 I0.034 J0.176
X-10.319 Y-12.64 I-0.176 J0.034
G1 X-10.527 Y-12.601
X-18.02 Y-11.19
X-18.303 Y-11.137
G3 X-18.483 Y-11.453 I-0.036 J-0.189
G1 X-18.531 Y-11.446
X-18.502 Y-11.454 Z-2.006
X-18.477 Y-11.461 Z-2.023
X-18.46 Y-11.466 Z-2.049
X-18.454 Y-11.467 Z-2.08
Z-2.17
X-18.448 Y-11.469 Z-2.201
X-18.431 Y-11.473 Z-2.227
X-18.406 Y-11.48 Z-2.244
X-18.377 Y-11.488 Z-2.25
X-18.371 Y-11.49
X-18.078 Y-11.545
X-10.624 Y-12.949
X-10.391 Y-12.992
X-10.387 Y-12.993
G3 X-10.176 Y-12.851 I0.034 J0.176
X-10.319 Y-12.64 I-0.176 J0.034
G1 X-10.527 Y-12.601
X-18.02 Y-11.19
X-18.303 Y-11.137
G3 X-18.483 Y-11.453 I-0.036 J-0.189
G1 X-18.531 Y-11.446
X-18.502 Y-11.454 Z-2.256
X-18.477 Y-11.461 Z-2.273
X-18.46 Y-11.466 Z-2.299
X-18.454 Y-11.467 Z-2.33
Z-2.42
X-18.448 Y-11.469 Z-2.451
X-18.431 Y-11.473 Z-2.477
X-18.406 Y-11.48 Z-2.494
X-18.377 Y-11.488 Z-2.5
X-18.371 Y-11.49
X-18.078 Y-11.545
X-10.624 Y-12.949
X-10.391 Y-12.992
X-10.387 Y-12.993
G3 X-10.176 Y-12.851 I0.034 J0.176
X-10.319 Y-12.64 I-0.176 J0.034
G1 X-10.527 Y-12.601
X-18.02 Y-11.19
X-18.303 Y-11.137
G3 X-18.483 Y-11.453 I-0.036 J-0.189
G1 X-18.531 Y-11.446
X-18.502 Y-11.454 Z-2.506
X-18.477 Y-11.461 Z-2.523
X-18.46 Y-11.466 Z-2.549
X-18.454 Y-11.467 Z-2.58
Z-2.67
X-18.448 Y-11.469 Z-2.701
X-18.431 Y-11.473 Z-2.727
X-18.406 Y-11.48 Z-2.744
X-18.377 Y-11.488 Z-2.75
X-18.371 Y-11.49
X-18.078 Y-11.545
X-10.624 Y-12.949
X-10.391 Y-12.992
X-10.387 Y-12.993
G3 X-10.176 Y-12.851 I0.034 J0.176
X-10.319 Y-12.64 I-0.176 J0.034
G1 X-10.527 Y-12.601
X-18.02 Y-11.19
X-18.303 Y-11.137
G3 X-18.483 Y-11.453 I-0.036 J-0.189
G1 X-18.531 Y-11.446
X-18.502 Y-11.454 Z-2.756
X-18.477 Y-11.461 Z-2.773
X-18.46 Y-11.466 Z-2.799
X-18.454 Y-11.467 Z-2.83
Z-2.92
X-18.448 Y-11.469 Z-2.951
X-18.431 Y-11.473 Z-2.977
X-18.406 Y-11.48 Z-2.994
X-18.377 Y-11.488 Z-3
X-18.371 Y-11.49
X-18.078 Y-11.545
X-10.624 Y-12.949
X-10.391 Y-12.992
X-10.387 Y-12.993
G3 X-10.176 Y-12.851 I0.034 J0.176
X-10.319 Y-12.64 I-0.176 J0.034
G1 X-10.527 Y-12.601
X-18.02 Y-11.19
X-18.303 Y-11.137
X-18.315 Y-11.136
X-18.715 Y-11.124
X-18.745 Y-11.123 Z-2.994
X-18.771 Y-11.122 Z-2.977
X-18.789 Z-2.951
X-18.795 Z-2.92
G0 Z15
M9
M5
M30
