(1001)
(Machine)
(  vendor: Autodesk)
(  description: Generic 3-axis)
(T3  D=3 CR=0 - ZMIN=-1.6 - flat end mill)
G90 G94
G17
G21

(2D Contour3)
T3
S1000 M3
G54
M8
G0 X21.242 Y2.758
Z10
Z3
G1 Z1.1 F200
Z-0.1
G2 X24 Y3.9 I2.758 J-2.758
X24 Y-3.9 I0 J-3.9
X20.1 Y0 I0 J3.9
G1 Y0.012
G2 X21.242 Y2.758 I3.9 J-0.012
G0 Z4
X18.758
Z3
G1 Z1.1 F200
Z-0.1
G2 X16 Y-3.9 I-2.758 J-2.758
X12.1 Y-0.012 I0 J3.9
G1 Y0
G2 X18.758 Y2.758 I3.9 J0
G0 Z4
Y5.242
Z3
G1 Z1.1 F200
Z-0.1
G2 X12.1 Y8 I-2.758 J2.758
G1 Y8.012
G2 X16 Y11.9 I3.9 J-0.012
X18.758 Y5.242 I0 J-3.9
G0 Z4
X21.242
Z3
G1 Z1.1 F200
Z-0.1
G2 X24 Y11.9 I2.758 J2.758
X27.9 Y8.012 I0 J-3.9
G1 Y8
G2 X21.242 Y5.242 I-3.9 J0
G0 Z4
X29.242
Z3
G1 Z1.1 F200
Z-0.1
G2 X34.758 Y10.758 I2.758 J2.758
X35.9 Y8 I-2.758 J-2.758
X32.012 Y4.1 I-3.9 J0
G1 X32
G2 X29.242 Y5.242 I0 J3.9
G0 Z4
Y2.758
Z3
G1 Z1.1 F200
Z-0.1
G2 X32 Y3.9 I2.758 J-2.758
X32 Y-3.9 I0 J-3.9
X28.1 Y0 I0 J3.9
G1 Y0.012
G2 X29.242 Y2.758 I3.9 J-0.012
G1 Z-0.2
G2 X32 Y3.9 I2.758 J-2.758
X32 Y-3.9 I0 J-3.9
X28.1 Y0 I0 J3.9
G1 Y0.012
G2 X29.242 Y2.758 I3.9 J-0.012
G0 Z4
X26.758
Z3
G1 Z1 F200
Z-0.2
G2 X21.242 Y-2.758 I-2.758 J-2.758
X20.1 Y0 I2.758 J2.758
G1 Y0.012
G2 X24 Y3.9 I3.9 J-0.012
X26.758 Y2.758 I0 J-3.9
G0 Z4
Y5.242
Z3
G1 Z1 F200
Z-0.2
G2 X21.242 Y10.758 I-2.758 J2.758
X24 Y11.9 I2.758 J-2.758
X27.9 Y8.012 I0 J-3.9
G1 Y8
G2 X26.758 Y5.242 I-3.9 J0
G0 Z4
X29.242
Z3
G1 Z1 F200
Z-0.2
G2 X34.758 Y10.758 I2.758 J2.758
X35.9 Y8 I-2.758 J-2.758
X32.012 Y4.1 I-3.9 J0
G1 X32
G2 X29.242 Y5.242 I0 J3.9
G1 Z-0.3
G2 X34.758 Y10.758 I2.758 J2.758
X35.9 Y8 I-2.758 J-2.758
X32.012 Y4.1 I-3.9 J0
G1 X32
G2 X29.242 Y5.242 I0 J3.9
G0 Z4
Y2.758
Z3
G1 Z0.9 F200
Z-0.3
G2 X32 Y3.9 I2.758 J-2.758
X32 Y-3.9 I0 J-3.9
X28.1 Y0 I0 J3.9
G1 Y0.012
G2 X29.242 Y2.758 I3.9 J-0.012
G0 Z4
X10.758
Z3
G1 Z1.1 F200
Z-0.1
G2 X5.242 Y-2.758 I-2.758 J-2.758
X4.1 Y0 I2.758 J2.758
X7.988 Y3.9 I3.9 J0
G1 X8
G2 X10.758 Y2.758 I0 J-3.9
G0 Z4
Y5.242
Z3
G1 Z1.1 F200
Z-0.1
G2 X8 Y4.1 I-2.758 J2.758
X8 Y11.9 I0 J3.9
X11.9 Y8 I0 J-3.9
G1 Y7.988
G2 X10.758 Y5.242 I-3.9 J0.012
G1 Z-0.2
G2 X8 Y4.1 I-2.758 J2.758
X8 Y11.9 I0 J3.9
X11.9 Y8 I0 J-3.9
G1 Y7.988
G2 X10.758 Y5.242 I-3.9 J0.012
G0 Z4
X13.242
Z3
G1 Z1 F200
Z-0.2
G2 X12.1 Y8 I2.758 J2.758
G1 Y8.012
G2 X16 Y11.9 I3.9 J-0.012
X16 Y4.1 I0 J-3.9
X13.242 Y5.242 I0 J3.9
G0 Z4
Y2.758
Z3
G1 Z1 F200
Z-0.2
G2 X18.758 Y-2.758 I2.758 J-2.758
X16 Y-3.9 I-2.758 J2.758
X12.1 Y-0.012 I0 J3.9
G1 Y0
G2 X13.242 Y2.758 I3.9 J0
G0 Z4
X10.758
Z3
G1 Z1 F200
Z-0.2
G2 X5.242 Y-2.758 I-2.758 J-2.758
X4.1 Y0 I2.758 J2.758
X7.988 Y3.9 I3.9 J0
G1 X8
G2 X10.758 Y2.758 I0 J-3.9
G1 Z-0.3
G2 X5.242 Y-2.758 I-2.758 J-2.758
X4.1 Y0 I2.758 J2.758
X7.988 Y3.9 I3.9 J0
G1 X8
G2 X10.758 Y2.758 I0 J-3.9
G0 Z4
Y5.242
Z3
G1 Z0.9 F200
Z-0.3
G2 X8 Y4.1 I-2.758 J2.758
X8 Y11.9 I0 J3.9
X11.9 Y8 I0 J-3.9
G1 Y7.988
G2 X10.758 Y5.242 I-3.9 J0.012
G0 Z4
X13.242
Z3
G1 Z0.9 F200
Z-0.3
G2 X12.1 Y8 I2.758 J2.758
G1 Y8.012
G2 X16 Y11.9 I3.9 J-0.012
X16 Y4.1 I0 J-3.9
X13.242 Y5.242 I0 J3.9
G0 Z4
Y2.758
Z3
G1 Z0.9 F200
Z-0.3
G2 X18.758 Y-2.758 I2.758 J-2.758
X16 Y-3.9 I-2.758 J2.758
X12.1 Y-0.012 I0 J3.9
G1 Y0
G2 X13.242 Y2.758 I3.9 J0
G0 Z4
X10.758
Z3
G1 Z0.8 F200
Z-0.4
G2 X5.242 Y-2.758 I-2.758 J-2.758
X4.1 Y0 I2.758 J2.758
X7.988 Y3.9 I3.9 J0
G1 X8
G2 X10.758 Y2.758 I0 J-3.9
G0 Z4
Y5.242
Z3
G1 Z0.8 F200
Z-0.4
G2 X8 Y4.1 I-2.758 J2.758
X8 Y11.9 I0 J3.9
X11.9 Y8 I0 J-3.9
G1 Y7.988
G2 X10.758 Y5.242 I-3.9 J0.012
G0 Z4
X21.242
Z3
G1 Z0.9 F200
Z-0.3
G2 X24 Y11.9 I2.758 J2.758
X27.9 Y8.012 I0 J-3.9
G1 Y8
G2 X21.242 Y5.242 I-3.9 J0
G0 Z4
Y2.758
Z3
G1 Z0.9 F200
Z-0.3
G2 X24 Y3.9 I2.758 J-2.758
X24 Y-3.9 I0 J-3.9
X20.1 Y0 I0 J3.9
G1 Y0.012
G2 X21.242 Y2.758 I3.9 J-0.012
G1 Z-0.4
G2 X24 Y3.9 I2.758 J-2.758
X24 Y-3.9 I0 J-3.9
X20.1 Y0 I0 J3.9
G1 Y0.012
G2 X21.242 Y2.758 I3.9 J-0.012
G0 Z4
X18.758
Z3
G1 Z0.8 F200
Z-0.4
G2 X16 Y-3.9 I-2.758 J-2.758
X12.1 Y-0.012 I0 J3.9
G1 Y0
G2 X18.758 Y2.758 I3.9 J0
G0 Z4
Y5.242
Z3
G1 Z0.8 F200
Z-0.4
G2 X12.1 Y8 I-2.758 J2.758
G1 Y8.012
G2 X16 Y11.9 I3.9 J-0.012
X18.758 Y5.242 I0 J-3.9
G0 Z4
X21.242
Z3
G1 Z0.8 F200
Z-0.4
G2 X24 Y11.9 I2.758 J2.758
X27.9 Y8.012 I0 J-3.9
G1 Y8
G2 X21.242 Y5.242 I-3.9 J0
G0 Z4
X18.758
Z3
G1 Z0.7 F200
Z-0.5
G2 X12.1 Y8 I-2.758 J2.758
G1 Y8.012
G2 X16 Y11.9 I3.9 J-0.012
X18.758 Y5.242 I0 J-3.9
G0 Z4
Y2.758
Z3
G1 Z0.7 F200
Z-0.5
G2 X16 Y-3.9 I-2.758 J-2.758
X12.1 Y-0.012 I0 J3.9
G1 Y0
G2 X18.758 Y2.758 I3.9 J0
G0 Z4
X10.758
Z3
G1 Z0.7 F200
Z-0.5
G2 X5.242 Y-2.758 I-2.758 J-2.758
X4.1 Y0 I2.758 J2.758
X7.988 Y3.9 I3.9 J0
G1 X8
G2 X10.758 Y2.758 I0 J-3.9
G0 Z4
Y5.242
Z3
G1 Z0.7 F200
Z-0.5
G2 X8 Y4.1 I-2.758 J2.758
X8 Y11.9 I0 J3.9
X11.9 Y8 I0 J-3.9
G1 Y7.988
G2 X10.758 Y5.242 I-3.9 J0.012
G1 Z-0.6
G2 X8 Y4.1 I-2.758 J2.758
X8 Y11.9 I0 J3.9
X11.9 Y8 I0 J-3.9
G1 Y7.988
G2 X10.758 Y5.242 I-3.9 J0.012
G0 Z4
Y2.758
Z3
G1 Z0.6 F200
Z-0.6
G2 X5.242 Y-2.758 I-2.758 J-2.758
X4.1 Y0 I2.758 J2.758
X7.988 Y3.9 I3.9 J0
G1 X8
G2 X10.758 Y2.758 I0 J-3.9
G0 Z4
X29.242
Z3
G1 Z0.8 F200
Z-0.4
G2 X32 Y3.9 I2.758 J-2.758
X32 Y-3.9 I0 J-3.9
X28.1 Y0 I0 J3.9
G1 Y0.012
G2 X29.242 Y2.758 I3.9 J-0.012
G0 Z4
Y5.242
Z3
G1 Z0.8 F200
Z-0.4
G2 X34.758 Y10.758 I2.758 J2.758
X35.9 Y8 I-2.758 J-2.758
X32.012 Y4.1 I-3.9 J0
G1 X32
G2 X29.242 Y5.242 I0 J3.9
G1 Z-0.5
G2 X34.758 Y10.758 I2.758 J2.758
X35.9 Y8 I-2.758 J-2.758
X32.012 Y4.1 I-3.9 J0
G1 X32
G2 X29.242 Y5.242 I0 J3.9
G0 Z4
Y2.758
Z3
G1 Z0.7 F200
Z-0.5
G2 X32 Y3.9 I2.758 J-2.758
X32 Y-3.9 I0 J-3.9
X28.1 Y0 I0 J3.9
G1 Y0.012
G2 X29.242 Y2.758 I3.9 J-0.012
G0 Z4
X26.758
Z3
G1 Z0.7 F200
Z-0.5
G2 X21.242 Y-2.758 I-2.758 J-2.758
X20.1 Y0 I2.758 J2.758
G1 Y0.012
G2 X24 Y3.9 I3.9 J-0.012
X26.758 Y2.758 I0 J-3.9
G0 Z4
Y5.242
Z3
G1 Z0.7 F200
Z-0.5
G2 X21.242 Y10.758 I-2.758 J2.758
X24 Y11.9 I2.758 J-2.758
X27.9 Y8.012 I0 J-3.9
G1 Y8
G2 X26.758 Y5.242 I-3.9 J0
G1 Z-0.6
G2 X21.242 Y10.758 I-2.758 J2.758
X24 Y11.9 I2.758 J-2.758
X27.9 Y8.012 I0 J-3.9
G1 Y8
G2 X26.758 Y5.242 I-3.9 J0
G0 Z4
X29.242
Z3
G1 Z0.6 F200
Z-0.6
G2 X34.758 Y10.758 I2.758 J2.758
X35.9 Y8 I-2.758 J-2.758
X32.012 Y4.1 I-3.9 J0
G1 X32
G2 X29.242 Y5.242 I0 J3.9
G0 Z4
Y2.758
Z3
G1 Z0.6 F200
Z-0.6
G2 X32 Y3.9 I2.758 J-2.758
X32 Y-3.9 I0 J-3.9
X28.1 Y0 I0 J3.9
G1 Y0.012
G2 X29.242 Y2.758 I3.9 J-0.012
G0 Z4
X26.758
Z3
G1 Z0.6 F200
Z-0.6
G2 X21.242 Y-2.758 I-2.758 J-2.758
X20.1 Y0 I2.758 J2.758
G1 Y0.012
G2 X24 Y3.9 I3.9 J-0.012
X26.758 Y2.758 I0 J-3.9
G0 Z4
X29.242
Z3
G1 Z0.5 F200
Z-0.7
G2 X32 Y3.9 I2.758 J-2.758
X32 Y-3.9 I0 J-3.9
X28.1 Y0 I0 J3.9
G1 Y0.012
G2 X29.242 Y2.758 I3.9 J-0.012
G0 Z4
Y5.242
Z3
G1 Z0.5 F200
Z-0.7
G2 X34.758 Y10.758 I2.758 J2.758
X35.9 Y8 I-2.758 J-2.758
X32.012 Y4.1 I-3.9 J0
G1 X32
G2 X29.242 Y5.242 I0 J3.9
G0 Z4
X18.758
Z3
G1 Z0.6 F200
Z-0.6
G2 X12.1 Y8 I-2.758 J2.758
G1 Y8.012
G2 X16 Y11.9 I3.9 J-0.012
X18.758 Y5.242 I0 J-3.9
G0 Z4
Y2.758
Z3
G1 Z0.6 F200
Z-0.6
G2 X16 Y-3.9 I-2.758 J-2.758
X12.1 Y-0.012 I0 J3.9
G1 Y0
G2 X18.758 Y2.758 I3.9 J0
G1 Z-0.7
G2 X16 Y-3.9 I-2.758 J-2.758
X12.1 Y-0.012 I0 J3.9
G1 Y0
G2 X18.758 Y2.758 I3.9 J0
G0 Z4
X21.242
Z3
G1 Z0.5 F200
Z-0.7
G2 X24 Y3.9 I2.758 J-2.758
X24 Y-3.9 I0 J-3.9
X20.1 Y0 I0 J3.9
G1 Y0.012
G2 X21.242 Y2.758 I3.9 J-0.012
G0 Z4
Y5.242
Z3
G1 Z0.5 F200
Z-0.7
G2 X24 Y11.9 I2.758 J2.758
X27.9 Y8.012 I0 J-3.9
G1 Y8
G2 X21.242 Y5.242 I-3.9 J0
G0 Z4
X18.758
Z3
G1 Z0.5 F200
Z-0.7
G2 X12.1 Y8 I-2.758 J2.758
G1 Y8.012
G2 X16 Y11.9 I3.9 J-0.012
X18.758 Y5.242 I0 J-3.9
G0 Z4
X21.242
Z3
G1 Z0.4 F200
Z-0.8
G2 X24 Y11.9 I2.758 J2.758
X27.9 Y8.012 I0 J-3.9
G1 Y8
G2 X21.242 Y5.242 I-3.9 J0
G0 Z4
Y2.758
Z3
G1 Z0.4 F200
Z-0.8
G2 X24 Y3.9 I2.758 J-2.758
X24 Y-3.9 I0 J-3.9
X20.1 Y0 I0 J3.9
G1 Y0.012
G2 X21.242 Y2.758 I3.9 J-0.012
G0 Z4
X29.242
Z3
G1 Z0.4 F200
Z-0.8
G2 X32 Y3.9 I2.758 J-2.758
X32 Y-3.9 I0 J-3.9
X28.1 Y0 I0 J3.9
G1 Y0.012
G2 X29.242 Y2.758 I3.9 J-0.012
G0 Z4
Y5.242
Z3
G1 Z0.4 F200
Z-0.8
G2 X34.758 Y10.758 I2.758 J2.758
X35.9 Y8 I-2.758 J-2.758
X32.012 Y4.1 I-3.9 J0
G1 X32
G2 X29.242 Y5.242 I0 J3.9
G1 Z-0.9
G2 X34.758 Y10.758 I2.758 J2.758
X35.9 Y8 I-2.758 J-2.758
X32.012 Y4.1 I-3.9 J0
G1 X32
G2 X29.242 Y5.242 I0 J3.9
G0 Z4
Y2.758
Z3
G1 Z0.3 F200
Z-0.9
G2 X32 Y3.9 I2.758 J-2.758
X32 Y-3.9 I0 J-3.9
X28.1 Y0 I0 J3.9
G1 Y0.012
G2 X29.242 Y2.758 I3.9 J-0.012
G0 Z4
X10.758
Z3
G1 Z0.5 F200
Z-0.7
G2 X5.242 Y-2.758 I-2.758 J-2.758
X4.1 Y0 I2.758 J2.758
X7.988 Y3.9 I3.9 J0
G1 X8
G2 X10.758 Y2.758 I0 J-3.9
G0 Z4
Y5.242
Z3
G1 Z0.5 F200
Z-0.7
G2 X8 Y4.1 I-2.758 J2.758
X8 Y11.9 I0 J3.9
X11.9 Y8 I0 J-3.9
G1 Y7.988
G2 X10.758 Y5.242 I-3.9 J0.012
G1 Z-0.8
G2 X8 Y4.1 I-2.758 J2.758
X8 Y11.9 I0 J3.9
X11.9 Y8 I0 J-3.9
G1 Y7.988
G2 X10.758 Y5.242 I-3.9 J0.012
G0 Z4
X13.242
Z3
G1 Z0.4 F200
Z-0.8
G2 X12.1 Y8 I2.758 J2.758
G1 Y8.012
G2 X16 Y11.9 I3.9 J-0.012
X16 Y4.1 I0 J-3.9
X13.242 Y5.242 I0 J3.9
G0 Z4
Y2.758
Z3
G1 Z0.4 F200
Z-0.8
G2 X18.758 Y-2.758 I2.758 J-2.758
X16 Y-3.9 I-2.758 J2.758
X12.1 Y-0.012 I0 J3.9
G1 Y0
G2 X13.242 Y2.758 I3.9 J0
G0 Z4
X10.758
Z3
G1 Z0.4 F200
Z-0.8
G2 X5.242 Y-2.758 I-2.758 J-2.758
X4.1 Y0 I2.758 J2.758
X7.988 Y3.9 I3.9 J0
G1 X8
G2 X10.758 Y2.758 I0 J-3.9
G1 Z-0.9
G2 X5.242 Y-2.758 I-2.758 J-2.758
X4.1 Y0 I2.758 J2.758
X7.988 Y3.9 I3.9 J0
G1 X8
G2 X10.758 Y2.758 I0 J-3.9
G0 Z4
Y5.242
Z3
G1 Z0.3 F200
Z-0.9
G2 X8 Y4.1 I-2.758 J2.758
X8 Y11.9 I0 J3.9
X11.9 Y8 I0 J-3.9
G1 Y7.988
G2 X10.758 Y5.242 I-3.9 J0.012
G0 Z4
X13.242
Z3
G1 Z0.3 F200
Z-0.9
G2 X12.1 Y8 I2.758 J2.758
G1 Y8.012
G2 X16 Y11.9 I3.9 J-0.012
X16 Y4.1 I0 J-3.9
X13.242 Y5.242 I0 J3.9
G0 Z4
Y2.758
Z3
G1 Z0.3 F200
Z-0.9
G2 X18.758 Y-2.758 I2.758 J-2.758
X16 Y-3.9 I-2.758 J2.758
X12.1 Y-0.012 I0 J3.9
G1 Y0
G2 X13.242 Y2.758 I3.9 J0
G0 Z4
X10.758
Z3
G1 Z0.2 F200
Z-1
G2 X5.242 Y-2.758 I-2.758 J-2.758
X4.1 Y0 I2.758 J2.758
X7.988 Y3.9 I3.9 J0
G1 X8
G2 X10.758 Y2.758 I0 J-3.9
G0 Z4
Y5.242
Z3
G1 Z0.2 F200
Z-1
G2 X8 Y4.1 I-2.758 J2.758
X8 Y11.9 I0 J3.9
X11.9 Y8 I0 J-3.9
G1 Y7.988
G2 X10.758 Y5.242 I-3.9 J0.012
G0 Z4
X21.242
Z3
G1 Z0.3 F200
Z-0.9
G2 X24 Y11.9 I2.758 J2.758
X27.9 Y8.012 I0 J-3.9
G1 Y8
G2 X21.242 Y5.242 I-3.9 J0
G0 Z4
Y2.758
Z3
G1 Z0.3 F200
Z-0.9
G2 X24 Y3.9 I2.758 J-2.758
X24 Y-3.9 I0 J-3.9
X20.1 Y0 I0 J3.9
G1 Y0.012
G2 X21.242 Y2.758 I3.9 J-0.012
G1 Z-1
G2 X24 Y3.9 I2.758 J-2.758
X24 Y-3.9 I0 J-3.9
X20.1 Y0 I0 J3.9
G1 Y0.012
G2 X21.242 Y2.758 I3.9 J-0.012
G0 Z4
X18.758
Z3
G1 Z0.2 F200
Z-1
G2 X16 Y-3.9 I-2.758 J-2.758
X12.1 Y-0.012 I0 J3.9
G1 Y0
G2 X18.758 Y2.758 I3.9 J0
G0 Z4
Y5.242
Z3
G1 Z0.2 F200
Z-1
G2 X12.1 Y8 I-2.758 J2.758
G1 Y8.012
G2 X16 Y11.9 I3.9 J-0.012
X18.758 Y5.242 I0 J-3.9
G0 Z4
X21.242
Z3
G1 Z0.2 F200
Z-1
G2 X24 Y11.9 I2.758 J2.758
X27.9 Y8.012 I0 J-3.9
G1 Y8
G2 X21.242 Y5.242 I-3.9 J0
G0 Z4
X18.758
Z3
G1 Z0.1 F200
Z-1.1
G2 X12.1 Y8 I-2.758 J2.758
G1 Y8.012
G2 X16 Y11.9 I3.9 J-0.012
X18.758 Y5.242 I0 J-3.9
G0 Z4
Y2.758
Z3
G1 Z0.1 F200
Z-1.1
G2 X16 Y-3.9 I-2.758 J-2.758
X12.1 Y-0.012 I0 J3.9
G1 Y0
G2 X18.758 Y2.758 I3.9 J0
G0 Z4
X10.758
Z3
G1 Z0.1 F200
Z-1.1
G2 X5.242 Y-2.758 I-2.758 J-2.758
X4.1 Y0 I2.758 J2.758
X7.988 Y3.9 I3.9 J0
G1 X8
G2 X10.758 Y2.758 I0 J-3.9
G0 Z4
Y5.242
Z3
G1 Z0.1 F200
Z-1.1
G2 X8 Y4.1 I-2.758 J2.758
X8 Y11.9 I0 J3.9
X11.9 Y8 I0 J-3.9
G1 Y7.988
G2 X10.758 Y5.242 I-3.9 J0.012
G1 Z-1.2
G2 X8 Y4.1 I-2.758 J2.758
X8 Y11.9 I0 J3.9
X11.9 Y8 I0 J-3.9
G1 Y7.988
G2 X10.758 Y5.242 I-3.9 J0.012
G0 Z4
Y2.758
Z3
G1 Z0 F200
Z-1.2
G2 X5.242 Y-2.758 I-2.758 J-2.758
X4.1 Y0 I2.758 J2.758
X7.988 Y3.9 I3.9 J0
G1 X8
G2 X10.758 Y2.758 I0 J-3.9
G0 Z4
X29.242
Z3
G1 Z0.2 F200
Z-1
G2 X32 Y3.9 I2.758 J-2.758
X32 Y-3.9 I0 J-3.9
X28.1 Y0 I0 J3.9
G1 Y0.012
G2 X29.242 Y2.758 I3.9 J-0.012
G0 Z4
Y5.242
Z3
G1 Z0.2 F200
Z-1
G2 X34.758 Y10.758 I2.758 J2.758
X35.9 Y8 I-2.758 J-2.758
X32.012 Y4.1 I-3.9 J0
G1 X32
G2 X29.242 Y5.242 I0 J3.9
G1 Z-1.1
G2 X34.758 Y10.758 I2.758 J2.758
X35.9 Y8 I-2.758 J-2.758
X32.012 Y4.1 I-3.9 J0
G1 X32
G2 X29.242 Y5.242 I0 J3.9
G0 Z4
Y2.758
Z3
G1 Z0.1 F200
Z-1.1
G2 X32 Y3.9 I2.758 J-2.758
X32 Y-3.9 I0 J-3.9
X28.1 Y0 I0 J3.9
G1 Y0.012
G2 X29.242 Y2.758 I3.9 J-0.012
G0 Z4
X26.758
Z3
G1 Z0.1 F200
Z-1.1
G2 X21.242 Y-2.758 I-2.758 J-2.758
X20.1 Y0 I2.758 J2.758
G1 Y0.012
G2 X24 Y3.9 I3.9 J-0.012
X26.758 Y2.758 I0 J-3.9
G0 Z4
Y5.242
Z3
G1 Z0.1 F200
Z-1.1
G2 X21.242 Y10.758 I-2.758 J2.758
X24 Y11.9 I2.758 J-2.758
X27.9 Y8.012 I0 J-3.9
G1 Y8
G2 X26.758 Y5.242 I-3.9 J0
G1 Z-1.2
G2 X21.242 Y10.758 I-2.758 J2.758
X24 Y11.9 I2.758 J-2.758
X27.9 Y8.012 I0 J-3.9
G1 Y8
G2 X26.758 Y5.242 I-3.9 J0
G0 Z4
X29.242
Z3
G1 Z0 F200
Z-1.2
G2 X34.758 Y10.758 I2.758 J2.758
X35.9 Y8 I-2.758 J-2.758
X32.012 Y4.1 I-3.9 J0
G1 X32
G2 X29.242 Y5.242 I0 J3.9
G0 Z4
Y2.758
Z3
G1 Z0 F200
Z-1.2
G2 X32 Y3.9 I2.758 J-2.758
X32 Y-3.9 I0 J-3.9
X28.1 Y0 I0 J3.9
G1 Y0.012
G2 X29.242 Y2.758 I3.9 J-0.012
G0 Z4
X26.758
Z3
G1 Z0 F200
Z-1.2
G2 X21.242 Y-2.758 I-2.758 J-2.758
X20.1 Y0 I2.758 J2.758
G1 Y0.012
G2 X24 Y3.9 I3.9 J-0.012
X26.758 Y2.758 I0 J-3.9
G0 Z4
X29.242
Z3
G1 Z-0.1 F200
Z-1.3
G2 X32 Y3.9 I2.758 J-2.758
X32 Y-3.9 I0 J-3.9
X28.1 Y0 I0 J3.9
G1 Y0.012
G2 X29.242 Y2.758 I3.9 J-0.012
G0 Z4
Y5.242
Z3
G1 Z-0.1 F200
Z-1.3
G2 X34.758 Y10.758 I2.758 J2.758
X35.9 Y8 I-2.758 J-2.758
X32.012 Y4.1 I-3.9 J0
G1 X32
G2 X29.242 Y5.242 I0 J3.9
G0 Z4
X18.758
Z3
G1 Z0 F200
Z-1.2
G2 X12.1 Y8 I-2.758 J2.758
G1 Y8.012
G2 X16 Y11.9 I3.9 J-0.012
X18.758 Y5.242 I0 J-3.9
G0 Z4
Y2.758
Z3
G1 Z0 F200
Z-1.2
G2 X16 Y-3.9 I-2.758 J-2.758
X12.1 Y-0.012 I0 J3.9
G1 Y0
G2 X18.758 Y2.758 I3.9 J0
G1 Z-1.3
G2 X16 Y-3.9 I-2.758 J-2.758
X12.1 Y-0.012 I0 J3.9
G1 Y0
G2 X18.758 Y2.758 I3.9 J0
G0 Z4
X21.242
Z3
G1 Z-0.1 F200
Z-1.3
G2 X24 Y3.9 I2.758 J-2.758
X24 Y-3.9 I0 J-3.9
X20.1 Y0 I0 J3.9
G1 Y0.012
G2 X21.242 Y2.758 I3.9 J-0.012
G0 Z4
Y5.242
Z3
G1 Z-0.1 F200
Z-1.3
G2 X24 Y11.9 I2.758 J2.758
X27.9 Y8.012 I0 J-3.9
G1 Y8
G2 X21.242 Y5.242 I-3.9 J0
G0 Z4
X18.758
Z3
G1 Z-0.1 F200
Z-1.3
G2 X12.1 Y8 I-2.758 J2.758
G1 Y8.012
G2 X16 Y11.9 I3.9 J-0.012
X18.758 Y5.242 I0 J-3.9
G0 Z4
X21.242
Z3
G1 Z-0.2 F200
Z-1.4
G2 X24 Y11.9 I2.758 J2.758
X27.9 Y8.012 I0 J-3.9
G1 Y8
G2 X21.242 Y5.242 I-3.9 J0
G0 Z4
Y2.758
Z3
G1 Z-0.2 F200
Z-1.4
G2 X24 Y3.9 I2.758 J-2.758
X24 Y-3.9 I0 J-3.9
X20.1 Y0 I0 J3.9
G1 Y0.012
G2 X21.242 Y2.758 I3.9 J-0.012
G0 Z4
X29.242
Z3
G1 Z-0.2 F200
Z-1.4
G2 X32 Y3.9 I2.758 J-2.758
X32 Y-3.9 I0 J-3.9
X28.1 Y0 I0 J3.9
G1 Y0.012
G2 X29.242 Y2.758 I3.9 J-0.012
G0 Z4
Y5.242
Z3
G1 Z-0.2 F200
Z-1.4
G2 X34.758 Y10.758 I2.758 J2.758
X35.9 Y8 I-2.758 J-2.758
X32.012 Y4.1 I-3.9 J0
G1 X32
G2 X29.242 Y5.242 I0 J3.9
G1 Z-1.5
G2 X34.758 Y10.758 I2.758 J2.758
X35.9 Y8 I-2.758 J-2.758
X32.012 Y4.1 I-3.9 J0
G1 X32
G2 X29.242 Y5.242 I0 J3.9
G0 Z4
Y2.758
Z3
G1 Z-0.3 F200
Z-1.5
G2 X32 Y3.9 I2.758 J-2.758
X32 Y-3.9 I0 J-3.9
X28.1 Y0 I0 J3.9
G1 Y0.012
G2 X29.242 Y2.758 I3.9 J-0.012
G0 Z4
X10.758
Z3
G1 Z-0.1 F200
Z-1.3
G2 X5.242 Y-2.758 I-2.758 J-2.758
X4.1 Y0 I2.758 J2.758
X7.988 Y3.9 I3.9 J0
G1 X8
G2 X10.758 Y2.758 I0 J-3.9
G0 Z4
Y5.242
Z3
G1 Z-0.1 F200
Z-1.3
G2 X8 Y4.1 I-2.758 J2.758
X8 Y11.9 I0 J3.9
X11.9 Y8 I0 J-3.9
G1 Y7.988
G2 X10.758 Y5.242 I-3.9 J0.012
G1 Z-1.4
G2 X8 Y4.1 I-2.758 J2.758
X8 Y11.9 I0 J3.9
X11.9 Y8 I0 J-3.9
G1 Y7.988
G2 X10.758 Y5.242 I-3.9 J0.012
G0 Z4
X13.242
Z3
G1 Z-0.2 F200
Z-1.4
G2 X12.1 Y8 I2.758 J2.758
G1 Y8.012
G2 X16 Y11.9 I3.9 J-0.012
X16 Y4.1 I0 J-3.9
X13.242 Y5.242 I0 J3.9
G0 Z4
Y2.758
Z3
G1 Z-0.2 F200
Z-1.4
G2 X18.758 Y-2.758 I2.758 J-2.758
X16 Y-3.9 I-2.758 J2.758
X12.1 Y-0.012 I0 J3.9
G1 Y0
G2 X13.242 Y2.758 I3.9 J0
G0 Z4
X10.758
Z3
G1 Z-0.2 F200
Z-1.4
G2 X5.242 Y-2.758 I-2.758 J-2.758
X4.1 Y0 I2.758 J2.758
X7.988 Y3.9 I3.9 J0
G1 X8
G2 X10.758 Y2.758 I0 J-3.9
G1 Z-1.5
G2 X5.242 Y-2.758 I-2.758 J-2.758
X4.1 Y0 I2.758 J2.758
X7.988 Y3.9 I3.9 J0
G1 X8
G2 X10.758 Y2.758 I0 J-3.9
G0 Z4
Y5.242
Z3
G1 Z-0.3 F200
Z-1.5
G2 X8 Y4.1 I-2.758 J2.758
X8 Y11.9 I0 J3.9
X11.9 Y8 I0 J-3.9
G1 Y7.988
G2 X10.758 Y5.242 I-3.9 J0.012
G0 Z4
X13.242
Z3
G1 Z-0.3 F200
Z-1.5
G2 X12.1 Y8 I2.758 J2.758
G1 Y8.012
G2 X16 Y11.9 I3.9 J-0.012
X16 Y4.1 I0 J-3.9
X13.242 Y5.242 I0 J3.9
G0 Z4
Y2.758
Z3
G1 Z-0.3 F200
Z-1.5
G2 X18.758 Y-2.758 I2.758 J-2.758
X16 Y-3.9 I-2.758 J2.758
X12.1 Y-0.012 I0 J3.9
G1 Y0
G2 X13.242 Y2.758 I3.9 J0
G0 Z4
X10.758
Z3
G1 Z-0.4 F200
Z-1.6
G2 X5.242 Y-2.758 I-2.758 J-2.758
X4.1 Y0 I2.758 J2.758
X7.988 Y3.9 I3.9 J0
G1 X8
G2 X10.758 Y2.758 I0 J-3.9
G0 Z4
Y5.242
Z3
G1 Z-0.4 F200
Z-1.6
G2 X8 Y4.1 I-2.758 J2.758
X8 Y11.9 I0 J3.9
X11.9 Y8 I0 J-3.9
G1 Y7.988
G2 X10.758 Y5.242 I-3.9 J0.012
G0 Z4
X21.242
Z3
G1 Z-0.3 F200
Z-1.5
G2 X24 Y11.9 I2.758 J2.758
X27.9 Y8.012 I0 J-3.9
G1 Y8
G2 X21.242 Y5.242 I-3.9 J0
G0 Z4
Y2.758
Z3
G1 Z-0.3 F200
Z-1.5
G2 X24 Y3.9 I2.758 J-2.758
X24 Y-3.9 I0 J-3.9
X20.1 Y0 I0 J3.9
G1 Y0.012
G2 X21.242 Y2.758 I3.9 J-0.012
G1 Z-1.6
G2 X24 Y3.9 I2.758 J-2.758
X24 Y-3.9 I0 J-3.9
X20.1 Y0 I0 J3.9
G1 Y0.012
G2 X21.242 Y2.758 I3.9 J-0.012
G0 Z4
X18.758
Z3
G1 Z-0.4 F200
Z-1.6
G2 X16 Y-3.9 I-2.758 J-2.758
X12.1 Y-0.012 I0 J3.9
G1 Y0
G2 X18.758 Y2.758 I3.9 J0
G0 Z4
Y5.242
Z3
G1 Z-0.4 F200
Z-1.6
G2 X12.1 Y8 I-2.758 J2.758
G1 Y8.012
G2 X16 Y11.9 I3.9 J-0.012
X18.758 Y5.242 I0 J-3.9
G0 Z4
X21.242
Z3
G1 Z-0.4 F200
Z-1.6
G2 X24 Y11.9 I2.758 J2.758
X27.9 Y8.012 I0 J-3.9
G1 Y8
G2 X21.242 Y5.242 I-3.9 J0
G0 Z4
X29.242
Z3
G1 Z-0.4 F200
Z-1.6
G2 X34.758 Y10.758 I2.758 J2.758
X35.9 Y8 I-2.758 J-2.758
X32.012 Y4.1 I-3.9 J0
G1 X32
G2 X29.242 Y5.242 I0 J3.9
G0 Z4
Y2.758
Z3
G1 Z-0.4 F200
Z-1.6
G2 X32 Y3.9 I2.758 J-2.758
X32 Y-3.9 I0 J-3.9
X28.1 Y0 I0 J3.9
G1 Y0.012
G2 X29.242 Y2.758 I3.9 J-0.012
G0 Z10
M9
M5
M30
