(1001)
(Machine)
(  vendor: Autodesk)
(  description: Generic 3-axis)
(T3  D=3 CR=0 - ZMIN=-1.6 - flat end mill)
G90 G94
G17
G21

(2D Pocket2)
T3
S1000 M3
G54
M8
G0 X15.238 Y0.252
Z15
Z5
G1 Z2.5 F200
Z0.1
X15.219 Y0.239 Z-0.015
X15.172 Y0.195 Z-0.112
X15.143 Y0.155 Z-0.145
X15.122 Y0.112 Z-0.177
X15.105 Y0.057 Z-0.189
X15.1 Y0 Z-0.2
G3 X16.9 Y0 I0.9 J0
X15.1 Y0 I-0.9 J0
X16.9 Y0 Z-0.299 I0.9 J0 F333.3
X15.964 Y0.899 Z-0.349 I-0.9 J0
X15.103 Y-0.072 Z-0.4 I0.036 J-0.899
X16.897 Y0.072 I0.897 J0.072 F200
X15.103 Y-0.072 I-0.897 J-0.072
X16.897 Y0.072 Z-0.499 I0.897 J0.072 F333.3
X15.892 Y0.893 Z-0.549 I-0.897 J-0.072
X15.112 Y-0.144 Z-0.6 I0.108 J-0.893
X16.888 Y0.144 I0.888 J0.144 F200
X15.112 Y-0.144 I-0.888 J-0.144
X16.888 Y0.144 Z-0.699 I0.888 J0.144 F333.3
X15.82 Y0.882 Z-0.749 I-0.888 J-0.144
X15.126 Y-0.215 Z-0.8 I0.18 J-0.882
X16.874 Y0.215 I0.874 J0.215 F200
X15.126 Y-0.215 I-0.874 J-0.215
X16.874 Y0.215 Z-0.899 I0.874 J0.215 F333.3
X15.75 Y0.865 Z-0.949 I-0.874 J-0.215
X15.146 Y-0.285 Z-1 I0.25 J-0.865
X16.854 Y0.285 I0.854 J0.285 F200
X15.146 Y-0.285 I-0.854 J-0.285
X16.854 Y0.285 Z-1.099 I0.854 J0.285 F333.3
X15.681 Y0.842 Z-1.149 I-0.854 J-0.285
X15.172 Y-0.352 Z-1.2 I0.319 J-0.842
X16.828 Y0.352 I0.828 J0.352 F200
X15.172 Y-0.352 I-0.828 J-0.352
X16.828 Y0.352 Z-1.299 I0.828 J0.352 F333.3
X15.615 Y0.813 Z-1.349 I-0.828 J-0.352
X15.203 Y-0.418 Z-1.4 I0.385 J-0.813
X16.797 Y0.418 I0.797 J0.418 F200
X15.203 Y-0.418 I-0.797 J-0.418
X16.797 Y0.418 Z-1.499 I0.797 J0.418 F333.3
X15.551 Y0.78 Z-1.549 I-0.797 J-0.418
X15.239 Y-0.48 Z-1.6 I0.449 J-0.78
X16.761 Y0.48 I0.761 J0.48 F200
X15.239 Y-0.48 I-0.761 J-0.48
G1 X15.274 Y-0.526 Z-1.589
X15.317 Y-0.563 Z-1.577
X15.359 Y-0.589 Z-1.545
X15.404 Y-0.607 Z-1.512
X15.467 Y-0.619 Z-1.415
X15.49 Y-0.62 Z-1.3
G0 Z5
X16.762 Y-8.252
G1 Z2.5 F200
Z0.1
X16.781 Y-8.239 Z-0.015
X16.828 Y-8.195 Z-0.112
X16.857 Y-8.155 Z-0.145
X16.878 Y-8.112 Z-0.177
X16.895 Y-8.057 Z-0.189
X16.9 Y-8 Z-0.2
G3 X15.1 Y-8 I-0.9 J0
X16.9 Y-8 I0.9 J0
X15.1 Y-8 Z-0.299 I-0.9 J0 F333.3
X16.036 Y-8.899 Z-0.349 I0.9 J0
X16.897 Y-7.928 Z-0.4 I-0.036 J0.899
X15.103 Y-8.072 I-0.897 J-0.072 F200
X16.897 Y-7.928 I0.897 J0.072
X15.103 Y-8.072 Z-0.499 I-0.897 J-0.072 F333.3
X16.108 Y-8.893 Z-0.549 I0.897 J0.072
X16.888 Y-7.856 Z-0.6 I-0.108 J0.893
X15.112 Y-8.144 I-0.888 J-0.144 F200
X16.888 Y-7.856 I0.888 J0.144
X15.112 Y-8.144 Z-0.699 I-0.888 J-0.144 F333.3
X16.18 Y-8.882 Z-0.749 I0.888 J0.144
X16.874 Y-7.785 Z-0.8 I-0.18 J0.882
X15.126 Y-8.215 I-0.874 J-0.215 F200
X16.874 Y-7.785 I0.874 J0.215
X15.126 Y-8.215 Z-0.899 I-0.874 J-0.215 F333.3
X16.25 Y-8.865 Z-0.949 I0.874 J0.215
X16.854 Y-7.715 Z-1 I-0.25 J0.865
X15.146 Y-8.285 I-0.854 J-0.285 F200
X16.854 Y-7.715 I0.854 J0.285
X15.146 Y-8.285 Z-1.099 I-0.854 J-0.285 F333.3
X16.319 Y-8.842 Z-1.149 I0.854 J0.285
X16.828 Y-7.648 Z-1.2 I-0.319 J0.842
X15.172 Y-8.352 I-0.828 J-0.352 F200
X16.828 Y-7.648 I0.828 J0.352
X15.172 Y-8.352 Z-1.299 I-0.828 J-0.352 F333.3
X16.385 Y-8.813 Z-1.349 I0.828 J0.352
X16.797 Y-7.582 Z-1.4 I-0.385 J0.813
X15.203 Y-8.418 I-0.797 J-0.418 F200
X16.797 Y-7.582 I0.797 J0.418
X15.203 Y-8.418 Z-1.499 I-0.797 J-0.418 F333.3
X16.449 Y-8.78 Z-1.549 I0.797 J0.418
X16.761 Y-7.52 Z-1.6 I-0.449 J0.78
X15.239 Y-8.48 I-0.761 J-0.48 F200
X16.761 Y-7.52 I0.761 J0.48
G1 X16.726 Y-7.474 Z-1.589
X16.683 Y-7.437 Z-1.577
X16.641 Y-7.411 Z-1.545
X16.596 Y-7.393 Z-1.512
X16.533 Y-7.381 Z-1.415
X16.51 Y-7.38 Z-1.3
G0 Z5
X24.762 Y-8.252
G1 Z2.5 F200
Z0.1
X24.781 Y-8.239 Z-0.015
X24.828 Y-8.195 Z-0.112
X24.857 Y-8.155 Z-0.145
X24.878 Y-8.112 Z-0.177
X24.895 Y-8.057 Z-0.189
X24.9 Y-8 Z-0.2
G3 X23.1 Y-8 I-0.9 J0
X24.9 Y-8 I0.9 J0
X23.1 Y-8 Z-0.299 I-0.9 J0 F333.3
X24.036 Y-8.899 Z-0.349 I0.9 J0
X24.897 Y-7.928 Z-0.4 I-0.036 J0.899
X23.103 Y-8.072 I-0.897 J-0.072 F200
X24.897 Y-7.928 I0.897 J0.072
X23.103 Y-8.072 Z-0.499 I-0.897 J-0.072 F333.3
X24.108 Y-8.893 Z-0.549 I0.897 J0.072
X24.888 Y-7.856 Z-0.6 I-0.108 J0.893
X23.112 Y-8.144 I-0.888 J-0.144 F200
X24.888 Y-7.856 I0.888 J0.144
X23.112 Y-8.144 Z-0.699 I-0.888 J-0.144 F333.3
X24.18 Y-8.882 Z-0.749 I0.888 J0.144
X24.874 Y-7.785 Z-0.8 I-0.18 J0.882
X23.126 Y-8.215 I-0.874 J-0.215 F200
X24.874 Y-7.785 I0.874 J0.215
X23.126 Y-8.215 Z-0.899 I-0.874 J-0.215 F333.3
X24.25 Y-8.865 Z-0.949 I0.874 J0.215
X24.854 Y-7.715 Z-1 I-0.25 J0.865
X23.146 Y-8.285 I-0.854 J-0.285 F200
X24.854 Y-7.715 I0.854 J0.285
X23.146 Y-8.285 Z-1.099 I-0.854 J-0.285 F333.3
X24.319 Y-8.842 Z-1.149 I0.854 J0.285
X24.828 Y-7.648 Z-1.2 I-0.319 J0.842
X23.172 Y-8.352 I-0.828 J-0.352 F200
X24.828 Y-7.648 I0.828 J0.352
X23.172 Y-8.352 Z-1.299 I-0.828 J-0.352 F333.3
X24.385 Y-8.813 Z-1.349 I0.828 J0.352
X24.797 Y-7.582 Z-1.4 I-0.385 J0.813
X23.203 Y-8.418 I-0.797 J-0.418 F200
X24.797 Y-7.582 I0.797 J0.418
X23.203 Y-8.418 Z-1.499 I-0.797 J-0.418 F333.3
X24.449 Y-8.78 Z-1.549 I0.797 J0.418
X24.761 Y-7.52 Z-1.6 I-0.449 J0.78
X23.239 Y-8.48 I-0.761 J-0.48 F200
X24.761 Y-7.52 I0.761 J0.48
G1 X24.726 Y-7.474 Z-1.589
X24.683 Y-7.437 Z-1.577
X24.641 Y-7.411 Z-1.545
X24.596 Y-7.393 Z-1.512
X24.533 Y-7.381 Z-1.415
X24.51 Y-7.38 Z-1.3
G0 Z5
X23.238 Y0.252
G1 Z2.5 F200
Z0.1
X23.219 Y0.239 Z-0.015
X23.172 Y0.195 Z-0.112
X23.143 Y0.155 Z-0.145
X23.122 Y0.112 Z-0.177
X23.105 Y0.057 Z-0.189
X23.1 Y0 Z-0.2
G3 X24.9 Y0 I0.9 J0
X23.1 Y0 I-0.9 J0
X24.9 Y0 Z-0.299 I0.9 J0 F333.3
X23.964 Y0.899 Z-0.349 I-0.9 J0
X23.103 Y-0.072 Z-0.4 I0.036 J-0.899
X24.897 Y0.072 I0.897 J0.072 F200
X23.103 Y-0.072 I-0.897 J-0.072
X24.897 Y0.072 Z-0.499 I0.897 J0.072 F333.3
X23.892 Y0.893 Z-0.549 I-0.897 J-0.072
X23.112 Y-0.144 Z-0.6 I0.108 J-0.893
X24.888 Y0.144 I0.888 J0.144 F200
X23.112 Y-0.144 I-0.888 J-0.144
X24.888 Y0.144 Z-0.699 I0.888 J0.144 F333.3
X23.82 Y0.882 Z-0.749 I-0.888 J-0.144
X23.126 Y-0.215 Z-0.8 I0.18 J-0.882
X24.874 Y0.215 I0.874 J0.215 F200
X23.126 Y-0.215 I-0.874 J-0.215
X24.874 Y0.215 Z-0.899 I0.874 J0.215 F333.3
X23.75 Y0.865 Z-0.949 I-0.874 J-0.215
X23.146 Y-0.285 Z-1 I0.25 J-0.865
X24.854 Y0.285 I0.854 J0.285 F200
X23.146 Y-0.285 I-0.854 J-0.285
X24.854 Y0.285 Z-1.099 I0.854 J0.285 F333.3
X23.681 Y0.842 Z-1.149 I-0.854 J-0.285
X23.172 Y-0.352 Z-1.2 I0.319 J-0.842
X24.828 Y0.352 I0.828 J0.352 F200
X23.172 Y-0.352 I-0.828 J-0.352
X24.828 Y0.352 Z-1.299 I0.828 J0.352 F333.3
X23.615 Y0.813 Z-1.349 I-0.828 J-0.352
X23.203 Y-0.418 Z-1.4 I0.385 J-0.813
X24.797 Y0.418 I0.797 J0.418 F200
X23.203 Y-0.418 I-0.797 J-0.418
X24.797 Y0.418 Z-1.499 I0.797 J0.418 F333.3
X23.551 Y0.78 Z-1.549 I-0.797 J-0.418
X23.239 Y-0.48 Z-1.6 I0.449 J-0.78
X24.761 Y0.48 I0.761 J0.48 F200
X23.239 Y-0.48 I-0.761 J-0.48
G1 X23.274 Y-0.526 Z-1.589
X23.317 Y-0.563 Z-1.577
X23.359 Y-0.589 Z-1.545
X23.404 Y-0.607 Z-1.512
X23.467 Y-0.619 Z-1.415
X23.49 Y-0.62 Z-1.3
G0 Z5
X7.238 Y0.252
G1 Z2.5 F200
Z0.1
X7.219 Y0.239 Z-0.015
X7.172 Y0.195 Z-0.112
X7.143 Y0.155 Z-0.145
X7.122 Y0.112 Z-0.177
X7.105 Y0.057 Z-0.189
X7.1 Y0 Z-0.2
G3 X8.9 Y0 I0.9 J0
X7.1 Y0 I-0.9 J0
X8.9 Y0 Z-0.299 I0.9 J0 F333.3
X7.964 Y0.899 Z-0.349 I-0.9 J0
X7.103 Y-0.072 Z-0.4 I0.036 J-0.899
X8.897 Y0.072 I0.897 J0.072 F200
X7.103 Y-0.072 I-0.897 J-0.072
X8.897 Y0.072 Z-0.499 I0.897 J0.072 F333.3
X7.892 Y0.893 Z-0.549 I-0.897 J-0.072
X7.112 Y-0.144 Z-0.6 I0.108 J-0.893
X8.888 Y0.144 I0.888 J0.144 F200
X7.112 Y-0.144 I-0.888 J-0.144
X8.888 Y0.144 Z-0.699 I0.888 J0.144 F333.3
X7.82 Y0.882 Z-0.749 I-0.888 J-0.144
X7.126 Y-0.215 Z-0.8 I0.18 J-0.882
X8.874 Y0.215 I0.874 J0.215 F200
X7.126 Y-0.215 I-0.874 J-0.215
X8.874 Y0.215 Z-0.899 I0.874 J0.215 F333.3
X7.75 Y0.865 Z-0.949 I-0.874 J-0.215
X7.146 Y-0.285 Z-1 I0.25 J-0.865
X8.854 Y0.285 I0.854 J0.285 F200
X7.146 Y-0.285 I-0.854 J-0.285
X8.854 Y0.285 Z-1.099 I0.854 J0.285 F333.3
X7.681 Y0.842 Z-1.149 I-0.854 J-0.285
X7.172 Y-0.352 Z-1.2 I0.319 J-0.842
X8.828 Y0.352 I0.828 J0.352 F200
X7.172 Y-0.352 I-0.828 J-0.352
X8.828 Y0.352 Z-1.299 I0.828 J0.352 F333.3
X7.615 Y0.813 Z-1.349 I-0.828 J-0.352
X7.203 Y-0.418 Z-1.4 I0.385 J-0.813
X8.797 Y0.418 I0.797 J0.418 F200
X7.203 Y-0.418 I-0.797 J-0.418
X8.797 Y0.418 Z-1.499 I0.797 J0.418 F333.3
X7.551 Y0.78 Z-1.549 I-0.797 J-0.418
X7.239 Y-0.48 Z-1.6 I0.449 J-0.78
X8.761 Y0.48 I0.761 J0.48 F200
X7.239 Y-0.48 I-0.761 J-0.48
G1 X7.274 Y-0.526 Z-1.589
X7.317 Y-0.563 Z-1.577
X7.359 Y-0.589 Z-1.545
X7.404 Y-0.607 Z-1.512
X7.467 Y-0.619 Z-1.415
X7.49 Y-0.62 Z-1.3
G0 Z5
X7.748 Y-8.762
G1 Z2.5 F200
Z0.1
X7.761 Y-8.781 Z-0.015
X7.805 Y-8.828 Z-0.112
X7.845 Y-8.857 Z-0.145
X7.888 Y-8.878 Z-0.177
X7.943 Y-8.895 Z-0.189
X8 Y-8.9 Z-0.2
G3 X8 Y-7.1 I0 J0.9
X8 Y-8.9 I0 J-0.9
X8 Y-7.1 Z-0.299 I0 J0.9 F333.3
X7.101 Y-8.036 Z-0.349 I0 J-0.9
X8.072 Y-8.897 Z-0.4 I0.899 J0.036
X7.928 Y-7.103 I-0.072 J0.897 F200
X8.072 Y-8.897 I0.072 J-0.897
X7.928 Y-7.103 Z-0.499 I-0.072 J0.897 F333.3
X7.107 Y-8.108 Z-0.549 I0.072 J-0.897
X8.144 Y-8.888 Z-0.6 I0.893 J0.108
X7.856 Y-7.112 I-0.144 J0.888 F200
X8.144 Y-8.888 I0.144 J-0.888
X7.856 Y-7.112 Z-0.699 I-0.144 J0.888 F333.3
X7.118 Y-8.18 Z-0.749 I0.144 J-0.888
X8.215 Y-8.874 Z-0.8 I0.882 J0.18
X7.785 Y-7.126 I-0.215 J0.874 F200
X8.215 Y-8.874 I0.215 J-0.874
X7.785 Y-7.126 Z-0.899 I-0.215 J0.874 F333.3
X7.135 Y-8.25 Z-0.949 I0.215 J-0.874
X8.285 Y-8.854 Z-1 I0.865 J0.25
X7.715 Y-7.146 I-0.285 J0.854 F200
X8.285 Y-8.854 I0.285 J-0.854
X7.715 Y-7.146 Z-1.099 I-0.285 J0.854 F333.3
X7.158 Y-8.319 Z-1.149 I0.285 J-0.854
X8.352 Y-8.828 Z-1.2 I0.842 J0.319
X7.648 Y-7.172 I-0.352 J0.828 F200
X8.352 Y-8.828 I0.352 J-0.828
X7.648 Y-7.172 Z-1.299 I-0.352 J0.828 F333.3
X7.187 Y-8.385 Z-1.349 I0.352 J-0.828
X8.418 Y-8.797 Z-1.4 I0.813 J0.385
X7.582 Y-7.203 I-0.418 J0.797 F200
X8.418 Y-8.797 I0.418 J-0.797
X7.582 Y-7.203 Z-1.499 I-0.418 J0.797 F333.3
X7.22 Y-8.449 Z-1.549 I0.418 J-0.797
X8.48 Y-8.761 Z-1.6 I0.78 J0.449
X7.52 Y-7.239 I-0.48 J0.761 F200
X8.48 Y-8.761 I0.48 J-0.761
G1 X8.526 Y-8.726 Z-1.589
X8.563 Y-8.683 Z-1.577
X8.589 Y-8.641 Z-1.545
X8.607 Y-8.596 Z-1.512
X8.619 Y-8.533 Z-1.415
X8.62 Y-8.51 Z-1.3
G0 Z5
X-0.762 Y-7.748
G1 Z2.5 F200
Z0.1
X-0.781 Y-7.761 Z-0.015
X-0.828 Y-7.805 Z-0.112
X-0.857 Y-7.845 Z-0.145
X-0.878 Y-7.888 Z-0.177
X-0.895 Y-7.943 Z-0.189
X-0.9 Y-8 Z-0.2
G3 X0.9 Y-8 I0.9 J0
X-0.9 Y-8 I-0.9 J0
X0.9 Y-8 Z-0.299 I0.9 J0 F333.3
X-0.036 Y-7.101 Z-0.349 I-0.9 J0
X-0.897 Y-8.072 Z-0.4 I0.036 J-0.899
X0.897 Y-7.928 I0.897 J0.072 F200
X-0.897 Y-8.072 I-0.897 J-0.072
X0.897 Y-7.928 Z-0.499 I0.897 J0.072 F333.3
X-0.108 Y-7.107 Z-0.549 I-0.897 J-0.072
X-0.888 Y-8.144 Z-0.6 I0.108 J-0.893
X0.888 Y-7.856 I0.888 J0.144 F200
X-0.888 Y-8.144 I-0.888 J-0.144
X0.888 Y-7.856 Z-0.699 I0.888 J0.144 F333.3
X-0.18 Y-7.118 Z-0.749 I-0.888 J-0.144
X-0.874 Y-8.215 Z-0.8 I0.18 J-0.882
X0.874 Y-7.785 I0.874 J0.215 F200
X-0.874 Y-8.215 I-0.874 J-0.215
X0.874 Y-7.785 Z-0.899 I0.874 J0.215 F333.3
X-0.25 Y-7.135 Z-0.949 I-0.874 J-0.215
X-0.854 Y-8.285 Z-1 I0.25 J-0.865
X0.854 Y-7.715 I0.854 J0.285 F200
X-0.854 Y-8.285 I-0.854 J-0.285
X0.854 Y-7.715 Z-1.099 I0.854 J0.285 F333.3
X-0.319 Y-7.158 Z-1.149 I-0.854 J-0.285
X-0.828 Y-8.352 Z-1.2 I0.319 J-0.842
X0.828 Y-7.648 I0.828 J0.352 F200
X-0.828 Y-8.352 I-0.828 J-0.352
X0.828 Y-7.648 Z-1.299 I0.828 J0.352 F333.3
X-0.385 Y-7.187 Z-1.349 I-0.828 J-0.352
X-0.797 Y-8.418 Z-1.4 I0.385 J-0.813
X0.797 Y-7.582 I0.797 J0.418 F200
X-0.797 Y-8.418 I-0.797 J-0.418
X0.797 Y-7.582 Z-1.499 I0.797 J0.418 F333.3
X-0.449 Y-7.22 Z-1.549 I-0.797 J-0.418
X-0.761 Y-8.48 Z-1.6 I0.449 J-0.78
X0.761 Y-7.52 I0.761 J0.48 F200
X-0.761 Y-8.48 I-0.761 J-0.48
G1 X-0.726 Y-8.526 Z-1.589
X-0.683 Y-8.563 Z-1.577
X-0.641 Y-8.589 Z-1.545
X-0.596 Y-8.607 Z-1.512
X-0.533 Y-8.619 Z-1.415
X-0.51 Y-8.62 Z-1.3
G0 Z5
X-0.762 Y0.252
G1 Z2.5 F200
Z0.1
X-0.781 Y0.239 Z-0.015
X-0.828 Y0.195 Z-0.112
X-0.857 Y0.155 Z-0.145
X-0.878 Y0.112 Z-0.177
X-0.895 Y0.057 Z-0.189
X-0.9 Y0 Z-0.2
G3 X0.9 Y0 I0.9 J0
X-0.9 Y0 I-0.9 J0
X0.9 Y0 Z-0.299 I0.9 J0 F333.3
X-0.036 Y0.899 Z-0.349 I-0.9 J0
X-0.897 Y-0.072 Z-0.4 I0.036 J-0.899
X0.897 Y0.072 I0.897 J0.072 F200
X-0.897 Y-0.072 I-0.897 J-0.072
X0.897 Y0.072 Z-0.499 I0.897 J0.072 F333.3
X-0.108 Y0.893 Z-0.549 I-0.897 J-0.072
X-0.888 Y-0.144 Z-0.6 I0.108 J-0.893
X0.888 Y0.144 I0.888 J0.144 F200
X-0.888 Y-0.144 I-0.888 J-0.144
X0.888 Y0.144 Z-0.699 I0.888 J0.144 F333.3
X-0.18 Y0.882 Z-0.749 I-0.888 J-0.144
X-0.874 Y-0.215 Z-0.8 I0.18 J-0.882
X0.874 Y0.215 I0.874 J0.215 F200
X-0.874 Y-0.215 I-0.874 J-0.215
X0.874 Y0.215 Z-0.899 I0.874 J0.215 F333.3
X-0.25 Y0.865 Z-0.949 I-0.874 J-0.215
X-0.854 Y-0.285 Z-1 I0.25 J-0.865
X0.854 Y0.285 I0.854 J0.285 F200
X-0.854 Y-0.285 I-0.854 J-0.285
X0.854 Y0.285 Z-1.099 I0.854 J0.285 F333.3
X-0.319 Y0.842 Z-1.149 I-0.854 J-0.285
X-0.828 Y-0.352 Z-1.2 I0.319 J-0.842
X0.828 Y0.352 I0.828 J0.352 F200
X-0.828 Y-0.352 I-0.828 J-0.352
X0.828 Y0.352 Z-1.299 I0.828 J0.352 F333.3
X-0.385 Y0.813 Z-1.349 I-0.828 J-0.352
X-0.797 Y-0.418 Z-1.4 I0.385 J-0.813
X0.797 Y0.418 I0.797 J0.418 F200
X-0.797 Y-0.418 I-0.797 J-0.418
X0.797 Y0.418 Z-1.499 I0.797 J0.418 F333.3
X-0.449 Y0.78 Z-1.549 I-0.797 J-0.418
X-0.761 Y-0.48 Z-1.6 I0.449 J-0.78
X0.761 Y0.48 I0.761 J0.48 F200
X-0.761 Y-0.48 I-0.761 J-0.48
G1 X-0.726 Y-0.526 Z-1.589
X-0.683 Y-0.563 Z-1.577
X-0.641 Y-0.589 Z-1.545
X-0.596 Y-0.607 Z-1.512
X-0.533 Y-0.619 Z-1.415
X-0.51 Y-0.62 Z-1.3
G0 Z15
M9
M5
M30
