(1001)
(Machine)
(  vendor: Autodesk)
(  description: Generic 3-axis)
(T3  D=3 CR=0 - ZMIN=-4 - flat end mill)
G90 G94
G17
G21

(2D Contour4)
T3
S1000 M3
G54
M8
G0 X-65.3 Y52.4
Z15
Z4.5
G1 Z1.7 F200
Z-1.4
G19 G2 Y52.1 Z-1.7 J-0.3 K0 F250
G1 Y51.8
G17 G3 X-65 Y51.5 I0.3 J0
G1 X65
G2 X76.5 Y40 I0 J-11.5
G1 Y-40
G2 X65 Y-51.5 I-11.5 J0
G1 X-65
G2 X-76.5 Y-40 I0 J11.5
G1 Y40
G2 X-65 Y51.5 I11.5 J0
G3 X-64.7 Y51.8 I0 J0.3
G1 Y52.1
G19 G3 Y52.4 Z-1.4 J0 K0.3
G0 Z5
X-65.3
Z4.5
G1 Z0.5 F200
Z-2.6
G2 Y52.1 Z-2.9 J-0.3 K0 F250
G1 Y51.8
G17 G3 X-65 Y51.5 I0.3 J0
G1 X65
G2 X76.5 Y40 I0 J-11.5
G1 Y-40
G2 X65 Y-51.5 I-11.5 J0
G1 X-65
G2 X-76.5 Y-40 I0 J11.5
G1 Y40
G2 X-65 Y51.5 I11.5 J0
G3 X-64.7 Y51.8 I0 J0.3
G1 Y52.1
G19 G3 Y52.4 Z-2.6 J0 K0.3
G0 Z5
X-65.3
Z4.5
G1 Z-0.7 F200
Z-3.7
G2 Y52.1 Z-4 J-0.3 K0 F250
G1 Y51.8
G17 G3 X-65 Y51.5 I0.3 J0
G1 X65
G2 X76.5 Y40 I0 J-11.5
G1 Y-40
G2 X65 Y-51.5 I-11.5 J0
G1 X-65
G2 X-76.5 Y-40 I0 J11.5
G1 Y40
G2 X-65 Y51.5 I11.5 J0
G3 X-64.7 Y51.8 I0 J0.3
G1 Y52.1
G19 G3 Y52.4 Z-3.7 J0 K0.3
G0 Z15
G17
M9
M5
M30
