(1001)
(Machine)
(  vendor: Autodesk)
(  description: Generic 3-axis)
(T3  D=3 CR=0 - ZMIN=-7.4 - flat end mill)
G90 G94
G17
G21

(2D Contour7)
T3
S1000 M3
G54
M8
G0 X-16.924 Y47.7
Z17
Z7
G1 Z3.3 F200
Z2
X-16.916 Z1.933 F250
X-16.894 Y47.701 Z1.87
X-16.859 Y47.702 Z1.813
X-16.811 Y47.703 Z1.765
X-16.754 Y47.704 Z1.73
X-16.691 Y47.706 Z1.708
X-16.624 Y47.707 Z1.7
X-16.324 Y47.715
G3 X-16.032 Y48.022 I-0.007 J0.3
X-19.031 Y47.948 I-1.5 J-0.037
X-16.032 Y48.022 I1.5 J0.037
X-16.339 Y48.315 I-0.3 J-0.007
G1 X-16.639 Y48.307
X-16.706 Y48.306 Z1.708
X-16.769 Y48.304 Z1.73
X-16.826 Y48.303 Z1.765
X-16.873 Y48.302 Z1.813
X-16.909 Y48.301 Z1.87
X-16.931 Y48.3 Z1.933
X-16.939 Z2
G0 Z7
X-16.924 Y47.7
G1 Z3 F200
Z1.7
X-16.916 Z1.633 F250
X-16.894 Y47.701 Z1.57
X-16.859 Y47.702 Z1.513
X-16.811 Y47.703 Z1.465
X-16.754 Y47.704 Z1.43
X-16.691 Y47.706 Z1.408
X-16.624 Y47.707 Z1.4
X-16.324 Y47.715
G3 X-16.032 Y48.022 I-0.007 J0.3
X-19.031 Y47.948 I-1.5 J-0.037
X-16.032 Y48.022 I1.5 J0.037
X-16.339 Y48.315 I-0.3 J-0.007
G1 X-16.639 Y48.307
X-16.706 Y48.306 Z1.408
X-16.769 Y48.304 Z1.43
X-16.826 Y48.303 Z1.465
X-16.873 Y48.302 Z1.513
X-16.909 Y48.301 Z1.57
X-16.931 Y48.3 Z1.633
X-16.939 Z1.7
G0 Z7
X-16.924 Y47.7
G1 Z2.7 F200
Z1.4
X-16.916 Z1.333 F250
X-16.894 Y47.701 Z1.27
X-16.859 Y47.702 Z1.213
X-16.811 Y47.703 Z1.165
X-16.754 Y47.704 Z1.13
X-16.691 Y47.706 Z1.108
X-16.624 Y47.707 Z1.1
X-16.324 Y47.715
G3 X-16.032 Y48.022 I-0.007 J0.3
X-19.031 Y47.948 I-1.5 J-0.037
X-16.032 Y48.022 I1.5 J0.037
X-16.339 Y48.315 I-0.3 J-0.007
G1 X-16.639 Y48.307
X-16.706 Y48.306 Z1.108
X-16.769 Y48.304 Z1.13
X-16.826 Y48.303 Z1.165
X-16.873 Y48.302 Z1.213
X-16.909 Y48.301 Z1.27
X-16.931 Y48.3 Z1.333
X-16.939 Z1.4
G0 Z7
X-16.924 Y47.7
G1 Z2.4 F200
Z1.1
X-16.916 Z1.033 F250
X-16.894 Y47.701 Z0.97
X-16.859 Y47.702 Z0.913
X-16.811 Y47.703 Z0.865
X-16.754 Y47.704 Z0.83
X-16.691 Y47.706 Z0.808
X-16.624 Y47.707 Z0.8
X-16.324 Y47.715
G3 X-16.032 Y48.022 I-0.007 J0.3
X-19.031 Y47.948 I-1.5 J-0.037
X-16.032 Y48.022 I1.5 J0.037
X-16.339 Y48.315 I-0.3 J-0.007
G1 X-16.639 Y48.307
X-16.706 Y48.306 Z0.808
X-16.769 Y48.304 Z0.83
X-16.826 Y48.303 Z0.865
X-16.873 Y48.302 Z0.913
X-16.909 Y48.301 Z0.97
X-16.931 Y48.3 Z1.033
X-16.939 Z1.1
G0 Z7
X-16.924 Y47.7
G1 Z2.1 F200
Z0.8
X-16.916 Z0.733 F250
X-16.894 Y47.701 Z0.67
X-16.859 Y47.702 Z0.613
X-16.811 Y47.703 Z0.565
X-16.754 Y47.704 Z0.53
X-16.691 Y47.706 Z0.508
X-16.624 Y47.707 Z0.5
X-16.324 Y47.715
G3 X-16.032 Y48.022 I-0.007 J0.3
X-19.031 Y47.948 I-1.5 J-0.037
X-16.032 Y48.022 I1.5 J0.037
X-16.339 Y48.315 I-0.3 J-0.007
G1 X-16.639 Y48.307
X-16.706 Y48.306 Z0.508
X-16.769 Y48.304 Z0.53
X-16.826 Y48.303 Z0.565
X-16.873 Y48.302 Z0.613
X-16.909 Y48.301 Z0.67
X-16.931 Y48.3 Z0.733
X-16.939 Z0.8
G0 Z7
X-16.924 Y47.7
G1 Z1.8 F200
Z0.5
X-16.916 Z0.433 F250
X-16.894 Y47.701 Z0.37
X-16.859 Y47.702 Z0.313
X-16.811 Y47.703 Z0.265
X-16.754 Y47.704 Z0.23
X-16.691 Y47.706 Z0.208
X-16.624 Y47.707 Z0.2
X-16.324 Y47.715
G3 X-16.032 Y48.022 I-0.007 J0.3
X-19.031 Y47.948 I-1.5 J-0.037
X-16.032 Y48.022 I1.5 J0.037
X-16.339 Y48.315 I-0.3 J-0.007
G1 X-16.639 Y48.307
X-16.706 Y48.306 Z0.208
X-16.769 Y48.304 Z0.23
X-16.826 Y48.303 Z0.265
X-16.873 Y48.302 Z0.313
X-16.909 Y48.301 Z0.37
X-16.931 Y48.3 Z0.433
X-16.939 Z0.5
G0 Z7
X-16.924 Y47.7
G1 Z1.5 F200
Z0.2
X-16.916 Z0.133 F250
X-16.894 Y47.701 Z0.07
X-16.859 Y47.702 Z0.013
X-16.811 Y47.703 Z-0.035
X-16.754 Y47.704 Z-0.07
X-16.691 Y47.706 Z-0.092
X-16.624 Y47.707 Z-0.1
X-16.324 Y47.715
G3 X-16.032 Y48.022 I-0.007 J0.3
X-19.031 Y47.948 I-1.5 J-0.037
X-16.032 Y48.022 I1.5 J0.037
X-16.339 Y48.315 I-0.3 J-0.007
G1 X-16.639 Y48.307
X-16.706 Y48.306 Z-0.092
X-16.769 Y48.304 Z-0.07
X-16.826 Y48.303 Z-0.035
X-16.873 Y48.302 Z0.013
X-16.909 Y48.301 Z0.07
X-16.931 Y48.3 Z0.133
X-16.939 Z0.2
G0 Z7
X-16.924 Y47.7
G1 Z1.2 F200
Z-0.1
X-16.916 Z-0.167 F250
X-16.894 Y47.701 Z-0.23
X-16.859 Y47.702 Z-0.287
X-16.811 Y47.703 Z-0.335
X-16.754 Y47.704 Z-0.37
X-16.691 Y47.706 Z-0.392
X-16.624 Y47.707 Z-0.4
X-16.324 Y47.715
G3 X-16.032 Y48.022 I-0.007 J0.3
X-19.031 Y47.948 I-1.5 J-0.037
X-16.032 Y48.022 I1.5 J0.037
X-16.339 Y48.315 I-0.3 J-0.007
G1 X-16.639 Y48.307
X-16.706 Y48.306 Z-0.392
X-16.769 Y48.304 Z-0.37
X-16.826 Y48.303 Z-0.335
X-16.873 Y48.302 Z-0.287
X-16.909 Y48.301 Z-0.23
X-16.931 Y48.3 Z-0.167
X-16.939 Z-0.1
G0 Z7
X-16.924 Y47.7
G1 Z0.9 F200
Z-0.4
X-16.916 Z-0.467 F250
X-16.894 Y47.701 Z-0.53
X-16.859 Y47.702 Z-0.587
X-16.811 Y47.703 Z-0.635
X-16.754 Y47.704 Z-0.67
X-16.691 Y47.706 Z-0.692
X-16.624 Y47.707 Z-0.7
X-16.324 Y47.715
G3 X-16.032 Y48.022 I-0.007 J0.3
X-19.031 Y47.948 I-1.5 J-0.037
X-16.032 Y48.022 I1.5 J0.037
X-16.339 Y48.315 I-0.3 J-0.007
G1 X-16.639 Y48.307
X-16.706 Y48.306 Z-0.692
X-16.769 Y48.304 Z-0.67
X-16.826 Y48.303 Z-0.635
X-16.873 Y48.302 Z-0.587
X-16.909 Y48.301 Z-0.53
X-16.931 Y48.3 Z-0.467
X-16.939 Z-0.4
G0 Z7
X-16.924 Y47.7
G1 Z0.6 F200
Z-0.7
X-16.916 Z-0.767 F250
X-16.894 Y47.701 Z-0.83
X-16.859 Y47.702 Z-0.887
X-16.811 Y47.703 Z-0.935
X-16.754 Y47.704 Z-0.97
X-16.691 Y47.706 Z-0.992
X-16.624 Y47.707 Z-1
X-16.324 Y47.715
G3 X-16.032 Y48.022 I-0.007 J0.3
X-19.031 Y47.948 I-1.5 J-0.037
X-16.032 Y48.022 I1.5 J0.037
X-16.339 Y48.315 I-0.3 J-0.007
G1 X-16.639 Y48.307
X-16.706 Y48.306 Z-0.992
X-16.769 Y48.304 Z-0.97
X-16.826 Y48.303 Z-0.935
X-16.873 Y48.302 Z-0.887
X-16.909 Y48.301 Z-0.83
X-16.931 Y48.3 Z-0.767
X-16.939 Z-0.7
G0 Z7
X-16.924 Y47.7
G1 Z0.3 F200
Z-1
X-16.916 Z-1.067 F250
X-16.894 Y47.701 Z-1.13
X-16.859 Y47.702 Z-1.187
X-16.811 Y47.703 Z-1.235
X-16.754 Y47.704 Z-1.27
X-16.691 Y47.706 Z-1.292
X-16.624 Y47.707 Z-1.3
X-16.324 Y47.715
G3 X-16.032 Y48.022 I-0.007 J0.3
X-19.031 Y47.948 I-1.5 J-0.037
X-16.032 Y48.022 I1.5 J0.037
X-16.339 Y48.315 I-0.3 J-0.007
G1 X-16.639 Y48.307
X-16.706 Y48.306 Z-1.292
X-16.769 Y48.304 Z-1.27
X-16.826 Y48.303 Z-1.235
X-16.873 Y48.302 Z-1.187
X-16.909 Y48.301 Z-1.13
X-16.931 Y48.3 Z-1.067
X-16.939 Z-1
G0 Z7
X-16.924 Y47.7
G1 Z0 F200
Z-1.3
X-16.916 Z-1.367 F250
X-16.894 Y47.701 Z-1.43
X-16.859 Y47.702 Z-1.487
X-16.811 Y47.703 Z-1.535
X-16.754 Y47.704 Z-1.57
X-16.691 Y47.706 Z-1.592
X-16.624 Y47.707 Z-1.6
X-16.324 Y47.715
G3 X-16.032 Y48.022 I-0.007 J0.3
X-19.031 Y47.948 I-1.5 J-0.037
X-16.032 Y48.022 I1.5 J0.037
X-16.339 Y48.315 I-0.3 J-0.007
G1 X-16.639 Y48.307
X-16.706 Y48.306 Z-1.592
X-16.769 Y48.304 Z-1.57
X-16.826 Y48.303 Z-1.535
X-16.873 Y48.302 Z-1.487
X-16.909 Y48.301 Z-1.43
X-16.931 Y48.3 Z-1.367
X-16.939 Z-1.3
G0 Z7
X-16.924 Y47.7
G1 Z-0.3 F200
Z-1.6
X-16.916 Z-1.667 F250
X-16.894 Y47.701 Z-1.73
X-16.859 Y47.702 Z-1.787
X-16.811 Y47.703 Z-1.835
X-16.754 Y47.704 Z-1.87
X-16.691 Y47.706 Z-1.892
X-16.624 Y47.707 Z-1.9
X-16.324 Y47.715
G3 X-16.032 Y48.022 I-0.007 J0.3
X-19.031 Y47.948 I-1.5 J-0.037
X-16.032 Y48.022 I1.5 J0.037
X-16.339 Y48.315 I-0.3 J-0.007
G1 X-16.639 Y48.307
X-16.706 Y48.306 Z-1.892
X-16.769 Y48.304 Z-1.87
X-16.826 Y48.303 Z-1.835
X-16.873 Y48.302 Z-1.787
X-16.909 Y48.301 Z-1.73
X-16.931 Y48.3 Z-1.667
X-16.939 Z-1.6
G0 Z7
X-16.924 Y47.7
G1 Z-0.6 F200
Z-1.9
X-16.916 Z-1.967 F250
X-16.894 Y47.701 Z-2.03
X-16.859 Y47.702 Z-2.087
X-16.811 Y47.703 Z-2.135
X-16.754 Y47.704 Z-2.17
X-16.691 Y47.706 Z-2.192
X-16.624 Y47.707 Z-2.2
X-16.324 Y47.715
G3 X-16.032 Y48.022 I-0.007 J0.3
X-19.031 Y47.948 I-1.5 J-0.037
X-16.032 Y48.022 I1.5 J0.037
X-16.339 Y48.315 I-0.3 J-0.007
G1 X-16.639 Y48.307
X-16.706 Y48.306 Z-2.192
X-16.769 Y48.304 Z-2.17
X-16.826 Y48.303 Z-2.135
X-16.873 Y48.302 Z-2.087
X-16.909 Y48.301 Z-2.03
X-16.931 Y48.3 Z-1.967
X-16.939 Z-1.9
G0 Z7
X-16.924 Y47.7
G1 Z-0.9 F200
Z-2.2
X-16.916 Z-2.267 F250
X-16.894 Y47.701 Z-2.33
X-16.859 Y47.702 Z-2.387
X-16.811 Y47.703 Z-2.435
X-16.754 Y47.704 Z-2.47
X-16.691 Y47.706 Z-2.492
X-16.624 Y47.707 Z-2.5
X-16.324 Y47.715
G3 X-16.032 Y48.022 I-0.007 J0.3
X-19.031 Y47.948 I-1.5 J-0.037
X-16.032 Y48.022 I1.5 J0.037
X-16.339 Y48.315 I-0.3 J-0.007
G1 X-16.639 Y48.307
X-16.706 Y48.306 Z-2.492
X-16.769 Y48.304 Z-2.47
X-16.826 Y48.303 Z-2.435
X-16.873 Y48.302 Z-2.387
X-16.909 Y48.301 Z-2.33
X-16.931 Y48.3 Z-2.267
X-16.939 Z-2.2
G0 Z7
X-16.924 Y47.7
G1 Z-1.2 F200
Z-2.5
X-16.916 Z-2.567 F250
X-16.894 Y47.701 Z-2.63
X-16.859 Y47.702 Z-2.687
X-16.811 Y47.703 Z-2.735
X-16.754 Y47.704 Z-2.77
X-16.691 Y47.706 Z-2.792
X-16.624 Y47.707 Z-2.8
X-16.324 Y47.715
G3 X-16.032 Y48.022 I-0.007 J0.3
X-19.031 Y47.948 I-1.5 J-0.037
X-16.032 Y48.022 I1.5 J0.037
X-16.339 Y48.315 I-0.3 J-0.007
G1 X-16.639 Y48.307
X-16.706 Y48.306 Z-2.792
X-16.769 Y48.304 Z-2.77
X-16.826 Y48.303 Z-2.735
X-16.873 Y48.302 Z-2.687
X-16.909 Y48.301 Z-2.63
X-16.931 Y48.3 Z-2.567
X-16.939 Z-2.5
G0 Z7
X-16.924 Y47.7
G1 Z-1.5 F200
Z-2.8
X-16.916 Z-2.867 F250
X-16.894 Y47.701 Z-2.93
X-16.859 Y47.702 Z-2.987
X-16.811 Y47.703 Z-3.035
X-16.754 Y47.704 Z-3.07
X-16.691 Y47.706 Z-3.092
X-16.624 Y47.707 Z-3.1
X-16.324 Y47.715
G3 X-16.032 Y48.022 I-0.007 J0.3
X-19.031 Y47.948 I-1.5 J-0.037
X-16.032 Y48.022 I1.5 J0.037
X-16.339 Y48.315 I-0.3 J-0.007
G1 X-16.639 Y48.307
X-16.706 Y48.306 Z-3.092
X-16.769 Y48.304 Z-3.07
X-16.826 Y48.303 Z-3.035
X-16.873 Y48.302 Z-2.987
X-16.909 Y48.301 Z-2.93
X-16.931 Y48.3 Z-2.867
X-16.939 Z-2.8
G0 Z7
X-16.924 Y47.7
G1 Z-1.8 F200
Z-3.1
X-16.916 Z-3.167 F250
X-16.894 Y47.701 Z-3.23
X-16.859 Y47.702 Z-3.287
X-16.811 Y47.703 Z-3.335
X-16.754 Y47.704 Z-3.37
X-16.691 Y47.706 Z-3.392
X-16.624 Y47.707 Z-3.4
X-16.324 Y47.715
G3 X-16.032 Y48.022 I-0.007 J0.3
X-19.031 Y47.948 I-1.5 J-0.037
X-16.032 Y48.022 I1.5 J0.037
X-16.339 Y48.315 I-0.3 J-0.007
G1 X-16.639 Y48.307
X-16.706 Y48.306 Z-3.392
X-16.769 Y48.304 Z-3.37
X-16.826 Y48.303 Z-3.335
X-16.873 Y48.302 Z-3.287
X-16.909 Y48.301 Z-3.23
X-16.931 Y48.3 Z-3.167
X-16.939 Z-3.1
G0 Z7
X-16.924 Y47.7
G1 Z-2.1 F200
Z-3.4
X-16.916 Z-3.467 F250
X-16.894 Y47.701 Z-3.53
X-16.859 Y47.702 Z-3.587
X-16.811 Y47.703 Z-3.635
X-16.754 Y47.704 Z-3.67
X-16.691 Y47.706 Z-3.692
X-16.624 Y47.707 Z-3.7
X-16.324 Y47.715
G3 X-16.032 Y48.022 I-0.007 J0.3
X-19.031 Y47.948 I-1.5 J-0.037
X-16.032 Y48.022 I1.5 J0.037
X-16.339 Y48.315 I-0.3 J-0.007
G1 X-16.639 Y48.307
X-16.706 Y48.306 Z-3.692
X-16.769 Y48.304 Z-3.67
X-16.826 Y48.303 Z-3.635
X-16.873 Y48.302 Z-3.587
X-16.909 Y48.301 Z-3.53
X-16.931 Y48.3 Z-3.467
X-16.939 Z-3.4
G0 Z7
X-16.924 Y47.7
G1 Z-2.4 F200
Z-3.7
X-16.916 Z-3.767 F250
X-16.894 Y47.701 Z-3.83
X-16.859 Y47.702 Z-3.887
X-16.811 Y47.703 Z-3.935
X-16.754 Y47.704 Z-3.97
X-16.691 Y47.706 Z-3.992
X-16.624 Y47.707 Z-4
X-16.324 Y47.715
G3 X-16.032 Y48.022 I-0.007 J0.3
X-19.031 Y47.948 I-1.5 J-0.037
X-16.032 Y48.022 I1.5 J0.037
X-16.339 Y48.315 I-0.3 J-0.007
G1 X-16.639 Y48.307
X-16.706 Y48.306 Z-3.992
X-16.769 Y48.304 Z-3.97
X-16.826 Y48.303 Z-3.935
X-16.873 Y48.302 Z-3.887
X-16.909 Y48.301 Z-3.83
X-16.931 Y48.3 Z-3.767
X-16.939 Z-3.7
G0 Z7
X-16.924 Y47.7
G1 Z-2.7 F200
Z-4
X-16.916 Z-4.067 F250
X-16.894 Y47.701 Z-4.13
X-16.859 Y47.702 Z-4.187
X-16.811 Y47.703 Z-4.235
X-16.754 Y47.704 Z-4.27
X-16.691 Y47.706 Z-4.292
X-16.624 Y47.707 Z-4.3
X-16.324 Y47.715
G3 X-16.032 Y48.022 I-0.007 J0.3
X-19.031 Y47.948 I-1.5 J-0.037
X-16.032 Y48.022 I1.5 J0.037
X-16.339 Y48.315 I-0.3 J-0.007
G1 X-16.639 Y48.307
X-16.706 Y48.306 Z-4.292
X-16.769 Y48.304 Z-4.27
X-16.826 Y48.303 Z-4.235
X-16.873 Y48.302 Z-4.187
X-16.909 Y48.301 Z-4.13
X-16.931 Y48.3 Z-4.067
X-16.939 Z-4
G0 Z7
X-16.924 Y47.7
G1 Z-3 F200
Z-4.3
X-16.916 Z-4.367 F250
X-16.894 Y47.701 Z-4.43
X-16.859 Y47.702 Z-4.487
X-16.811 Y47.703 Z-4.535
X-16.754 Y47.704 Z-4.57
X-16.691 Y47.706 Z-4.592
X-16.624 Y47.707 Z-4.6
X-16.324 Y47.715
G3 X-16.032 Y48.022 I-0.007 J0.3
X-19.031 Y47.948 I-1.5 J-0.037
X-16.032 Y48.022 I1.5 J0.037
X-16.339 Y48.315 I-0.3 J-0.007
G1 X-16.639 Y48.307
X-16.706 Y48.306 Z-4.592
X-16.769 Y48.304 Z-4.57
X-16.826 Y48.303 Z-4.535
X-16.873 Y48.302 Z-4.487
X-16.909 Y48.301 Z-4.43
X-16.931 Y48.3 Z-4.367
X-16.939 Z-4.3
G0 Z7
X-16.924 Y47.7
G1 Z-3.3 F200
Z-4.6
X-16.916 Z-4.667 F250
X-16.894 Y47.701 Z-4.73
X-16.859 Y47.702 Z-4.787
X-16.811 Y47.703 Z-4.835
X-16.754 Y47.704 Z-4.87
X-16.691 Y47.706 Z-4.892
X-16.624 Y47.707 Z-4.9
X-16.324 Y47.715
G3 X-16.032 Y48.022 I-0.007 J0.3
X-19.031 Y47.948 I-1.5 J-0.037
X-16.032 Y48.022 I1.5 J0.037
X-16.339 Y48.315 I-0.3 J-0.007
G1 X-16.639 Y48.307
X-16.706 Y48.306 Z-4.892
X-16.769 Y48.304 Z-4.87
X-16.826 Y48.303 Z-4.835
X-16.873 Y48.302 Z-4.787
X-16.909 Y48.301 Z-4.73
X-16.931 Y48.3 Z-4.667
X-16.939 Z-4.6
G0 Z7
X-16.924 Y47.7
G1 Z-3.6 F200
Z-4.9
X-16.916 Z-4.967 F250
X-16.894 Y47.701 Z-5.03
X-16.859 Y47.702 Z-5.087
X-16.811 Y47.703 Z-5.135
X-16.754 Y47.704 Z-5.17
X-16.691 Y47.706 Z-5.192
X-16.624 Y47.707 Z-5.2
X-16.324 Y47.715
G3 X-16.032 Y48.022 I-0.007 J0.3
X-19.031 Y47.948 I-1.5 J-0.037
X-16.032 Y48.022 I1.5 J0.037
X-16.339 Y48.315 I-0.3 J-0.007
G1 X-16.639 Y48.307
X-16.706 Y48.306 Z-5.192
X-16.769 Y48.304 Z-5.17
X-16.826 Y48.303 Z-5.135
X-16.873 Y48.302 Z-5.087
X-16.909 Y48.301 Z-5.03
X-16.931 Y48.3 Z-4.967
X-16.939 Z-4.9
G0 Z7
X-16.924 Y47.7
G1 Z-3.9 F200
Z-5.2
X-16.916 Z-5.267 F250
X-16.894 Y47.701 Z-5.33
X-16.859 Y47.702 Z-5.387
X-16.811 Y47.703 Z-5.435
X-16.754 Y47.704 Z-5.47
X-16.691 Y47.706 Z-5.492
X-16.624 Y47.707 Z-5.5
X-16.324 Y47.715
G3 X-16.032 Y48.022 I-0.007 J0.3
X-19.031 Y47.948 I-1.5 J-0.037
X-16.032 Y48.022 I1.5 J0.037
X-16.339 Y48.315 I-0.3 J-0.007
G1 X-16.639 Y48.307
X-16.706 Y48.306 Z-5.492
X-16.769 Y48.304 Z-5.47
X-16.826 Y48.303 Z-5.435
X-16.873 Y48.302 Z-5.387
X-16.909 Y48.301 Z-5.33
X-16.931 Y48.3 Z-5.267
X-16.939 Z-5.2
G0 Z7
X-16.924 Y47.7
G1 Z-4.2 F200
Z-5.5
X-16.916 Z-5.567 F250
X-16.894 Y47.701 Z-5.63
X-16.859 Y47.702 Z-5.687
X-16.811 Y47.703 Z-5.735
X-16.754 Y47.704 Z-5.77
X-16.691 Y47.706 Z-5.792
X-16.624 Y47.707 Z-5.8
X-16.324 Y47.715
G3 X-16.032 Y48.022 I-0.007 J0.3
X-19.031 Y47.948 I-1.5 J-0.037
X-16.032 Y48.022 I1.5 J0.037
X-16.339 Y48.315 I-0.3 J-0.007
G1 X-16.639 Y48.307
X-16.706 Y48.306 Z-5.792
X-16.769 Y48.304 Z-5.77
X-16.826 Y48.303 Z-5.735
X-16.873 Y48.302 Z-5.687
X-16.909 Y48.301 Z-5.63
X-16.931 Y48.3 Z-5.567
X-16.939 Z-5.5
G0 Z7
X-16.924 Y47.7
G1 Z-4.5 F200
Z-5.8
X-16.916 Z-5.867 F250
X-16.894 Y47.701 Z-5.93
X-16.859 Y47.702 Z-5.987
X-16.811 Y47.703 Z-6.035
X-16.754 Y47.704 Z-6.07
X-16.691 Y47.706 Z-6.092
X-16.624 Y47.707 Z-6.1
X-16.324 Y47.715
G3 X-16.032 Y48.022 I-0.007 J0.3
X-19.031 Y47.948 I-1.5 J-0.037
X-16.032 Y48.022 I1.5 J0.037
X-16.339 Y48.315 I-0.3 J-0.007
G1 X-16.639 Y48.307
X-16.706 Y48.306 Z-6.092
X-16.769 Y48.304 Z-6.07
X-16.826 Y48.303 Z-6.035
X-16.873 Y48.302 Z-5.987
X-16.909 Y48.301 Z-5.93
X-16.931 Y48.3 Z-5.867
X-16.939 Z-5.8
G0 Z7
X-16.924 Y47.7
G1 Z-4.8 F200
Z-6.1
X-16.916 Z-6.167 F250
X-16.894 Y47.701 Z-6.23
X-16.859 Y47.702 Z-6.287
X-16.811 Y47.703 Z-6.335
X-16.754 Y47.704 Z-6.37
X-16.691 Y47.706 Z-6.392
X-16.624 Y47.707 Z-6.4
X-16.324 Y47.715
G3 X-16.032 Y48.022 I-0.007 J0.3
X-19.031 Y47.948 I-1.5 J-0.037
X-16.032 Y48.022 I1.5 J0.037
X-16.339 Y48.315 I-0.3 J-0.007
G1 X-16.639 Y48.307
X-16.706 Y48.306 Z-6.392
X-16.769 Y48.304 Z-6.37
X-16.826 Y48.303 Z-6.335
X-16.873 Y48.302 Z-6.287
X-16.909 Y48.301 Z-6.23
X-16.931 Y48.3 Z-6.167
X-16.939 Z-6.1
G0 Z7
X-16.924 Y47.7
G1 Z-5.1 F200
Z-6.4
X-16.916 Z-6.467 F250
X-16.894 Y47.701 Z-6.53
X-16.859 Y47.702 Z-6.587
X-16.811 Y47.703 Z-6.635
X-16.754 Y47.704 Z-6.67
X-16.691 Y47.706 Z-6.692
X-16.624 Y47.707 Z-6.7
X-16.324 Y47.715
G3 X-16.032 Y48.022 I-0.007 J0.3
X-19.031 Y47.948 I-1.5 J-0.037
X-16.032 Y48.022 I1.5 J0.037
X-16.339 Y48.315 I-0.3 J-0.007
G1 X-16.639 Y48.307
X-16.706 Y48.306 Z-6.692
X-16.769 Y48.304 Z-6.67
X-16.826 Y48.303 Z-6.635
X-16.873 Y48.302 Z-6.587
X-16.909 Y48.301 Z-6.53
X-16.931 Y48.3 Z-6.467
X-16.939 Z-6.4
G0 Z7
X-16.924 Y47.7
G1 Z-5.4 F200
Z-6.7
X-16.916 Z-6.767 F250
X-16.894 Y47.701 Z-6.83
X-16.859 Y47.702 Z-6.887
X-16.811 Y47.703 Z-6.935
X-16.754 Y47.704 Z-6.97
X-16.691 Y47.706 Z-6.992
X-16.624 Y47.707 Z-7
X-16.324 Y47.715
G3 X-16.032 Y48.022 I-0.007 J0.3
X-19.031 Y47.948 I-1.5 J-0.037
X-16.032 Y48.022 I1.5 J0.037
X-16.339 Y48.315 I-0.3 J-0.007
G1 X-16.639 Y48.307
X-16.706 Y48.306 Z-6.992
X-16.769 Y48.304 Z-6.97
X-16.826 Y48.303 Z-6.935
X-16.873 Y48.302 Z-6.887
X-16.909 Y48.301 Z-6.83
X-16.931 Y48.3 Z-6.767
X-16.939 Z-6.7
G0 Z7
X-16.924 Y47.7
G1 Z-5.7 F200
Z-7
X-16.916 Z-7.067 F250
X-16.894 Y47.701 Z-7.13
X-16.859 Y47.702 Z-7.187
X-16.811 Y47.703 Z-7.235
X-16.754 Y47.704 Z-7.27
X-16.691 Y47.706 Z-7.292
X-16.624 Y47.707 Z-7.3
X-16.324 Y47.715
G3 X-16.032 Y48.022 I-0.007 J0.3
X-19.031 Y47.948 I-1.5 J-0.037
X-16.032 Y48.022 I1.5 J0.037
X-16.339 Y48.315 I-0.3 J-0.007
G1 X-16.639 Y48.307
X-16.706 Y48.306 Z-7.292
X-16.769 Y48.304 Z-7.27
X-16.826 Y48.303 Z-7.235
X-16.873 Y48.302 Z-7.187
X-16.909 Y48.301 Z-7.13
X-16.931 Y48.3 Z-7.067
X-16.939 Z-7
G0 Z7
X-16.924 Y47.7
G1 Z-6 F200
Z-7.1
X-16.916 Z-7.167 F250
X-16.894 Y47.701 Z-7.23
X-16.859 Y47.702 Z-7.287
X-16.811 Y47.703 Z-7.335
X-16.754 Y47.704 Z-7.37
X-16.691 Y47.706 Z-7.392
X-16.624 Y47.707 Z-7.4
X-16.324 Y47.715
G3 X-16.032 Y48.022 I-0.007 J0.3
X-19.031 Y47.948 I-1.5 J-0.037
X-16.032 Y48.022 I1.5 J0.037
X-16.339 Y48.315 I-0.3 J-0.007
G1 X-16.639 Y48.307
X-16.706 Y48.306 Z-7.392
X-16.769 Y48.304 Z-7.37
X-16.826 Y48.303 Z-7.335
X-16.873 Y48.302 Z-7.287
X-16.909 Y48.301 Z-7.23
X-16.931 Y48.3 Z-7.167
X-16.939 Z-7.1
G0 Z7
X35.569 Y47.685
G1 Z3.3 F200
Z2
G18 G2 X35.869 Z1.7 I0.3 K0 F250
G1 X36.169
G17 G3 X36.469 Y47.985 I0 J0.3
X33.469 Y47.985 I-1.5 J0
X36.469 Y47.985 I1.5 J0
X36.169 Y48.285 I-0.3 J0
G1 X35.869
G18 G3 X35.569 Z2 I0 K0.3
G0 Z7
Y47.685
G1 Z3 F200
Z1.7
G2 X35.869 Z1.4 I0.3 K0 F250
G1 X36.169
G17 G3 X36.469 Y47.985 I0 J0.3
X33.469 Y47.985 I-1.5 J0
X36.469 Y47.985 I1.5 J0
X36.169 Y48.285 I-0.3 J0
G1 X35.869
G18 G3 X35.569 Z1.7 I0 K0.3
G0 Z7
Y47.685
G1 Z2.7 F200
Z1.4
G2 X35.869 Z1.1 I0.3 K0 F250
G1 X36.169
G17 G3 X36.469 Y47.985 I0 J0.3
X33.469 Y47.985 I-1.5 J0
X36.469 Y47.985 I1.5 J0
X36.169 Y48.285 I-0.3 J0
G1 X35.869
G18 G3 X35.569 Z1.4 I0 K0.3
G0 Z7
Y47.685
G1 Z2.4 F200
Z1.1
G2 X35.869 Z0.8 I0.3 K0 F250
G1 X36.169
G17 G3 X36.469 Y47.985 I0 J0.3
X33.469 Y47.985 I-1.5 J0
X36.469 Y47.985 I1.5 J0
X36.169 Y48.285 I-0.3 J0
G1 X35.869
G18 G3 X35.569 Z1.1 I0 K0.3
G0 Z7
Y47.685
G1 Z2.1 F200
Z0.8
G2 X35.869 Z0.5 I0.3 K0 F250
G1 X36.169
G17 G3 X36.469 Y47.985 I0 J0.3
X33.469 Y47.985 I-1.5 J0
X36.469 Y47.985 I1.5 J0
X36.169 Y48.285 I-0.3 J0
G1 X35.869
G18 G3 X35.569 Z0.8 I0 K0.3
G0 Z7
Y47.685
G1 Z1.8 F200
Z0.5
G2 X35.869 Z0.2 I0.3 K0 F250
G1 X36.169
G17 G3 X36.469 Y47.985 I0 J0.3
X33.469 Y47.985 I-1.5 J0
X36.469 Y47.985 I1.5 J0
X36.169 Y48.285 I-0.3 J0
G1 X35.869
G18 G3 X35.569 Z0.5 I0 K0.3
G0 Z7
Y47.685
G1 Z1.5 F200
Z0.2
G2 X35.869 Z-0.1 I0.3 K0 F250
G1 X36.169
G17 G3 X36.469 Y47.985 I0 J0.3
X33.469 Y47.985 I-1.5 J0
X36.469 Y47.985 I1.5 J0
X36.169 Y48.285 I-0.3 J0
G1 X35.869
G18 G3 X35.569 Z0.2 I0 K0.3
G0 Z7
Y47.685
G1 Z1.2 F200
Z-0.1
G2 X35.869 Z-0.4 I0.3 K0 F250
G1 X36.169
G17 G3 X36.469 Y47.985 I0 J0.3
X33.469 Y47.985 I-1.5 J0
X36.469 Y47.985 I1.5 J0
X36.169 Y48.285 I-0.3 J0
G1 X35.869
G18 G3 X35.569 Z-0.1 I0 K0.3
G0 Z7
Y47.685
G1 Z0.9 F200
Z-0.4
G2 X35.869 Z-0.7 I0.3 K0 F250
G1 X36.169
G17 G3 X36.469 Y47.985 I0 J0.3
X33.469 Y47.985 I-1.5 J0
X36.469 Y47.985 I1.5 J0
X36.169 Y48.285 I-0.3 J0
G1 X35.869
G18 G3 X35.569 Z-0.4 I0 K0.3
G0 Z7
Y47.685
G1 Z0.6 F200
Z-0.7
G2 X35.869 Z-1 I0.3 K0 F250
G1 X36.169
G17 G3 X36.469 Y47.985 I0 J0.3
X33.469 Y47.985 I-1.5 J0
X36.469 Y47.985 I1.5 J0
X36.169 Y48.285 I-0.3 J0
G1 X35.869
G18 G3 X35.569 Z-0.7 I0 K0.3
G0 Z7
Y47.685
G1 Z0.3 F200
Z-1
G2 X35.869 Z-1.3 I0.3 K0 F250
G1 X36.169
G17 G3 X36.469 Y47.985 I0 J0.3
X33.469 Y47.985 I-1.5 J0
X36.469 Y47.985 I1.5 J0
X36.169 Y48.285 I-0.3 J0
G1 X35.869
G18 G3 X35.569 Z-1 I0 K0.3
G0 Z7
Y47.685
G1 Z0 F200
Z-1.3
G2 X35.869 Z-1.6 I0.3 K0 F250
G1 X36.169
G17 G3 X36.469 Y47.985 I0 J0.3
X33.469 Y47.985 I-1.5 J0
X36.469 Y47.985 I1.5 J0
X36.169 Y48.285 I-0.3 J0
G1 X35.869
G18 G3 X35.569 Z-1.3 I0 K0.3
G0 Z7
Y47.685
G1 Z-0.3 F200
Z-1.6
G2 X35.869 Z-1.9 I0.3 K0 F250
G1 X36.169
G17 G3 X36.469 Y47.985 I0 J0.3
X33.469 Y47.985 I-1.5 J0
X36.469 Y47.985 I1.5 J0
X36.169 Y48.285 I-0.3 J0
G1 X35.869
G18 G3 X35.569 Z-1.6 I0 K0.3
G0 Z7
Y47.685
G1 Z-0.6 F200
Z-1.9
G2 X35.869 Z-2.2 I0.3 K0 F250
G1 X36.169
G17 G3 X36.469 Y47.985 I0 J0.3
X33.469 Y47.985 I-1.5 J0
X36.469 Y47.985 I1.5 J0
X36.169 Y48.285 I-0.3 J0
G1 X35.869
G18 G3 X35.569 Z-1.9 I0 K0.3
G0 Z7
Y47.685
G1 Z-0.9 F200
Z-2.2
G2 X35.869 Z-2.5 I0.3 K0 F250
G1 X36.169
G17 G3 X36.469 Y47.985 I0 J0.3
X33.469 Y47.985 I-1.5 J0
X36.469 Y47.985 I1.5 J0
X36.169 Y48.285 I-0.3 J0
G1 X35.869
G18 G3 X35.569 Z-2.2 I0 K0.3
G0 Z7
Y47.685
G1 Z-1.2 F200
Z-2.5
G2 X35.869 Z-2.8 I0.3 K0 F250
G1 X36.169
G17 G3 X36.469 Y47.985 I0 J0.3
X33.469 Y47.985 I-1.5 J0
X36.469 Y47.985 I1.5 J0
X36.169 Y48.285 I-0.3 J0
G1 X35.869
G18 G3 X35.569 Z-2.5 I0 K0.3
G0 Z7
Y47.685
G1 Z-1.5 F200
Z-2.8
G2 X35.869 Z-3.1 I0.3 K0 F250
G1 X36.169
G17 G3 X36.469 Y47.985 I0 J0.3
X33.469 Y47.985 I-1.5 J0
X36.469 Y47.985 I1.5 J0
X36.169 Y48.285 I-0.3 J0
G1 X35.869
G18 G3 X35.569 Z-2.8 I0 K0.3
G0 Z7
Y47.685
G1 Z-1.8 F200
Z-3.1
G2 X35.869 Z-3.4 I0.3 K0 F250
G1 X36.169
G17 G3 X36.469 Y47.985 I0 J0.3
X33.469 Y47.985 I-1.5 J0
X36.469 Y47.985 I1.5 J0
X36.169 Y48.285 I-0.3 J0
G1 X35.869
G18 G3 X35.569 Z-3.1 I0 K0.3
G0 Z7
Y47.685
G1 Z-2.1 F200
Z-3.4
G2 X35.869 Z-3.7 I0.3 K0 F250
G1 X36.169
G17 G3 X36.469 Y47.985 I0 J0.3
X33.469 Y47.985 I-1.5 J0
X36.469 Y47.985 I1.5 J0
X36.169 Y48.285 I-0.3 J0
G1 X35.869
G18 G3 X35.569 Z-3.4 I0 K0.3
G0 Z7
Y47.685
G1 Z-2.4 F200
Z-3.7
G2 X35.869 Z-4 I0.3 K0 F250
G1 X36.169
G17 G3 X36.469 Y47.985 I0 J0.3
X33.469 Y47.985 I-1.5 J0
X36.469 Y47.985 I1.5 J0
X36.169 Y48.285 I-0.3 J0
G1 X35.869
G18 G3 X35.569 Z-3.7 I0 K0.3
G0 Z7
Y47.685
G1 Z-2.7 F200
Z-4
G2 X35.869 Z-4.3 I0.3 K0 F250
G1 X36.169
G17 G3 X36.469 Y47.985 I0 J0.3
X33.469 Y47.985 I-1.5 J0
X36.469 Y47.985 I1.5 J0
X36.169 Y48.285 I-0.3 J0
G1 X35.869
G18 G3 X35.569 Z-4 I0 K0.3
G0 Z7
Y47.685
G1 Z-3 F200
Z-4.3
G2 X35.869 Z-4.6 I0.3 K0 F250
G1 X36.169
G17 G3 X36.469 Y47.985 I0 J0.3
X33.469 Y47.985 I-1.5 J0
X36.469 Y47.985 I1.5 J0
X36.169 Y48.285 I-0.3 J0
G1 X35.869
G18 G3 X35.569 Z-4.3 I0 K0.3
G0 Z7
Y47.685
G1 Z-3.3 F200
Z-4.6
G2 X35.869 Z-4.9 I0.3 K0 F250
G1 X36.169
G17 G3 X36.469 Y47.985 I0 J0.3
X33.469 Y47.985 I-1.5 J0
X36.469 Y47.985 I1.5 J0
X36.169 Y48.285 I-0.3 J0
G1 X35.869
G18 G3 X35.569 Z-4.6 I0 K0.3
G0 Z7
Y47.685
G1 Z-3.6 F200
Z-4.9
G2 X35.869 Z-5.2 I0.3 K0 F250
G1 X36.169
G17 G3 X36.469 Y47.985 I0 J0.3
X33.469 Y47.985 I-1.5 J0
X36.469 Y47.985 I1.5 J0
X36.169 Y48.285 I-0.3 J0
G1 X35.869
G18 G3 X35.569 Z-4.9 I0 K0.3
G0 Z7
Y47.685
G1 Z-3.9 F200
Z-5.2
G2 X35.869 Z-5.5 I0.3 K0 F250
G1 X36.169
G17 G3 X36.469 Y47.985 I0 J0.3
X33.469 Y47.985 I-1.5 J0
X36.469 Y47.985 I1.5 J0
X36.169 Y48.285 I-0.3 J0
G1 X35.869
G18 G3 X35.569 Z-5.2 I0 K0.3
G0 Z7
Y47.685
G1 Z-4.2 F200
Z-5.5
G2 X35.869 Z-5.8 I0.3 K0 F250
G1 X36.169
G17 G3 X36.469 Y47.985 I0 J0.3
X33.469 Y47.985 I-1.5 J0
X36.469 Y47.985 I1.5 J0
X36.169 Y48.285 I-0.3 J0
G1 X35.869
G18 G3 X35.569 Z-5.5 I0 K0.3
G0 Z7
Y47.685
G1 Z-4.5 F200
Z-5.8
G2 X35.869 Z-6.1 I0.3 K0 F250
G1 X36.169
G17 G3 X36.469 Y47.985 I0 J0.3
X33.469 Y47.985 I-1.5 J0
X36.469 Y47.985 I1.5 J0
X36.169 Y48.285 I-0.3 J0
G1 X35.869
G18 G3 X35.569 Z-5.8 I0 K0.3
G0 Z7
Y47.685
G1 Z-4.8 F200
Z-6.1
G2 X35.869 Z-6.4 I0.3 K0 F250
G1 X36.169
G17 G3 X36.469 Y47.985 I0 J0.3
X33.469 Y47.985 I-1.5 J0
X36.469 Y47.985 I1.5 J0
X36.169 Y48.285 I-0.3 J0
G1 X35.869
G18 G3 X35.569 Z-6.1 I0 K0.3
G0 Z7
Y47.685
G1 Z-5.1 F200
Z-6.4
G2 X35.869 Z-6.7 I0.3 K0 F250
G1 X36.169
G17 G3 X36.469 Y47.985 I0 J0.3
X33.469 Y47.985 I-1.5 J0
X36.469 Y47.985 I1.5 J0
X36.169 Y48.285 I-0.3 J0
G1 X35.869
G18 G3 X35.569 Z-6.4 I0 K0.3
G0 Z7
Y47.685
G1 Z-5.4 F200
Z-6.7
G2 X35.869 Z-7 I0.3 K0 F250
G1 X36.169
G17 G3 X36.469 Y47.985 I0 J0.3
X33.469 Y47.985 I-1.5 J0
X36.469 Y47.985 I1.5 J0
X36.169 Y48.285 I-0.3 J0
G1 X35.869
G18 G3 X35.569 Z-6.7 I0 K0.3
G0 Z7
Y47.685
G1 Z-5.7 F200
Z-7
G2 X35.869 Z-7.3 I0.3 K0 F250
G1 X36.169
G17 G3 X36.469 Y47.985 I0 J0.3
X33.469 Y47.985 I-1.5 J0
X36.469 Y47.985 I1.5 J0
X36.169 Y48.285 I-0.3 J0
G1 X35.869
G18 G3 X35.569 Z-7 I0 K0.3
G0 Z7
Y47.685
G1 Z-6 F200
Z-7.1
G2 X35.869 Z-7.4 I0.3 K0 F250
G1 X36.169
G17 G3 X36.469 Y47.985 I0 J0.3
X33.469 Y47.985 I-1.5 J0
X36.469 Y47.985 I1.5 J0
X36.169 Y48.285 I-0.3 J0
G1 X35.869
G18 G3 X35.569 Z-7.1 I0 K0.3
G0 Z7
X-69.431 Y47.685
G1 Z3.3 F200
Z2
G2 X-69.131 Z1.7 I0.3 K0 F250
G1 X-68.831
G17 G3 X-68.531 Y47.985 I0 J0.3
X-71.531 Y47.985 I-1.5 J0
X-68.531 Y47.985 I1.5 J0
X-68.831 Y48.285 I-0.3 J0
G1 X-69.131
G18 G3 X-69.431 Z2 I0 K0.3
G0 Z7
Y47.685
G1 Z3 F200
Z1.7
G2 X-69.131 Z1.4 I0.3 K0 F250
G1 X-68.831
G17 G3 X-68.531 Y47.985 I0 J0.3
X-71.531 Y47.985 I-1.5 J0
X-68.531 Y47.985 I1.5 J0
X-68.831 Y48.285 I-0.3 J0
G1 X-69.131
G18 G3 X-69.431 Z1.7 I0 K0.3
G0 Z7
Y47.685
G1 Z2.7 F200
Z1.4
G2 X-69.131 Z1.1 I0.3 K0 F250
G1 X-68.831
G17 G3 X-68.531 Y47.985 I0 J0.3
X-71.531 Y47.985 I-1.5 J0
X-68.531 Y47.985 I1.5 J0
X-68.831 Y48.285 I-0.3 J0
G1 X-69.131
G18 G3 X-69.431 Z1.4 I0 K0.3
G0 Z7
Y47.685
G1 Z2.4 F200
Z1.1
G2 X-69.131 Z0.8 I0.3 K0 F250
G1 X-68.831
G17 G3 X-68.531 Y47.985 I0 J0.3
X-71.531 Y47.985 I-1.5 J0
X-68.531 Y47.985 I1.5 J0
X-68.831 Y48.285 I-0.3 J0
G1 X-69.131
G18 G3 X-69.431 Z1.1 I0 K0.3
G0 Z7
Y47.685
G1 Z2.1 F200
Z0.8
G2 X-69.131 Z0.5 I0.3 K0 F250
G1 X-68.831
G17 G3 X-68.531 Y47.985 I0 J0.3
X-71.531 Y47.985 I-1.5 J0
X-68.531 Y47.985 I1.5 J0
X-68.831 Y48.285 I-0.3 J0
G1 X-69.131
G18 G3 X-69.431 Z0.8 I0 K0.3
G0 Z7
Y47.685
G1 Z1.8 F200
Z0.5
G2 X-69.131 Z0.2 I0.3 K0 F250
G1 X-68.831
G17 G3 X-68.531 Y47.985 I0 J0.3
X-71.531 Y47.985 I-1.5 J0
X-68.531 Y47.985 I1.5 J0
X-68.831 Y48.285 I-0.3 J0
G1 X-69.131
G18 G3 X-69.431 Z0.5 I0 K0.3
G0 Z7
Y47.685
G1 Z1.5 F200
Z0.2
G2 X-69.131 Z-0.1 I0.3 K0 F250
G1 X-68.831
G17 G3 X-68.531 Y47.985 I0 J0.3
X-71.531 Y47.985 I-1.5 J0
X-68.531 Y47.985 I1.5 J0
X-68.831 Y48.285 I-0.3 J0
G1 X-69.131
G18 G3 X-69.431 Z0.2 I0 K0.3
G0 Z7
Y47.685
G1 Z1.2 F200
Z-0.1
G2 X-69.131 Z-0.4 I0.3 K0 F250
G1 X-68.831
G17 G3 X-68.531 Y47.985 I0 J0.3
X-71.531 Y47.985 I-1.5 J0
X-68.531 Y47.985 I1.5 J0
X-68.831 Y48.285 I-0.3 J0
G1 X-69.131
G18 G3 X-69.431 Z-0.1 I0 K0.3
G0 Z7
Y47.685
G1 Z0.9 F200
Z-0.4
G2 X-69.131 Z-0.7 I0.3 K0 F250
G1 X-68.831
G17 G3 X-68.531 Y47.985 I0 J0.3
X-71.531 Y47.985 I-1.5 J0
X-68.531 Y47.985 I1.5 J0
X-68.831 Y48.285 I-0.3 J0
G1 X-69.131
G18 G3 X-69.431 Z-0.4 I0 K0.3
G0 Z7
Y47.685
G1 Z0.6 F200
Z-0.7
G2 X-69.131 Z-1 I0.3 K0 F250
G1 X-68.831
G17 G3 X-68.531 Y47.985 I0 J0.3
X-71.531 Y47.985 I-1.5 J0
X-68.531 Y47.985 I1.5 J0
X-68.831 Y48.285 I-0.3 J0
G1 X-69.131
G18 G3 X-69.431 Z-0.7 I0 K0.3
G0 Z7
Y47.685
G1 Z0.3 F200
Z-1
G2 X-69.131 Z-1.3 I0.3 K0 F250
G1 X-68.831
G17 G3 X-68.531 Y47.985 I0 J0.3
X-71.531 Y47.985 I-1.5 J0
X-68.531 Y47.985 I1.5 J0
X-68.831 Y48.285 I-0.3 J0
G1 X-69.131
G18 G3 X-69.431 Z-1 I0 K0.3
G0 Z7
Y47.685
G1 Z0 F200
Z-1.3
G2 X-69.131 Z-1.6 I0.3 K0 F250
G1 X-68.831
G17 G3 X-68.531 Y47.985 I0 J0.3
X-71.531 Y47.985 I-1.5 J0
X-68.531 Y47.985 I1.5 J0
X-68.831 Y48.285 I-0.3 J0
G1 X-69.131
G18 G3 X-69.431 Z-1.3 I0 K0.3
G0 Z7
Y47.685
G1 Z-0.3 F200
Z-1.6
G2 X-69.131 Z-1.9 I0.3 K0 F250
G1 X-68.831
G17 G3 X-68.531 Y47.985 I0 J0.3
X-71.531 Y47.985 I-1.5 J0
X-68.531 Y47.985 I1.5 J0
X-68.831 Y48.285 I-0.3 J0
G1 X-69.131
G18 G3 X-69.431 Z-1.6 I0 K0.3
G0 Z7
Y47.685
G1 Z-0.6 F200
Z-1.9
G2 X-69.131 Z-2.2 I0.3 K0 F250
G1 X-68.831
G17 G3 X-68.531 Y47.985 I0 J0.3
X-71.531 Y47.985 I-1.5 J0
X-68.531 Y47.985 I1.5 J0
X-68.831 Y48.285 I-0.3 J0
G1 X-69.131
G18 G3 X-69.431 Z-1.9 I0 K0.3
G0 Z7
Y47.685
G1 Z-0.9 F200
Z-2.2
G2 X-69.131 Z-2.5 I0.3 K0 F250
G1 X-68.831
G17 G3 X-68.531 Y47.985 I0 J0.3
X-71.531 Y47.985 I-1.5 J0
X-68.531 Y47.985 I1.5 J0
X-68.831 Y48.285 I-0.3 J0
G1 X-69.131
G18 G3 X-69.431 Z-2.2 I0 K0.3
G0 Z7
Y47.685
G1 Z-1.2 F200
Z-2.5
G2 X-69.131 Z-2.8 I0.3 K0 F250
G1 X-68.831
G17 G3 X-68.531 Y47.985 I0 J0.3
X-71.531 Y47.985 I-1.5 J0
X-68.531 Y47.985 I1.5 J0
X-68.831 Y48.285 I-0.3 J0
G1 X-69.131
G18 G3 X-69.431 Z-2.5 I0 K0.3
G0 Z7
Y47.685
G1 Z-1.5 F200
Z-2.8
G2 X-69.131 Z-3.1 I0.3 K0 F250
G1 X-68.831
G17 G3 X-68.531 Y47.985 I0 J0.3
X-71.531 Y47.985 I-1.5 J0
X-68.531 Y47.985 I1.5 J0
X-68.831 Y48.285 I-0.3 J0
G1 X-69.131
G18 G3 X-69.431 Z-2.8 I0 K0.3
G0 Z7
Y47.685
G1 Z-1.8 F200
Z-3.1
G2 X-69.131 Z-3.4 I0.3 K0 F250
G1 X-68.831
G17 G3 X-68.531 Y47.985 I0 J0.3
X-71.531 Y47.985 I-1.5 J0
X-68.531 Y47.985 I1.5 J0
X-68.831 Y48.285 I-0.3 J0
G1 X-69.131
G18 G3 X-69.431 Z-3.1 I0 K0.3
G0 Z7
Y47.685
G1 Z-2.1 F200
Z-3.4
G2 X-69.131 Z-3.7 I0.3 K0 F250
G1 X-68.831
G17 G3 X-68.531 Y47.985 I0 J0.3
X-71.531 Y47.985 I-1.5 J0
X-68.531 Y47.985 I1.5 J0
X-68.831 Y48.285 I-0.3 J0
G1 X-69.131
G18 G3 X-69.431 Z-3.4 I0 K0.3
G0 Z7
Y47.685
G1 Z-2.4 F200
Z-3.7
G2 X-69.131 Z-4 I0.3 K0 F250
G1 X-68.831
G17 G3 X-68.531 Y47.985 I0 J0.3
X-71.531 Y47.985 I-1.5 J0
X-68.531 Y47.985 I1.5 J0
X-68.831 Y48.285 I-0.3 J0
G1 X-69.131
G18 G3 X-69.431 Z-3.7 I0 K0.3
G0 Z7
Y47.685
G1 Z-2.7 F200
Z-4
G2 X-69.131 Z-4.3 I0.3 K0 F250
G1 X-68.831
G17 G3 X-68.531 Y47.985 I0 J0.3
X-71.531 Y47.985 I-1.5 J0
X-68.531 Y47.985 I1.5 J0
X-68.831 Y48.285 I-0.3 J0
G1 X-69.131
G18 G3 X-69.431 Z-4 I0 K0.3
G0 Z7
Y47.685
G1 Z-3 F200
Z-4.3
G2 X-69.131 Z-4.6 I0.3 K0 F250
G1 X-68.831
G17 G3 X-68.531 Y47.985 I0 J0.3
X-71.531 Y47.985 I-1.5 J0
X-68.531 Y47.985 I1.5 J0
X-68.831 Y48.285 I-0.3 J0
G1 X-69.131
G18 G3 X-69.431 Z-4.3 I0 K0.3
G0 Z7
Y47.685
G1 Z-3.3 F200
Z-4.6
G2 X-69.131 Z-4.9 I0.3 K0 F250
G1 X-68.831
G17 G3 X-68.531 Y47.985 I0 J0.3
X-71.531 Y47.985 I-1.5 J0
X-68.531 Y47.985 I1.5 J0
X-68.831 Y48.285 I-0.3 J0
G1 X-69.131
G18 G3 X-69.431 Z-4.6 I0 K0.3
G0 Z7
Y47.685
G1 Z-3.6 F200
Z-4.9
G2 X-69.131 Z-5.2 I0.3 K0 F250
G1 X-68.831
G17 G3 X-68.531 Y47.985 I0 J0.3
X-71.531 Y47.985 I-1.5 J0
X-68.531 Y47.985 I1.5 J0
X-68.831 Y48.285 I-0.3 J0
G1 X-69.131
G18 G3 X-69.431 Z-4.9 I0 K0.3
G0 Z7
Y47.685
G1 Z-3.9 F200
Z-5.2
G2 X-69.131 Z-5.5 I0.3 K0 F250
G1 X-68.831
G17 G3 X-68.531 Y47.985 I0 J0.3
X-71.531 Y47.985 I-1.5 J0
X-68.531 Y47.985 I1.5 J0
X-68.831 Y48.285 I-0.3 J0
G1 X-69.131
G18 G3 X-69.431 Z-5.2 I0 K0.3
G0 Z7
Y47.685
G1 Z-4.2 F200
Z-5.5
G2 X-69.131 Z-5.8 I0.3 K0 F250
G1 X-68.831
G17 G3 X-68.531 Y47.985 I0 J0.3
X-71.531 Y47.985 I-1.5 J0
X-68.531 Y47.985 I1.5 J0
X-68.831 Y48.285 I-0.3 J0
G1 X-69.131
G18 G3 X-69.431 Z-5.5 I0 K0.3
G0 Z7
Y47.685
G1 Z-4.5 F200
Z-5.8
G2 X-69.131 Z-6.1 I0.3 K0 F250
G1 X-68.831
G17 G3 X-68.531 Y47.985 I0 J0.3
X-71.531 Y47.985 I-1.5 J0
X-68.531 Y47.985 I1.5 J0
X-68.831 Y48.285 I-0.3 J0
G1 X-69.131
G18 G3 X-69.431 Z-5.8 I0 K0.3
G0 Z7
Y47.685
G1 Z-4.8 F200
Z-6.1
G2 X-69.131 Z-6.4 I0.3 K0 F250
G1 X-68.831
G17 G3 X-68.531 Y47.985 I0 J0.3
X-71.531 Y47.985 I-1.5 J0
X-68.531 Y47.985 I1.5 J0
X-68.831 Y48.285 I-0.3 J0
G1 X-69.131
G18 G3 X-69.431 Z-6.1 I0 K0.3
G0 Z7
Y47.685
G1 Z-5.1 F200
Z-6.4
G2 X-69.131 Z-6.7 I0.3 K0 F250
G1 X-68.831
G17 G3 X-68.531 Y47.985 I0 J0.3
X-71.531 Y47.985 I-1.5 J0
X-68.531 Y47.985 I1.5 J0
X-68.831 Y48.285 I-0.3 J0
G1 X-69.131
G18 G3 X-69.431 Z-6.4 I0 K0.3
G0 Z7
Y47.685
G1 Z-5.4 F200
Z-6.7
G2 X-69.131 Z-7 I0.3 K0 F250
G1 X-68.831
G17 G3 X-68.531 Y47.985 I0 J0.3
X-71.531 Y47.985 I-1.5 J0
X-68.531 Y47.985 I1.5 J0
X-68.831 Y48.285 I-0.3 J0
G1 X-69.131
G18 G3 X-69.431 Z-6.7 I0 K0.3
G0 Z7
Y47.685
G1 Z-5.7 F200
Z-7
G2 X-69.131 Z-7.3 I0.3 K0 F250
G1 X-68.831
G17 G3 X-68.531 Y47.985 I0 J0.3
X-71.531 Y47.985 I-1.5 J0
X-68.531 Y47.985 I1.5 J0
X-68.831 Y48.285 I-0.3 J0
G1 X-69.131
G18 G3 X-69.431 Z-7 I0 K0.3
G0 Z7
Y47.685
G1 Z-6 F200
Z-7.1
G2 X-69.131 Z-7.4 I0.3 K0 F250
G1 X-68.831
G17 G3 X-68.531 Y47.985 I0 J0.3
X-71.531 Y47.985 I-1.5 J0
X-68.531 Y47.985 I1.5 J0
X-68.831 Y48.285 I-0.3 J0
G1 X-69.131
G18 G3 X-69.431 Z-7.1 I0 K0.3
G0 Z17
G17
M9
M5
M30
