(1001)
(T3  D=3 CR=0 - ZMIN=-4 - flat end mill)
G90 G94
G17
G21

(2D Pocket1)
T3
S1000 M3
G54
M8
G0 X68.7 Y0.4
Z15
Z5
G1 Z2.5 F200
Z-0.5
G3 X69.3 Y-0.4 I0.3 J-0.4
X68.7 Y0.4 I-0.3 J0.4
X69.3 Y-0.4 Z-0.555 I0.3 J-0.4 F333.3
X68.7 Y0.4 Z-0.61 I-0.3 J0.4
X69.3 Y-0.4 Z-0.665 I0.3 J-0.4
X68.7 Y0.4 Z-0.719 I-0.3 J0.4
X69.3 Y-0.4 Z-0.774 I0.3 J-0.4
X68.7 Y0.4 Z-0.829 I-0.3 J0.4
X69.3 Y-0.4 Z-0.884 I0.3 J-0.4
X68.7 Y0.4 Z-0.939 I-0.3 J0.4
X69.3 Y-0.4 Z-0.994 I0.3 J-0.4
X69.422 Y-0.268 Z-1 I-0.3 J0.4
X68.578 Y0.268 I-0.422 J0.268 F200
X69.422 Y-0.268 I0.422 J-0.268
X68.578 Y0.268 Z-1.055 I-0.422 J0.268 F333.3
X69.422 Y-0.268 Z-1.11 I0.422 J-0.268
X68.578 Y0.268 Z-1.165 I-0.422 J0.268
X69.422 Y-0.268 Z-1.219 I0.422 J-0.268
X68.578 Y0.268 Z-1.274 I-0.422 J0.268
X69.422 Y-0.268 Z-1.329 I0.422 J-0.268
X68.578 Y0.268 Z-1.384 I-0.422 J0.268
X69.422 Y-0.268 Z-1.439 I0.422 J-0.268
X68.578 Y0.268 Z-1.494 I-0.422 J0.268
X68.51 Y0.101 Z-1.5 I0.422 J-0.268
X69.49 Y-0.101 I0.49 J-0.101 F200
X68.51 Y0.101 I-0.49 J0.101
X69.49 Y-0.101 Z-1.555 I0.49 J-0.101 F333.3
X68.51 Y0.101 Z-1.61 I-0.49 J0.101
X69.49 Y-0.101 Z-1.665 I0.49 J-0.101
X68.51 Y0.101 Z-1.719 I-0.49 J0.101
X69.49 Y-0.101 Z-1.774 I0.49 J-0.101
X68.51 Y0.101 Z-1.829 I-0.49 J0.101
X69.49 Y-0.101 Z-1.884 I0.49 J-0.101
X68.51 Y0.101 Z-1.939 I-0.49 J0.101
X69.49 Y-0.101 Z-1.994 I0.49 J-0.101
X69.494 Y0.079 Z-2 I-0.49 J0.101
X68.506 Y-0.079 I-0.494 J-0.079 F200
X69.494 Y0.079 I0.494 J0.079
X68.506 Y-0.079 Z-2.055 I-0.494 J-0.079 F333.3
X69.494 Y0.079 Z-2.11 I0.494 J0.079
X68.506 Y-0.079 Z-2.165 I-0.494 J-0.079
X69.494 Y0.079 Z-2.219 I0.494 J0.079
X68.506 Y-0.079 Z-2.274 I-0.494 J-0.079
X69.494 Y0.079 Z-2.329 I0.494 J0.079
X68.506 Y-0.079 Z-2.384 I-0.494 J-0.079
X69.494 Y0.079 Z-2.439 I0.494 J0.079
X68.506 Y-0.079 Z-2.494 I-0.494 J-0.079
X68.566 Y-0.249 Z-2.5 I0.494 J0.079
X69.434 Y0.249 I0.434 J0.249 F200
X68.566 Y-0.249 I-0.434 J-0.249
X69.434 Y0.249 Z-2.555 I0.434 J0.249 F333.3
X68.566 Y-0.249 Z-2.61 I-0.434 J-0.249
X69.434 Y0.249 Z-2.665 I0.434 J0.249
X68.566 Y-0.249 Z-2.719 I-0.434 J-0.249
X69.434 Y0.249 Z-2.774 I0.434 J0.249
X68.566 Y-0.249 Z-2.829 I-0.434 J-0.249
X69.434 Y0.249 Z-2.884 I0.434 J0.249
X68.566 Y-0.249 Z-2.939 I-0.434 J-0.249
X69.434 Y0.249 Z-2.994 I0.434 J0.249
X69.318 Y0.386 Z-3 I-0.434 J-0.249
X68.682 Y-0.386 I-0.318 J-0.386 F200
X69.318 Y0.386 I0.318 J0.386
X68.682 Y-0.386 Z-3.055 I-0.318 J-0.386 F333.3
X69.318 Y0.386 Z-3.11 I0.318 J0.386
X68.682 Y-0.386 Z-3.165 I-0.318 J-0.386
X69.318 Y0.386 Z-3.219 I0.318 J0.386
X68.682 Y-0.386 Z-3.274 I-0.318 J-0.386
X69.318 Y0.386 Z-3.329 I0.318 J0.386
X68.682 Y-0.386 Z-3.384 I-0.318 J-0.386
X69.318 Y0.386 Z-3.439 I0.318 J0.386
X68.682 Y-0.386 Z-3.494 I-0.318 J-0.386
X68.84 Y-0.474 Z-3.5 I0.318 J0.386
X69.16 Y0.474 I0.16 J0.474 F200
X68.84 Y-0.474 I-0.16 J-0.474
X69.16 Y0.474 Z-3.555 I0.16 J0.474 F333.3
X68.84 Y-0.474 Z-3.61 I-0.16 J-0.474
X69.16 Y0.474 Z-3.665 I0.16 J0.474
X68.84 Y-0.474 Z-3.719 I-0.16 J-0.474
X69.16 Y0.474 Z-3.774 I0.16 J0.474
X68.84 Y-0.474 Z-3.829 I-0.16 J-0.474
X69.16 Y0.474 Z-3.884 I0.16 J0.474
X68.84 Y-0.474 Z-3.939 I-0.16 J-0.474
X69.16 Y0.474 Z-3.994 I0.16 J0.474
X68.982 Y0.5 Z-4 I-0.16 J-0.474
X69.018 Y-0.5 I0.018 J-0.5 F200
X68.982 Y0.5 I-0.018 J0.5
G0 Z15
X60.4 Y0.8
Z5
G1 Z2.5 F200
Z-0.5
G3 X61.6 Y-0.8 I0.6 J-0.8
X60.4 Y0.8 I-0.6 J0.8
X61.6 Y-0.8 Z-0.61 I0.6 J-0.8 F333.3
X60.4 Y0.8 Z-0.719 I-0.6 J0.8
X61.6 Y-0.8 Z-0.829 I0.6 J-0.8
X60.4 Y0.8 Z-0.939 I-0.6 J0.8
X60.321 Y-0.734 Z-1 I0.6 J-0.8
X61.679 Y0.734 I0.679 J0.734 F200
X60.321 Y-0.734 I-0.679 J-0.734
X61.679 Y0.734 Z-1.11 I0.679 J0.734 F333.3
X60.321 Y-0.734 Z-1.219 I-0.679 J-0.734
X61.679 Y0.734 Z-1.329 I0.679 J0.734
X60.321 Y-0.734 Z-1.439 I-0.679 J-0.734
X61.844 Y-0.536 Z-1.5 I0.679 J0.734
X60.156 Y0.536 I-0.844 J0.536 F200
X61.844 Y-0.536 I0.844 J-0.536
X60.156 Y0.536 Z-1.61 I-0.844 J0.536 F333.3
X61.844 Y-0.536 Z-1.719 I0.844 J-0.536
X60.156 Y0.536 Z-1.829 I-0.844 J0.536
X61.844 Y-0.536 Z-1.939 I0.844 J-0.536
X61.375 Y0.927 Z-2 I-0.844 J0.536
X60.625 Y-0.927 I-0.375 J-0.927 F200
X61.375 Y0.927 I0.375 J0.927
X60.625 Y-0.927 Z-2.11 I-0.375 J-0.927 F333.3
X61.375 Y0.927 Z-2.219 I0.375 J0.927
X60.625 Y-0.927 Z-2.329 I-0.375 J-0.927
X61.375 Y0.927 Z-2.439 I0.375 J0.927
X60.021 Y0.202 Z-2.5 I-0.375 J-0.927
X61.979 Y-0.202 I0.979 J-0.202 F200
X60.021 Y0.202 I-0.979 J0.202
X61.979 Y-0.202 Z-2.61 I0.979 J-0.202 F333.3
X60.021 Y0.202 Z-2.719 I-0.979 J0.202
X61.979 Y-0.202 Z-2.829 I0.979 J-0.202
X60.021 Y0.202 Z-2.939 I-0.979 J0.202
X60.978 Y-1 Z-3 I0.979 J-0.202
X61.022 Y1 I0.022 J1 F200
X60.978 Y-1 I-0.022 J-1
X61.022 Y1 Z-3.11 I0.022 J1 F333.3
X60.978 Y-1 Z-3.219 I-0.022 J-1
X61.022 Y1 Z-3.329 I0.022 J1
X60.978 Y-1 Z-3.439 I-0.022 J-1
X61.987 Y0.158 Z-3.5 I0.022 J1
X60.013 Y-0.158 I-0.987 J-0.158 F200
X61.987 Y0.158 I0.987 J0.158
X60.013 Y-0.158 Z-3.61 I-0.987 J-0.158 F333.3
X61.987 Y0.158 Z-3.719 I0.987 J0.158
X60.013 Y-0.158 Z-3.829 I-0.987 J-0.158
X61.987 Y0.158 Z-3.939 I0.987 J0.158
X60.667 Y0.943 Z-4 I-0.987 J-0.158
X61.333 Y-0.943 I0.333 J-0.943 F200
X60.667 Y0.943 I-0.333 J0.943
G0 Z15
X68.7 Y-14.6
Z5
G1 Z2.5 F200
Z-0.5
G3 X69.3 Y-15.4 I0.3 J-0.4
X68.7 Y-14.6 I-0.3 J0.4
X69.3 Y-15.4 Z-0.555 I0.3 J-0.4 F333.3
X68.7 Y-14.6 Z-0.61 I-0.3 J0.4
X69.3 Y-15.4 Z-0.665 I0.3 J-0.4
X68.7 Y-14.6 Z-0.719 I-0.3 J0.4
X69.3 Y-15.4 Z-0.774 I0.3 J-0.4
X68.7 Y-14.6 Z-0.829 I-0.3 J0.4
X69.3 Y-15.4 Z-0.884 I0.3 J-0.4
X68.7 Y-14.6 Z-0.939 I-0.3 J0.4
X69.3 Y-15.4 Z-0.994 I0.3 J-0.4
X69.422 Y-15.268 Z-1 I-0.3 J0.4
X68.578 Y-14.732 I-0.422 J0.268 F200
X69.422 Y-15.268 I0.422 J-0.268
X68.578 Y-14.732 Z-1.055 I-0.422 J0.268 F333.3
X69.422 Y-15.268 Z-1.11 I0.422 J-0.268
X68.578 Y-14.732 Z-1.165 I-0.422 J0.268
X69.422 Y-15.268 Z-1.219 I0.422 J-0.268
X68.578 Y-14.732 Z-1.274 I-0.422 J0.268
X69.422 Y-15.268 Z-1.329 I0.422 J-0.268
X68.578 Y-14.732 Z-1.384 I-0.422 J0.268
X69.422 Y-15.268 Z-1.439 I0.422 J-0.268
X68.578 Y-14.732 Z-1.494 I-0.422 J0.268
X68.51 Y-14.899 Z-1.5 I0.422 J-0.268
X69.49 Y-15.101 I0.49 J-0.101 F200
X68.51 Y-14.899 I-0.49 J0.101
X69.49 Y-15.101 Z-1.555 I0.49 J-0.101 F333.3
X68.51 Y-14.899 Z-1.61 I-0.49 J0.101
X69.49 Y-15.101 Z-1.665 I0.49 J-0.101
X68.51 Y-14.899 Z-1.719 I-0.49 J0.101
X69.49 Y-15.101 Z-1.774 I0.49 J-0.101
X68.51 Y-14.899 Z-1.829 I-0.49 J0.101
X69.49 Y-15.101 Z-1.884 I0.49 J-0.101
X68.51 Y-14.899 Z-1.939 I-0.49 J0.101
X69.49 Y-15.101 Z-1.994 I0.49 J-0.101
X69.494 Y-14.921 Z-2 I-0.49 J0.101
X68.506 Y-15.079 I-0.494 J-0.079 F200
X69.494 Y-14.921 I0.494 J0.079
X68.506 Y-15.079 Z-2.055 I-0.494 J-0.079 F333.3
X69.494 Y-14.921 Z-2.11 I0.494 J0.079
X68.506 Y-15.079 Z-2.165 I-0.494 J-0.079
X69.494 Y-14.921 Z-2.219 I0.494 J0.079
X68.506 Y-15.079 Z-2.274 I-0.494 J-0.079
X69.494 Y-14.921 Z-2.329 I0.494 J0.079
X68.506 Y-15.079 Z-2.384 I-0.494 J-0.079
X69.494 Y-14.921 Z-2.439 I0.494 J0.079
X68.506 Y-15.079 Z-2.494 I-0.494 J-0.079
X68.566 Y-15.249 Z-2.5 I0.494 J0.079
X69.434 Y-14.751 I0.434 J0.249 F200
X68.566 Y-15.249 I-0.434 J-0.249
X69.434 Y-14.751 Z-2.555 I0.434 J0.249 F333.3
X68.566 Y-15.249 Z-2.61 I-0.434 J-0.249
X69.434 Y-14.751 Z-2.665 I0.434 J0.249
X68.566 Y-15.249 Z-2.719 I-0.434 J-0.249
X69.434 Y-14.751 Z-2.774 I0.434 J0.249
X68.566 Y-15.249 Z-2.829 I-0.434 J-0.249
X69.434 Y-14.751 Z-2.884 I0.434 J0.249
X68.566 Y-15.249 Z-2.939 I-0.434 J-0.249
X69.434 Y-14.751 Z-2.994 I0.434 J0.249
X69.318 Y-14.614 Z-3 I-0.434 J-0.249
X68.682 Y-15.386 I-0.318 J-0.386 F200
X69.318 Y-14.614 I0.318 J0.386
G0 Z15
X60.4 Y-14.2
Z5
G1 Z2.5 F200
Z-0.5
G3 X61.6 Y-15.8 I0.6 J-0.8
X60.4 Y-14.2 I-0.6 J0.8
X61.6 Y-15.8 Z-0.61 I0.6 J-0.8 F333.3
X60.4 Y-14.2 Z-0.719 I-0.6 J0.8
X61.6 Y-15.8 Z-0.829 I0.6 J-0.8
X60.4 Y-14.2 Z-0.939 I-0.6 J0.8
X60.321 Y-15.734 Z-1 I0.6 J-0.8
X61.679 Y-14.266 I0.679 J0.734 F200
X60.321 Y-15.734 I-0.679 J-0.734
X61.679 Y-14.266 Z-1.11 I0.679 J0.734 F333.3
X60.321 Y-15.734 Z-1.219 I-0.679 J-0.734
X61.679 Y-14.266 Z-1.329 I0.679 J0.734
X60.321 Y-15.734 Z-1.439 I-0.679 J-0.734
X61.844 Y-15.536 Z-1.5 I0.679 J0.734
X60.156 Y-14.464 I-0.844 J0.536 F200
X61.844 Y-15.536 I0.844 J-0.536
X60.156 Y-14.464 Z-1.61 I-0.844 J0.536 F333.3
X61.844 Y-15.536 Z-1.719 I0.844 J-0.536
X60.156 Y-14.464 Z-1.829 I-0.844 J0.536
X61.844 Y-15.536 Z-1.939 I0.844 J-0.536
X61.375 Y-14.073 Z-2 I-0.844 J0.536
X60.625 Y-15.927 I-0.375 J-0.927 F200
X61.375 Y-14.073 I0.375 J0.927
X60.625 Y-15.927 Z-2.11 I-0.375 J-0.927 F333.3
X61.375 Y-14.073 Z-2.219 I0.375 J0.927
X60.625 Y-15.927 Z-2.329 I-0.375 J-0.927
X61.375 Y-14.073 Z-2.439 I0.375 J0.927
X60.021 Y-14.798 Z-2.5 I-0.375 J-0.927
X61.979 Y-15.202 I0.979 J-0.202 F200
X60.021 Y-14.798 I-0.979 J0.202
X61.979 Y-15.202 Z-2.61 I0.979 J-0.202 F333.3
X60.021 Y-14.798 Z-2.719 I-0.979 J0.202
X61.979 Y-15.202 Z-2.829 I0.979 J-0.202
X60.021 Y-14.798 Z-2.939 I-0.979 J0.202
X60.978 Y-16 Z-3 I0.979 J-0.202
X61.022 Y-14 I0.022 J1 F200
X60.978 Y-16 I-0.022 J-1
G0 Z15
X68.7 Y-29.6
Z5
G1 Z2.5 F200
Z-0.5
G3 X69.3 Y-30.4 I0.3 J-0.4
X68.7 Y-29.6 I-0.3 J0.4
X69.3 Y-30.4 Z-0.555 I0.3 J-0.4 F333.3
X68.7 Y-29.6 Z-0.61 I-0.3 J0.4
X69.3 Y-30.4 Z-0.665 I0.3 J-0.4
X68.7 Y-29.6 Z-0.719 I-0.3 J0.4
X69.3 Y-30.4 Z-0.774 I0.3 J-0.4
X68.7 Y-29.6 Z-0.829 I-0.3 J0.4
X69.3 Y-30.4 Z-0.884 I0.3 J-0.4
X68.7 Y-29.6 Z-0.939 I-0.3 J0.4
X69.3 Y-30.4 Z-0.994 I0.3 J-0.4
X69.422 Y-30.268 Z-1 I-0.3 J0.4
X68.578 Y-29.732 I-0.422 J0.268 F200
X69.422 Y-30.268 I0.422 J-0.268
X68.578 Y-29.732 Z-1.055 I-0.422 J0.268 F333.3
X69.422 Y-30.268 Z-1.11 I0.422 J-0.268
X68.578 Y-29.732 Z-1.165 I-0.422 J0.268
X69.422 Y-30.268 Z-1.219 I0.422 J-0.268
X68.578 Y-29.732 Z-1.274 I-0.422 J0.268
X69.422 Y-30.268 Z-1.329 I0.422 J-0.268
X68.578 Y-29.732 Z-1.384 I-0.422 J0.268
X69.422 Y-30.268 Z-1.439 I0.422 J-0.268
X68.578 Y-29.732 Z-1.494 I-0.422 J0.268
X68.51 Y-29.899 Z-1.5 I0.422 J-0.268
X69.49 Y-30.101 I0.49 J-0.101 F200
X68.51 Y-29.899 I-0.49 J0.101
X69.49 Y-30.101 Z-1.555 I0.49 J-0.101 F333.3
X68.51 Y-29.899 Z-1.61 I-0.49 J0.101
X69.49 Y-30.101 Z-1.665 I0.49 J-0.101
X68.51 Y-29.899 Z-1.719 I-0.49 J0.101
X69.49 Y-30.101 Z-1.774 I0.49 J-0.101
X68.51 Y-29.899 Z-1.829 I-0.49 J0.101
X69.49 Y-30.101 Z-1.884 I0.49 J-0.101
X68.51 Y-29.899 Z-1.939 I-0.49 J0.101
X69.49 Y-30.101 Z-1.994 I0.49 J-0.101
X69.494 Y-29.921 Z-2 I-0.49 J0.101
X68.506 Y-30.079 I-0.494 J-0.079 F200
X69.494 Y-29.921 I0.494 J0.079
G0 Z15
X60.4 Y-29.2
Z5
G1 Z2.5 F200
Z-0.5
G3 X61.6 Y-30.8 I0.6 J-0.8
X60.4 Y-29.2 I-0.6 J0.8
X61.6 Y-30.8 Z-0.61 I0.6 J-0.8 F333.3
X60.4 Y-29.2 Z-0.719 I-0.6 J0.8
X61.6 Y-30.8 Z-0.829 I0.6 J-0.8
X60.4 Y-29.2 Z-0.939 I-0.6 J0.8
X60.321 Y-30.734 Z-1 I0.6 J-0.8
X61.679 Y-29.266 I0.679 J0.734 F200
X60.321 Y-30.734 I-0.679 J-0.734
X61.679 Y-29.266 Z-1.11 I0.679 J0.734 F333.3
X60.321 Y-30.734 Z-1.219 I-0.679 J-0.734
X61.679 Y-29.266 Z-1.329 I0.679 J0.734
X60.321 Y-30.734 Z-1.439 I-0.679 J-0.734
X61.844 Y-30.536 Z-1.5 I0.679 J0.734
X60.156 Y-29.464 I-0.844 J0.536 F200
X61.844 Y-30.536 I0.844 J-0.536
X60.156 Y-29.464 Z-1.61 I-0.844 J0.536 F333.3
X61.844 Y-30.536 Z-1.719 I0.844 J-0.536
X60.156 Y-29.464 Z-1.829 I-0.844 J0.536
X61.844 Y-30.536 Z-1.939 I0.844 J-0.536
X61.375 Y-29.073 Z-2 I-0.844 J0.536
X60.625 Y-30.927 I-0.375 J-0.927 F200
X61.375 Y-29.073 I0.375 J0.927
G0 Z15
X68.7 Y-44.6
Z5
G1 Z2.5 F200
Z-0.5
G3 X69.3 Y-45.4 I0.3 J-0.4
X68.7 Y-44.6 I-0.3 J0.4
X69.3 Y-45.4 Z-0.555 I0.3 J-0.4 F333.3
X68.7 Y-44.6 Z-0.61 I-0.3 J0.4
X69.3 Y-45.4 Z-0.665 I0.3 J-0.4
X68.7 Y-44.6 Z-0.719 I-0.3 J0.4
X69.3 Y-45.4 Z-0.774 I0.3 J-0.4
X68.7 Y-44.6 Z-0.829 I-0.3 J0.4
X69.3 Y-45.4 Z-0.884 I0.3 J-0.4
X68.7 Y-44.6 Z-0.939 I-0.3 J0.4
X69.3 Y-45.4 Z-0.994 I0.3 J-0.4
X69.422 Y-45.268 Z-1 I-0.3 J0.4
X68.578 Y-44.732 I-0.422 J0.268 F200
X69.422 Y-45.268 I0.422 J-0.268
G0 Z15
X60.4 Y-44.2
Z5
G1 Z2.5 F200
Z-0.5
G3 X61.6 Y-45.8 I0.6 J-0.8
X60.4 Y-44.2 I-0.6 J0.8
X61.6 Y-45.8 Z-0.61 I0.6 J-0.8 F333.3
X60.4 Y-44.2 Z-0.719 I-0.6 J0.8
X61.6 Y-45.8 Z-0.829 I0.6 J-0.8
X60.4 Y-44.2 Z-0.939 I-0.6 J0.8
X60.321 Y-45.734 Z-1 I0.6 J-0.8
X61.679 Y-44.266 I0.679 J0.734 F200
X60.321 Y-45.734 I-0.679 J-0.734
G0 Z15
X50.821 Y-44.199
Z5
G1 Z2.5 F200
G3 X53.179 Y-45.801 Z2.344 I1.179 J-0.801 F333.3
X50.821 Y-44.199 Z2.187 I-1.179 J0.801
X53.179 Y-45.801 Z2.031 I1.179 J-0.801
X50.821 Y-44.199 Z1.875 I-1.179 J0.801
X53.179 Y-45.801 Z1.718 I1.179 J-0.801
X50.821 Y-44.199 Z1.562 I-1.179 J0.801
X53.179 Y-45.801 Z1.406 I1.179 J-0.801
X50.821 Y-44.199 Z1.249 I-1.179 J0.801
X53.179 Y-45.801 Z1.093 I1.179 J-0.801
X50.821 Y-44.199 Z0.937 I-1.179 J0.801
X53.179 Y-45.801 Z0.78 I1.179 J-0.801
X50.821 Y-44.199 Z0.624 I-1.179 J0.801
X53.179 Y-45.801 Z0.468 I1.179 J-0.801
X50.821 Y-44.199 Z0.311 I-1.179 J0.801
X53.179 Y-45.801 Z0.155 I1.179 J-0.801
X50.821 Y-44.199 Z-0.001 I-1.179 J0.801
X53.179 Y-45.801 Z-0.158 I1.179 J-0.801
X50.821 Y-44.199 Z-0.314 I-1.179 J0.801
X53.179 Y-45.801 Z-0.47 I1.179 J-0.801
X53.425 Y-45 Z-0.5 I-1.179 J0.801
G1 X53.418 Y-44.978
X53.399 Y-44.964
X53.376
X53.357 Y-44.978
X53.35 Y-45
X53.357 Y-45.033 F200
X53.378 Y-45.059
X53.408 Y-45.073
X53.442
X53.472 Y-45.059
X53.493 Y-45.033
X53.5 Y-45
G3 X50.5 Y-45 I-1.5 J0
X53.5 Y-45 I1.5 J0
G1 X53.494 Y-44.95
X53.475 Y-44.903
X53.445 Y-44.862
X53.406 Y-44.83
X53.359 Y-44.809
X51.065 Y-44.094
X51.016 Y-44.085
X50.966 Y-44.089
X50.919 Y-44.105
X50.877 Y-44.132
X50.843 Y-44.169
G3 X53.157 Y-45.831 Z-0.656 I1.157 J-0.831 F333.3
X50.843 Y-44.169 Z-0.813 I-1.157 J0.831
X53.157 Y-45.831 Z-0.969 I1.157 J-0.831
X53.425 Y-45 Z-1 I-1.157 J0.831
G1 X53.418 Y-44.978
X53.399 Y-44.964
X53.376
X53.357 Y-44.978
X53.35 Y-45
X53.357 Y-45.033 F200
X53.378 Y-45.059
X53.408 Y-45.073
X53.442
X53.472 Y-45.059
X53.493 Y-45.033
X53.5 Y-45
G3 X50.5 Y-45 I-1.5 J0
X53.5 Y-45 I1.5 J0
G0 Z15
X40.39 Y-44.199
Z5
G1 Z2.5 F200
G3 X42.748 Y-45.801 Z2.344 I1.179 J-0.801 F333.3
X40.39 Y-44.199 Z2.187 I-1.179 J0.801
X42.748 Y-45.801 Z2.031 I1.179 J-0.801
X40.39 Y-44.199 Z1.875 I-1.179 J0.801
X42.748 Y-45.801 Z1.718 I1.179 J-0.801
X40.39 Y-44.199 Z1.562 I-1.179 J0.801
X42.748 Y-45.801 Z1.406 I1.179 J-0.801
X40.39 Y-44.199 Z1.249 I-1.179 J0.801
X42.748 Y-45.801 Z1.093 I1.179 J-0.801
X40.39 Y-44.199 Z0.937 I-1.179 J0.801
X42.748 Y-45.801 Z0.78 I1.179 J-0.801
X40.39 Y-44.199 Z0.624 I-1.179 J0.801
X42.748 Y-45.801 Z0.468 I1.179 J-0.801
X40.39 Y-44.199 Z0.311 I-1.179 J0.801
X42.748 Y-45.801 Z0.155 I1.179 J-0.801
X40.39 Y-44.199 Z-0.001 I-1.179 J0.801
X42.748 Y-45.801 Z-0.158 I1.179 J-0.801
X40.39 Y-44.199 Z-0.314 I-1.179 J0.801
X42.748 Y-45.801 Z-0.47 I1.179 J-0.801
X42.994 Y-45 Z-0.5 I-1.179 J0.801
X41.85 Y-45 I-0.572 J0
X43 Y-45 I0.575 J0 F200
X39 Y-45 I-2 J0
X43 Y-45 I2 J0
G1 X42.994 Y-44.95
X42.975 Y-44.903
X42.946 Y-44.863
X42.907 Y-44.831
X42.861 Y-44.81
X40.635 Y-44.095
X40.586 Y-44.086
X40.536 Y-44.089
X40.488 Y-44.105
X40.446 Y-44.132
X40.411 Y-44.169
G3 X42.726 Y-45.831 Z-0.656 I1.157 J-0.831 F333.3
X40.411 Y-44.169 Z-0.813 I-1.157 J0.831
X42.726 Y-45.831 Z-0.969 I1.157 J-0.831
X42.994 Y-45 Z-1 I-1.157 J0.831
X41.85 Y-45 I-0.572 J0
X43 Y-45 I0.575 J0 F200
X39 Y-45 I-2 J0
X43 Y-45 I2 J0
G0 Z15
X50.821 Y-29.199
Z5
G1 Z2.5 F200
G3 X53.179 Y-30.801 Z2.344 I1.179 J-0.801 F333.3
X50.821 Y-29.199 Z2.187 I-1.179 J0.801
X53.179 Y-30.801 Z2.031 I1.179 J-0.801
X50.821 Y-29.199 Z1.875 I-1.179 J0.801
X53.179 Y-30.801 Z1.718 I1.179 J-0.801
X50.821 Y-29.199 Z1.562 I-1.179 J0.801
X53.179 Y-30.801 Z1.406 I1.179 J-0.801
X50.821 Y-29.199 Z1.249 I-1.179 J0.801
X53.179 Y-30.801 Z1.093 I1.179 J-0.801
X50.821 Y-29.199 Z0.937 I-1.179 J0.801
X53.179 Y-30.801 Z0.78 I1.179 J-0.801
X50.821 Y-29.199 Z0.624 I-1.179 J0.801
X53.179 Y-30.801 Z0.468 I1.179 J-0.801
X50.821 Y-29.199 Z0.311 I-1.179 J0.801
X53.179 Y-30.801 Z0.155 I1.179 J-0.801
X50.821 Y-29.199 Z-0.001 I-1.179 J0.801
X53.179 Y-30.801 Z-0.158 I1.179 J-0.801
X50.821 Y-29.199 Z-0.314 I-1.179 J0.801
X53.179 Y-30.801 Z-0.47 I1.179 J-0.801
X53.425 Y-30 Z-0.5 I-1.179 J0.801
G1 X53.418 Y-29.978
X53.399 Y-29.964
X53.376
X53.357 Y-29.978
X53.35 Y-30
X53.357 Y-30.033 F200
X53.378 Y-30.059
X53.408 Y-30.073
X53.442
X53.472 Y-30.059
X53.493 Y-30.033
X53.5 Y-30
G3 X50.5 Y-30 I-1.5 J0
X53.5 Y-30 I1.5 J0
G1 X53.494 Y-29.95
X53.475 Y-29.903
X53.445 Y-29.862
X53.406 Y-29.83
X53.359 Y-29.809
X51.065 Y-29.094
X51.016 Y-29.085
X50.966 Y-29.089
X50.919 Y-29.105
X50.877 Y-29.132
X50.843 Y-29.169
G3 X53.157 Y-30.831 Z-0.656 I1.157 J-0.831 F333.3
X50.843 Y-29.169 Z-0.813 I-1.157 J0.831
X53.157 Y-30.831 Z-0.969 I1.157 J-0.831
X53.425 Y-30 Z-1 I-1.157 J0.831
G1 X53.418 Y-29.978
X53.399 Y-29.964
X53.376
X53.357 Y-29.978
X53.35 Y-30
X53.357 Y-30.033 F200
X53.378 Y-30.059
X53.408 Y-30.073
X53.442
X53.472 Y-30.059
X53.493 Y-30.033
X53.5 Y-30
G3 X50.5 Y-30 I-1.5 J0
X53.5 Y-30 I1.5 J0
G1 X53.494 Y-29.95
X53.475 Y-29.903
X53.445 Y-29.862
X53.406 Y-29.83
X53.359 Y-29.809
X51.065 Y-29.094
X51.016 Y-29.085
X50.966 Y-29.089
X50.919 Y-29.105
X50.877 Y-29.132
X50.843 Y-29.169
G3 X53.157 Y-30.831 Z-1.156 I1.157 J-0.831 F333.3
X50.843 Y-29.169 Z-1.313 I-1.157 J0.831
X53.157 Y-30.831 Z-1.469 I1.157 J-0.831
X53.425 Y-30 Z-1.5 I-1.157 J0.831
G1 X53.418 Y-29.978
X53.399 Y-29.964
X53.376
X53.357 Y-29.978
X53.35 Y-30
X53.357 Y-30.033 F200
X53.378 Y-30.059
X53.408 Y-30.073
X53.442
X53.472 Y-30.059
X53.493 Y-30.033
X53.5 Y-30
G3 X50.5 Y-30 I-1.5 J0
X53.5 Y-30 I1.5 J0
G1 X53.494 Y-29.95
X53.475 Y-29.903
X53.445 Y-29.862
X53.406 Y-29.83
X53.359 Y-29.809
X51.065 Y-29.094
X51.016 Y-29.085
X50.966 Y-29.089
X50.919 Y-29.105
X50.877 Y-29.132
X50.843 Y-29.169
G3 X53.157 Y-30.831 Z-1.656 I1.157 J-0.831 F333.3
X50.843 Y-29.169 Z-1.813 I-1.157 J0.831
X53.157 Y-30.831 Z-1.969 I1.157 J-0.831
X53.425 Y-30 Z-2 I-1.157 J0.831
G1 X53.418 Y-29.978
X53.399 Y-29.964
X53.376
X53.357 Y-29.978
X53.35 Y-30
X53.357 Y-30.033 F200
X53.378 Y-30.059
X53.408 Y-30.073
X53.442
X53.472 Y-30.059
X53.493 Y-30.033
X53.5 Y-30
G3 X50.5 Y-30 I-1.5 J0
X53.5 Y-30 I1.5 J0
G0 Z15
X40.39 Y-29.199
Z5
G1 Z2.5 F200
G3 X42.748 Y-30.801 Z2.344 I1.179 J-0.801 F333.3
X40.39 Y-29.199 Z2.187 I-1.179 J0.801
X42.748 Y-30.801 Z2.031 I1.179 J-0.801
X40.39 Y-29.199 Z1.875 I-1.179 J0.801
X42.748 Y-30.801 Z1.718 I1.179 J-0.801
X40.39 Y-29.199 Z1.562 I-1.179 J0.801
X42.748 Y-30.801 Z1.406 I1.179 J-0.801
X40.39 Y-29.199 Z1.249 I-1.179 J0.801
X42.748 Y-30.801 Z1.093 I1.179 J-0.801
X40.39 Y-29.199 Z0.937 I-1.179 J0.801
X42.748 Y-30.801 Z0.78 I1.179 J-0.801
X40.39 Y-29.199 Z0.624 I-1.179 J0.801
X42.748 Y-30.801 Z0.468 I1.179 J-0.801
X40.39 Y-29.199 Z0.311 I-1.179 J0.801
X42.748 Y-30.801 Z0.155 I1.179 J-0.801
X40.39 Y-29.199 Z-0.001 I-1.179 J0.801
X42.748 Y-30.801 Z-0.158 I1.179 J-0.801
X40.39 Y-29.199 Z-0.314 I-1.179 J0.801
X42.748 Y-30.801 Z-0.47 I1.179 J-0.801
X42.994 Y-30 Z-0.5 I-1.179 J0.801
X41.85 Y-30 I-0.572 J0
X43 Y-30 I0.575 J0 F200
X39 Y-30 I-2 J0
X43 Y-30 I2 J0
G1 X42.994 Y-29.95
X42.975 Y-29.903
X42.946 Y-29.863
X42.907 Y-29.831
X42.861 Y-29.81
X40.635 Y-29.095
X40.586 Y-29.086
X40.536 Y-29.089
X40.488 Y-29.105
X40.446 Y-29.132
X40.411 Y-29.169
G3 X42.726 Y-30.831 Z-0.656 I1.157 J-0.831 F333.3
X40.411 Y-29.169 Z-0.813 I-1.157 J0.831
X42.726 Y-30.831 Z-0.969 I1.157 J-0.831
X42.994 Y-30 Z-1 I-1.157 J0.831
X41.85 Y-30 I-0.572 J0
X43 Y-30 I0.575 J0 F200
X39 Y-30 I-2 J0
X43 Y-30 I2 J0
G1 X42.994 Y-29.95
X42.975 Y-29.903
X42.946 Y-29.863
X42.907 Y-29.831
X42.861 Y-29.81
X40.635 Y-29.095
X40.586 Y-29.086
X40.536 Y-29.089
X40.488 Y-29.105
X40.446 Y-29.132
X40.411 Y-29.169
G3 X42.726 Y-30.831 Z-1.156 I1.157 J-0.831 F333.3
X40.411 Y-29.169 Z-1.313 I-1.157 J0.831
X42.726 Y-30.831 Z-1.469 I1.157 J-0.831
X42.994 Y-30 Z-1.5 I-1.157 J0.831
X41.85 Y-30 I-0.572 J0
X43 Y-30 I0.575 J0 F200
X39 Y-30 I-2 J0
X43 Y-30 I2 J0
G1 X42.994 Y-29.95
X42.975 Y-29.903
X42.946 Y-29.863
X42.907 Y-29.831
X42.861 Y-29.81
X40.635 Y-29.095
X40.586 Y-29.086
X40.536 Y-29.089
X40.488 Y-29.105
X40.446 Y-29.132
X40.411 Y-29.169
G3 X42.726 Y-30.831 Z-1.656 I1.157 J-0.831 F333.3
X40.411 Y-29.169 Z-1.813 I-1.157 J0.831
X42.726 Y-30.831 Z-1.969 I1.157 J-0.831
X42.994 Y-30 Z-2 I-1.157 J0.831
X41.85 Y-30 I-0.572 J0
X43 Y-30 I0.575 J0 F200
X39 Y-30 I-2 J0
X43 Y-30 I2 J0
G0 Z15
X28.875 Y-29.199
Z5
G1 Z2.5 F200
G3 X31.233 Y-30.801 Z2.344 I1.179 J-0.801 F333.3
X28.875 Y-29.199 Z2.187 I-1.179 J0.801
X31.233 Y-30.801 Z2.031 I1.179 J-0.801
X28.875 Y-29.199 Z1.875 I-1.179 J0.801
X31.233 Y-30.801 Z1.718 I1.179 J-0.801
X28.875 Y-29.199 Z1.562 I-1.179 J0.801
X31.233 Y-30.801 Z1.406 I1.179 J-0.801
X28.875 Y-29.199 Z1.249 I-1.179 J0.801
X31.233 Y-30.801 Z1.093 I1.179 J-0.801
X28.875 Y-29.199 Z0.937 I-1.179 J0.801
X31.233 Y-30.801 Z0.78 I1.179 J-0.801
X28.875 Y-29.199 Z0.624 I-1.179 J0.801
X31.233 Y-30.801 Z0.468 I1.179 J-0.801
X28.875 Y-29.199 Z0.311 I-1.179 J0.801
X31.233 Y-30.801 Z0.155 I1.179 J-0.801
X28.875 Y-29.199 Z-0.001 I-1.179 J0.801
X31.233 Y-30.801 Z-0.158 I1.179 J-0.801
X28.875 Y-29.199 Z-0.314 I-1.179 J0.801
X31.233 Y-30.801 Z-0.47 I1.179 J-0.801
X31.479 Y-30 Z-0.5 I-1.179 J0.801
X29.35 Y-30 I-1.064 J0
X31.5 Y-30 I1.075 J0 F200
X26.5 Y-30 I-2.5 J0
X31.5 Y-30 I2.5 J0
G1 X31.494 Y-29.95
X31.475 Y-29.903
X31.445 Y-29.863
X31.406 Y-29.831
X31.361 Y-29.809
X29.12 Y-29.095
X29.071 Y-29.086
X29.021 Y-29.089
X28.973 Y-29.105
X28.931 Y-29.132
X28.897 Y-29.169
G3 X31.211 Y-30.831 Z-0.656 I1.157 J-0.831 F333.3
X28.897 Y-29.169 Z-0.813 I-1.157 J0.831
X31.211 Y-30.831 Z-0.969 I1.157 J-0.831
X31.479 Y-30 Z-1 I-1.157 J0.831
X29.35 Y-30 I-1.064 J0
X31.5 Y-30 I1.075 J0 F200
X26.5 Y-30 I-2.5 J0
X31.5 Y-30 I2.5 J0
G1 X31.494 Y-29.95
X31.475 Y-29.903
X31.445 Y-29.863
X31.406 Y-29.831
X31.361 Y-29.809
X29.12 Y-29.095
X29.071 Y-29.086
X29.021 Y-29.089
X28.973 Y-29.105
X28.931 Y-29.132
X28.897 Y-29.169
G3 X31.211 Y-30.831 Z-1.156 I1.157 J-0.831 F333.3
X28.897 Y-29.169 Z-1.313 I-1.157 J0.831
X31.211 Y-30.831 Z-1.469 I1.157 J-0.831
X31.479 Y-30 Z-1.5 I-1.157 J0.831
X29.35 Y-30 I-1.064 J0
X31.5 Y-30 I1.075 J0 F200
X26.5 Y-30 I-2.5 J0
X31.5 Y-30 I2.5 J0
G1 X31.494 Y-29.95
X31.475 Y-29.903
X31.445 Y-29.863
X31.406 Y-29.831
X31.361 Y-29.809
X29.12 Y-29.095
X29.071 Y-29.086
X29.021 Y-29.089
X28.973 Y-29.105
X28.931 Y-29.132
X28.897 Y-29.169
G3 X31.211 Y-30.831 Z-1.656 I1.157 J-0.831 F333.3
X28.897 Y-29.169 Z-1.813 I-1.157 J0.831
X31.211 Y-30.831 Z-1.969 I1.157 J-0.831
X31.479 Y-30 Z-2 I-1.157 J0.831
X29.35 Y-30 I-1.064 J0
X31.5 Y-30 I1.075 J0 F200
X26.5 Y-30 I-2.5 J0
X31.5 Y-30 I2.5 J0
G0 Z15
X28.875 Y-44.199
Z5
G1 Z2.5 F200
G3 X31.233 Y-45.801 Z2.344 I1.179 J-0.801 F333.3
X28.875 Y-44.199 Z2.187 I-1.179 J0.801
X31.233 Y-45.801 Z2.031 I1.179 J-0.801
X28.875 Y-44.199 Z1.875 I-1.179 J0.801
X31.233 Y-45.801 Z1.718 I1.179 J-0.801
X28.875 Y-44.199 Z1.562 I-1.179 J0.801
X31.233 Y-45.801 Z1.406 I1.179 J-0.801
X28.875 Y-44.199 Z1.249 I-1.179 J0.801
X31.233 Y-45.801 Z1.093 I1.179 J-0.801
X28.875 Y-44.199 Z0.937 I-1.179 J0.801
X31.233 Y-45.801 Z0.78 I1.179 J-0.801
X28.875 Y-44.199 Z0.624 I-1.179 J0.801
X31.233 Y-45.801 Z0.468 I1.179 J-0.801
X28.875 Y-44.199 Z0.311 I-1.179 J0.801
X31.233 Y-45.801 Z0.155 I1.179 J-0.801
X28.875 Y-44.199 Z-0.001 I-1.179 J0.801
X31.233 Y-45.801 Z-0.158 I1.179 J-0.801
X28.875 Y-44.199 Z-0.314 I-1.179 J0.801
X31.233 Y-45.801 Z-0.47 I1.179 J-0.801
X31.479 Y-45 Z-0.5 I-1.179 J0.801
X29.35 Y-45 I-1.064 J0
X31.5 Y-45 I1.075 J0 F200
X26.5 Y-45 I-2.5 J0
X31.5 Y-45 I2.5 J0
G1 X31.494 Y-44.95
X31.475 Y-44.903
X31.445 Y-44.863
X31.406 Y-44.831
X31.361 Y-44.809
X29.12 Y-44.095
X29.071 Y-44.086
X29.021 Y-44.089
X28.973 Y-44.105
X28.931 Y-44.132
X28.897 Y-44.169
G3 X31.211 Y-45.831 Z-0.656 I1.157 J-0.831 F333.3
X28.897 Y-44.169 Z-0.813 I-1.157 J0.831
X31.211 Y-45.831 Z-0.969 I1.157 J-0.831
X31.479 Y-45 Z-1 I-1.157 J0.831
X29.35 Y-45 I-1.064 J0
X31.5 Y-45 I1.075 J0 F200
X26.5 Y-45 I-2.5 J0
X31.5 Y-45 I2.5 J0
G0 Z15
X12.546 Y-44.199
Z5
G1 Z2.5 F200
G3 X14.904 Y-45.801 Z2.344 I1.179 J-0.801 F333.3
X12.546 Y-44.199 Z2.187 I-1.179 J0.801
X14.904 Y-45.801 Z2.031 I1.179 J-0.801
X12.546 Y-44.199 Z1.875 I-1.179 J0.801
X14.904 Y-45.801 Z1.718 I1.179 J-0.801
X12.546 Y-44.199 Z1.562 I-1.179 J0.801
X14.904 Y-45.801 Z1.406 I1.179 J-0.801
X12.546 Y-44.199 Z1.249 I-1.179 J0.801
X14.904 Y-45.801 Z1.093 I1.179 J-0.801
X12.546 Y-44.199 Z0.937 I-1.179 J0.801
X14.904 Y-45.801 Z0.78 I1.179 J-0.801
X12.546 Y-44.199 Z0.624 I-1.179 J0.801
X14.904 Y-45.801 Z0.468 I1.179 J-0.801
X12.546 Y-44.199 Z0.311 I-1.179 J0.801
X14.904 Y-45.801 Z0.155 I1.179 J-0.801
X12.546 Y-44.199 Z-0.001 I-1.179 J0.801
X14.904 Y-45.801 Z-0.158 I1.179 J-0.801
X12.546 Y-44.199 Z-0.314 I-1.179 J0.801
X14.904 Y-45.801 Z-0.47 I1.179 J-0.801
X15.15 Y-45 Z-0.5 I-1.179 J0.801
X14.85 Y-45 I-0.15 J0 F200
X18 Y-45 I1.575 J0
X12 Y-45 I-3 J0
X18 Y-45 I3 J0
X17.828 Y-44.802 I-0.2 J0
G1 X12.758 Y-44.087
X12.704
X12.652 Y-44.101
X12.605 Y-44.129
X12.568 Y-44.169
G3 X14.882 Y-45.831 Z-0.656 I1.157 J-0.831 F333.3
X12.568 Y-44.169 Z-0.813 I-1.157 J0.831
X14.882 Y-45.831 Z-0.969 I1.157 J-0.831
X15.15 Y-45 Z-1 I-1.157 J0.831
X14.85 Y-45 I-0.15 J0 F200
X18 Y-45 I1.575 J0
X12 Y-45 I-3 J0
X18 Y-45 I3 J0
G0 Z15
X12.546 Y-29.199
Z5
G1 Z2.5 F200
G3 X14.904 Y-30.801 Z2.344 I1.179 J-0.801 F333.3
X12.546 Y-29.199 Z2.187 I-1.179 J0.801
X14.904 Y-30.801 Z2.031 I1.179 J-0.801
X12.546 Y-29.199 Z1.875 I-1.179 J0.801
X14.904 Y-30.801 Z1.718 I1.179 J-0.801
X12.546 Y-29.199 Z1.562 I-1.179 J0.801
X14.904 Y-30.801 Z1.406 I1.179 J-0.801
X12.546 Y-29.199 Z1.249 I-1.179 J0.801
X14.904 Y-30.801 Z1.093 I1.179 J-0.801
X12.546 Y-29.199 Z0.937 I-1.179 J0.801
X14.904 Y-30.801 Z0.78 I1.179 J-0.801
X12.546 Y-29.199 Z0.624 I-1.179 J0.801
X14.904 Y-30.801 Z0.468 I1.179 J-0.801
X12.546 Y-29.199 Z0.311 I-1.179 J0.801
X14.904 Y-30.801 Z0.155 I1.179 J-0.801
X12.546 Y-29.199 Z-0.001 I-1.179 J0.801
X14.904 Y-30.801 Z-0.158 I1.179 J-0.801
X12.546 Y-29.199 Z-0.314 I-1.179 J0.801
X14.904 Y-30.801 Z-0.47 I1.179 J-0.801
X15.15 Y-30 Z-0.5 I-1.179 J0.801
X14.85 Y-30 I-0.15 J0 F200
X18 Y-30 I1.575 J0
X12 Y-30 I-3 J0
X18 Y-30 I3 J0
X17.828 Y-29.802 I-0.2 J0
G1 X12.758 Y-29.087
X12.704
X12.652 Y-29.101
X12.605 Y-29.129
X12.568 Y-29.169
G3 X14.882 Y-30.831 Z-0.656 I1.157 J-0.831 F333.3
X12.568 Y-29.169 Z-0.813 I-1.157 J0.831
X14.882 Y-30.831 Z-0.969 I1.157 J-0.831
X15.15 Y-30 Z-1 I-1.157 J0.831
X14.85 Y-30 I-0.15 J0 F200
X18 Y-30 I1.575 J0
X12 Y-30 I-3 J0
X18 Y-30 I3 J0
X17.828 Y-29.802 I-0.2 J0
G1 X12.758 Y-29.087
X12.704
X12.652 Y-29.101
X12.605 Y-29.129
X12.568 Y-29.169
G3 X14.882 Y-30.831 Z-1.156 I1.157 J-0.831 F333.3
X12.568 Y-29.169 Z-1.313 I-1.157 J0.831
X14.882 Y-30.831 Z-1.469 I1.157 J-0.831
X15.15 Y-30 Z-1.5 I-1.157 J0.831
X14.85 Y-30 I-0.15 J0 F200
X18 Y-30 I1.575 J0
X12 Y-30 I-3 J0
X18 Y-30 I3 J0
X17.828 Y-29.802 I-0.2 J0
G1 X12.758 Y-29.087
X12.704
X12.652 Y-29.101
X12.605 Y-29.129
X12.568 Y-29.169
G3 X14.882 Y-30.831 Z-1.656 I1.157 J-0.831 F333.3
X12.568 Y-29.169 Z-1.813 I-1.157 J0.831
X14.882 Y-30.831 Z-1.969 I1.157 J-0.831
X15.15 Y-30 Z-2 I-1.157 J0.831
X14.85 Y-30 I-0.15 J0 F200
X18 Y-30 I1.575 J0
X12 Y-30 I-3 J0
X18 Y-30 I3 J0
G0 Z15
X-1.954 Y-44.199
Z5
G1 Z2.5 F200
G3 X0.404 Y-45.801 Z2.344 I1.179 J-0.801 F333.3
X-1.954 Y-44.199 Z2.187 I-1.179 J0.801
X0.404 Y-45.801 Z2.031 I1.179 J-0.801
X-1.954 Y-44.199 Z1.875 I-1.179 J0.801
X0.404 Y-45.801 Z1.718 I1.179 J-0.801
X-1.954 Y-44.199 Z1.562 I-1.179 J0.801
X0.404 Y-45.801 Z1.406 I1.179 J-0.801
X-1.954 Y-44.199 Z1.249 I-1.179 J0.801
X0.404 Y-45.801 Z1.093 I1.179 J-0.801
X-1.954 Y-44.199 Z0.937 I-1.179 J0.801
X0.404 Y-45.801 Z0.78 I1.179 J-0.801
X-1.954 Y-44.199 Z0.624 I-1.179 J0.801
X0.404 Y-45.801 Z0.468 I1.179 J-0.801
X-1.954 Y-44.199 Z0.311 I-1.179 J0.801
X0.404 Y-45.801 Z0.155 I1.179 J-0.801
X-1.954 Y-44.199 Z-0.001 I-1.179 J0.801
X0.404 Y-45.801 Z-0.158 I1.179 J-0.801
X-1.954 Y-44.199 Z-0.314 I-1.179 J0.801
X0.404 Y-45.801 Z-0.47 I1.179 J-0.801
X0.65 Y-45 Z-0.5 I-1.179 J0.801
X-0.65 Y-45 I-0.65 J0 F200
X3.5 Y-45 I2.075 J0
X-3.5 Y-45 I-3.5 J0
X3.5 Y-45 I3.5 J0
X3.328 Y-44.802 I-0.2 J0
G1 X-1.742 Y-44.087
X-1.796
X-1.848 Y-44.101
X-1.895 Y-44.129
X-1.932 Y-44.169
G3 X0.382 Y-45.831 Z-0.656 I1.157 J-0.831 F333.3
X-1.932 Y-44.169 Z-0.813 I-1.157 J0.831
X0.382 Y-45.831 Z-0.969 I1.157 J-0.831
X0.65 Y-45 Z-1 I-1.157 J0.831
X-0.65 Y-45 I-0.65 J0 F200
X3.5 Y-45 I2.075 J0
X-3.5 Y-45 I-3.5 J0
X3.5 Y-45 I3.5 J0
G0 Z15
X-1.954 Y-29.199
Z5
G1 Z2.5 F200
G3 X0.404 Y-30.801 Z2.344 I1.179 J-0.801 F333.3
X-1.954 Y-29.199 Z2.187 I-1.179 J0.801
X0.404 Y-30.801 Z2.031 I1.179 J-0.801
X-1.954 Y-29.199 Z1.875 I-1.179 J0.801
X0.404 Y-30.801 Z1.718 I1.179 J-0.801
X-1.954 Y-29.199 Z1.562 I-1.179 J0.801
X0.404 Y-30.801 Z1.406 I1.179 J-0.801
X-1.954 Y-29.199 Z1.249 I-1.179 J0.801
X0.404 Y-30.801 Z1.093 I1.179 J-0.801
X-1.954 Y-29.199 Z0.937 I-1.179 J0.801
X0.404 Y-30.801 Z0.78 I1.179 J-0.801
X-1.954 Y-29.199 Z0.624 I-1.179 J0.801
X0.404 Y-30.801 Z0.468 I1.179 J-0.801
X-1.954 Y-29.199 Z0.311 I-1.179 J0.801
X0.404 Y-30.801 Z0.155 I1.179 J-0.801
X-1.954 Y-29.199 Z-0.001 I-1.179 J0.801
X0.404 Y-30.801 Z-0.158 I1.179 J-0.801
X-1.954 Y-29.199 Z-0.314 I-1.179 J0.801
X0.404 Y-30.801 Z-0.47 I1.179 J-0.801
X0.65 Y-30 Z-0.5 I-1.179 J0.801
X-0.65 Y-30 I-0.65 J0 F200
X3.5 Y-30 I2.075 J0
X-3.5 Y-30 I-3.5 J0
X3.5 Y-30 I3.5 J0
X3.328 Y-29.802 I-0.2 J0
G1 X-1.742 Y-29.087
X-1.796
X-1.848 Y-29.101
X-1.895 Y-29.129
X-1.932 Y-29.169
G3 X0.382 Y-30.831 Z-0.656 I1.157 J-0.831 F333.3
X-1.932 Y-29.169 Z-0.813 I-1.157 J0.831
X0.382 Y-30.831 Z-0.969 I1.157 J-0.831
X0.65 Y-30 Z-1 I-1.157 J0.831
X-0.65 Y-30 I-0.65 J0 F200
X3.5 Y-30 I2.075 J0
X-3.5 Y-30 I-3.5 J0
X3.5 Y-30 I3.5 J0
X3.328 Y-29.802 I-0.2 J0
G1 X-1.742 Y-29.087
X-1.796
X-1.848 Y-29.101
X-1.895 Y-29.129
X-1.932 Y-29.169
G3 X0.382 Y-30.831 Z-1.156 I1.157 J-0.831 F333.3
X-1.932 Y-29.169 Z-1.313 I-1.157 J0.831
X0.382 Y-30.831 Z-1.469 I1.157 J-0.831
X0.65 Y-30 Z-1.5 I-1.157 J0.831
X-0.65 Y-30 I-0.65 J0 F200
X3.5 Y-30 I2.075 J0
X-3.5 Y-30 I-3.5 J0
X3.5 Y-30 I3.5 J0
X3.328 Y-29.802 I-0.2 J0
G1 X-1.742 Y-29.087
X-1.796
X-1.848 Y-29.101
X-1.895 Y-29.129
X-1.932 Y-29.169
G3 X0.382 Y-30.831 Z-1.656 I1.157 J-0.831 F333.3
X-1.932 Y-29.169 Z-1.813 I-1.157 J0.831
X0.382 Y-30.831 Z-1.969 I1.157 J-0.831
X0.65 Y-30 Z-2 I-1.157 J0.831
X-0.65 Y-30 I-0.65 J0 F200
X3.5 Y-30 I2.075 J0
X-3.5 Y-30 I-3.5 J0
X3.5 Y-30 I3.5 J0
G0 Z15
X-1.954 Y0.801
Z5
G1 Z2.5 F200
G3 X0.404 Y-0.801 Z2.344 I1.179 J-0.801 F333.3
X-1.954 Y0.801 Z2.187 I-1.179 J0.801
X0.404 Y-0.801 Z2.031 I1.179 J-0.801
X-1.954 Y0.801 Z1.875 I-1.179 J0.801
X0.404 Y-0.801 Z1.718 I1.179 J-0.801
X-1.954 Y0.801 Z1.562 I-1.179 J0.801
X0.404 Y-0.801 Z1.406 I1.179 J-0.801
X-1.954 Y0.801 Z1.249 I-1.179 J0.801
X0.404 Y-0.801 Z1.093 I1.179 J-0.801
X-1.954 Y0.801 Z0.937 I-1.179 J0.801
X0.404 Y-0.801 Z0.78 I1.179 J-0.801
X-1.954 Y0.801 Z0.624 I-1.179 J0.801
X0.404 Y-0.801 Z0.468 I1.179 J-0.801
X-1.954 Y0.801 Z0.311 I-1.179 J0.801
X0.404 Y-0.801 Z0.155 I1.179 J-0.801
X-1.954 Y0.801 Z-0.001 I-1.179 J0.801
X0.404 Y-0.801 Z-0.158 I1.179 J-0.801
X-1.954 Y0.801 Z-0.314 I-1.179 J0.801
X0.404 Y-0.801 Z-0.47 I1.179 J-0.801
X0.65 Y0 Z-0.5 I-1.179 J0.801
X-0.65 Y0 I-0.65 J0 F200
X3.5 Y0 I2.075 J0
X-3.5 Y0 I-3.5 J0
X3.5 Y0 I3.5 J0
X3.328 Y0.198 I-0.2 J0
G1 X-1.742 Y0.913
X-1.796
X-1.848 Y0.899
X-1.895 Y0.871
X-1.932 Y0.831
G3 X0.382 Y-0.831 Z-0.656 I1.157 J-0.831 F333.3
X-1.932 Y0.831 Z-0.813 I-1.157 J0.831
X0.382 Y-0.831 Z-0.969 I1.157 J-0.831
X0.65 Y0 Z-1 I-1.157 J0.831
X-0.65 Y0 I-0.65 J0 F200
X3.5 Y0 I2.075 J0
X-3.5 Y0 I-3.5 J0
X3.5 Y0 I3.5 J0
X3.328 Y0.198 I-0.2 J0
G1 X-1.742 Y0.913
X-1.796
X-1.848 Y0.899
X-1.895 Y0.871
X-1.932 Y0.831
G3 X0.382 Y-0.831 Z-1.156 I1.157 J-0.831 F333.3
X-1.932 Y0.831 Z-1.313 I-1.157 J0.831
X0.382 Y-0.831 Z-1.469 I1.157 J-0.831
X0.65 Y0 Z-1.5 I-1.157 J0.831
X-0.65 Y0 I-0.65 J0 F200
X3.5 Y0 I2.075 J0
X-3.5 Y0 I-3.5 J0
X3.5 Y0 I3.5 J0
X3.328 Y0.198 I-0.2 J0
G1 X-1.742 Y0.913
X-1.796
X-1.848 Y0.899
X-1.895 Y0.871
X-1.932 Y0.831
G3 X0.382 Y-0.831 Z-1.656 I1.157 J-0.831 F333.3
X-1.932 Y0.831 Z-1.813 I-1.157 J0.831
X0.382 Y-0.831 Z-1.969 I1.157 J-0.831
X0.65 Y0 Z-2 I-1.157 J0.831
X-0.65 Y0 I-0.65 J0 F200
X3.5 Y0 I2.075 J0
X-3.5 Y0 I-3.5 J0
X3.5 Y0 I3.5 J0
X3.328 Y0.198 I-0.2 J0
G1 X-1.742 Y0.913
X-1.796
X-1.848 Y0.899
X-1.895 Y0.871
X-1.932 Y0.831
G3 X0.382 Y-0.831 Z-2.156 I1.157 J-0.831 F333.3
X-1.932 Y0.831 Z-2.313 I-1.157 J0.831
X0.382 Y-0.831 Z-2.469 I1.157 J-0.831
X0.65 Y0 Z-2.5 I-1.157 J0.831
X-0.65 Y0 I-0.65 J0 F200
X3.5 Y0 I2.075 J0
X-3.5 Y0 I-3.5 J0
X3.5 Y0 I3.5 J0
X3.328 Y0.198 I-0.2 J0
G1 X-1.742 Y0.913
X-1.796
X-1.848 Y0.899
X-1.895 Y0.871
X-1.932 Y0.831
G3 X0.382 Y-0.831 Z-2.656 I1.157 J-0.831 F333.3
X-1.932 Y0.831 Z-2.813 I-1.157 J0.831
X0.382 Y-0.831 Z-2.969 I1.157 J-0.831
X0.65 Y0 Z-3 I-1.157 J0.831
X-0.65 Y0 I-0.65 J0 F200
X3.5 Y0 I2.075 J0
X-3.5 Y0 I-3.5 J0
X3.5 Y0 I3.5 J0
X3.328 Y0.198 I-0.2 J0
G1 X-1.742 Y0.913
X-1.796
X-1.848 Y0.899
X-1.895 Y0.871
X-1.932 Y0.831
G3 X0.382 Y-0.831 Z-3.156 I1.157 J-0.831 F333.3
X-1.932 Y0.831 Z-3.313 I-1.157 J0.831
X0.382 Y-0.831 Z-3.469 I1.157 J-0.831
X0.65 Y0 Z-3.5 I-1.157 J0.831
X-0.65 Y0 I-0.65 J0 F200
X3.5 Y0 I2.075 J0
X-3.5 Y0 I-3.5 J0
X3.5 Y0 I3.5 J0
X3.328 Y0.198 I-0.2 J0
G1 X-1.742 Y0.913
X-1.796
X-1.848 Y0.899
X-1.895 Y0.871
X-1.932 Y0.831
G3 X0.382 Y-0.831 Z-3.656 I1.157 J-0.831 F333.3
X-1.932 Y0.831 Z-3.813 I-1.157 J0.831
X0.382 Y-0.831 Z-3.969 I1.157 J-0.831
X0.65 Y0 Z-4 I-1.157 J0.831
X-0.65 Y0 I-0.65 J0 F200
X3.5 Y0 I2.075 J0
X-3.5 Y0 I-3.5 J0
X3.5 Y0 I3.5 J0
G0 Z15
X-1.954 Y-14.199
Z5
G1 Z2.5 F200
G3 X0.404 Y-15.801 Z2.344 I1.179 J-0.801 F333.3
X-1.954 Y-14.199 Z2.187 I-1.179 J0.801
X0.404 Y-15.801 Z2.031 I1.179 J-0.801
X-1.954 Y-14.199 Z1.875 I-1.179 J0.801
X0.404 Y-15.801 Z1.718 I1.179 J-0.801
X-1.954 Y-14.199 Z1.562 I-1.179 J0.801
X0.404 Y-15.801 Z1.406 I1.179 J-0.801
X-1.954 Y-14.199 Z1.249 I-1.179 J0.801
X0.404 Y-15.801 Z1.093 I1.179 J-0.801
X-1.954 Y-14.199 Z0.937 I-1.179 J0.801
X0.404 Y-15.801 Z0.78 I1.179 J-0.801
X-1.954 Y-14.199 Z0.624 I-1.179 J0.801
X0.404 Y-15.801 Z0.468 I1.179 J-0.801
X-1.954 Y-14.199 Z0.311 I-1.179 J0.801
X0.404 Y-15.801 Z0.155 I1.179 J-0.801
X-1.954 Y-14.199 Z-0.001 I-1.179 J0.801
X0.404 Y-15.801 Z-0.158 I1.179 J-0.801
X-1.954 Y-14.199 Z-0.314 I-1.179 J0.801
X0.404 Y-15.801 Z-0.47 I1.179 J-0.801
X0.65 Y-15 Z-0.5 I-1.179 J0.801
X-0.65 Y-15 I-0.65 J0 F200
X3.5 Y-15 I2.075 J0
X-3.5 Y-15 I-3.5 J0
X3.5 Y-15 I3.5 J0
X3.328 Y-14.802 I-0.2 J0
G1 X-1.742 Y-14.087
X-1.796
X-1.848 Y-14.101
X-1.895 Y-14.129
X-1.932 Y-14.169
G3 X0.382 Y-15.831 Z-0.656 I1.157 J-0.831 F333.3
X-1.932 Y-14.169 Z-0.813 I-1.157 J0.831
X0.382 Y-15.831 Z-0.969 I1.157 J-0.831
X0.65 Y-15 Z-1 I-1.157 J0.831
X-0.65 Y-15 I-0.65 J0 F200
X3.5 Y-15 I2.075 J0
X-3.5 Y-15 I-3.5 J0
X3.5 Y-15 I3.5 J0
X3.328 Y-14.802 I-0.2 J0
G1 X-1.742 Y-14.087
X-1.796
X-1.848 Y-14.101
X-1.895 Y-14.129
X-1.932 Y-14.169
G3 X0.382 Y-15.831 Z-1.156 I1.157 J-0.831 F333.3
X-1.932 Y-14.169 Z-1.313 I-1.157 J0.831
X0.382 Y-15.831 Z-1.469 I1.157 J-0.831
X0.65 Y-15 Z-1.5 I-1.157 J0.831
X-0.65 Y-15 I-0.65 J0 F200
X3.5 Y-15 I2.075 J0
X-3.5 Y-15 I-3.5 J0
X3.5 Y-15 I3.5 J0
X3.328 Y-14.802 I-0.2 J0
G1 X-1.742 Y-14.087
X-1.796
X-1.848 Y-14.101
X-1.895 Y-14.129
X-1.932 Y-14.169
G3 X0.382 Y-15.831 Z-1.656 I1.157 J-0.831 F333.3
X-1.932 Y-14.169 Z-1.813 I-1.157 J0.831
X0.382 Y-15.831 Z-1.969 I1.157 J-0.831
X0.65 Y-15 Z-2 I-1.157 J0.831
X-0.65 Y-15 I-0.65 J0 F200
X3.5 Y-15 I2.075 J0
X-3.5 Y-15 I-3.5 J0
X3.5 Y-15 I3.5 J0
X3.328 Y-14.802 I-0.2 J0
G1 X-1.742 Y-14.087
X-1.796
X-1.848 Y-14.101
X-1.895 Y-14.129
X-1.932 Y-14.169
G3 X0.382 Y-15.831 Z-2.156 I1.157 J-0.831 F333.3
X-1.932 Y-14.169 Z-2.313 I-1.157 J0.831
X0.382 Y-15.831 Z-2.469 I1.157 J-0.831
X0.65 Y-15 Z-2.5 I-1.157 J0.831
X-0.65 Y-15 I-0.65 J0 F200
X3.5 Y-15 I2.075 J0
X-3.5 Y-15 I-3.5 J0
X3.5 Y-15 I3.5 J0
X3.328 Y-14.802 I-0.2 J0
G1 X-1.742 Y-14.087
X-1.796
X-1.848 Y-14.101
X-1.895 Y-14.129
X-1.932 Y-14.169
G3 X0.382 Y-15.831 Z-2.656 I1.157 J-0.831 F333.3
X-1.932 Y-14.169 Z-2.813 I-1.157 J0.831
X0.382 Y-15.831 Z-2.969 I1.157 J-0.831
X0.65 Y-15 Z-3 I-1.157 J0.831
X-0.65 Y-15 I-0.65 J0 F200
X3.5 Y-15 I2.075 J0
X-3.5 Y-15 I-3.5 J0
X3.5 Y-15 I3.5 J0
G0 Z15
X12.546 Y-14.199
Z5
G1 Z2.5 F200
G3 X14.904 Y-15.801 Z2.344 I1.179 J-0.801 F333.3
X12.546 Y-14.199 Z2.187 I-1.179 J0.801
X14.904 Y-15.801 Z2.031 I1.179 J-0.801
X12.546 Y-14.199 Z1.875 I-1.179 J0.801
X14.904 Y-15.801 Z1.718 I1.179 J-0.801
X12.546 Y-14.199 Z1.562 I-1.179 J0.801
X14.904 Y-15.801 Z1.406 I1.179 J-0.801
X12.546 Y-14.199 Z1.249 I-1.179 J0.801
X14.904 Y-15.801 Z1.093 I1.179 J-0.801
X12.546 Y-14.199 Z0.937 I-1.179 J0.801
X14.904 Y-15.801 Z0.78 I1.179 J-0.801
X12.546 Y-14.199 Z0.624 I-1.179 J0.801
X14.904 Y-15.801 Z0.468 I1.179 J-0.801
X12.546 Y-14.199 Z0.311 I-1.179 J0.801
X14.904 Y-15.801 Z0.155 I1.179 J-0.801
X12.546 Y-14.199 Z-0.001 I-1.179 J0.801
X14.904 Y-15.801 Z-0.158 I1.179 J-0.801
X12.546 Y-14.199 Z-0.314 I-1.179 J0.801
X14.904 Y-15.801 Z-0.47 I1.179 J-0.801
X15.15 Y-15 Z-0.5 I-1.179 J0.801
X14.85 Y-15 I-0.15 J0 F200
X18 Y-15 I1.575 J0
X12 Y-15 I-3 J0
X18 Y-15 I3 J0
X17.828 Y-14.802 I-0.2 J0
G1 X12.758 Y-14.087
X12.704
X12.652 Y-14.101
X12.605 Y-14.129
X12.568 Y-14.169
G3 X14.882 Y-15.831 Z-0.656 I1.157 J-0.831 F333.3
X12.568 Y-14.169 Z-0.813 I-1.157 J0.831
X14.882 Y-15.831 Z-0.969 I1.157 J-0.831
X15.15 Y-15 Z-1 I-1.157 J0.831
X14.85 Y-15 I-0.15 J0 F200
X18 Y-15 I1.575 J0
X12 Y-15 I-3 J0
X18 Y-15 I3 J0
X17.828 Y-14.802 I-0.2 J0
G1 X12.758 Y-14.087
X12.704
X12.652 Y-14.101
X12.605 Y-14.129
X12.568 Y-14.169
G3 X14.882 Y-15.831 Z-1.156 I1.157 J-0.831 F333.3
X12.568 Y-14.169 Z-1.313 I-1.157 J0.831
X14.882 Y-15.831 Z-1.469 I1.157 J-0.831
X15.15 Y-15 Z-1.5 I-1.157 J0.831
X14.85 Y-15 I-0.15 J0 F200
X18 Y-15 I1.575 J0
X12 Y-15 I-3 J0
X18 Y-15 I3 J0
X17.828 Y-14.802 I-0.2 J0
G1 X12.758 Y-14.087
X12.704
X12.652 Y-14.101
X12.605 Y-14.129
X12.568 Y-14.169
G3 X14.882 Y-15.831 Z-1.656 I1.157 J-0.831 F333.3
X12.568 Y-14.169 Z-1.813 I-1.157 J0.831
X14.882 Y-15.831 Z-1.969 I1.157 J-0.831
X15.15 Y-15 Z-2 I-1.157 J0.831
X14.85 Y-15 I-0.15 J0 F200
X18 Y-15 I1.575 J0
X12 Y-15 I-3 J0
X18 Y-15 I3 J0
X17.828 Y-14.802 I-0.2 J0
G1 X12.758 Y-14.087
X12.704
X12.652 Y-14.101
X12.605 Y-14.129
X12.568 Y-14.169
G3 X14.882 Y-15.831 Z-2.156 I1.157 J-0.831 F333.3
X12.568 Y-14.169 Z-2.313 I-1.157 J0.831
X14.882 Y-15.831 Z-2.469 I1.157 J-0.831
X15.15 Y-15 Z-2.5 I-1.157 J0.831
X14.85 Y-15 I-0.15 J0 F200
X18 Y-15 I1.575 J0
X12 Y-15 I-3 J0
X18 Y-15 I3 J0
X17.828 Y-14.802 I-0.2 J0
G1 X12.758 Y-14.087
X12.704
X12.652 Y-14.101
X12.605 Y-14.129
X12.568 Y-14.169
G3 X14.882 Y-15.831 Z-2.656 I1.157 J-0.831 F333.3
X12.568 Y-14.169 Z-2.813 I-1.157 J0.831
X14.882 Y-15.831 Z-2.969 I1.157 J-0.831
X15.15 Y-15 Z-3 I-1.157 J0.831
X14.85 Y-15 I-0.15 J0 F200
X18 Y-15 I1.575 J0
X12 Y-15 I-3 J0
X18 Y-15 I3 J0
G0 Z15
X12.546 Y0.801
Z5
G1 Z2.5 F200
G3 X14.904 Y-0.801 Z2.344 I1.179 J-0.801 F333.3
X12.546 Y0.801 Z2.187 I-1.179 J0.801
X14.904 Y-0.801 Z2.031 I1.179 J-0.801
X12.546 Y0.801 Z1.875 I-1.179 J0.801
X14.904 Y-0.801 Z1.718 I1.179 J-0.801
X12.546 Y0.801 Z1.562 I-1.179 J0.801
X14.904 Y-0.801 Z1.406 I1.179 J-0.801
X12.546 Y0.801 Z1.249 I-1.179 J0.801
X14.904 Y-0.801 Z1.093 I1.179 J-0.801
X12.546 Y0.801 Z0.937 I-1.179 J0.801
X14.904 Y-0.801 Z0.78 I1.179 J-0.801
X12.546 Y0.801 Z0.624 I-1.179 J0.801
X14.904 Y-0.801 Z0.468 I1.179 J-0.801
X12.546 Y0.801 Z0.311 I-1.179 J0.801
X14.904 Y-0.801 Z0.155 I1.179 J-0.801
X12.546 Y0.801 Z-0.001 I-1.179 J0.801
X14.904 Y-0.801 Z-0.158 I1.179 J-0.801
X12.546 Y0.801 Z-0.314 I-1.179 J0.801
X14.904 Y-0.801 Z-0.47 I1.179 J-0.801
X15.15 Y0 Z-0.5 I-1.179 J0.801
X14.85 Y0 I-0.15 J0 F200
X18 Y0 I1.575 J0
X12 Y0 I-3 J0
X18 Y0 I3 J0
X17.828 Y0.198 I-0.2 J0
G1 X12.758 Y0.913
X12.704
X12.652 Y0.899
X12.605 Y0.871
X12.568 Y0.831
G3 X14.882 Y-0.831 Z-0.656 I1.157 J-0.831 F333.3
X12.568 Y0.831 Z-0.813 I-1.157 J0.831
X14.882 Y-0.831 Z-0.969 I1.157 J-0.831
X15.15 Y0 Z-1 I-1.157 J0.831
X14.85 Y0 I-0.15 J0 F200
X18 Y0 I1.575 J0
X12 Y0 I-3 J0
X18 Y0 I3 J0
X17.828 Y0.198 I-0.2 J0
G1 X12.758 Y0.913
X12.704
X12.652 Y0.899
X12.605 Y0.871
X12.568 Y0.831
G3 X14.882 Y-0.831 Z-1.156 I1.157 J-0.831 F333.3
X12.568 Y0.831 Z-1.313 I-1.157 J0.831
X14.882 Y-0.831 Z-1.469 I1.157 J-0.831
X15.15 Y0 Z-1.5 I-1.157 J0.831
X14.85 Y0 I-0.15 J0 F200
X18 Y0 I1.575 J0
X12 Y0 I-3 J0
X18 Y0 I3 J0
X17.828 Y0.198 I-0.2 J0
G1 X12.758 Y0.913
X12.704
X12.652 Y0.899
X12.605 Y0.871
X12.568 Y0.831
G3 X14.882 Y-0.831 Z-1.656 I1.157 J-0.831 F333.3
X12.568 Y0.831 Z-1.813 I-1.157 J0.831
X14.882 Y-0.831 Z-1.969 I1.157 J-0.831
X15.15 Y0 Z-2 I-1.157 J0.831
X14.85 Y0 I-0.15 J0 F200
X18 Y0 I1.575 J0
X12 Y0 I-3 J0
X18 Y0 I3 J0
X17.828 Y0.198 I-0.2 J0
G1 X12.758 Y0.913
X12.704
X12.652 Y0.899
X12.605 Y0.871
X12.568 Y0.831
G3 X14.882 Y-0.831 Z-2.156 I1.157 J-0.831 F333.3
X12.568 Y0.831 Z-2.313 I-1.157 J0.831
X14.882 Y-0.831 Z-2.469 I1.157 J-0.831
X15.15 Y0 Z-2.5 I-1.157 J0.831
X14.85 Y0 I-0.15 J0 F200
X18 Y0 I1.575 J0
X12 Y0 I-3 J0
X18 Y0 I3 J0
X17.828 Y0.198 I-0.2 J0
G1 X12.758 Y0.913
X12.704
X12.652 Y0.899
X12.605 Y0.871
X12.568 Y0.831
G3 X14.882 Y-0.831 Z-2.656 I1.157 J-0.831 F333.3
X12.568 Y0.831 Z-2.813 I-1.157 J0.831
X14.882 Y-0.831 Z-2.969 I1.157 J-0.831
X15.15 Y0 Z-3 I-1.157 J0.831
X14.85 Y0 I-0.15 J0 F200
X18 Y0 I1.575 J0
X12 Y0 I-3 J0
X18 Y0 I3 J0
X17.828 Y0.198 I-0.2 J0
G1 X12.758 Y0.913
X12.704
X12.652 Y0.899
X12.605 Y0.871
X12.568 Y0.831
G3 X14.882 Y-0.831 Z-3.156 I1.157 J-0.831 F333.3
X12.568 Y0.831 Z-3.313 I-1.157 J0.831
X14.882 Y-0.831 Z-3.469 I1.157 J-0.831
X15.15 Y0 Z-3.5 I-1.157 J0.831
X14.85 Y0 I-0.15 J0 F200
X18 Y0 I1.575 J0
X12 Y0 I-3 J0
X18 Y0 I3 J0
X17.828 Y0.198 I-0.2 J0
G1 X12.758 Y0.913
X12.704
X12.652 Y0.899
X12.605 Y0.871
X12.568 Y0.831
G3 X14.882 Y-0.831 Z-3.656 I1.157 J-0.831 F333.3
X12.568 Y0.831 Z-3.813 I-1.157 J0.831
X14.882 Y-0.831 Z-3.969 I1.157 J-0.831
X15.15 Y0 Z-4 I-1.157 J0.831
X14.85 Y0 I-0.15 J0 F200
X18 Y0 I1.575 J0
X12 Y0 I-3 J0
X18 Y0 I3 J0
G0 Z15
X28.875 Y-14.199
Z5
G1 Z2.5 F200
G3 X31.233 Y-15.801 Z2.344 I1.179 J-0.801 F333.3
X28.875 Y-14.199 Z2.187 I-1.179 J0.801
X31.233 Y-15.801 Z2.031 I1.179 J-0.801
X28.875 Y-14.199 Z1.875 I-1.179 J0.801
X31.233 Y-15.801 Z1.718 I1.179 J-0.801
X28.875 Y-14.199 Z1.562 I-1.179 J0.801
X31.233 Y-15.801 Z1.406 I1.179 J-0.801
X28.875 Y-14.199 Z1.249 I-1.179 J0.801
X31.233 Y-15.801 Z1.093 I1.179 J-0.801
X28.875 Y-14.199 Z0.937 I-1.179 J0.801
X31.233 Y-15.801 Z0.78 I1.179 J-0.801
X28.875 Y-14.199 Z0.624 I-1.179 J0.801
X31.233 Y-15.801 Z0.468 I1.179 J-0.801
X28.875 Y-14.199 Z0.311 I-1.179 J0.801
X31.233 Y-15.801 Z0.155 I1.179 J-0.801
X28.875 Y-14.199 Z-0.001 I-1.179 J0.801
X31.233 Y-15.801 Z-0.158 I1.179 J-0.801
X28.875 Y-14.199 Z-0.314 I-1.179 J0.801
X31.233 Y-15.801 Z-0.47 I1.179 J-0.801
X31.479 Y-15 Z-0.5 I-1.179 J0.801
X29.35 Y-15 I-1.064 J0
X31.5 Y-15 I1.075 J0 F200
X26.5 Y-15 I-2.5 J0
X31.5 Y-15 I2.5 J0
G1 X31.494 Y-14.95
X31.475 Y-14.903
X31.445 Y-14.863
X31.406 Y-14.831
X31.361 Y-14.809
X29.12 Y-14.095
X29.071 Y-14.086
X29.021 Y-14.089
X28.973 Y-14.105
X28.931 Y-14.132
X28.897 Y-14.169
G3 X31.211 Y-15.831 Z-0.656 I1.157 J-0.831 F333.3
X28.897 Y-14.169 Z-0.813 I-1.157 J0.831
X31.211 Y-15.831 Z-0.969 I1.157 J-0.831
X31.479 Y-15 Z-1 I-1.157 J0.831
X29.35 Y-15 I-1.064 J0
X31.5 Y-15 I1.075 J0 F200
X26.5 Y-15 I-2.5 J0
X31.5 Y-15 I2.5 J0
G1 X31.494 Y-14.95
X31.475 Y-14.903
X31.445 Y-14.863
X31.406 Y-14.831
X31.361 Y-14.809
X29.12 Y-14.095
X29.071 Y-14.086
X29.021 Y-14.089
X28.973 Y-14.105
X28.931 Y-14.132
X28.897 Y-14.169
G3 X31.211 Y-15.831 Z-1.156 I1.157 J-0.831 F333.3
X28.897 Y-14.169 Z-1.313 I-1.157 J0.831
X31.211 Y-15.831 Z-1.469 I1.157 J-0.831
X31.479 Y-15 Z-1.5 I-1.157 J0.831
X29.35 Y-15 I-1.064 J0
X31.5 Y-15 I1.075 J0 F200
X26.5 Y-15 I-2.5 J0
X31.5 Y-15 I2.5 J0
G1 X31.494 Y-14.95
X31.475 Y-14.903
X31.445 Y-14.863
X31.406 Y-14.831
X31.361 Y-14.809
X29.12 Y-14.095
X29.071 Y-14.086
X29.021 Y-14.089
X28.973 Y-14.105
X28.931 Y-14.132
X28.897 Y-14.169
G3 X31.211 Y-15.831 Z-1.656 I1.157 J-0.831 F333.3
X28.897 Y-14.169 Z-1.813 I-1.157 J0.831
X31.211 Y-15.831 Z-1.969 I1.157 J-0.831
X31.479 Y-15 Z-2 I-1.157 J0.831
X29.35 Y-15 I-1.064 J0
X31.5 Y-15 I1.075 J0 F200
X26.5 Y-15 I-2.5 J0
X31.5 Y-15 I2.5 J0
G1 X31.494 Y-14.95
X31.475 Y-14.903
X31.445 Y-14.863
X31.406 Y-14.831
X31.361 Y-14.809
X29.12 Y-14.095
X29.071 Y-14.086
X29.021 Y-14.089
X28.973 Y-14.105
X28.931 Y-14.132
X28.897 Y-14.169
G3 X31.211 Y-15.831 Z-2.156 I1.157 J-0.831 F333.3
X28.897 Y-14.169 Z-2.313 I-1.157 J0.831
X31.211 Y-15.831 Z-2.469 I1.157 J-0.831
X31.479 Y-15 Z-2.5 I-1.157 J0.831
X29.35 Y-15 I-1.064 J0
X31.5 Y-15 I1.075 J0 F200
X26.5 Y-15 I-2.5 J0
X31.5 Y-15 I2.5 J0
G1 X31.494 Y-14.95
X31.475 Y-14.903
X31.445 Y-14.863
X31.406 Y-14.831
X31.361 Y-14.809
X29.12 Y-14.095
X29.071 Y-14.086
X29.021 Y-14.089
X28.973 Y-14.105
X28.931 Y-14.132
X28.897 Y-14.169
G3 X31.211 Y-15.831 Z-2.656 I1.157 J-0.831 F333.3
X28.897 Y-14.169 Z-2.813 I-1.157 J0.831
X31.211 Y-15.831 Z-2.969 I1.157 J-0.831
X31.479 Y-15 Z-3 I-1.157 J0.831
X29.35 Y-15 I-1.064 J0
X31.5 Y-15 I1.075 J0 F200
X26.5 Y-15 I-2.5 J0
X31.5 Y-15 I2.5 J0
G0 Z15
X28.875 Y0.801
Z5
G1 Z2.5 F200
G3 X31.233 Y-0.801 Z2.344 I1.179 J-0.801 F333.3
X28.875 Y0.801 Z2.187 I-1.179 J0.801
X31.233 Y-0.801 Z2.031 I1.179 J-0.801
X28.875 Y0.801 Z1.875 I-1.179 J0.801
X31.233 Y-0.801 Z1.718 I1.179 J-0.801
X28.875 Y0.801 Z1.562 I-1.179 J0.801
X31.233 Y-0.801 Z1.406 I1.179 J-0.801
X28.875 Y0.801 Z1.249 I-1.179 J0.801
X31.233 Y-0.801 Z1.093 I1.179 J-0.801
X28.875 Y0.801 Z0.937 I-1.179 J0.801
X31.233 Y-0.801 Z0.78 I1.179 J-0.801
X28.875 Y0.801 Z0.624 I-1.179 J0.801
X31.233 Y-0.801 Z0.468 I1.179 J-0.801
X28.875 Y0.801 Z0.311 I-1.179 J0.801
X31.233 Y-0.801 Z0.155 I1.179 J-0.801
X28.875 Y0.801 Z-0.001 I-1.179 J0.801
X31.233 Y-0.801 Z-0.158 I1.179 J-0.801
X28.875 Y0.801 Z-0.314 I-1.179 J0.801
X31.233 Y-0.801 Z-0.47 I1.179 J-0.801
X31.479 Y0 Z-0.5 I-1.179 J0.801
X29.35 Y0 I-1.064 J0
X31.5 Y0 I1.075 J0 F200
X26.5 Y0 I-2.5 J0
X31.5 Y0 I2.5 J0
G1 X31.494 Y0.05
X31.475 Y0.097
X31.445 Y0.137
X31.406 Y0.169
X31.361 Y0.191
X29.12 Y0.905
X29.071 Y0.914
X29.021 Y0.911
X28.973 Y0.895
X28.931 Y0.868
X28.897 Y0.831
G3 X31.211 Y-0.831 Z-0.656 I1.157 J-0.831 F333.3
X28.897 Y0.831 Z-0.813 I-1.157 J0.831
X31.211 Y-0.831 Z-0.969 I1.157 J-0.831
X31.479 Y0 Z-1 I-1.157 J0.831
X29.35 Y0 I-1.064 J0
X31.5 Y0 I1.075 J0 F200
X26.5 Y0 I-2.5 J0
X31.5 Y0 I2.5 J0
G1 X31.494 Y0.05
X31.475 Y0.097
X31.445 Y0.137
X31.406 Y0.169
X31.361 Y0.191
X29.12 Y0.905
X29.071 Y0.914
X29.021 Y0.911
X28.973 Y0.895
X28.931 Y0.868
X28.897 Y0.831
G3 X31.211 Y-0.831 Z-1.156 I1.157 J-0.831 F333.3
X28.897 Y0.831 Z-1.313 I-1.157 J0.831
X31.211 Y-0.831 Z-1.469 I1.157 J-0.831
X31.479 Y0 Z-1.5 I-1.157 J0.831
X29.35 Y0 I-1.064 J0
X31.5 Y0 I1.075 J0 F200
X26.5 Y0 I-2.5 J0
X31.5 Y0 I2.5 J0
G1 X31.494 Y0.05
X31.475 Y0.097
X31.445 Y0.137
X31.406 Y0.169
X31.361 Y0.191
X29.12 Y0.905
X29.071 Y0.914
X29.021 Y0.911
X28.973 Y0.895
X28.931 Y0.868
X28.897 Y0.831
G3 X31.211 Y-0.831 Z-1.656 I1.157 J-0.831 F333.3
X28.897 Y0.831 Z-1.813 I-1.157 J0.831
X31.211 Y-0.831 Z-1.969 I1.157 J-0.831
X31.479 Y0 Z-2 I-1.157 J0.831
X29.35 Y0 I-1.064 J0
X31.5 Y0 I1.075 J0 F200
X26.5 Y0 I-2.5 J0
X31.5 Y0 I2.5 J0
G1 X31.494 Y0.05
X31.475 Y0.097
X31.445 Y0.137
X31.406 Y0.169
X31.361 Y0.191
X29.12 Y0.905
X29.071 Y0.914
X29.021 Y0.911
X28.973 Y0.895
X28.931 Y0.868
X28.897 Y0.831
G3 X31.211 Y-0.831 Z-2.156 I1.157 J-0.831 F333.3
X28.897 Y0.831 Z-2.313 I-1.157 J0.831
X31.211 Y-0.831 Z-2.469 I1.157 J-0.831
X31.479 Y0 Z-2.5 I-1.157 J0.831
X29.35 Y0 I-1.064 J0
X31.5 Y0 I1.075 J0 F200
X26.5 Y0 I-2.5 J0
X31.5 Y0 I2.5 J0
G1 X31.494 Y0.05
X31.475 Y0.097
X31.445 Y0.137
X31.406 Y0.169
X31.361 Y0.191
X29.12 Y0.905
X29.071 Y0.914
X29.021 Y0.911
X28.973 Y0.895
X28.931 Y0.868
X28.897 Y0.831
G3 X31.211 Y-0.831 Z-2.656 I1.157 J-0.831 F333.3
X28.897 Y0.831 Z-2.813 I-1.157 J0.831
X31.211 Y-0.831 Z-2.969 I1.157 J-0.831
X31.479 Y0 Z-3 I-1.157 J0.831
X29.35 Y0 I-1.064 J0
X31.5 Y0 I1.075 J0 F200
X26.5 Y0 I-2.5 J0
X31.5 Y0 I2.5 J0
G1 X31.494 Y0.05
X31.475 Y0.097
X31.445 Y0.137
X31.406 Y0.169
X31.361 Y0.191
X29.12 Y0.905
X29.071 Y0.914
X29.021 Y0.911
X28.973 Y0.895
X28.931 Y0.868
X28.897 Y0.831
G3 X31.211 Y-0.831 Z-3.156 I1.157 J-0.831 F333.3
X28.897 Y0.831 Z-3.313 I-1.157 J0.831
X31.211 Y-0.831 Z-3.469 I1.157 J-0.831
X31.479 Y0 Z-3.5 I-1.157 J0.831
X29.35 Y0 I-1.064 J0
X31.5 Y0 I1.075 J0 F200
X26.5 Y0 I-2.5 J0
X31.5 Y0 I2.5 J0
G1 X31.494 Y0.05
X31.475 Y0.097
X31.445 Y0.137
X31.406 Y0.169
X31.361 Y0.191
X29.12 Y0.905
X29.071 Y0.914
X29.021 Y0.911
X28.973 Y0.895
X28.931 Y0.868
X28.897 Y0.831
G3 X31.211 Y-0.831 Z-3.656 I1.157 J-0.831 F333.3
X28.897 Y0.831 Z-3.813 I-1.157 J0.831
X31.211 Y-0.831 Z-3.969 I1.157 J-0.831
X31.479 Y0 Z-4 I-1.157 J0.831
X29.35 Y0 I-1.064 J0
X31.5 Y0 I1.075 J0 F200
X26.5 Y0 I-2.5 J0
X31.5 Y0 I2.5 J0
G0 Z15
X40.39 Y-14.199
Z5
G1 Z2.5 F200
G3 X42.748 Y-15.801 Z2.344 I1.179 J-0.801 F333.3
X40.39 Y-14.199 Z2.187 I-1.179 J0.801
X42.748 Y-15.801 Z2.031 I1.179 J-0.801
X40.39 Y-14.199 Z1.875 I-1.179 J0.801
X42.748 Y-15.801 Z1.718 I1.179 J-0.801
X40.39 Y-14.199 Z1.562 I-1.179 J0.801
X42.748 Y-15.801 Z1.406 I1.179 J-0.801
X40.39 Y-14.199 Z1.249 I-1.179 J0.801
X42.748 Y-15.801 Z1.093 I1.179 J-0.801
X40.39 Y-14.199 Z0.937 I-1.179 J0.801
X42.748 Y-15.801 Z0.78 I1.179 J-0.801
X40.39 Y-14.199 Z0.624 I-1.179 J0.801
X42.748 Y-15.801 Z0.468 I1.179 J-0.801
X40.39 Y-14.199 Z0.311 I-1.179 J0.801
X42.748 Y-15.801 Z0.155 I1.179 J-0.801
X40.39 Y-14.199 Z-0.001 I-1.179 J0.801
X42.748 Y-15.801 Z-0.158 I1.179 J-0.801
X40.39 Y-14.199 Z-0.314 I-1.179 J0.801
X42.748 Y-15.801 Z-0.47 I1.179 J-0.801
X42.994 Y-15 Z-0.5 I-1.179 J0.801
X41.85 Y-15 I-0.572 J0
X43 Y-15 I0.575 J0 F200
X39 Y-15 I-2 J0
X43 Y-15 I2 J0
G1 X42.994 Y-14.95
X42.975 Y-14.903
X42.946 Y-14.863
X42.907 Y-14.831
X42.861 Y-14.81
X40.635 Y-14.095
X40.586 Y-14.086
X40.536 Y-14.089
X40.488 Y-14.105
X40.446 Y-14.132
X40.411 Y-14.169
G3 X42.726 Y-15.831 Z-0.656 I1.157 J-0.831 F333.3
X40.411 Y-14.169 Z-0.813 I-1.157 J0.831
X42.726 Y-15.831 Z-0.969 I1.157 J-0.831
X42.994 Y-15 Z-1 I-1.157 J0.831
X41.85 Y-15 I-0.572 J0
X43 Y-15 I0.575 J0 F200
X39 Y-15 I-2 J0
X43 Y-15 I2 J0
G1 X42.994 Y-14.95
X42.975 Y-14.903
X42.946 Y-14.863
X42.907 Y-14.831
X42.861 Y-14.81
X40.635 Y-14.095
X40.586 Y-14.086
X40.536 Y-14.089
X40.488 Y-14.105
X40.446 Y-14.132
X40.411 Y-14.169
G3 X42.726 Y-15.831 Z-1.156 I1.157 J-0.831 F333.3
X40.411 Y-14.169 Z-1.313 I-1.157 J0.831
X42.726 Y-15.831 Z-1.469 I1.157 J-0.831
X42.994 Y-15 Z-1.5 I-1.157 J0.831
X41.85 Y-15 I-0.572 J0
X43 Y-15 I0.575 J0 F200
X39 Y-15 I-2 J0
X43 Y-15 I2 J0
G1 X42.994 Y-14.95
X42.975 Y-14.903
X42.946 Y-14.863
X42.907 Y-14.831
X42.861 Y-14.81
X40.635 Y-14.095
X40.586 Y-14.086
X40.536 Y-14.089
X40.488 Y-14.105
X40.446 Y-14.132
X40.411 Y-14.169
G3 X42.726 Y-15.831 Z-1.656 I1.157 J-0.831 F333.3
X40.411 Y-14.169 Z-1.813 I-1.157 J0.831
X42.726 Y-15.831 Z-1.969 I1.157 J-0.831
X42.994 Y-15 Z-2 I-1.157 J0.831
X41.85 Y-15 I-0.572 J0
X43 Y-15 I0.575 J0 F200
X39 Y-15 I-2 J0
X43 Y-15 I2 J0
G1 X42.994 Y-14.95
X42.975 Y-14.903
X42.946 Y-14.863
X42.907 Y-14.831
X42.861 Y-14.81
X40.635 Y-14.095
X40.586 Y-14.086
X40.536 Y-14.089
X40.488 Y-14.105
X40.446 Y-14.132
X40.411 Y-14.169
G3 X42.726 Y-15.831 Z-2.156 I1.157 J-0.831 F333.3
X40.411 Y-14.169 Z-2.313 I-1.157 J0.831
X42.726 Y-15.831 Z-2.469 I1.157 J-0.831
X42.994 Y-15 Z-2.5 I-1.157 J0.831
X41.85 Y-15 I-0.572 J0
X43 Y-15 I0.575 J0 F200
X39 Y-15 I-2 J0
X43 Y-15 I2 J0
G1 X42.994 Y-14.95
X42.975 Y-14.903
X42.946 Y-14.863
X42.907 Y-14.831
X42.861 Y-14.81
X40.635 Y-14.095
X40.586 Y-14.086
X40.536 Y-14.089
X40.488 Y-14.105
X40.446 Y-14.132
X40.411 Y-14.169
G3 X42.726 Y-15.831 Z-2.656 I1.157 J-0.831 F333.3
X40.411 Y-14.169 Z-2.813 I-1.157 J0.831
X42.726 Y-15.831 Z-2.969 I1.157 J-0.831
X42.994 Y-15 Z-3 I-1.157 J0.831
X41.85 Y-15 I-0.572 J0
X43 Y-15 I0.575 J0 F200
X39 Y-15 I-2 J0
X43 Y-15 I2 J0
G0 Z15
X40.39 Y0.801
Z5
G1 Z2.5 F200
G3 X42.748 Y-0.801 Z2.344 I1.179 J-0.801 F333.3
X40.39 Y0.801 Z2.187 I-1.179 J0.801
X42.748 Y-0.801 Z2.031 I1.179 J-0.801
X40.39 Y0.801 Z1.875 I-1.179 J0.801
X42.748 Y-0.801 Z1.718 I1.179 J-0.801
X40.39 Y0.801 Z1.562 I-1.179 J0.801
X42.748 Y-0.801 Z1.406 I1.179 J-0.801
X40.39 Y0.801 Z1.249 I-1.179 J0.801
X42.748 Y-0.801 Z1.093 I1.179 J-0.801
X40.39 Y0.801 Z0.937 I-1.179 J0.801
X42.748 Y-0.801 Z0.78 I1.179 J-0.801
X40.39 Y0.801 Z0.624 I-1.179 J0.801
X42.748 Y-0.801 Z0.468 I1.179 J-0.801
X40.39 Y0.801 Z0.311 I-1.179 J0.801
X42.748 Y-0.801 Z0.155 I1.179 J-0.801
X40.39 Y0.801 Z-0.001 I-1.179 J0.801
X42.748 Y-0.801 Z-0.158 I1.179 J-0.801
X40.39 Y0.801 Z-0.314 I-1.179 J0.801
X42.748 Y-0.801 Z-0.47 I1.179 J-0.801
X42.994 Y0 Z-0.5 I-1.179 J0.801
X41.85 Y0 I-0.572 J0
X43 Y0 I0.575 J0 F200
X39 Y0 I-2 J0
X43 Y0 I2 J0
G1 X42.994 Y0.05
X42.975 Y0.097
X42.946 Y0.137
X42.907 Y0.169
X42.861 Y0.19
X40.635 Y0.905
X40.586 Y0.914
X40.536 Y0.911
X40.488 Y0.895
X40.446 Y0.868
X40.411 Y0.831
G3 X42.726 Y-0.831 Z-0.656 I1.157 J-0.831 F333.3
X40.411 Y0.831 Z-0.813 I-1.157 J0.831
X42.726 Y-0.831 Z-0.969 I1.157 J-0.831
X42.994 Y0 Z-1 I-1.157 J0.831
X41.85 Y0 I-0.572 J0
X43 Y0 I0.575 J0 F200
X39 Y0 I-2 J0
X43 Y0 I2 J0
G1 X42.994 Y0.05
X42.975 Y0.097
X42.946 Y0.137
X42.907 Y0.169
X42.861 Y0.19
X40.635 Y0.905
X40.586 Y0.914
X40.536 Y0.911
X40.488 Y0.895
X40.446 Y0.868
X40.411 Y0.831
G3 X42.726 Y-0.831 Z-1.156 I1.157 J-0.831 F333.3
X40.411 Y0.831 Z-1.313 I-1.157 J0.831
X42.726 Y-0.831 Z-1.469 I1.157 J-0.831
X42.994 Y0 Z-1.5 I-1.157 J0.831
X41.85 Y0 I-0.572 J0
X43 Y0 I0.575 J0 F200
X39 Y0 I-2 J0
X43 Y0 I2 J0
G1 X42.994 Y0.05
X42.975 Y0.097
X42.946 Y0.137
X42.907 Y0.169
X42.861 Y0.19
X40.635 Y0.905
X40.586 Y0.914
X40.536 Y0.911
X40.488 Y0.895
X40.446 Y0.868
X40.411 Y0.831
G3 X42.726 Y-0.831 Z-1.656 I1.157 J-0.831 F333.3
X40.411 Y0.831 Z-1.813 I-1.157 J0.831
X42.726 Y-0.831 Z-1.969 I1.157 J-0.831
X42.994 Y0 Z-2 I-1.157 J0.831
X41.85 Y0 I-0.572 J0
X43 Y0 I0.575 J0 F200
X39 Y0 I-2 J0
X43 Y0 I2 J0
G1 X42.994 Y0.05
X42.975 Y0.097
X42.946 Y0.137
X42.907 Y0.169
X42.861 Y0.19
X40.635 Y0.905
X40.586 Y0.914
X40.536 Y0.911
X40.488 Y0.895
X40.446 Y0.868
X40.411 Y0.831
G3 X42.726 Y-0.831 Z-2.156 I1.157 J-0.831 F333.3
X40.411 Y0.831 Z-2.313 I-1.157 J0.831
X42.726 Y-0.831 Z-2.469 I1.157 J-0.831
X42.994 Y0 Z-2.5 I-1.157 J0.831
X41.85 Y0 I-0.572 J0
X43 Y0 I0.575 J0 F200
X39 Y0 I-2 J0
X43 Y0 I2 J0
G1 X42.994 Y0.05
X42.975 Y0.097
X42.946 Y0.137
X42.907 Y0.169
X42.861 Y0.19
X40.635 Y0.905
X40.586 Y0.914
X40.536 Y0.911
X40.488 Y0.895
X40.446 Y0.868
X40.411 Y0.831
G3 X42.726 Y-0.831 Z-2.656 I1.157 J-0.831 F333.3
X40.411 Y0.831 Z-2.813 I-1.157 J0.831
X42.726 Y-0.831 Z-2.969 I1.157 J-0.831
X42.994 Y0 Z-3 I-1.157 J0.831
X41.85 Y0 I-0.572 J0
X43 Y0 I0.575 J0 F200
X39 Y0 I-2 J0
X43 Y0 I2 J0
G1 X42.994 Y0.05
X42.975 Y0.097
X42.946 Y0.137
X42.907 Y0.169
X42.861 Y0.19
X40.635 Y0.905
X40.586 Y0.914
X40.536 Y0.911
X40.488 Y0.895
X40.446 Y0.868
X40.411 Y0.831
G3 X42.726 Y-0.831 Z-3.156 I1.157 J-0.831 F333.3
X40.411 Y0.831 Z-3.313 I-1.157 J0.831
X42.726 Y-0.831 Z-3.469 I1.157 J-0.831
X42.994 Y0 Z-3.5 I-1.157 J0.831
X41.85 Y0 I-0.572 J0
X43 Y0 I0.575 J0 F200
X39 Y0 I-2 J0
X43 Y0 I2 J0
G1 X42.994 Y0.05
X42.975 Y0.097
X42.946 Y0.137
X42.907 Y0.169
X42.861 Y0.19
X40.635 Y0.905
X40.586 Y0.914
X40.536 Y0.911
X40.488 Y0.895
X40.446 Y0.868
X40.411 Y0.831
G3 X42.726 Y-0.831 Z-3.656 I1.157 J-0.831 F333.3
X40.411 Y0.831 Z-3.813 I-1.157 J0.831
X42.726 Y-0.831 Z-3.969 I1.157 J-0.831
X42.994 Y0 Z-4 I-1.157 J0.831
X41.85 Y0 I-0.572 J0
X43 Y0 I0.575 J0 F200
X39 Y0 I-2 J0
X43 Y0 I2 J0
G0 Z15
X50.821 Y-14.199
Z5
G1 Z2.5 F200
G3 X53.179 Y-15.801 Z2.344 I1.179 J-0.801 F333.3
X50.821 Y-14.199 Z2.187 I-1.179 J0.801
X53.179 Y-15.801 Z2.031 I1.179 J-0.801
X50.821 Y-14.199 Z1.875 I-1.179 J0.801
X53.179 Y-15.801 Z1.718 I1.179 J-0.801
X50.821 Y-14.199 Z1.562 I-1.179 J0.801
X53.179 Y-15.801 Z1.406 I1.179 J-0.801
X50.821 Y-14.199 Z1.249 I-1.179 J0.801
X53.179 Y-15.801 Z1.093 I1.179 J-0.801
X50.821 Y-14.199 Z0.937 I-1.179 J0.801
X53.179 Y-15.801 Z0.78 I1.179 J-0.801
X50.821 Y-14.199 Z0.624 I-1.179 J0.801
X53.179 Y-15.801 Z0.468 I1.179 J-0.801
X50.821 Y-14.199 Z0.311 I-1.179 J0.801
X53.179 Y-15.801 Z0.155 I1.179 J-0.801
X50.821 Y-14.199 Z-0.001 I-1.179 J0.801
X53.179 Y-15.801 Z-0.158 I1.179 J-0.801
X50.821 Y-14.199 Z-0.314 I-1.179 J0.801
X53.179 Y-15.801 Z-0.47 I1.179 J-0.801
X53.425 Y-15 Z-0.5 I-1.179 J0.801
G1 X53.418 Y-14.978
X53.399 Y-14.964
X53.376
X53.357 Y-14.978
X53.35 Y-15
X53.357 Y-15.033 F200
X53.378 Y-15.059
X53.408 Y-15.073
X53.442
X53.472 Y-15.059
X53.493 Y-15.033
X53.5 Y-15
G3 X50.5 Y-15 I-1.5 J0
X53.5 Y-15 I1.5 J0
G1 X53.494 Y-14.95
X53.475 Y-14.903
X53.445 Y-14.862
X53.406 Y-14.83
X53.359 Y-14.809
X51.065 Y-14.094
X51.016 Y-14.085
X50.966 Y-14.089
X50.919 Y-14.105
X50.877 Y-14.132
X50.843 Y-14.169
G3 X53.157 Y-15.831 Z-0.656 I1.157 J-0.831 F333.3
X50.843 Y-14.169 Z-0.813 I-1.157 J0.831
X53.157 Y-15.831 Z-0.969 I1.157 J-0.831
X53.425 Y-15 Z-1 I-1.157 J0.831
G1 X53.418 Y-14.978
X53.399 Y-14.964
X53.376
X53.357 Y-14.978
X53.35 Y-15
X53.357 Y-15.033 F200
X53.378 Y-15.059
X53.408 Y-15.073
X53.442
X53.472 Y-15.059
X53.493 Y-15.033
X53.5 Y-15
G3 X50.5 Y-15 I-1.5 J0
X53.5 Y-15 I1.5 J0
G1 X53.494 Y-14.95
X53.475 Y-14.903
X53.445 Y-14.862
X53.406 Y-14.83
X53.359 Y-14.809
X51.065 Y-14.094
X51.016 Y-14.085
X50.966 Y-14.089
X50.919 Y-14.105
X50.877 Y-14.132
X50.843 Y-14.169
G3 X53.157 Y-15.831 Z-1.156 I1.157 J-0.831 F333.3
X50.843 Y-14.169 Z-1.313 I-1.157 J0.831
X53.157 Y-15.831 Z-1.469 I1.157 J-0.831
X53.425 Y-15 Z-1.5 I-1.157 J0.831
G1 X53.418 Y-14.978
X53.399 Y-14.964
X53.376
X53.357 Y-14.978
X53.35 Y-15
X53.357 Y-15.033 F200
X53.378 Y-15.059
X53.408 Y-15.073
X53.442
X53.472 Y-15.059
X53.493 Y-15.033
X53.5 Y-15
G3 X50.5 Y-15 I-1.5 J0
X53.5 Y-15 I1.5 J0
G1 X53.494 Y-14.95
X53.475 Y-14.903
X53.445 Y-14.862
X53.406 Y-14.83
X53.359 Y-14.809
X51.065 Y-14.094
X51.016 Y-14.085
X50.966 Y-14.089
X50.919 Y-14.105
X50.877 Y-14.132
X50.843 Y-14.169
G3 X53.157 Y-15.831 Z-1.656 I1.157 J-0.831 F333.3
X50.843 Y-14.169 Z-1.813 I-1.157 J0.831
X53.157 Y-15.831 Z-1.969 I1.157 J-0.831
X53.425 Y-15 Z-2 I-1.157 J0.831
G1 X53.418 Y-14.978
X53.399 Y-14.964
X53.376
X53.357 Y-14.978
X53.35 Y-15
X53.357 Y-15.033 F200
X53.378 Y-15.059
X53.408 Y-15.073
X53.442
X53.472 Y-15.059
X53.493 Y-15.033
X53.5 Y-15
G3 X50.5 Y-15 I-1.5 J0
X53.5 Y-15 I1.5 J0
G1 X53.494 Y-14.95
X53.475 Y-14.903
X53.445 Y-14.862
X53.406 Y-14.83
X53.359 Y-14.809
X51.065 Y-14.094
X51.016 Y-14.085
X50.966 Y-14.089
X50.919 Y-14.105
X50.877 Y-14.132
X50.843 Y-14.169
G3 X53.157 Y-15.831 Z-2.156 I1.157 J-0.831 F333.3
X50.843 Y-14.169 Z-2.313 I-1.157 J0.831
X53.157 Y-15.831 Z-2.469 I1.157 J-0.831
X53.425 Y-15 Z-2.5 I-1.157 J0.831
G1 X53.418 Y-14.978
X53.399 Y-14.964
X53.376
X53.357 Y-14.978
X53.35 Y-15
X53.357 Y-15.033 F200
X53.378 Y-15.059
X53.408 Y-15.073
X53.442
X53.472 Y-15.059
X53.493 Y-15.033
X53.5 Y-15
G3 X50.5 Y-15 I-1.5 J0
X53.5 Y-15 I1.5 J0
G1 X53.494 Y-14.95
X53.475 Y-14.903
X53.445 Y-14.862
X53.406 Y-14.83
X53.359 Y-14.809
X51.065 Y-14.094
X51.016 Y-14.085
X50.966 Y-14.089
X50.919 Y-14.105
X50.877 Y-14.132
X50.843 Y-14.169
G3 X53.157 Y-15.831 Z-2.656 I1.157 J-0.831 F333.3
X50.843 Y-14.169 Z-2.813 I-1.157 J0.831
X53.157 Y-15.831 Z-2.969 I1.157 J-0.831
X53.425 Y-15 Z-3 I-1.157 J0.831
G1 X53.418 Y-14.978
X53.399 Y-14.964
X53.376
X53.357 Y-14.978
X53.35 Y-15
X53.357 Y-15.033 F200
X53.378 Y-15.059
X53.408 Y-15.073
X53.442
X53.472 Y-15.059
X53.493 Y-15.033
X53.5 Y-15
G3 X50.5 Y-15 I-1.5 J0
X53.5 Y-15 I1.5 J0
G0 Z15
X50.821 Y0.801
Z5
G1 Z2.5 F200
G3 X53.179 Y-0.801 Z2.344 I1.179 J-0.801 F333.3
X50.821 Y0.801 Z2.187 I-1.179 J0.801
X53.179 Y-0.801 Z2.031 I1.179 J-0.801
X50.821 Y0.801 Z1.875 I-1.179 J0.801
X53.179 Y-0.801 Z1.718 I1.179 J-0.801
X50.821 Y0.801 Z1.562 I-1.179 J0.801
X53.179 Y-0.801 Z1.406 I1.179 J-0.801
X50.821 Y0.801 Z1.249 I-1.179 J0.801
X53.179 Y-0.801 Z1.093 I1.179 J-0.801
X50.821 Y0.801 Z0.937 I-1.179 J0.801
X53.179 Y-0.801 Z0.78 I1.179 J-0.801
X50.821 Y0.801 Z0.624 I-1.179 J0.801
X53.179 Y-0.801 Z0.468 I1.179 J-0.801
X50.821 Y0.801 Z0.311 I-1.179 J0.801
X53.179 Y-0.801 Z0.155 I1.179 J-0.801
X50.821 Y0.801 Z-0.001 I-1.179 J0.801
X53.179 Y-0.801 Z-0.158 I1.179 J-0.801
X50.821 Y0.801 Z-0.314 I-1.179 J0.801
X53.179 Y-0.801 Z-0.47 I1.179 J-0.801
X53.425 Y0 Z-0.5 I-1.179 J0.801
G1 X53.418 Y0.022
X53.399 Y0.036
X53.376
X53.357 Y0.022
X53.35 Y0
X53.357 Y-0.033 F200
X53.378 Y-0.059
X53.408 Y-0.073
X53.442
X53.472 Y-0.059
X53.493 Y-0.033
X53.5 Y0
G3 X50.5 Y0 I-1.5 J0
X53.5 Y0 I1.5 J0
G1 X53.494 Y0.05
X53.475 Y0.097
X53.445 Y0.138
X53.406 Y0.17
X53.359 Y0.191
X51.065 Y0.906
X51.016 Y0.915
X50.966 Y0.911
X50.919 Y0.895
X50.877 Y0.868
X50.843 Y0.831
G3 X53.157 Y-0.831 Z-0.656 I1.157 J-0.831 F333.3
X50.843 Y0.831 Z-0.813 I-1.157 J0.831
X53.157 Y-0.831 Z-0.969 I1.157 J-0.831
X53.425 Y0 Z-1 I-1.157 J0.831
G1 X53.418 Y0.022
X53.399 Y0.036
X53.376
X53.357 Y0.022
X53.35 Y0
X53.357 Y-0.033 F200
X53.378 Y-0.059
X53.408 Y-0.073
X53.442
X53.472 Y-0.059
X53.493 Y-0.033
X53.5 Y0
G3 X50.5 Y0 I-1.5 J0
X53.5 Y0 I1.5 J0
G1 X53.494 Y0.05
X53.475 Y0.097
X53.445 Y0.138
X53.406 Y0.17
X53.359 Y0.191
X51.065 Y0.906
X51.016 Y0.915
X50.966 Y0.911
X50.919 Y0.895
X50.877 Y0.868
X50.843 Y0.831
G3 X53.157 Y-0.831 Z-1.156 I1.157 J-0.831 F333.3
X50.843 Y0.831 Z-1.313 I-1.157 J0.831
X53.157 Y-0.831 Z-1.469 I1.157 J-0.831
X53.425 Y0 Z-1.5 I-1.157 J0.831
G1 X53.418 Y0.022
X53.399 Y0.036
X53.376
X53.357 Y0.022
X53.35 Y0
X53.357 Y-0.033 F200
X53.378 Y-0.059
X53.408 Y-0.073
X53.442
X53.472 Y-0.059
X53.493 Y-0.033
X53.5 Y0
G3 X50.5 Y0 I-1.5 J0
X53.5 Y0 I1.5 J0
G1 X53.494 Y0.05
X53.475 Y0.097
X53.445 Y0.138
X53.406 Y0.17
X53.359 Y0.191
X51.065 Y0.906
X51.016 Y0.915
X50.966 Y0.911
X50.919 Y0.895
X50.877 Y0.868
X50.843 Y0.831
G3 X53.157 Y-0.831 Z-1.656 I1.157 J-0.831 F333.3
X50.843 Y0.831 Z-1.813 I-1.157 J0.831
X53.157 Y-0.831 Z-1.969 I1.157 J-0.831
X53.425 Y0 Z-2 I-1.157 J0.831
G1 X53.418 Y0.022
X53.399 Y0.036
X53.376
X53.357 Y0.022
X53.35 Y0
X53.357 Y-0.033 F200
X53.378 Y-0.059
X53.408 Y-0.073
X53.442
X53.472 Y-0.059
X53.493 Y-0.033
X53.5 Y0
G3 X50.5 Y0 I-1.5 J0
X53.5 Y0 I1.5 J0
G1 X53.494 Y0.05
X53.475 Y0.097
X53.445 Y0.138
X53.406 Y0.17
X53.359 Y0.191
X51.065 Y0.906
X51.016 Y0.915
X50.966 Y0.911
X50.919 Y0.895
X50.877 Y0.868
X50.843 Y0.831
G3 X53.157 Y-0.831 Z-2.156 I1.157 J-0.831 F333.3
X50.843 Y0.831 Z-2.313 I-1.157 J0.831
X53.157 Y-0.831 Z-2.469 I1.157 J-0.831
X53.425 Y0 Z-2.5 I-1.157 J0.831
G1 X53.418 Y0.022
X53.399 Y0.036
X53.376
X53.357 Y0.022
X53.35 Y0
X53.357 Y-0.033 F200
X53.378 Y-0.059
X53.408 Y-0.073
X53.442
X53.472 Y-0.059
X53.493 Y-0.033
X53.5 Y0
G3 X50.5 Y0 I-1.5 J0
X53.5 Y0 I1.5 J0
G1 X53.494 Y0.05
X53.475 Y0.097
X53.445 Y0.138
X53.406 Y0.17
X53.359 Y0.191
X51.065 Y0.906
X51.016 Y0.915
X50.966 Y0.911
X50.919 Y0.895
X50.877 Y0.868
X50.843 Y0.831
G3 X53.157 Y-0.831 Z-2.656 I1.157 J-0.831 F333.3
X50.843 Y0.831 Z-2.813 I-1.157 J0.831
X53.157 Y-0.831 Z-2.969 I1.157 J-0.831
X53.425 Y0 Z-3 I-1.157 J0.831
G1 X53.418 Y0.022
X53.399 Y0.036
X53.376
X53.357 Y0.022
X53.35 Y0
X53.357 Y-0.033 F200
X53.378 Y-0.059
X53.408 Y-0.073
X53.442
X53.472 Y-0.059
X53.493 Y-0.033
X53.5 Y0
G3 X50.5 Y0 I-1.5 J0
X53.5 Y0 I1.5 J0
G1 X53.494 Y0.05
X53.475 Y0.097
X53.445 Y0.138
X53.406 Y0.17
X53.359 Y0.191
X51.065 Y0.906
X51.016 Y0.915
X50.966 Y0.911
X50.919 Y0.895
X50.877 Y0.868
X50.843 Y0.831
G3 X53.157 Y-0.831 Z-3.156 I1.157 J-0.831 F333.3
X50.843 Y0.831 Z-3.313 I-1.157 J0.831
X53.157 Y-0.831 Z-3.469 I1.157 J-0.831
X53.425 Y0 Z-3.5 I-1.157 J0.831
G1 X53.418 Y0.022
X53.399 Y0.036
X53.376
X53.357 Y0.022
X53.35 Y0
X53.357 Y-0.033 F200
X53.378 Y-0.059
X53.408 Y-0.073
X53.442
X53.472 Y-0.059
X53.493 Y-0.033
X53.5 Y0
G3 X50.5 Y0 I-1.5 J0
X53.5 Y0 I1.5 J0
G1 X53.494 Y0.05
X53.475 Y0.097
X53.445 Y0.138
X53.406 Y0.17
X53.359 Y0.191
X51.065 Y0.906
X51.016 Y0.915
X50.966 Y0.911
X50.919 Y0.895
X50.877 Y0.868
X50.843 Y0.831
G3 X53.157 Y-0.831 Z-3.656 I1.157 J-0.831 F333.3
X50.843 Y0.831 Z-3.813 I-1.157 J0.831
X53.157 Y-0.831 Z-3.969 I1.157 J-0.831
X53.425 Y0 Z-4 I-1.157 J0.831
G1 X53.418 Y0.022
X53.399 Y0.036
X53.376
X53.357 Y0.022
X53.35 Y0
X53.357 Y-0.033 F200
X53.378 Y-0.059
X53.408 Y-0.073
X53.442
X53.472 Y-0.059
X53.493 Y-0.033
X53.5 Y0
G3 X50.5 Y0 I-1.5 J0
X53.5 Y0 I1.5 J0
G0 Z15
X25.801 Y21.118
Z5
G1 Z2.5 F200
G3 X24.199 Y18.76 Z2.344 I-0.801 J-1.179 F333.3
X25.801 Y21.118 Z2.187 I0.801 J1.179
X24.199 Y18.76 Z2.031 I-0.801 J-1.179
X25.801 Y21.118 Z1.875 I0.801 J1.179
X24.199 Y18.76 Z1.718 I-0.801 J-1.179
X25.801 Y21.118 Z1.562 I0.801 J1.179
X24.199 Y18.76 Z1.406 I-0.801 J-1.179
X25.801 Y21.118 Z1.249 I0.801 J1.179
X24.199 Y18.76 Z1.093 I-0.801 J-1.179
X25.801 Y21.118 Z0.937 I0.801 J1.179
X24.199 Y18.76 Z0.78 I-0.801 J-1.179
X25.801 Y21.118 Z0.624 I0.801 J1.179
X24.199 Y18.76 Z0.468 I-0.801 J-1.179
X25.801 Y21.118 Z0.311 I0.801 J1.179
X24.199 Y18.76 Z0.155 I-0.801 J-1.179
X25.801 Y21.118 Z-0.001 I0.801 J1.179
X24.199 Y18.76 Z-0.158 I-0.801 J-1.179
X25.801 Y21.118 Z-0.314 I0.801 J1.179
X24.199 Y18.76 Z-0.47 I-0.801 J-1.179
X25 Y18.514 Z-0.5 I0.801 J1.179
X25 Y20.445 I0 J0.966
X25 Y19.555 I0 J-0.445 F200
G1 X35
G3 X35 Y20.445 I0 J0.445
G1 X25
G2 X24.387 Y20.769 I0 J0.742
G3 X23.695 Y20.74 I-0.337 J-0.23
X25 Y18.5 I1.305 J-0.74
G1 X35
G3 X35 Y21.5 I0 J1.5
G1 X25
G3 X23.695 Y20.74 I0 J-1.5
X23.9 Y20.444 I0.174 J-0.099
G1 X25.746 Y20.736
G3 X25.831 Y21.096 I-0.031 J0.198
X24.169 Y18.781 Z-0.656 I-0.831 J-1.157 F333.3
X25.831 Y21.096 Z-0.813 I0.831 J1.157
X24.169 Y18.781 Z-0.969 I-0.831 J-1.157
X25 Y18.514 Z-1 I0.831 J1.157
X25 Y20.445 I0 J0.966
X25 Y19.555 I0 J-0.445 F200
G1 X35
G3 X35 Y20.445 I0 J0.445
G1 X25
G2 X24.387 Y20.769 I0 J0.742
G3 X23.695 Y20.74 I-0.337 J-0.23
X25 Y18.5 I1.305 J-0.74
G1 X35
G3 X35 Y21.5 I0 J1.5
G1 X25
G3 X23.695 Y20.74 I0 J-1.5
X23.9 Y20.444 I0.174 J-0.099
G1 X25.746 Y20.736
G3 X25.831 Y21.096 I-0.031 J0.198
X24.169 Y18.781 Z-1.156 I-0.831 J-1.157 F333.3
X25.831 Y21.096 Z-1.313 I0.831 J1.157
X24.169 Y18.781 Z-1.469 I-0.831 J-1.157
X25 Y18.514 Z-1.5 I0.831 J1.157
X25 Y20.445 I0 J0.966
X25 Y19.555 I0 J-0.445 F200
G1 X35
G3 X35 Y20.445 I0 J0.445
G1 X25
G2 X24.387 Y20.769 I0 J0.742
G3 X23.695 Y20.74 I-0.337 J-0.23
X25 Y18.5 I1.305 J-0.74
G1 X35
G3 X35 Y21.5 I0 J1.5
G1 X25
G3 X23.695 Y20.74 I0 J-1.5
X23.9 Y20.444 I0.174 J-0.099
G1 X25.746 Y20.736
G3 X25.831 Y21.096 I-0.031 J0.198
X24.169 Y18.781 Z-1.656 I-0.831 J-1.157 F333.3
X25.831 Y21.096 Z-1.813 I0.831 J1.157
X24.169 Y18.781 Z-1.969 I-0.831 J-1.157
X25 Y18.514 Z-2 I0.831 J1.157
X25 Y20.445 I0 J0.966
X25 Y19.555 I0 J-0.445 F200
G1 X35
G3 X35 Y20.445 I0 J0.445
G1 X25
G2 X24.387 Y20.769 I0 J0.742
G3 X23.695 Y20.74 I-0.337 J-0.23
X25 Y18.5 I1.305 J-0.74
G1 X35
G3 X35 Y21.5 I0 J1.5
G1 X25
G3 X23.695 Y20.74 I0 J-1.5
X23.9 Y20.444 I0.174 J-0.099
G1 X25.746 Y20.736
G3 X25.831 Y21.096 I-0.031 J0.198
X24.169 Y18.781 Z-2.156 I-0.831 J-1.157 F333.3
X25.831 Y21.096 Z-2.313 I0.831 J1.157
X24.169 Y18.781 Z-2.469 I-0.831 J-1.157
X25 Y18.514 Z-2.5 I0.831 J1.157
X25 Y20.445 I0 J0.966
X25 Y19.555 I0 J-0.445 F200
G1 X35
G3 X35 Y20.445 I0 J0.445
G1 X25
G2 X24.387 Y20.769 I0 J0.742
G3 X23.695 Y20.74 I-0.337 J-0.23
X25 Y18.5 I1.305 J-0.74
G1 X35
G3 X35 Y21.5 I0 J1.5
G1 X25
G3 X23.695 Y20.74 I0 J-1.5
X23.9 Y20.444 I0.174 J-0.099
G1 X25.746 Y20.736
G3 X25.831 Y21.096 I-0.031 J0.198
X24.169 Y18.781 Z-2.656 I-0.831 J-1.157 F333.3
X25.831 Y21.096 Z-2.813 I0.831 J1.157
X24.169 Y18.781 Z-2.969 I-0.831 J-1.157
X25 Y18.514 Z-3 I0.831 J1.157
X25 Y20.445 I0 J0.966
X25 Y19.555 I0 J-0.445 F200
G1 X35
G3 X35 Y20.445 I0 J0.445
G1 X25
G2 X24.387 Y20.769 I0 J0.742
G3 X23.695 Y20.74 I-0.337 J-0.23
X25 Y18.5 I1.305 J-0.74
G1 X35
G3 X35 Y21.5 I0 J1.5
G1 X25
G3 X23.695 Y20.74 I0 J-1.5
G0 Z15
X63.556 Y17.488
Z5
G1 Z2.5 F200
G2 X45.492 Y20.09 Z1.662 I-8.596 J4.33 F333.3
G3 X44.508 Y19.91 Z1.607 I-0.492 J-0.09
X65.413 Y19.918 Z0.575 I10.452 J1.908
X65.011 Y20.499 Z0.547 I-0.492 J0.089
X64.429 Y20.097 Z0.52 I-0.089 J-0.492
G2 X45.492 Y20.09 Z-0.415 I-9.469 J1.721
G3 X44.508 Y19.91 Z-0.47 I-0.492 J-0.09
X44.7 Y19.06 Z-0.5 I10.452 J1.908
X65.413 Y19.918 I10.26 J2.758 F200
X65.011 Y20.499 I-0.492 J0.089
X64.429 Y20.097 I-0.089 J-0.492
G2 X45.492 Y20.09 I-9.469 J1.721
G3 X44.508 Y19.91 I-0.492 J-0.09
X44.7 Y19.06 I10.452 J1.908
X55.379 Y11.202 Z-1 I10.26 J2.758 F333.3
X65.413 Y19.918 I-0.419 J10.616 F200
X65.011 Y20.499 I-0.492 J0.089
X64.429 Y20.097 I-0.089 J-0.492
G2 X45.492 Y20.09 I-9.469 J1.721
G3 X44.508 Y19.91 I-0.492 J-0.09
X55.379 Y11.202 I10.452 J1.908
X65.406 Y19.878 Z-1.5 I-0.419 J10.616 F333.3
G1 X65.413 Y19.918 F200
G3 X65.011 Y20.499 I-0.492 J0.089
X64.429 Y20.097 I-0.089 J-0.492
G2 X45.492 Y20.09 I-9.469 J1.721
G3 X44.508 Y19.91 I-0.492 J-0.09
X65.406 Y19.878 I10.452 J1.908
G1 X65.413 Y19.918 Z-1.501 F333.3
G3 X65.011 Y20.499 Z-1.529 I-0.492 J0.089
X64.429 Y20.097 Z-1.556 I-0.089 J-0.492
G2 X55.641 Y12.218 Z-2 I-9.469 J1.721
X45.492 Y20.09 I-0.681 J9.601 F200
G3 X44.508 Y19.91 I-0.492 J-0.09
X65.413 Y19.918 I10.452 J1.908
X65.011 Y20.499 I-0.492 J0.089
X64.429 Y20.097 I-0.089 J-0.492
G2 X55.641 Y12.218 I-9.469 J1.721
X45.492 Y20.09 Z-2.491 I-0.681 J9.601 F333.3
G3 X45.385 Y20.32 Z-2.5 I-0.492 J-0.09
X44.508 Y19.91 I-0.385 J-0.32 F200
X65.413 Y19.918 I10.452 J1.908
X65.011 Y20.499 I-0.492 J0.089
X64.429 Y20.097 I-0.089 J-0.492
G2 X45.492 Y20.09 I-9.469 J1.721
G3 X45.385 Y20.32 I-0.492 J-0.09
X44.508 Y19.91 Z-2.546 I-0.385 J-0.32 F333.3
X53.201 Y11.34 Z-3 I10.452 J1.908
X65.413 Y19.918 I1.759 J10.478 F200
X65.011 Y20.499 I-0.492 J0.089
X64.429 Y20.097 I-0.089 J-0.492
G2 X45.492 Y20.09 I-9.469 J1.721
G3 X44.508 Y19.91 I-0.492 J-0.09
X53.201 Y11.34 I10.452 J1.908
G0 Z5
X10.372 Y19.5
G1 Z2.5 F200
X15 Z2.338 F333.3
G3 X15 Y20.5 Z2.284 I0 J0.5
G1 X5 Z1.934
G3 X5 Y19.5 Z1.879 I0 J-0.5
G1 X15 Z1.53
G3 X15 Y20.5 Z1.475 I0 J0.5
G1 X5 Z1.126
G3 X5 Y19.5 Z1.071 I0 J-0.5
G1 X15 Z0.722
G3 X15 Y20.5 Z0.667 I0 J0.5
G1 X5 Z0.318
G3 X5 Y19.5 Z0.263 I0 J-0.5
G1 X15 Z-0.086
G3 X15 Y20.5 Z-0.141 I0 J0.5
G1 X5 Z-0.49
G3 X4.73 Y20.421 Z-0.5 I0 J-0.5
X5 Y19.5 I0.27 J-0.421 F200
G1 X15
G3 X15 Y20.5 I0 J0.5
G1 X5
G3 X4.73 Y20.421 I0 J-0.5
X5 Y19.5 Z-0.545 I0.27 J-0.421 F333.3
G1 X15 Z-0.894
G3 X15 Y20.5 Z-0.949 I0 J0.5
G1 X13.538 Z-1
X5 F200
G3 X5 Y19.5 I0 J-0.5
G1 X15
G3 X15 Y20.5 I0 J0.5
G1 X13.538
X5 Z-1.298 F333.3
G3 X5 Y19.5 Z-1.353 I0 J-0.5
G1 X9.209 Z-1.5
X15 F200
G3 X15 Y20.5 I0 J0.5
G1 X5
G3 X5 Y19.5 I0 J-0.5
G1 X9.209
X15 Z-1.702 F333.3
G3 X15 Y20.5 Z-1.757 I0 J0.5
G1 X8.044 Z-2
X5 F200
G3 X5 Y19.5 I0 J-0.5
G1 X15
G3 X15 Y20.5 I0 J0.5
G1 X8.044
X5 Z-2.106 F333.3
G3 X5 Y19.5 Z-2.161 I0 J-0.5
G1 X14.704 Z-2.5
X15 F200
G3 X15 Y20.5 I0 J0.5
G1 X8.044
X5
G3 X5 Y19.5 I0 J-0.5
G1 X14.704
X15 Z-2.51 F333.3
G3 X15 Y20.5 Z-2.565 I0 J0.5
G1 X5 Z-2.914
G3 X5 Y19.5 Z-2.969 I0 J-0.5
G1 X5.88 Z-3
X14.704 F200
X15
G3 X15 Y20.5 I0 J0.5
G1 X5
G3 X5 Y19.5 I0 J-0.5
G1 X5.88
G0 Z15

(Drill1)
X79 Y0
Z15
Z5
G1 Z-4 F200
G0 Z5
Y-15
G1 Z-3 F200
G0 Z5
Y-30
G1 Z-2 F200
G0 Z5
Y-45
G1 Z-1 F200
G0 Z5
Z15
M9
M5
M30
