(1001)
(Machine)
(  vendor: Autodesk)
(  description: Generic 3-axis)
(T3  D=3 CR=0 - ZMIN=-2.5 - flat end mill)
G90 G94
G17
G21

(Drill1)
T3
S1000 M3
G54
M8
G0 X68.6 Y0
Z15
Z5
Z3.75
G1 Z-1.25 F200
G0 Z5
Y15.8
Z3.75
G1 Z-1.25 F200
G0 Z5
X31.8
Z3.75
G1 Z-1.25 F200
G0 Z5
X36.8
Z3.75
G1 Z-1.25 F200
G0 Z5
Y0
Z3.75
G1 Z-1.25 F200
G0 Z5
X31.8
Z3.75
G1 Z-1.25 F200
G0 Z5
X0
Z3.75
G1 Z-1.25 F200
G0 Z5
Y15.8
Z3.75
G1 Z-1.25 F200
G0 Z5
Z15

(2D Adaptive1)
X59.467 Y7.023
Z4
Z3.01
Z2.5
G3 X61.714 Y8.777 Z2.344 I1.123 J0.877 F333.3
X59.467 Y7.023 Z2.187 I-1.123 J-0.877
X61.714 Y8.777 Z2.031 I1.123 J0.877
X59.467 Y7.023 Z1.875 I-1.123 J-0.877
X61.714 Y8.777 Z1.718 I1.123 J0.877
X59.467 Y7.023 Z1.562 I-1.123 J-0.877
X61.714 Y8.777 Z1.406 I1.123 J0.877
X59.467 Y7.023 Z1.249 I-1.123 J-0.877
X61.714 Y8.777 Z1.093 I1.123 J0.877
X59.467 Y7.023 Z0.937 I-1.123 J-0.877
X61.714 Y8.777 Z0.78 I1.123 J0.877
X59.467 Y7.023 Z0.624 I-1.123 J-0.877
X61.714 Y8.777 Z0.468 I1.123 J0.877
X59.467 Y7.023 Z0.311 I-1.123 J-0.877
X61.714 Y8.777 Z0.155 I1.123 J0.877
X59.467 Y7.023 Z-0.001 I-1.123 J-0.877
X61.714 Y8.777 Z-0.158 I1.123 J0.877
X59.467 Y7.023 Z-0.314 I-1.123 J-0.877
X61.714 Y8.777 Z-0.47 I1.123 J0.877
X59.467 Y7.023 Z-0.627 I-1.123 J-0.877
X62.015 Y7.9 Z-0.75 I1.123 J0.877
X59.165 Y7.9 I-1.425 J0
X62.015 Y7.9 I1.425 J0
G1 X62.05 Y8.621 F450
X62.067 Y8.71
X62.075 Y8.86
X62.055 Y9.008
X62.013 Y9.152
X61.951 Y9.289
X61.872 Y9.417
X61.78 Y9.535
X61.676 Y9.643
X61.561 Y9.74
X61.438 Y9.825
X61.308 Y9.899
X61.171 Y9.962
X61.03 Y10.012
X60.885 Y10.051
X60.733 Y10.079
X60.577 Y10.095
X60.418 Y10.098
X60.256 Y10.088
X60.093 Y10.065
X59.931 Y10.029
X59.77 Y9.979
X59.612 Y9.916
X59.458 Y9.839
X59.31 Y9.75
X59.168 Y9.649
X59.034 Y9.535
X58.909 Y9.411
X58.794 Y9.276
X58.689 Y9.132
X58.596 Y8.98
X58.516 Y8.82
X58.448 Y8.653
X58.394 Y8.482
X58.353 Y8.306
X58.327 Y8.127
X58.315 Y7.946
X58.318 Y7.765
X58.335 Y7.584
X58.367 Y7.405
X58.413 Y7.228
X58.474 Y7.056
X58.548 Y6.89
X58.635 Y6.729
X58.734 Y6.576
X58.846 Y6.432
X58.969 Y6.297
X59.102 Y6.172
X59.246 Y6.058
X59.397 Y5.956
X59.557 Y5.867
X59.723 Y5.79
X59.895 Y5.727
X60.072 Y5.679
X60.252 Y5.644
X60.434 Y5.624
X60.617 Y5.619
X60.8 Y5.628
X60.981 Y5.652
X61.16 Y5.691
X61.336 Y5.743
X61.506 Y5.81
X61.671 Y5.89
X61.829 Y5.984
X61.979 Y6.089
X62.119 Y6.206
X62.25 Y6.334
X62.371 Y6.473
X62.48 Y6.62
X62.581 Y6.783
X62.692 Y6.999
X62.825 Y7.318
X62.934 Y7.655
X62.999 Y7.925
X63.035 Y8.163
X63.052 Y8.383
X63.05 Y8.597
X63.032 Y8.804
X62.998 Y9.002
X62.95 Y9.191
X62.888 Y9.376
X62.809 Y9.556
X62.716 Y9.731
X62.609 Y9.899
X62.488 Y10.058
X62.354 Y10.208
X62.207 Y10.348
X62.046 Y10.477
X61.874 Y10.595
X61.69 Y10.701
X61.494 Y10.792
X61.29 Y10.869
X61.076 Y10.93
X60.856 Y10.974
X60.629 Y11.001
X60.399 Y11.01
X60.166 Y11
X59.932 Y10.971
X59.699 Y10.922
X59.469 Y10.855
X59.244 Y10.769
X59.024 Y10.664
X58.812 Y10.542
X58.609 Y10.401
X58.418 Y10.244
X58.238 Y10.072
X58.072 Y9.884
X57.921 Y9.683
X57.787 Y9.47
X57.669 Y9.246
X57.569 Y9.012
X57.489 Y8.77
X57.427 Y8.523
X57.386 Y8.27
X57.365 Y8.014
Y7.757
X57.385 Y7.501
X57.426 Y7.247
X57.488 Y6.996
X57.569 Y6.751
X57.67 Y6.513
X57.789 Y6.284
X57.927 Y6.064
X58.082 Y5.857
X58.253 Y5.662
X58.44 Y5.482
X58.64 Y5.318
X58.853 Y5.169
X59.077 Y5.039
X59.311 Y4.926
X59.554 Y4.833
X59.803 Y4.76
X60.057 Y4.707
X60.315 Y4.674
X60.575 Y4.662
X60.834 Y4.671
X61.093 Y4.701
X61.348 Y4.752
X61.598 Y4.823
X61.841 Y4.913
X62.077 Y5.023
X62.303 Y5.152
X62.518 Y5.298
X62.722 Y5.462
X62.92 Y5.65
X63.123 Y5.875
X63.317 Y6.129
X63.496 Y6.407
X63.655 Y6.705
X63.788 Y7.01
X63.894 Y7.317
X63.972 Y7.623
X64.024 Y7.926
X64.051 Y8.225
X64.054 Y8.52
X64.033 Y8.811
X63.989 Y9.096
X63.924 Y9.375
X63.836 Y9.646
X63.728 Y9.909
X63.599 Y10.161
X63.45 Y10.402
X63.281 Y10.632
X63.094 Y10.847
X62.889 Y11.049
X62.667 Y11.235
X62.429 Y11.403
X62.176 Y11.553
X61.91 Y11.684
X61.632 Y11.793
X61.343 Y11.881
X61.045 Y11.946
X60.741 Y11.987
X60.432 Y12.003
X60.12 Y11.995
X59.808 Y11.962
X59.497 Y11.903
X59.191 Y11.819
X58.89 Y11.709
X58.597 Y11.576
X58.314 Y11.418
X58.043 Y11.237
X57.787 Y11.034
X57.546 Y10.81
X57.324 Y10.567
X57.121 Y10.305
X56.938 Y10.027
X56.779 Y9.734
X56.642 Y9.429
X56.531 Y9.113
X56.445 Y8.788
X56.385 Y8.456
X56.352 Y8.121
X56.346 Y7.783
X56.367 Y7.445
X56.416 Y7.11
X56.491 Y6.779
X56.593 Y6.455
X56.72 Y6.139
X56.872 Y5.835
X57.049 Y5.544
X57.248 Y5.268
X57.469 Y5.009
X57.71 Y4.768
X57.97 Y4.547
X58.247 Y4.347
X58.539 Y4.17
X58.844 Y4.018
X59.161 Y3.89
X59.487 Y3.788
X59.82 Y3.713
X60.159 Y3.664
X60.5 Y3.643
X60.841 Y3.649
X61.181 Y3.683
X61.518 Y3.744
X61.848 Y3.832
X62.171 Y3.946
X62.483 Y4.085
X62.786 Y4.251
X63.083 Y4.446
X63.372 Y4.671
X63.651 Y4.926
X63.915 Y5.211
X64.16 Y5.521
X64.382 Y5.852
X64.575 Y6.201
X64.74 Y6.562
X64.874 Y6.933
X64.977 Y7.31
X65.049 Y7.69
X65.09 Y8.071
X65.1 Y8.451
X65.079 Y8.828
X65.029 Y9.2
X64.949 Y9.564
X64.841 Y9.92
X64.705 Y10.264
X64.542 Y10.597
X64.352 Y10.915
X64.138 Y11.217
X63.899 Y11.502
X63.637 Y11.768
X63.354 Y12.013
X63.05 Y12.236
X62.728 Y12.435
X62.388 Y12.608
X62.034 Y12.754
X61.667 Y12.872
X61.289 Y12.961
X60.903 Y13.02
X60.511 Y13.047
X60.116 Y13.043
X59.72 Y13.007
X59.326 Y12.939
X58.937 Y12.839
X58.556 Y12.708
X58.184 Y12.546
X57.825 Y12.353
X57.481 Y12.131
X57.154 Y11.882
X56.848 Y11.606
X56.564 Y11.305
X56.304 Y10.981
X56.07 Y10.637
X55.864 Y10.273
X55.687 Y9.894
X55.541 Y9.501
X55.427 Y9.096
X55.345 Y8.683
X55.297 Y8.263
X55.283 Y7.841
X55.302 Y7.418
X55.356 Y6.998
X55.443 Y6.583
X55.563 Y6.175
X55.716 Y5.779
X55.9 Y5.395
X56.115 Y5.028
X56.358 Y4.679
X56.629 Y4.35
X56.926 Y4.043
X57.246 Y3.762
X57.588 Y3.507
X57.949 Y3.28
X58.328 Y3.083
X58.721 Y2.917
X59.127 Y2.783
X59.542 Y2.682
X59.963 Y2.614
X60.389 Y2.581
X60.817
X61.243 Y2.617
X61.664 Y2.686
X62.08 Y2.789
X62.488 Y2.926
X62.887 Y3.096
X63.276 Y3.301
X63.653 Y3.539
X64.016 Y3.812
X64.362 Y4.119
X64.688 Y4.458
X64.988 Y4.825
X65.26 Y5.218
X65.499 Y5.633
X65.705 Y6.065
X65.874 Y6.511
X66.007 Y6.967
X66.102 Y7.429
X66.16 Y7.895
X66.18 Y8.362
X66.162 Y8.827
X66.107 Y9.286
X66.016 Y9.738
X65.89 Y10.18
X65.728 Y10.609
X65.533 Y11.024
X65.306 Y11.422
X65.046 Y11.8
X64.757 Y12.157
X64.44 Y12.491
X64.095 Y12.799
X63.725 Y13.079
X63.333 Y13.33
X62.92 Y13.549
X62.488 Y13.736
X62.409 Y13.763
X62.335 Y13.783
X62.26 Y13.796
X62.184 Y13.8
X59.442
X59.004 Y13.778
X58.71 Y13.74
X58.385 Y13.67
X58.032 Y13.564
X57.668 Y13.423
X57.308 Y13.248
X56.94 Y13.031
X56.574 Y12.774
X56.217 Y12.478
X55.878 Y12.147
X55.56 Y11.783
X55.269 Y11.389
X55.007 Y10.969
X54.779 Y10.526
X54.586 Y10.064
X54.429 Y9.585
X54.311 Y9.093
X54.233 Y8.592
X54.195 Y8.085
X54.198 Y7.576
X54.242 Y7.067
X54.327 Y6.564
X54.452 Y6.067
X54.616 Y5.583
X54.819 Y5.112
X55.06 Y4.659
X55.336 Y4.226
X55.646 Y3.817
X55.988 Y3.434
X56.36 Y3.079
X56.76 Y2.755
X57.184 Y2.464
X57.63 Y2.208
X57.931 Y2.067
X58.027 Y2.03
X58.127 Y2.008
X58.229 Y2
X62.067
X62.354 Y2.014
X62.627 Y2.05
X62.924 Y2.114
X63.237 Y2.207
X63.586 Y2.344
X63.95 Y2.52
X64.311 Y2.732
X64.686 Y2.996
X65.062 Y3.308
X65.429 Y3.666
X65.776 Y4.063
X66.096 Y4.497
X66.385 Y4.961
X66.522 Y5.226
X66.565 Y5.329
X66.591 Y5.437
X66.6 Y5.547
G3 X63.572 Y7.192 I-1.999 J-0.07
G1 X61.92 Y6.201
X61.108 Y5.714
G3 X62.067 Y2 I1.029 J-1.715
G1 X64.036
X64.222 Y2.009
X64.389 Y2.031
X64.588 Y2.074
X64.788 Y2.134
X65.031 Y2.228
X65.275 Y2.346
X65.563 Y2.517
X65.844 Y2.714
X66.16 Y2.976
X66.389 Y3.199
X66.503 Y3.345
X66.575 Y3.516
X66.6 Y3.7
G3 X66.013 Y5.533 I-3.538 J-0.124
X62.218 Y3.017 I-1.897 J-1.258
X64.036 Y2 I1.897 J1.258
G1 X65.513
X65.713 Y2.01
X65.862 Y2.03
X66.021 Y2.065
X66.105 Y2.09
X66.304 Y2.188
X66.463 Y2.343
X66.565 Y2.54
X66.6 Y2.76
G3 X66.343 Y3.528 I-1.428 J-0.05
X64.75 Y2.415 I-0.797 J-0.557
X65.513 Y2 I0.797 J0.557
G1 X66.383
X66.417
X66.461
X66.471 Y2.001
X66.508 Y2.007
X66.542 Y2.021
X66.572 Y2.043
G0 Z3.01
X66.461 Y2
Z2.5
G1 Z-0.75 F200
X66.497 Y2.001 F450
X66.509 Y2.003
X66.52 Y2.006
X66.532 Y2.011
X66.543 Y2.018
X66.572 Y2.043
X66.582 Y2.056
X66.59 Y2.068
X66.596 Y2.085
X66.599 Y2.102
X66.6 Y2.299
Y10.174
X66.582 Y10.529
X66.549 Y10.781
X66.493 Y11.045
X66.404 Y11.343
X66.276 Y11.671
X66.118 Y11.996
X65.911 Y12.348
X65.655 Y12.713
X65.353 Y13.076
X65.012 Y13.426
X64.781 Y13.627
X64.643 Y13.721
X64.486 Y13.78
X64.32 Y13.8
G3 X62.408 Y11.533 I0.07 J-1.999
G1 X62.619 Y9.975
G3 X66.6 Y10.174 I1.982 J0.268
G1 Y12.143
X66.592 Y12.308
X66.57 Y12.476
X66.53 Y12.661
X66.47 Y12.861
X66.379 Y13.094
X66.266 Y13.329
X66.191 Y13.455
X66.08 Y13.598
X65.935 Y13.708
X65.768 Y13.777
X65.588 Y13.8
G3 X64.383 Y13.438 I0.087 J-2.477
X65.903 Y10.949 I0.76 J-1.245
X66.6 Y12.143 I-0.76 J1.245
G1 Y13.455
Y13.505
Y13.54
X66.592 Y13.689
X66.555 Y13.747
X66.498 Y13.786
X66.431 Y13.8
X66.365 Y13.792
X66.302 Y13.772
X66.244 Y13.741
G3 X66.495 Y13.354 I0.126 J-0.193
X66.6 Y13.54 I-0.126 J0.193
G1 Y13.691
X66.598 Y13.701
X66.596 Y13.712
X66.592 Y13.722
X66.587 Y13.732
X66.58 Y13.742
X66.563 Y13.763
X66.552 Y13.775
X66.541 Y13.783
X66.53 Y13.79
X66.519 Y13.794
X66.508 Y13.798
X66.497 Y13.799
X65.841 Y13.8
X62.184
X61.398
X60.227
X59.442
X57.309
X57.071 Y13.788
X56.904 Y13.766
X56.703 Y13.723
X56.502 Y13.663
X56.26 Y13.569
X56.02 Y13.452
X55.739 Y13.287
X55.462 Y13.092
X55.165 Y12.846
X54.854 Y12.542
X54.549 Y12.193
X54.266 Y11.81
X53.994 Y11.374
X53.747 Y10.894
X53.532 Y10.38
X53.355 Y9.837
X53.22 Y9.274
X53.129 Y8.695
X53.085 Y8.106
X53.089 Y7.512
X53.14 Y6.919
X53.239 Y6.329
X53.385 Y5.748
X53.578 Y5.179
X53.816 Y4.627
X54.098 Y4.096
X54.422 Y3.588
X54.786 Y3.108
X55.188 Y2.658
X55.625 Y2.242
X55.73 Y2.156
X55.864 Y2.071
X56.013 Y2.018
X56.171 Y2
X58.229
G3 X60.146 Y4.233 I-0.07 J1.999
G1 X59.226 Y12.035
G3 X57.309 Y13.8 I-1.986 J-0.234
G1 X55.742
X55.592 Y13.792
X55.444 Y13.773
X55.277 Y13.736
X55.108 Y13.684
X54.911 Y13.607
X54.702 Y13.504
X54.474 Y13.368
X54.236 Y13.198
X53.972 Y12.976
X53.717 Y12.725
X53.439 Y12.402
X53.158 Y12.018
X52.904 Y11.603
X52.657 Y11.119
X52.434 Y10.576
X52.246 Y9.989
X52.101 Y9.367
X52.004 Y8.719
X51.958 Y8.056
X51.966 Y7.382
X52.028 Y6.706
X52.146 Y6.033
X52.317 Y5.368
X52.542 Y4.718
X52.819 Y4.086
X53.147 Y3.477
X53.523 Y2.895
X53.945 Y2.346
X54.049 Y2.231
X54.198 Y2.106
X54.376 Y2.027
X54.568 Y2
X56.171
G3 X58.098 Y4.108 I-0.07 J1.999
G1 X57.669 Y11.911
G3 X55.742 Y13.8 I-1.997 J-0.11
G1 X54.356
X54.206 Y13.792
X54.058 Y13.767
X53.909 Y13.727
X53.733 Y13.665
X53.559 Y13.587
X53.354 Y13.476
X53.146 Y13.339
X52.911 Y13.157
X52.683 Y12.948
X52.422 Y12.669
X52.177 Y12.358
X51.92 Y11.974
X51.661 Y11.509
X51.424 Y10.991
X51.221 Y10.43
X51.047 Y9.797
X50.918 Y9.113
X50.84 Y8.395
X50.821 Y7.673
X50.857 Y6.952
X50.949 Y6.236
X51.093 Y5.528
X51.29 Y4.834
X51.537 Y4.155
X51.834 Y3.497
X52.18 Y2.863
X52.504 Y2.364
X52.574 Y2.273
X52.728 Y2.126
X52.919 Y2.032
X53.129 Y2
X54.568
G3 X56.498 Y4.053 I-0.07 J1.999
G1 X56.285 Y11.856
G3 X54.356 Y13.8 I-1.999 J-0.054
G1 X53.117
X52.967 Y13.792
X52.819 Y13.768
X52.674 Y13.73
X52.515 Y13.674
X52.342 Y13.597
X52.16 Y13.498
X51.953 Y13.363
X51.748 Y13.204
X51.513 Y12.99
X51.284 Y12.744
X51.037 Y12.433
X50.78 Y12.05
X50.549 Y11.637
X50.315 Y11.126
X50.097 Y10.527
X49.913 Y9.859
X49.779 Y9.159
X49.701 Y8.441
X49.678 Y7.719
X49.706 Y6.998
X49.784 Y6.28
X49.911 Y5.569
X50.084 Y4.868
X50.302 Y4.18
X50.566 Y3.508
X50.873 Y2.855
X51.107 Y2.44
X51.195 Y2.309
X51.351 Y2.143
X51.551 Y2.037
X51.775 Y2
X53.129
G3 X55.059 Y4.002 I-0.07 J1.999
G1 X55.047 Y11.804
G3 X53.117 Y13.8 I-2 J-0.003
G1 X51.895
X51.745 Y13.792
X51.597 Y13.766
X51.453 Y13.726
X51.29 Y13.667
X51.128 Y13.592
X50.939 Y13.486
X50.746 Y13.356
X50.533 Y13.186
X50.32 Y12.986
X50.081 Y12.722
X49.856 Y12.43
X49.604 Y12.042
X49.368 Y11.605
X49.141 Y11.089
X48.928 Y10.476
X48.749 Y9.79
X48.624 Y9.079
X48.552 Y8.361
X48.531 Y7.639
X48.559 Y6.918
X48.634 Y6.2
X48.753 Y5.487
X48.914 Y4.784
X49.118 Y4.091
X49.362 Y3.411
X49.636 Y2.772
X49.82 Y2.424
X49.883 Y2.325
X49.994 Y2.19
X50.136 Y2.087
X50.3 Y2.022
X50.474 Y2
X51.775
G3 X53.705 Y3.968 I-0.07 J1.999
G1 X53.825 Y11.771
G3 X51.895 Y13.8 I-2 J0.031
G1 X50.746
X50.597 Y13.792
X50.448 Y13.77
X50.303 Y13.734
X50.15 Y13.681
X49.99 Y13.611
X49.816 Y13.517
X49.623 Y13.392
X49.427 Y13.242
X49.209 Y13.045
X48.992 Y12.815
X48.759 Y12.524
X48.519 Y12.169
X48.288 Y11.761
X48.048 Y11.243
X47.828 Y10.648
X47.647 Y10.002
X47.508 Y9.294
X47.423 Y8.577
X47.387 Y7.856
X47.397 Y7.134
X47.45 Y6.414
X47.544 Y5.698
X47.679 Y4.989
X47.852 Y4.288
X48.063 Y3.597
X48.309 Y2.926
X48.484 Y2.547
X48.591 Y2.357
X48.702 Y2.209
X48.848 Y2.096
X49.018 Y2.024
X49.201 Y2
X50.474
G3 X52.403 Y3.929 I-0.07 J1.999
G1 X52.675 Y11.731
G3 X50.746 Y13.8 I-1.999 J0.07
G1 X49.598
X49.448 Y13.792
X49.299 Y13.773
X49.153 Y13.738
X49.002 Y13.688
X48.85 Y13.623
X48.671 Y13.529
X48.493 Y13.416
X48.291 Y13.265
X48.09 Y13.087
X47.864 Y12.852
X47.643 Y12.582
X47.394 Y12.222
X47.17 Y11.835
X46.938 Y11.348
X46.714 Y10.761
X46.521 Y10.099
X46.375 Y9.392
X46.284 Y8.676
X46.24 Y7.955
Y7.233
X46.281 Y6.512
X46.362 Y5.795
X46.479 Y5.082
X46.633 Y4.377
X46.822 Y3.68
X47.046 Y3.001
X47.209 Y2.613
X47.337 Y2.367
X47.361 Y2.329
X47.473 Y2.192
X47.615 Y2.088
X47.779 Y2.022
X47.954 Y2
X49.201
G3 X51.129 Y3.897 I-0.07 J1.999
G1 X51.525 Y11.7
G3 X49.598 Y13.8 I-1.997 J0.101
G1 X48.449
X48.285 Y13.792
X48.137 Y13.772
X47.991 Y13.737
X47.847 Y13.689
X47.691 Y13.623
X47.513 Y13.529
X47.336 Y13.418
X47.133 Y13.265
X46.937 Y13.091
X46.709 Y12.854
X46.494 Y12.592
X46.253 Y12.244
X46.021 Y11.842
X45.793 Y11.365
X45.571 Y10.781
X45.375 Y10.111
X45.229 Y9.404
X45.135 Y8.689
X45.088 Y7.968
X45.084 Y7.246
X45.119 Y6.525
X45.191 Y5.807
X45.298 Y5.093
X45.439 Y4.385
X45.614 Y3.684
X45.818 Y3.02
X45.965 Y2.651
X46.091 Y2.396
X46.124 Y2.341
X46.236 Y2.199
X46.38 Y2.091
X46.546 Y2.023
X46.725 Y2
X47.954
G3 X49.88 Y3.872 I-0.07 J1.999
G1 X50.376 Y11.675
G3 X48.449 Y13.8 I-1.996 J0.127
G1 X47.211
X47.061 Y13.792
X46.913 Y13.765
X46.769 Y13.724
X46.625 Y13.669
X46.456 Y13.589
X46.283 Y13.489
X46.092 Y13.358
X45.893 Y13.196
X45.68 Y12.993
X45.462 Y12.747
X45.227 Y12.436
X45.001 Y12.081
X44.756 Y11.617
X44.535 Y11.102
X44.329 Y10.494
X44.154 Y9.794
X44.034 Y9.082
X43.961 Y8.364
X43.93 Y7.642
X43.938 Y6.92
X43.983 Y6.2
X44.062 Y5.482
X44.174 Y4.769
X44.318 Y4.061
X44.496 Y3.361
X44.663 Y2.861
X44.8 Y2.54
X44.886 Y2.375
X44.996 Y2.22
X45.144 Y2.101
X45.318 Y2.026
X45.506 Y2
X46.725
G3 X48.651 Y3.875 I-0.07 J1.999
G1 X49.137 Y11.677
G3 X47.211 Y13.8 I-1.996 J0.124
G1 X46.062
X45.912 Y13.792
X45.765 Y13.766
X45.62 Y13.725
X45.463 Y13.665
X45.306 Y13.591
X45.126 Y13.487
X44.943 Y13.362
X44.741 Y13.197
X44.53 Y12.995
X44.306 Y12.743
X44.083 Y12.448
X43.838 Y12.062
X43.619 Y11.649
X43.391 Y11.118
X43.178 Y10.486
X43.003 Y9.786
X42.882 Y9.074
X42.806 Y8.356
X42.773 Y7.635
X42.778 Y6.913
X42.817 Y6.192
X42.89 Y5.474
X42.994 Y4.759
X43.129 Y4.05
X43.3 Y3.348
X43.45 Y2.881
X43.583 Y2.56
X43.698 Y2.333
X43.81 Y2.195
X43.953 Y2.089
X44.118 Y2.023
X44.294 Y2
X45.506
G3 X47.431 Y3.857 I-0.07 J1.999
G1 X47.987 Y11.659
G3 X46.062 Y13.8 I-1.995 J0.142
G1 X44.914
X44.764 Y13.792
X44.616 Y13.766
X44.472 Y13.726
X44.315 Y13.667
X44.16 Y13.594
X43.981 Y13.492
X43.795 Y13.364
X43.594 Y13.202
X43.388 Y13.006
X43.165 Y12.756
X42.944 Y12.465
X42.698 Y12.08
X42.479 Y11.668
X42.248 Y11.134
X42.032 Y10.499
X41.855 Y9.799
X41.731 Y9.088
X41.653 Y8.37
X41.616 Y7.649
Y6.927
X41.65 Y6.206
X41.715 Y5.487
X41.811 Y4.772
X41.938 Y4.061
X42.101 Y3.357
X42.251 Y2.877
X42.376 Y2.568
X42.485 Y2.349
X42.492 Y2.338
X42.603 Y2.198
X42.747 Y2.09
X42.913 Y2.023
X43.091 Y2
X44.294
G3 X46.218 Y3.841 I-0.07 J1.999
G1 X46.838 Y11.643
G3 X44.914 Y13.8 I-1.994 J0.158
G1 X43.765
X43.615 Y13.792
X43.468 Y13.766
X43.323 Y13.727
X43.168 Y13.668
X43.013 Y13.596
X42.834 Y13.494
X42.65 Y13.368
X42.448 Y13.205
X42.244 Y13.012
X42.02 Y12.762
X41.799 Y12.473
X41.553 Y12.088
X41.332 Y11.675
X41.1 Y11.141
X40.882 Y10.503
X40.704 Y9.803
X40.578 Y9.092
X40.498 Y8.375
X40.457 Y7.654
X40.453 Y6.932
X40.482 Y6.211
X40.542 Y5.491
X40.631 Y4.775
X40.751 Y4.063
X40.908 Y3.358
X41.052 Y2.887
X41.174 Y2.578
X41.281 Y2.36
X41.292 Y2.342
X41.404 Y2.2
X41.548 Y2.091
X41.715 Y2.023
X41.893 Y2
X43.091
G3 X45.014 Y3.827 I-0.07 J1.999
G1 X45.688 Y11.629
G3 X43.765 Y13.8 I-1.993 J0.172
G1 X42.617
X42.467 Y13.792
X42.319 Y13.767
X42.175 Y13.727
X42.02 Y13.669
X41.866 Y13.597
X41.685 Y13.495
X41.502 Y13.37
X41.3 Y13.207
X41.097 Y13.015
X40.872 Y12.764
X40.651 Y12.476
X40.404 Y12.09
X40.183 Y11.677
X39.95 Y11.142
X39.73 Y10.501
X39.551 Y9.802
X39.424 Y9.091
X39.341 Y8.374
X39.298 Y7.653
X39.29 Y6.931
X39.314 Y6.209
X39.369 Y5.489
X39.453 Y4.772
X39.568 Y4.06
X39.719 Y3.354
X39.859 Y2.891
X39.979 Y2.582
X40.085 Y2.365
X40.097 Y2.344
X40.209 Y2.201
X40.353 Y2.092
X40.521 Y2.023
X40.7 Y2
X41.893
G3 X43.815 Y3.814 I-0.07 J1.999
G1 X44.538 Y11.617
G3 X42.617 Y13.8 I-1.991 J0.185
G1 X41.468
X41.318 Y13.792
X41.171 Y13.767
X41.026 Y13.727
X40.871 Y13.67
X40.717 Y13.598
X40.537 Y13.496
X40.354 Y13.371
X40.151 Y13.208
X39.948 Y13.016
X39.723 Y12.766
X39.502 Y12.478
X39.254 Y12.092
X39.032 Y11.679
X38.858 Y11.281
X38.826 Y11.19
X38.807 Y11.096
X38.8 Y11.001
G3 X42.176 Y8.617 I2.593 J0.091
X41.468 Y13.8 I-0.8 J2.531
G1 X40.32
X40.17 Y13.792
X40.022 Y13.767
X39.877 Y13.728
X39.723 Y13.67
X39.569 Y13.599
X39.388 Y13.497
X39.205 Y13.373
X39.062 Y13.258
X38.921 Y13.105
X38.831 Y12.918
X38.8 Y12.712
G3 X39.164 Y11.644 I1.95 J0.068
X41.381 Y13.231 I1.108 J0.794
X40.32 Y13.8 I-1.108 J-0.794
G1 X39.261
X39.212
X39.177
X39.027 Y13.792
X38.909 Y13.729
X38.829 Y13.622
X38.8 Y13.491
G3 X38.897 Y13.234 I0.429 J0.015
X39.433 Y13.673 I0.268 J0.22
X39.177 Y13.8 I-0.268 J-0.22
G1 X38.915
X38.897 Y13.798
X38.879 Y13.793
X38.861 Y13.783
X38.851 Y13.776
X38.841 Y13.765
X38.82 Y13.742
X38.813 Y13.732
X38.808 Y13.722
X38.804 Y13.712
X38.802 Y13.701
X38.8 Y13.691
Y3.612
X38.818 Y3.256
X38.853 Y2.986
X38.901 Y2.761
X38.963 Y2.555
X39.005 Y2.446
X39.11 Y2.265
X39.263 Y2.122
X39.451 Y2.031
X39.658 Y2
G3 X40.863 Y2.323 I-0.097 J2.77
X39.544 Y4.802 I-0.66 J1.24
X38.8 Y3.612 I0.66 J-1.24
G1 Y2.299
Y2.25
Y2.215
X38.834 Y2.107
X38.916 Y2.028
X39.026 Y2
G3 X39.218 Y2.273 I-0.007 J0.209
X38.8 Y2.215 I-0.204 J-0.065
G1 X38.801 Y2.101
X38.804 Y2.085
X38.81 Y2.068
X38.822 Y2.049
X38.841 Y2.031
X38.857 Y2.02
X38.872 Y2.01
X38.887 Y2.004
X38.903 Y2.001
X38.933 Y2
X40.7
G0 Z4
X22.649 Y7.023
Z3.01
Z2.5
G3 X24.896 Y8.777 Z2.344 I1.123 J0.877 F333.3
X22.649 Y7.023 Z2.187 I-1.123 J-0.877
X24.896 Y8.777 Z2.031 I1.123 J0.877
X22.649 Y7.023 Z1.875 I-1.123 J-0.877
X24.896 Y8.777 Z1.718 I1.123 J0.877
X22.649 Y7.023 Z1.562 I-1.123 J-0.877
X24.896 Y8.777 Z1.406 I1.123 J0.877
X22.649 Y7.023 Z1.249 I-1.123 J-0.877
X24.896 Y8.777 Z1.093 I1.123 J0.877
X22.649 Y7.023 Z0.937 I-1.123 J-0.877
X24.896 Y8.777 Z0.78 I1.123 J0.877
X22.649 Y7.023 Z0.624 I-1.123 J-0.877
X24.896 Y8.777 Z0.468 I1.123 J0.877
X22.649 Y7.023 Z0.311 I-1.123 J-0.877
X24.896 Y8.777 Z0.155 I1.123 J0.877
X22.649 Y7.023 Z-0.001 I-1.123 J-0.877
X24.896 Y8.777 Z-0.158 I1.123 J0.877
X22.649 Y7.023 Z-0.314 I-1.123 J-0.877
X24.896 Y8.777 Z-0.47 I1.123 J0.877
X22.649 Y7.023 Z-0.627 I-1.123 J-0.877
X25.198 Y7.9 Z-0.75 I1.123 J0.877
X22.348 Y7.9 I-1.425 J0
X25.198 Y7.9 I1.425 J0
G1 X25.232 Y8.621 F450
X25.255 Y8.708
X25.274 Y8.857
X25.263 Y9.007
X25.229 Y9.153
X25.175 Y9.293
X25.104 Y9.425
X25.018 Y9.548
X24.92 Y9.661
X24.81 Y9.764
X24.692 Y9.855
X24.565 Y9.936
X24.432 Y10.005
X24.294 Y10.063
X24.151 Y10.109
X24.005 Y10.144
X23.857 Y10.167
X23.707 Y10.179
X23.557 Y10.18
X23.408 Y10.17
X23.259 Y10.149
X23.112 Y10.117
X22.968 Y10.076
X22.827 Y10.025
X22.69 Y9.964
X22.557 Y9.894
X22.43 Y9.815
X22.308 Y9.728
X22.192 Y9.633
X22.082 Y9.53
X21.98 Y9.42
X21.885 Y9.304
X21.798 Y9.182
X21.719 Y9.055
X21.648 Y8.923
X21.586 Y8.786
X21.533 Y8.646
X21.489 Y8.502
X21.454 Y8.356
X21.429 Y8.208
X21.414 Y8.059
X21.408 Y7.909
X21.411 Y7.759
X21.424 Y7.61
X21.447 Y7.462
X21.479 Y7.315
X21.52 Y7.171
X21.571 Y7.03
X21.63 Y6.892
X21.698 Y6.758
X21.774 Y6.629
X21.858 Y6.505
X21.95 Y6.386
X22.05 Y6.274
X22.156 Y6.168
X22.269 Y6.069
X22.388 Y5.977
X22.512 Y5.894
X22.641 Y5.818
X22.775 Y5.75
X22.913 Y5.691
X23.055 Y5.641
X23.199 Y5.601
X23.346 Y5.569
X23.494 Y5.546
X23.643 Y5.533
X23.793 Y5.53
X23.943 Y5.536
X24.092 Y5.551
X24.24 Y5.576
X24.386 Y5.611
X24.53 Y5.654
X24.67 Y5.706
X24.807 Y5.768
X24.94 Y5.837
X25.068 Y5.915
X25.191 Y6.001
X25.309 Y6.095
X25.42 Y6.195
X25.524 Y6.303
X25.622 Y6.417
X25.712 Y6.537
X25.794 Y6.662
X25.868 Y6.793
X25.936 Y6.927
X25.996 Y7.064
X26.052 Y7.203
X26.103 Y7.344
X26.152 Y7.486
X26.196 Y7.63
X26.235 Y7.774
X26.268 Y7.921
X26.295 Y8.068
X26.315 Y8.217
X26.328 Y8.366
X26.333 Y8.516
X26.377 Y8.691
X26.465 Y8.849
X26.59 Y8.979
X27.206 Y9.355
X27.395 Y9.413
X27.538 Y9.459
X27.68 Y9.508
X27.82 Y9.562
X27.959 Y9.618
X28.096 Y9.678
X28.233 Y9.74
X28.367 Y9.808
X28.496 Y9.884
X28.621 Y9.967
X28.743 Y10.055
X28.861 Y10.147
X28.975 Y10.244
X29.081 Y10.351
X29.179 Y10.465
X29.269 Y10.584
X29.354 Y10.708
X29.433 Y10.835
X29.499 Y10.97
X29.553 Y11.11
X29.598 Y11.253
X29.634 Y11.399
X29.662 Y11.546
X29.675 Y11.696
X29.674 Y11.846
X29.663 Y11.995
X29.643 Y12.144
X29.611 Y12.29
X29.564 Y12.433
X29.506 Y12.571
X29.437 Y12.705
X29.361 Y12.834
X29.273 Y12.955
X29.173 Y13.067
X29.064 Y13.17
X28.949 Y13.266
X28.827 Y13.354
X28.697 Y13.427
X28.56 Y13.489
X28.418 Y13.539
X28.274 Y13.58
X28.127 Y13.609
X27.977 Y13.621
X27.827
X27.678 Y13.61
X27.529 Y13.59
X27.384 Y13.553
X27.243 Y13.502
X27.106 Y13.44
X26.974 Y13.369
X26.848 Y13.288
X26.731 Y13.193
X26.624 Y13.088
X26.525 Y12.976
X26.433 Y12.858
X26.354 Y12.73
X26.288 Y12.595
X26.233 Y12.456
X26.189 Y12.312
X26.099 Y12.156
X25.973 Y12.027
X25.662 Y11.843
X24.966 Y11.652
X24.364 Y11.585
X24.215 Y11.567
X24.067 Y11.547
X23.918 Y11.525
X23.77 Y11.501
X23.623 Y11.474
X23.476 Y11.443
X23.296 Y11.444
X23.121 Y11.492
X22.809 Y11.672
X22.308 Y12.193
X22.169 Y12.365
X22.073 Y12.481
X21.974 Y12.593
X21.872 Y12.703
X21.768 Y12.811
X21.661 Y12.916
X21.552 Y13.019
X21.438 Y13.117
X21.319 Y13.208
X21.195 Y13.292
X21.067 Y13.371
X20.937 Y13.445
X20.803 Y13.514
X20.665 Y13.571
X20.522 Y13.617
X20.377 Y13.656
X20.23 Y13.686
X20.082 Y13.71
X19.932 Y13.719
X19.782 Y13.716
X19.633 Y13.702
X19.485 Y13.68
X19.338 Y13.649
X19.195 Y13.602
X19.057 Y13.544
X18.923 Y13.476
X18.794 Y13.4
X18.671 Y13.314
X18.558 Y13.216
X18.453 Y13.108
X18.356 Y12.994
X18.266 Y12.874
X18.189 Y12.746
X18.124 Y12.61
X18.071 Y12.47
X18.027 Y12.326
X17.993 Y12.18
X17.976 Y12.031
X17.973 Y11.881
X17.981 Y11.731
X17.998 Y11.582
X18.029 Y11.436
X18.076 Y11.293
X18.134 Y11.155
X18.202 Y11.021
X18.278 Y10.892
X18.368 Y10.772
X18.47 Y10.662
X18.58 Y10.56
X18.696 Y10.465
X18.82 Y10.381
X18.953 Y10.31
X19.091 Y10.252
X19.238 Y10.148
X19.47 Y9.871
X19.786 Y9.222
X19.938 Y8.516
X19.964 Y8.368
X19.992 Y8.221
X20.02 Y8.074
X20.051 Y7.927
X20.085 Y7.781
X20.128 Y7.605
X20.125 Y7.425
X20.076 Y7.251
X19.893 Y6.94
X19.36 Y6.453
X19.242 Y6.36
X19.126 Y6.266
X19.012 Y6.167
X18.902 Y6.066
X18.794 Y5.962
X18.688 Y5.855
X18.585 Y5.747
X18.486 Y5.634
X18.395 Y5.515
X18.31 Y5.391
X18.231 Y5.264
X18.157 Y5.133
X18.088 Y5
X18.031 Y4.861
X17.984 Y4.719
X17.946 Y4.574
X17.915 Y4.427
X17.891 Y4.279
X17.883 Y4.129
X17.886 Y3.979
X17.9 Y3.83
X17.922 Y3.681
X17.953 Y3.535
X18 Y3.392
X18.059 Y3.254
X18.127 Y3.12
X18.203 Y2.991
X18.289 Y2.868
X18.387 Y2.755
X18.495 Y2.651
X18.609 Y2.554
X18.729 Y2.464
X18.858 Y2.387
X18.994 Y2.323
X19.134 Y2.27
X19.278 Y2.226
X19.424 Y2.193
X19.573 Y2.176
X19.723 Y2.173
X19.873 Y2.181
X20.022 Y2.199
X20.168 Y2.231
X20.311 Y2.277
X20.449 Y2.336
X20.583 Y2.404
X20.712 Y2.48
X20.831 Y2.571
X20.941 Y2.673
X21.043 Y2.783
X21.138 Y2.9
X21.222 Y3.024
X21.375 Y3.317
X21.497 Y3.45
X22.087 Y3.865
X22.774 Y4.089
X23.484 Y4.221
X23.769 Y4.28
X23.944 Y4.322
X24.119 Y4.368
X24.299
X24.474 Y4.322
X25.102 Y3.965
X25.581 Y3.426
X25.816 Y3.151
X26.105 Y2.857
X26.249 Y2.733
X26.44 Y2.593
X26.697 Y2.435
X26.83 Y2.367
X26.981 Y2.307
X27.172 Y2.247
X27.402 Y2.196
X27.55 Y2.175
X27.7 Y2.169
X27.878 Y2.178
X28.092 Y2.205
X28.239 Y2.236
X28.381 Y2.283
X28.533 Y2.35
X28.713 Y2.446
X28.839 Y2.527
X28.955 Y2.623
X29.067 Y2.735
X29.193 Y2.883
X29.28 Y3.005
X29.353 Y3.136
X29.414 Y3.276
X29.474 Y3.452
X29.511 Y3.598
X29.531 Y3.746
X29.536 Y3.896
X29.527 Y4.075
X29.508 Y4.224
X29.474 Y4.37
X29.424 Y4.511
X29.353 Y4.668
X29.28 Y4.799
X29.196 Y4.923
X29.098 Y5.037
X28.98 Y5.152
X28.857 Y5.253
X28.734 Y5.339
X28.601 Y5.409
X28.434 Y5.478
X28.288 Y5.583
X28.047 Y5.852
X27.886 Y6.175
X27.781 Y6.521
X27.764 Y6.7
X27.81 Y7.058
X28.095 Y7.722
X28.577 Y8.26
X29.109 Y8.747
X29.518 Y9.144
X29.627 Y9.268
X29.721 Y9.407
X29.78 Y9.563
X29.8 Y9.73
Y12.818
X29.792 Y12.968
X29.768 Y13.116
X29.726 Y13.26
X29.668 Y13.398
X29.648 Y13.435
X29.538 Y13.586
X29.391 Y13.702
X29.219 Y13.775
X29.034 Y13.8
G3 X28.357 Y13.554 I0.041 J-1.166
X29.457 Y12.144 I0.55 J-0.705
X29.8 Y12.818 I-0.55 J0.705
G1 Y13.591
Y13.628
Y13.669
X29.798 Y13.702
X29.795 Y13.716
X29.791 Y13.729
G0 Z3.01
X29.8 Y13.669
Z2.5
G1 Z-0.75 F200
X29.799 Y13.7 F450
X29.798 Y13.71
X29.791 Y13.729
X29.78 Y13.748
X29.771 Y13.759
X29.759 Y13.77
X29.737 Y13.786
X29.722 Y13.793
X29.707 Y13.798
X29.692 Y13.8
X26.963
X26.813 Y13.792
X26.665 Y13.769
X26.52 Y13.729
X26.381 Y13.674
X25.742 Y13.337
X25.069 Y13.075
X24.717 Y12.996
X24.357 Y13.018
X23.658 Y13.202
X23.025 Y13.548
X22.802 Y13.69
X22.684 Y13.751
X22.557 Y13.788
X22.426 Y13.8
G3 X20.497 Y11.731 I0.07 J-1.999
X22.565 Y9.802 I1.999 J0.07
X27.209 Y13.464 I-0.174 J4.997
X26.963 Y13.8 I-0.256 J0.071
G1 X18.762
X18.612 Y13.792
X18.464 Y13.767
X18.321 Y13.724
X18.183 Y13.665
X18.052 Y13.592
X17.928 Y13.507
X17.812 Y13.412
X17.7 Y13.302
X17.599 Y13.186
X17.506 Y13.06
X17.418 Y12.919
X17.338 Y12.765
X17.268 Y12.596
X17.211 Y12.422
X17.169 Y12.246
X17.14 Y12.064
X17.126 Y11.873
X17.127 Y11.673
X17.145 Y11.472
X17.178 Y11.276
X17.226 Y11.085
X17.29 Y10.895
X17.373 Y10.704
X17.47 Y10.52
X17.859 Y9.911
X18.251 Y9.305
X18.39 Y8.971
X18.426 Y8.612
X18.323 Y7.898
X18.014 Y7.245
X17.646 Y6.624
X17.371 Y6.133
X17.186 Y5.728
X17.063 Y5.392
X16.976 Y5.076
X16.918 Y4.769
X16.886 Y4.475
X16.878 Y4.202
X16.892 Y3.936
X16.928 Y3.672
X16.982 Y3.421
X17.052 Y3.189
X17.139 Y2.967
X17.245 Y2.752
X17.368 Y2.543
X17.502 Y2.353
X17.587 Y2.252
X17.739 Y2.116
X17.923 Y2.03
X18.125 Y2
X20.656
X20.806 Y2.007
X20.954 Y2.033
X21.098 Y2.075
X21.764 Y2.353
X22.429 Y2.634
X22.774 Y2.74
X23.132 Y2.789
X23.849 Y2.704
X24.5 Y2.391
X24.957 Y2.106
X25.073 Y2.048
X25.198 Y2.012
X25.327 Y2
G3 X25.188 Y5.998 I-0.07 J1.999
X20.507 Y2.197 I0.174 J-4.997
G1 X20.503 Y2.15
X20.513 Y2.104
X20.535 Y2.063
X20.569 Y2.03
X20.61 Y2.009
X20.656 Y2
X28.693
X28.843 Y2.007
X28.991 Y2.029
X29.136 Y2.067
X29.276 Y2.121
X29.41 Y2.189
X29.477 Y2.232
X29.611 Y2.344
X29.714 Y2.486
X29.778 Y2.649
X29.8 Y2.822
G3 X29.53 Y3.594 I-1.374 J-0.048
X27.926 Y2.403 I-0.802 J-0.596
X28.693 Y2 I0.802 J0.596
G1 X29.563
X29.597
X29.641
X29.712 Y2.004
G0 Z3.01
X29.641 Y2
Z2.5
G1 Z-0.75 F200
X29.692 F450
X29.707 Y2.002
X29.722 Y2.007
X29.737 Y2.014
X29.759 Y2.03
X29.771 Y2.041
X29.78 Y2.052
X29.791 Y2.071
X29.798 Y2.09
X29.799 Y2.1
X29.8 Y2.131
Y4.709
X29.792 Y4.858
X29.771 Y5.007
X29.732 Y5.152
X29.679 Y5.292
X29.522 Y5.617
X29.46 Y5.973
X29.517 Y6.692
X29.738 Y7.179
X29.772 Y7.272
X29.793 Y7.369
X29.8 Y7.468
G3 X25.802 Y7.329 I-1.999 J-0.07
X29.694 Y4.569 I2.998 J0.105
G1 X29.735 Y4.59
X29.769 Y4.622
X29.791 Y4.663
X29.8 Y4.709
Y9.73
G0 Z3.01
X18.762 Y13.8
Z2.5
G1 Z-0.75 F200
X17.868 F450
X17.718 Y13.792
X17.571 Y13.766
X17.428 Y13.72
X17.292 Y13.657
X17.163 Y13.58
X17.043 Y13.49
X16.931 Y13.391
X16.824 Y13.28
X16.721 Y13.152
X16.62 Y13.006
X16.528 Y12.847
X16.446 Y12.674
X16.374 Y12.483
X16.314 Y12.277
X16.27 Y12.059
X16.242 Y11.833
X16.233 Y11.6
X16.242 Y11.359
X16.272 Y11.112
X16.329 Y10.828
X16.435 Y10.463
X16.69 Y9.788
X16.8 Y9.444
X16.891 Y8.727
X16.758 Y8.018
X16.522 Y7.336
X16.263 Y6.662
X16.052 Y6.044
X15.921 Y5.526
X15.846 Y5.079
X15.836 Y4.973
X15.829 Y4.868
X15.807 Y4.466
X15.817 Y4.086
X15.856 Y3.721
X15.922 Y3.371
X16.014 Y3.035
X16.13 Y2.716
X16.244 Y2.465
X16.303 Y2.359
X16.414 Y2.211
X16.56 Y2.096
X16.731 Y2.025
X16.915 Y2
X18.125
G3 X20.054 Y4.064 I-0.07 J1.999
G1 X19.797 Y11.867
G3 X17.868 Y13.8 I-1.999 J-0.066
G1 X16.998
X16.849 Y13.792
X16.7 Y13.774
X16.555 Y13.735
X16.416 Y13.678
X16.284 Y13.607
X16.16 Y13.523
X16.044 Y13.428
X15.935 Y13.324
X15.835 Y13.213
X15.743 Y13.094
X15.659 Y12.97
X15.583 Y12.841
X15.514 Y12.708
X15.454 Y12.57
X15.4 Y12.43
X15.355 Y12.287
X15.316 Y12.142
X15.285 Y11.995
X15.261 Y11.847
X15.243 Y11.698
X15.232 Y11.549
X15.227 Y11.399
Y11.249
X15.233 Y11.099
X15.245 Y10.95
X15.261 Y10.8
X15.281 Y10.652
X15.391 Y9.938
X15.445 Y9.218
X15.36 Y8.501
X15.192 Y7.799
X15.09 Y7.44
X15.014 Y7.166
X14.975 Y7.021
X14.938 Y6.875
X14.901 Y6.73
X14.866 Y6.584
X14.833 Y6.438
X14.802 Y6.291
X14.767 Y6.114
X14.688 Y5.952
X14.57 Y5.815
X14.421 Y5.713
X14.251 Y5.652
X14.072 Y5.637
X13.361 Y5.762
X13.216 Y5.801
X13.069 Y5.832
X12.921 Y5.856
X12.772 Y5.874
X12.622 Y5.888
X12.473 Y5.896
X12.323 Y5.893
X12.173 Y5.879
X12.025 Y5.857
X11.878 Y5.828
X11.732 Y5.792
X11.59 Y5.743
X11.453 Y5.683
X11.32 Y5.614
X11.191 Y5.537
X11.066 Y5.454
X10.95 Y5.359
X10.843 Y5.254
X10.744 Y5.141
X10.653 Y5.022
X10.568 Y4.898
X10.497 Y4.766
X10.439 Y4.628
X10.391 Y4.486
X10.351 Y4.341
X10.324 Y4.194
X10.312 Y4.044
X10.313 Y3.894
X10.324 Y3.745
X10.345 Y3.596
X10.381 Y3.45
X10.431 Y3.309
X10.493 Y3.172
X10.563 Y3.04
X10.643 Y2.913
X10.736 Y2.795
X10.84 Y2.687
X10.952 Y2.587
X11.069 Y2.494
X11.196 Y2.413
X11.33 Y2.345
X11.469 Y2.289
X11.611 Y2.243
X11.757 Y2.206
X11.905 Y2.186
X12.055 Y2.181
X12.205 Y2.187
X12.354 Y2.203
X12.501 Y2.232
X12.645 Y2.277
X12.783 Y2.334
X12.918 Y2.4
X13.048 Y2.475
X13.168 Y2.565
X13.333 Y2.639
X13.511 Y2.668
X13.69 Y2.651
X14.029 Y2.527
X14.53 Y2.144
X14.66 Y2.065
X14.804 Y2.016
X14.955 Y2
X16.915
G3 X18.845 Y3.977 I-0.07 J1.999
G1 X18.929 Y11.78
G3 X16.998 Y13.8 I-2 J0.022
G1 X16.064
X15.914 Y13.792
X15.767 Y13.764
X15.625 Y13.716
X15.489 Y13.653
X15.333 Y13.562
X14.985 Y13.467
X14.263 Y13.47
X13.564 Y13.653
X13.245 Y13.726
X12.946 Y13.774
X12.617 Y13.799
X12.581 Y13.8
G3 X12.6 Y12.708 I0.019 J-0.546
G1 X16.045
G3 X16.064 Y13.8 I0 J0.546
G1 X12.456
X12.306 Y13.792
X12.083 Y13.762
X11.836 Y13.707
X11.693 Y13.664
X11.546 Y13.603
X11.374 Y13.515
X11.192 Y13.403
X11.071 Y13.314
X10.96 Y13.213
X10.841 Y13.084
X10.714 Y12.923
X10.632 Y12.798
X10.564 Y12.664
X10.503 Y12.511
X10.444 Y12.318
X10.412 Y12.172
X10.398 Y12.023
Y11.864
X10.413 Y11.67
X10.437 Y11.522
X10.479 Y11.378
X10.536 Y11.235
X10.62 Y11.067
X10.697 Y10.938
X10.789 Y10.82
X10.892 Y10.711
X11.028 Y10.59
X11.147 Y10.499
X11.276 Y10.422
X11.412 Y10.359
X11.577 Y10.298
X11.722 Y10.258
X11.869 Y10.233
X12.019 Y10.224
X12.189 Y10.228
X12.548 Y10.267
X12.723 Y10.226
X13.051 Y10.075
X13.309 Y9.822
X13.491 Y9.51
X13.731 Y8.829
X13.741 Y8.649
X13.704 Y8.472
X13.664 Y8.392
X13.462 Y8.092
X12.907 Y7.63
X12.256 Y7.319
X11.59 Y7.039
X11.201 Y6.841
X10.892 Y6.65
X10.615 Y6.446
X10.388 Y6.25
X10.194 Y6.053
X10.021 Y5.846
X9.867 Y5.628
X9.737 Y5.41
X9.63 Y5.192
X9.542 Y4.967
X9.47 Y4.731
X9.42 Y4.502
X9.39 Y4.277
X9.378 Y4.052
X9.384 Y3.822
X9.408 Y3.591
X9.449 Y3.375
X9.507 Y3.166
X9.581 Y2.96
X9.675 Y2.756
X9.782 Y2.563
X9.902 Y2.383
X9.995 Y2.266
X10.148 Y2.123
X10.337 Y2.031
X10.544 Y2
X14.955
G3 X16.79 Y4.609 I-0.07 J1.999
G1 X14.291 Y12.411
G3 X12.456 Y13.8 I-1.905 J-0.61
G1 X11.144
X10.994 Y13.792
X10.847 Y13.763
X10.704 Y13.716
X10.568 Y13.653
X10.439 Y13.577
X10.317 Y13.489
X10.204 Y13.391
X10.094 Y13.28
X9.996 Y13.162
X9.906 Y13.035
X9.821 Y12.892
X9.743 Y12.733
X9.677 Y12.564
X9.626 Y12.396
X9.587 Y12.219
X9.563 Y12.036
X9.553 Y11.846
X9.558 Y11.65
X9.578 Y11.46
X9.614 Y11.27
X9.666 Y11.083
X9.734 Y10.895
X9.819 Y10.71
X9.915 Y10.537
X10.025 Y10.373
X10.148 Y10.217
X10.288 Y10.067
X10.441 Y9.927
X10.521 Y9.865
X10.668 Y9.76
X10.783 Y9.621
X10.859 Y9.457
X10.891 Y9.28
X10.876 Y9.1
X10.634 Y8.42
X10.185 Y7.853
X9.708 Y7.312
X9.331 Y6.843
X9.071 Y6.459
X8.861 Y6.09
X8.694 Y5.731
X8.566 Y5.387
X8.471 Y5.051
X8.405 Y4.716
X8.367 Y4.386
X8.356 Y4.062
X8.37 Y3.742
X8.41 Y3.429
X8.475 Y3.122
X8.562 Y2.825
X8.659 Y2.574
X8.744 Y2.397
X8.853 Y2.234
X9.002 Y2.107
X9.181 Y2.027
X9.375 Y2
X10.544
G3 X12.468 Y3.846 I-0.07 J1.999
G1 X13.068 Y11.648
G3 X11.144 Y13.8 I-1.994 J0.153
G1 X10.233
X10.084 Y13.792
X9.935 Y13.769
X9.792 Y13.725
X9.655 Y13.664
X9.525 Y13.589
X9.403 Y13.502
X9.29 Y13.404
X9.184 Y13.297
X9.088 Y13.182
X9 Y13.06
X8.921 Y12.933
X8.851 Y12.8
X8.789 Y12.663
X8.736 Y12.523
X8.691 Y12.38
X8.655 Y12.234
X8.626 Y12.087
X8.606 Y11.939
X8.594 Y11.789
X8.589 Y11.639
X8.592 Y11.489
X8.602 Y11.34
X8.62 Y11.191
X8.644 Y11.043
X8.676 Y10.896
X8.715 Y10.751
X8.76 Y10.608
X8.812 Y10.467
X8.948 Y10.133
X8.976 Y9.773
X8.885 Y9.057
X8.61 Y8.389
X8.175 Y7.565
X8.106 Y7.432
X8.038 Y7.298
X7.972 Y7.163
X7.907 Y7.028
X7.845 Y6.891
X7.784 Y6.754
X7.726 Y6.616
X7.67 Y6.477
X7.617 Y6.337
X7.566 Y6.195
X7.518 Y6.053
X7.473 Y5.91
X7.432 Y5.766
X7.393 Y5.621
X7.358 Y5.475
X7.327 Y5.328
X7.299 Y5.181
X7.274 Y5.033
X7.254 Y4.884
X7.237 Y4.735
X7.224 Y4.586
X7.215 Y4.436
X7.211 Y4.286
X7.21 Y4.136
X7.213 Y3.986
X7.221 Y3.837
X7.232 Y3.687
X7.248 Y3.538
X7.268 Y3.389
X7.293 Y3.241
X7.322 Y3.094
X7.356 Y2.948
X7.396 Y2.803
X7.441 Y2.66
X7.492 Y2.519
X7.532 Y2.425
X7.639 Y2.252
X7.79 Y2.116
X7.975 Y2.03
X8.176 Y2
X9.375
G3 X11.293 Y3.78 I-0.07 J1.999
G1 X12.152 Y11.583
G3 X10.233 Y13.8 I-1.988 J0.219
G1 X9.34
X9.19 Y13.792
X9.043 Y13.763
X8.901 Y13.713
X8.766 Y13.647
X8.639 Y13.568
X8.52 Y13.477
X8.406 Y13.374
X8.293 Y13.254
X8.183 Y13.117
X8.078 Y12.961
X7.979 Y12.787
X7.89 Y12.593
X7.811 Y12.38
X7.779 Y12.264
X7.722 Y12.026
X7.683 Y11.77
X7.663 Y11.504
X7.668 Y10.782
Y10.06
X7.518 Y9.353
X7.278 Y8.673
X7.003 Y8.005
X6.732 Y7.336
X6.611 Y6.996
X6.555 Y6.824
X6.502 Y6.652
X6.406 Y6.499
X6.275 Y6.375
X5.957 Y6.204
X5.246 Y6.078
X4.525 Y6.049
X4.345 Y6.027
X4.097 Y5.983
X3.782 Y5.9
X3.589 Y5.833
X3.435 Y5.764
X3.253 Y5.665
X3.036 Y5.523
X2.917 Y5.432
X2.808 Y5.329
X2.687 Y5.194
X2.552 Y5.017
X2.47 Y4.891
X2.403 Y4.757
X2.342 Y4.603
X2.283 Y4.409
X2.251 Y4.263
X2.235 Y4.114
X2.233 Y3.959
X2.246 Y3.772
X2.268 Y3.623
X2.305 Y3.478
X2.357 Y3.337
X2.432 Y3.177
X2.506 Y3.047
X2.591 Y2.923
X2.69 Y2.81
X2.81 Y2.694
X2.936 Y2.592
X3.06 Y2.506
X3.193 Y2.437
X3.341 Y2.376
X3.509 Y2.322
X3.655 Y2.289
X3.805 Y2.273
X3.961 Y2.272
X4.146 Y2.286
X4.294 Y2.309
X4.438 Y2.351
X4.611 Y2.401
X4.792 Y2.404
X5.145 Y2.329
X5.748 Y2.06
X5.84 Y2.027
X5.935 Y2.007
X6.033 Y2
X8.176
G3 X10.084 Y3.704 I-0.07 J1.999
G1 X11.248 Y11.506
G3 X9.34 Y13.8 I-1.978 J0.295
G1 X8.47
X8.32 Y13.792
X8.172 Y13.772
X8.027 Y13.731
X7.889 Y13.673
X7.757 Y13.602
X7.633 Y13.518
X7.516 Y13.424
X7.407 Y13.321
X7.284 Y13.188
X7.132 Y13.091
X6.961 Y13.035
X6.78 Y13.026
X6.074 Y13.174
X5.944 Y13.25
X5.813 Y13.323
X5.679 Y13.391
X5.544 Y13.455
X5.407 Y13.516
X5.268 Y13.574
X5.129 Y13.628
X4.986 Y13.674
X4.841 Y13.712
X4.694 Y13.742
X4.546 Y13.766
X4.397 Y13.784
X4.247 Y13.793
X4.097 Y13.79
X3.948 Y13.777
X3.799 Y13.755
X3.652 Y13.725
X3.507 Y13.686
X3.367 Y13.634
X3.231 Y13.57
X3.099 Y13.499
X2.972 Y13.419
X2.851 Y13.33
X2.74 Y13.23
X2.637 Y13.12
X2.542 Y13.004
X2.453 Y12.883
X2.377 Y12.754
X2.314 Y12.618
X2.262 Y12.477
X2.219 Y12.334
X2.186 Y12.187
X2.169 Y12.038
X2.166 Y11.888
X2.174 Y11.739
X2.192 Y11.59
X2.222 Y11.443
X2.269 Y11.3
X2.327 Y11.162
X2.394 Y11.028
X2.47 Y10.898
X2.56 Y10.778
X2.661 Y10.668
X2.771 Y10.565
X2.887 Y10.47
X3.01 Y10.385
X3.142 Y10.314
X3.28 Y10.255
X3.422 Y10.206
X3.566 Y10.166
X3.714 Y10.142
X3.864 Y10.132
X4.014 Y10.135
X4.164 Y10.149
X4.312 Y10.172
X4.456 Y10.213
X4.596 Y10.267
X4.731 Y10.332
X4.863 Y10.404
X5.035 Y10.457
X5.216 Y10.463
X5.392 Y10.422
X5.552 Y10.339
X5.685 Y10.217
X5.782 Y10.065
X5.838 Y9.893
X5.876 Y9.172
X5.781 Y8.824
X5.624 Y8.499
X5.129 Y7.973
X4.493 Y7.631
X4.155 Y7.489
X4.017 Y7.43
X3.88 Y7.369
X3.743 Y7.307
X3.608 Y7.243
X3.473 Y7.177
X3.34 Y7.108
X3.208 Y7.037
X3.078 Y6.962
X2.95 Y6.884
X2.824 Y6.802
X2.701 Y6.716
X2.581 Y6.626
X2.464 Y6.532
X2.351 Y6.434
X2.241 Y6.332
X2.204 Y6.295
X2.093 Y6.15
X2.024 Y5.982
X2 Y5.801
Y3.072
X2.007 Y2.922
X2.036 Y2.775
X2.081 Y2.632
X2.141 Y2.494
X2.214 Y2.363
X2.253 Y2.306
X2.408 Y2.142
X2.608 Y2.036
X2.831 Y2
G3 X3.571 Y2.268 I-0.045 J1.28
X2.377 Y3.808 I-0.597 J0.77
X2 Y3.072 I0.597 J-0.77
G1 Y2.254
Y2.209
Y2.172
X2.004 Y2.084
G0 Z3.01
X2 Y2.172
Z2.5
G1 Z-0.75 F200
Y2.111 F450
X2.001 Y2.1
X2.002 Y2.09
X2.009 Y2.071
X2.02 Y2.052
X2.029 Y2.041
X2.041 Y2.03
X2.063 Y2.014
X2.078 Y2.007
X2.093 Y2.002
X2.108 Y2
X6.033
G3 X7.872 Y3.402 I-0.07 J1.999
G1 X10.309 Y11.205
G3 X8.47 Y13.8 I-1.909 J0.596
G1 X2.943
X2.793 Y13.792
X2.645 Y13.767
X2.502 Y13.724
X2.364 Y13.665
X2.358 Y13.661
X2.21 Y13.55
X2.096 Y13.404
X2.024 Y13.234
X2 Y13.05
G3 X2.239 Y12.403 I1.102 J0.038
X3.587 Y13.475 I0.674 J0.536
X2.943 Y13.8 I-0.674 J-0.536
G1 X2.203
X2.159
X2.123
X2.1 Y13.798
X2.078 Y13.793
G0 Z3.01
X2.123 Y13.8
Z2.5
G1 Z-0.75 F200
X2.108 F450
X2.093 Y13.798
X2.078 Y13.793
X2.063 Y13.786
X2.041 Y13.77
X2.029 Y13.759
X2.02 Y13.748
X2.009 Y13.729
X2.002 Y13.71
X2.001 Y13.7
X2 Y13.669
Y10.928
X2.007 Y10.778
X2.034 Y10.63
X2.078 Y10.487
X2.138 Y10.349
X2.21 Y10.218
X2.295 Y10.094
X2.39 Y9.978
X2.516 Y9.848
X2.604 Y9.691
X2.648 Y9.516
X2.647 Y9.335
X2.457 Y8.639
X2.119 Y8.134
X2.054 Y8.013
X2.014 Y7.882
X2 Y7.745
G3 X5.998 Y7.884 I1.999 J0.07
X2.929 Y11.635 I-3.998 J-0.14
X2 Y10.928 I-0.175 J-0.734
G1 Y5.801
G0 Z4

(2D Pocket1)
Z15
X12.105 Y4.306
Z5
G1 Z2.5 F450
Z-0.7 F200
X12.083 Y4.313 Z-0.815
X12.019 Y4.324 Z-0.912
X11.97 Z-0.945
X11.923 Y4.315 Z-0.977
X11.869 Y4.295 Z-0.989
X11.82 Y4.265 Z-1
G3 X12.33 Y3.585 I0.255 J-0.34 F450
X11.82 Y4.265 I-0.255 J0.34
X12.33 Y3.585 Z-1.047 I0.255 J-0.34 F333.3
X11.82 Y4.265 Z-1.093 I-0.255 J0.34
X12.33 Y3.585 Z-1.14 I0.255 J-0.34
X11.82 Y4.265 Z-1.187 I-0.255 J0.34
X12.33 Y3.585 Z-1.233 I0.255 J-0.34
X11.82 Y4.265 Z-1.28 I-0.255 J0.34
X12.33 Y3.585 Z-1.326 I0.255 J-0.34
X11.82 Y4.265 Z-1.373 I-0.255 J0.34
X12.33 Y3.585 Z-1.42 I0.255 J-0.34
X11.82 Y4.265 Z-1.466 I-0.255 J0.34
X12.33 Y3.585 Z-1.513 I0.255 J-0.34
X11.82 Y4.265 Z-1.56 I-0.255 J0.34
X12.33 Y3.585 Z-1.606 I0.255 J-0.34
X11.82 Y4.265 Z-1.653 I-0.255 J0.34
X12.33 Y3.585 Z-1.699 I0.255 J-0.34
X11.82 Y4.265 Z-1.746 I-0.255 J0.34
X12.33 Y3.585 Z-1.793 I0.255 J-0.34
X11.82 Y4.265 Z-1.839 I-0.255 J0.34
X12.33 Y3.585 Z-1.886 I0.255 J-0.34
X11.82 Y4.265 Z-1.933 I-0.255 J0.34
X12.33 Y3.585 Z-1.979 I0.255 J-0.34
X12.452 Y4.121 Z-2 I-0.255 J0.34
X11.698 Y3.729 I-0.377 J-0.196 F450
X12.452 Y4.121 I0.377 J0.196
X11.698 Y3.729 Z-2.047 I-0.377 J-0.196 F333.3
X12.452 Y4.121 Z-2.093 I0.377 J0.196
X11.698 Y3.729 Z-2.14 I-0.377 J-0.196
X12.452 Y4.121 Z-2.187 I0.377 J0.196
X11.698 Y3.729 Z-2.233 I-0.377 J-0.196
X12.452 Y4.121 Z-2.28 I0.377 J0.196
X11.698 Y3.729 Z-2.326 I-0.377 J-0.196
X12.452 Y4.121 Z-2.373 I0.377 J0.196
X11.698 Y3.729 Z-2.42 I-0.377 J-0.196
X12.452 Y4.121 Z-2.466 I0.377 J0.196
X11.682 Y4.086 Z-2.5 I-0.377 J-0.196
X12.468 Y3.764 I0.393 J-0.161 F450
X11.682 Y4.086 I-0.393 J0.161
G1 X11.665 Y4.031 Z-2.489
X11.659 Y3.974 Z-2.477
X11.663 Y3.926 Z-2.445
X11.674 Y3.879 Z-2.412
X11.701 Y3.82 Z-2.315
X11.714 Y3.8 Z-2.2
G0 Z15
X12.105 Y12.256
Z5
G1 Z2.5 F450
Z-0.7 F200
X12.083 Y12.263 Z-0.815
X12.019 Y12.274 Z-0.912
X11.97 Z-0.945
X11.923 Y12.265 Z-0.977
X11.869 Y12.245 Z-0.989
X11.82 Y12.215 Z-1
G3 X12.33 Y11.535 I0.255 J-0.34 F450
X11.82 Y12.215 I-0.255 J0.34
X12.33 Y11.535 Z-1.047 I0.255 J-0.34 F333.3
X11.82 Y12.215 Z-1.093 I-0.255 J0.34
X12.33 Y11.535 Z-1.14 I0.255 J-0.34
X11.82 Y12.215 Z-1.187 I-0.255 J0.34
X12.33 Y11.535 Z-1.233 I0.255 J-0.34
X11.82 Y12.215 Z-1.28 I-0.255 J0.34
X12.33 Y11.535 Z-1.326 I0.255 J-0.34
X11.82 Y12.215 Z-1.373 I-0.255 J0.34
X12.33 Y11.535 Z-1.42 I0.255 J-0.34
X11.82 Y12.215 Z-1.466 I-0.255 J0.34
X12.33 Y11.535 Z-1.513 I0.255 J-0.34
X11.82 Y12.215 Z-1.56 I-0.255 J0.34
X12.33 Y11.535 Z-1.606 I0.255 J-0.34
X11.82 Y12.215 Z-1.653 I-0.255 J0.34
X12.33 Y11.535 Z-1.699 I0.255 J-0.34
X11.82 Y12.215 Z-1.746 I-0.255 J0.34
X12.33 Y11.535 Z-1.793 I0.255 J-0.34
X11.82 Y12.215 Z-1.839 I-0.255 J0.34
X12.33 Y11.535 Z-1.886 I0.255 J-0.34
X11.82 Y12.215 Z-1.933 I-0.255 J0.34
X12.33 Y11.535 Z-1.979 I0.255 J-0.34
X12.452 Y12.071 Z-2 I-0.255 J0.34
X11.698 Y11.679 I-0.377 J-0.196 F450
X12.452 Y12.071 I0.377 J0.196
X11.698 Y11.679 Z-2.047 I-0.377 J-0.196 F333.3
X12.452 Y12.071 Z-2.093 I0.377 J0.196
X11.698 Y11.679 Z-2.14 I-0.377 J-0.196
X12.452 Y12.071 Z-2.187 I0.377 J0.196
X11.698 Y11.679 Z-2.233 I-0.377 J-0.196
X12.452 Y12.071 Z-2.28 I0.377 J0.196
X11.698 Y11.679 Z-2.326 I-0.377 J-0.196
X12.452 Y12.071 Z-2.373 I0.377 J0.196
X11.698 Y11.679 Z-2.42 I-0.377 J-0.196
X12.452 Y12.071 Z-2.466 I0.377 J0.196
X11.682 Y12.036 Z-2.5 I-0.377 J-0.196
X12.468 Y11.714 I0.393 J-0.161 F450
X11.682 Y12.036 I-0.393 J0.161
G1 X11.665 Y11.981 Z-2.489
X11.659 Y11.924 Z-2.477
X11.663 Y11.876 Z-2.445
X11.674 Y11.829 Z-2.412
X11.701 Y11.77 Z-2.315
X11.714 Y11.75 Z-2.2
G0 Z15
X3.955 Y12.256
Z5
G1 Z2.5 F450
Z-0.7 F200
X3.933 Y12.263 Z-0.815
X3.869 Y12.274 Z-0.912
X3.82 Z-0.945
X3.773 Y12.265 Z-0.977
X3.719 Y12.245 Z-0.989
X3.67 Y12.215 Z-1
G3 X4.18 Y11.535 I0.255 J-0.34 F450
X3.67 Y12.215 I-0.255 J0.34
X4.18 Y11.535 Z-1.047 I0.255 J-0.34 F333.3
X3.67 Y12.215 Z-1.093 I-0.255 J0.34
X4.18 Y11.535 Z-1.14 I0.255 J-0.34
X3.67 Y12.215 Z-1.187 I-0.255 J0.34
X4.18 Y11.535 Z-1.233 I0.255 J-0.34
X3.67 Y12.215 Z-1.28 I-0.255 J0.34
X4.18 Y11.535 Z-1.326 I0.255 J-0.34
X3.67 Y12.215 Z-1.373 I-0.255 J0.34
X4.18 Y11.535 Z-1.42 I0.255 J-0.34
X3.67 Y12.215 Z-1.466 I-0.255 J0.34
X4.18 Y11.535 Z-1.513 I0.255 J-0.34
X3.67 Y12.215 Z-1.56 I-0.255 J0.34
X4.18 Y11.535 Z-1.606 I0.255 J-0.34
X3.67 Y12.215 Z-1.653 I-0.255 J0.34
X4.18 Y11.535 Z-1.699 I0.255 J-0.34
X3.67 Y12.215 Z-1.746 I-0.255 J0.34
X4.18 Y11.535 Z-1.793 I0.255 J-0.34
X3.67 Y12.215 Z-1.839 I-0.255 J0.34
X4.18 Y11.535 Z-1.886 I0.255 J-0.34
X3.67 Y12.215 Z-1.933 I-0.255 J0.34
X4.18 Y11.535 Z-1.979 I0.255 J-0.34
X4.302 Y12.071 Z-2 I-0.255 J0.34
X3.548 Y11.679 I-0.377 J-0.196 F450
X4.302 Y12.071 I0.377 J0.196
X3.548 Y11.679 Z-2.047 I-0.377 J-0.196 F333.3
X4.302 Y12.071 Z-2.093 I0.377 J0.196
X3.548 Y11.679 Z-2.14 I-0.377 J-0.196
X4.302 Y12.071 Z-2.187 I0.377 J0.196
X3.548 Y11.679 Z-2.233 I-0.377 J-0.196
X4.302 Y12.071 Z-2.28 I0.377 J0.196
X3.548 Y11.679 Z-2.326 I-0.377 J-0.196
X4.302 Y12.071 Z-2.373 I0.377 J0.196
X3.548 Y11.679 Z-2.42 I-0.377 J-0.196
X4.302 Y12.071 Z-2.466 I0.377 J0.196
X3.532 Y12.036 Z-2.5 I-0.377 J-0.196
X4.318 Y11.714 I0.393 J-0.161 F450
X3.532 Y12.036 I-0.393 J0.161
G1 X3.515 Y11.981 Z-2.489
X3.509 Y11.924 Z-2.477
X3.513 Y11.876 Z-2.445
X3.524 Y11.829 Z-2.412
X3.551 Y11.77 Z-2.315
X3.564 Y11.75 Z-2.2
G0 Z15
X3.955 Y4.306
Z5
G1 Z2.5 F450
Z-0.7 F200
X3.933 Y4.313 Z-0.815
X3.869 Y4.324 Z-0.912
X3.82 Z-0.945
X3.773 Y4.315 Z-0.977
X3.719 Y4.295 Z-0.989
X3.67 Y4.265 Z-1
G3 X4.18 Y3.585 I0.255 J-0.34 F450
X3.67 Y4.265 I-0.255 J0.34
X4.18 Y3.585 Z-1.047 I0.255 J-0.34 F333.3
X3.67 Y4.265 Z-1.093 I-0.255 J0.34
X4.18 Y3.585 Z-1.14 I0.255 J-0.34
X3.67 Y4.265 Z-1.187 I-0.255 J0.34
X4.18 Y3.585 Z-1.233 I0.255 J-0.34
X3.67 Y4.265 Z-1.28 I-0.255 J0.34
X4.18 Y3.585 Z-1.326 I0.255 J-0.34
X3.67 Y4.265 Z-1.373 I-0.255 J0.34
X4.18 Y3.585 Z-1.42 I0.255 J-0.34
X3.67 Y4.265 Z-1.466 I-0.255 J0.34
X4.18 Y3.585 Z-1.513 I0.255 J-0.34
X3.67 Y4.265 Z-1.56 I-0.255 J0.34
X4.18 Y3.585 Z-1.606 I0.255 J-0.34
X3.67 Y4.265 Z-1.653 I-0.255 J0.34
X4.18 Y3.585 Z-1.699 I0.255 J-0.34
X3.67 Y4.265 Z-1.746 I-0.255 J0.34
X4.18 Y3.585 Z-1.793 I0.255 J-0.34
X3.67 Y4.265 Z-1.839 I-0.255 J0.34
X4.18 Y3.585 Z-1.886 I0.255 J-0.34
X3.67 Y4.265 Z-1.933 I-0.255 J0.34
X4.18 Y3.585 Z-1.979 I0.255 J-0.34
X4.302 Y4.121 Z-2 I-0.255 J0.34
X3.548 Y3.729 I-0.377 J-0.196 F450
X4.302 Y4.121 I0.377 J0.196
X3.548 Y3.729 Z-2.047 I-0.377 J-0.196 F333.3
X4.302 Y4.121 Z-2.093 I0.377 J0.196
X3.548 Y3.729 Z-2.14 I-0.377 J-0.196
X4.302 Y4.121 Z-2.187 I0.377 J0.196
X3.548 Y3.729 Z-2.233 I-0.377 J-0.196
X4.302 Y4.121 Z-2.28 I0.377 J0.196
X3.548 Y3.729 Z-2.326 I-0.377 J-0.196
X4.302 Y4.121 Z-2.373 I0.377 J0.196
X3.548 Y3.729 Z-2.42 I-0.377 J-0.196
X4.302 Y4.121 Z-2.466 I0.377 J0.196
X3.532 Y4.086 Z-2.5 I-0.377 J-0.196
X4.318 Y3.764 I0.393 J-0.161 F450
X3.532 Y4.086 I-0.393 J0.161
G1 X3.515 Y4.031 Z-2.489
X3.509 Y3.974 Z-2.477
X3.513 Y3.926 Z-2.445
X3.524 Y3.879 Z-2.412
X3.551 Y3.82 Z-2.315
X3.564 Y3.8 Z-2.2
G0 Z15
X20.012 Y11.623
Z5
G1 Z2.5 F450
Z-0.7 F200
X20.031 Y11.636 Z-0.815
X20.078 Y11.68 Z-0.912
X20.107 Y11.72 Z-0.945
X20.128 Y11.763 Z-0.977
X20.145 Y11.818 Z-0.989
X20.15 Y11.875 Z-1
G3 X19.3 Y11.875 I-0.425 J0 F450
X20.15 Y11.875 I0.425 J0
X19.3 Y11.875 Z-1.047 I-0.425 J0 F333.3
X20.15 Y11.875 Z-1.093 I0.425 J0
X19.3 Y11.875 Z-1.14 I-0.425 J0
X20.15 Y11.875 Z-1.187 I0.425 J0
X19.3 Y11.875 Z-1.233 I-0.425 J0
X20.15 Y11.875 Z-1.28 I0.425 J0
X19.3 Y11.875 Z-1.326 I-0.425 J0
X20.15 Y11.875 Z-1.373 I0.425 J0
X19.3 Y11.875 Z-1.42 I-0.425 J0
X20.15 Y11.875 Z-1.466 I0.425 J0
X19.3 Y11.875 Z-1.513 I-0.425 J0
X20.15 Y11.875 Z-1.56 I0.425 J0
X19.3 Y11.875 Z-1.606 I-0.425 J0
X20.15 Y11.875 Z-1.653 I0.425 J0
X19.3 Y11.875 Z-1.699 I-0.425 J0
X20.15 Y11.875 Z-1.746 I0.425 J0
X19.3 Y11.875 Z-1.793 I-0.425 J0
X20.15 Y11.875 Z-1.839 I0.425 J0
X19.3 Y11.875 Z-1.886 I-0.425 J0
X20.15 Y11.875 Z-1.933 I0.425 J0
X19.3 Y11.875 Z-1.979 I-0.425 J0
X19.655 Y11.456 Z-2 I0.425 J0
X19.795 Y12.294 I0.07 J0.419 F450
X19.655 Y11.456 I-0.07 J-0.419
X19.795 Y12.294 Z-2.047 I0.07 J0.419 F333.3
X19.655 Y11.456 Z-2.093 I-0.07 J-0.419
X19.795 Y12.294 Z-2.14 I0.07 J0.419
X19.655 Y11.456 Z-2.187 I-0.07 J-0.419
X19.795 Y12.294 Z-2.233 I0.07 J0.419
X19.655 Y11.456 Z-2.28 I-0.07 J-0.419
X19.795 Y12.294 Z-2.326 I0.07 J0.419
X19.655 Y11.456 Z-2.373 I-0.07 J-0.419
X19.795 Y12.294 Z-2.42 I0.07 J0.419
X19.655 Y11.456 Z-2.466 I-0.07 J-0.419
X20.09 Y12.093 Z-2.5 I0.07 J0.419
X19.36 Y11.657 I-0.365 J-0.218 F450
X20.09 Y12.093 I0.365 J0.218
G1 X20.056 Y12.139 Z-2.489
X20.014 Y12.178 Z-2.477
X19.973 Y12.204 Z-2.445
X19.928 Y12.223 Z-2.412
X19.865 Y12.237 Z-2.315
X19.842 Y12.239 Z-2.2
G0 Z15
X20.012 Y3.673
Z5
G1 Z2.5 F450
Z-0.7 F200
X20.031 Y3.686 Z-0.815
X20.078 Y3.73 Z-0.912
X20.107 Y3.77 Z-0.945
X20.128 Y3.813 Z-0.977
X20.145 Y3.868 Z-0.989
X20.15 Y3.925 Z-1
G3 X19.3 Y3.925 I-0.425 J0 F450
X20.15 Y3.925 I0.425 J0
X19.3 Y3.925 Z-1.047 I-0.425 J0 F333.3
X20.15 Y3.925 Z-1.093 I0.425 J0
X19.3 Y3.925 Z-1.14 I-0.425 J0
X20.15 Y3.925 Z-1.187 I0.425 J0
X19.3 Y3.925 Z-1.233 I-0.425 J0
X20.15 Y3.925 Z-1.28 I0.425 J0
X19.3 Y3.925 Z-1.326 I-0.425 J0
X20.15 Y3.925 Z-1.373 I0.425 J0
X19.3 Y3.925 Z-1.42 I-0.425 J0
X20.15 Y3.925 Z-1.466 I0.425 J0
X19.3 Y3.925 Z-1.513 I-0.425 J0
X20.15 Y3.925 Z-1.56 I0.425 J0
X19.3 Y3.925 Z-1.606 I-0.425 J0
X20.15 Y3.925 Z-1.653 I0.425 J0
X19.3 Y3.925 Z-1.699 I-0.425 J0
X20.15 Y3.925 Z-1.746 I0.425 J0
X19.3 Y3.925 Z-1.793 I-0.425 J0
X20.15 Y3.925 Z-1.839 I0.425 J0
X19.3 Y3.925 Z-1.886 I-0.425 J0
X20.15 Y3.925 Z-1.933 I0.425 J0
X19.3 Y3.925 Z-1.979 I-0.425 J0
X19.655 Y3.506 Z-2 I0.425 J0
X19.795 Y4.344 I0.07 J0.419 F450
X19.655 Y3.506 I-0.07 J-0.419
X19.795 Y4.344 Z-2.047 I0.07 J0.419 F333.3
X19.655 Y3.506 Z-2.093 I-0.07 J-0.419
X19.795 Y4.344 Z-2.14 I0.07 J0.419
X19.655 Y3.506 Z-2.187 I-0.07 J-0.419
X19.795 Y4.344 Z-2.233 I0.07 J0.419
X19.655 Y3.506 Z-2.28 I-0.07 J-0.419
X19.795 Y4.344 Z-2.326 I0.07 J0.419
X19.655 Y3.506 Z-2.373 I-0.07 J-0.419
X19.795 Y4.344 Z-2.42 I0.07 J0.419
X19.655 Y3.506 Z-2.466 I-0.07 J-0.419
X20.09 Y4.143 Z-2.5 I0.07 J0.419
X19.36 Y3.707 I-0.365 J-0.218 F450
X20.09 Y4.143 I0.365 J0.218
G1 X20.056 Y4.189 Z-2.489
X20.014 Y4.228 Z-2.477
X19.973 Y4.254 Z-2.445
X19.928 Y4.273 Z-2.412
X19.865 Y4.287 Z-2.315
X19.842 Y4.289 Z-2.2
G0 Z15
X27.905 Y4.306
Z5
G1 Z2.5 F450
Z-0.7 F200
X27.883 Y4.313 Z-0.815
X27.819 Y4.324 Z-0.912
X27.77 Z-0.945
X27.723 Y4.315 Z-0.977
X27.669 Y4.295 Z-0.989
X27.62 Y4.265 Z-1
G3 X28.13 Y3.585 I0.255 J-0.34 F450
X27.62 Y4.265 I-0.255 J0.34
X28.13 Y3.585 Z-1.047 I0.255 J-0.34 F333.3
X27.62 Y4.265 Z-1.093 I-0.255 J0.34
X28.13 Y3.585 Z-1.14 I0.255 J-0.34
X27.62 Y4.265 Z-1.187 I-0.255 J0.34
X28.13 Y3.585 Z-1.233 I0.255 J-0.34
X27.62 Y4.265 Z-1.28 I-0.255 J0.34
X28.13 Y3.585 Z-1.326 I0.255 J-0.34
X27.62 Y4.265 Z-1.373 I-0.255 J0.34
X28.13 Y3.585 Z-1.42 I0.255 J-0.34
X27.62 Y4.265 Z-1.466 I-0.255 J0.34
X28.13 Y3.585 Z-1.513 I0.255 J-0.34
X27.62 Y4.265 Z-1.56 I-0.255 J0.34
X28.13 Y3.585 Z-1.606 I0.255 J-0.34
X27.62 Y4.265 Z-1.653 I-0.255 J0.34
X28.13 Y3.585 Z-1.699 I0.255 J-0.34
X27.62 Y4.265 Z-1.746 I-0.255 J0.34
X28.13 Y3.585 Z-1.793 I0.255 J-0.34
X27.62 Y4.265 Z-1.839 I-0.255 J0.34
X28.13 Y3.585 Z-1.886 I0.255 J-0.34
X27.62 Y4.265 Z-1.933 I-0.255 J0.34
X28.13 Y3.585 Z-1.979 I0.255 J-0.34
X28.252 Y4.121 Z-2 I-0.255 J0.34
X27.498 Y3.729 I-0.377 J-0.196 F450
X28.252 Y4.121 I0.377 J0.196
X27.498 Y3.729 Z-2.047 I-0.377 J-0.196 F333.3
X28.252 Y4.121 Z-2.093 I0.377 J0.196
X27.498 Y3.729 Z-2.14 I-0.377 J-0.196
X28.252 Y4.121 Z-2.187 I0.377 J0.196
X27.498 Y3.729 Z-2.233 I-0.377 J-0.196
X28.252 Y4.121 Z-2.28 I0.377 J0.196
X27.498 Y3.729 Z-2.326 I-0.377 J-0.196
X28.252 Y4.121 Z-2.373 I0.377 J0.196
X27.498 Y3.729 Z-2.42 I-0.377 J-0.196
X28.252 Y4.121 Z-2.466 I0.377 J0.196
X27.482 Y4.086 Z-2.5 I-0.377 J-0.196
X28.268 Y3.764 I0.393 J-0.161 F450
X27.482 Y4.086 I-0.393 J0.161
G1 X27.465 Y4.031 Z-2.489
X27.459 Y3.974 Z-2.477
X27.463 Y3.926 Z-2.445
X27.474 Y3.879 Z-2.412
X27.501 Y3.82 Z-2.315
X27.514 Y3.8 Z-2.2
G0 Z15
X27.905 Y12.256
Z5
G1 Z2.5 F450
Z-0.7 F200
X27.883 Y12.263 Z-0.815
X27.819 Y12.274 Z-0.912
X27.77 Z-0.945
X27.723 Y12.265 Z-0.977
X27.669 Y12.245 Z-0.989
X27.62 Y12.215 Z-1
G3 X28.13 Y11.535 I0.255 J-0.34 F450
X27.62 Y12.215 I-0.255 J0.34
X28.13 Y11.535 Z-1.047 I0.255 J-0.34 F333.3
X27.62 Y12.215 Z-1.093 I-0.255 J0.34
X28.13 Y11.535 Z-1.14 I0.255 J-0.34
X27.62 Y12.215 Z-1.187 I-0.255 J0.34
X28.13 Y11.535 Z-1.233 I0.255 J-0.34
X27.62 Y12.215 Z-1.28 I-0.255 J0.34
X28.13 Y11.535 Z-1.326 I0.255 J-0.34
X27.62 Y12.215 Z-1.373 I-0.255 J0.34
X28.13 Y11.535 Z-1.42 I0.255 J-0.34
X27.62 Y12.215 Z-1.466 I-0.255 J0.34
X28.13 Y11.535 Z-1.513 I0.255 J-0.34
X27.62 Y12.215 Z-1.56 I-0.255 J0.34
X28.13 Y11.535 Z-1.606 I0.255 J-0.34
X27.62 Y12.215 Z-1.653 I-0.255 J0.34
X28.13 Y11.535 Z-1.699 I0.255 J-0.34
X27.62 Y12.215 Z-1.746 I-0.255 J0.34
X28.13 Y11.535 Z-1.793 I0.255 J-0.34
X27.62 Y12.215 Z-1.839 I-0.255 J0.34
X28.13 Y11.535 Z-1.886 I0.255 J-0.34
X27.62 Y12.215 Z-1.933 I-0.255 J0.34
X28.13 Y11.535 Z-1.979 I0.255 J-0.34
X28.252 Y12.071 Z-2 I-0.255 J0.34
X27.498 Y11.679 I-0.377 J-0.196 F450
X28.252 Y12.071 I0.377 J0.196
X27.498 Y11.679 Z-2.047 I-0.377 J-0.196 F333.3
X28.252 Y12.071 Z-2.093 I0.377 J0.196
X27.498 Y11.679 Z-2.14 I-0.377 J-0.196
X28.252 Y12.071 Z-2.187 I0.377 J0.196
X27.498 Y11.679 Z-2.233 I-0.377 J-0.196
X28.252 Y12.071 Z-2.28 I0.377 J0.196
X27.498 Y11.679 Z-2.326 I-0.377 J-0.196
X28.252 Y12.071 Z-2.373 I0.377 J0.196
X27.498 Y11.679 Z-2.42 I-0.377 J-0.196
X28.252 Y12.071 Z-2.466 I0.377 J0.196
X27.482 Y12.036 Z-2.5 I-0.377 J-0.196
X28.268 Y11.714 I0.393 J-0.161 F450
X27.482 Y12.036 I-0.393 J0.161
G1 X27.465 Y11.981 Z-2.489
X27.459 Y11.924 Z-2.477
X27.463 Y11.876 Z-2.445
X27.474 Y11.829 Z-2.412
X27.501 Y11.77 Z-2.315
X27.514 Y11.75 Z-2.2
G0 Z15

(2D Contour1)
X84.82 Y11.565
Z15
Z5
G1 Z1 F200
Z-1.19
G18 G2 X85.13 Z-1.5 I0.31 K0 F450
G1 X85.44
G17 G3 X85.75 Y11.875 I0 J0.31
X84 Y11.875 I-0.875 J0
X85.75 Y11.875 I0.875 J0
X85.44 Y12.185 I-0.31 J0
G1 X85.13
G18 G3 X84.82 Z-1.19 I0 K0.31
G0 Z5
X92.47 Y11.565
G1 Z1 F200
Z-1.19
G2 X92.78 Z-1.5 I0.31 K0 F450
G1 X93.09
G17 G3 X93.4 Y11.875 I0 J0.31
X91.65 Y11.875 I-0.875 J0
X93.4 Y11.875 I0.875 J0
X93.09 Y12.185 I-0.31 J0
G1 X92.78
G18 G3 X92.47 Z-1.19 I0 K0.31
G0 Z5
X100.62 Y11.565
G1 Z1 F200
Z-1.19
G2 X100.93 Z-1.5 I0.31 K0 F450
G1 X101.24
G17 G3 X101.55 Y11.875 I0 J0.31
X99.8 Y11.875 I-0.875 J0
X101.55 Y11.875 I0.875 J0
X101.24 Y12.185 I-0.31 J0
G1 X100.93
G18 G3 X100.62 Z-1.19 I0 K0.31
G0 Z5
X100.628 Y3.614
G1 Z1 F200
Z-1.19
X100.635 Z-1.259 F450
X100.658 Z-1.325
X100.695 Y3.615 Z-1.383
X100.744 Y3.617 Z-1.432
X100.803 Y3.618 Z-1.469
X100.869 Y3.62 Z-1.492
X100.938 Y3.621 Z-1.5
X101.247 Y3.629
G17 G3 X101.55 Y3.946 I-0.008 J0.31
X99.8 Y3.904 I-0.875 J-0.021
X101.55 Y3.946 I0.875 J0.021
X101.232 Y4.249 I-0.31 J-0.008
G1 X100.922 Y4.241
X100.853 Y4.239 Z-1.492
X100.788 Y4.238 Z-1.469
X100.729 Y4.236 Z-1.432
X100.68 Y4.235 Z-1.383
X100.643 Y4.234 Z-1.325
X100.62 Z-1.259
X100.612 Z-1.19
G0 Z5
X92.478 Y3.614
G1 Z1 F200
Z-1.19
X92.485 Z-1.259 F450
X92.508 Z-1.325
X92.545 Y3.615 Z-1.383
X92.594 Y3.617 Z-1.432
X92.653 Y3.618 Z-1.469
X92.719 Y3.62 Z-1.492
X92.788 Y3.621 Z-1.5
X93.097 Y3.629
G3 X93.4 Y3.946 I-0.008 J0.31
X91.65 Y3.904 I-0.875 J-0.021
X93.4 Y3.946 I0.875 J0.021
X93.082 Y4.249 I-0.31 J-0.008
G1 X92.772 Y4.241
X92.703 Y4.239 Z-1.492
X92.638 Y4.238 Z-1.469
X92.579 Y4.236 Z-1.432
X92.53 Y4.235 Z-1.383
X92.493 Y4.234 Z-1.325
X92.47 Z-1.259
X92.462 Z-1.19
G0 Z5
X84.828 Y3.614
G1 Z1 F200
Z-1.19
X84.835 Z-1.259 F450
X84.858 Z-1.325
X84.895 Y3.615 Z-1.383
X84.944 Y3.617 Z-1.432
X85.003 Y3.618 Z-1.469
X85.069 Y3.62 Z-1.492
X85.138 Y3.621 Z-1.5
X85.447 Y3.629
G3 X85.75 Y3.946 I-0.008 J0.31
X84 Y3.904 I-0.875 J-0.021
X85.75 Y3.946 I0.875 J0.021
X85.432 Y4.249 I-0.31 J-0.008
G1 X85.122 Y4.241
X85.053 Y4.239 Z-1.492
X84.988 Y4.238 Z-1.469
X84.929 Y4.236 Z-1.432
X84.88 Y4.235 Z-1.383
X84.843 Y4.234 Z-1.325
X84.82 Z-1.259
X84.812 Z-1.19
G0 Z5
X76.67 Y3.615
G1 Z1 F200
Z-1.19
G18 G2 X76.98 Z-1.5 I0.31 K0 F450
G1 X77.29
G17 G3 X77.6 Y3.925 I0 J0.31
X75.85 Y3.925 I-0.875 J0
X77.6 Y3.925 I0.875 J0
X77.29 Y4.235 I-0.31 J0
G1 X76.98
G18 G3 X76.67 Z-1.19 I0 K0.31
G0 Z5
X76.678 Y11.564
G1 Z1 F200
Z-1.19
X76.685 Z-1.259 F450
X76.708 Z-1.325
X76.745 Y11.565 Z-1.383
X76.794 Y11.567 Z-1.432
X76.853 Y11.568 Z-1.469
X76.919 Y11.57 Z-1.492
X76.988 Y11.571 Z-1.5
X77.297 Y11.579
G17 G3 X77.6 Y11.896 I-0.008 J0.31
X75.85 Y11.854 I-0.875 J-0.021
X77.6 Y11.896 I0.875 J0.021
X77.282 Y12.199 I-0.31 J-0.008
G1 X76.972 Y12.191
X76.903 Y12.189 Z-1.492
X76.838 Y12.188 Z-1.469
X76.779 Y12.186 Z-1.432
X76.73 Y12.185 Z-1.383
X76.693 Y12.184 Z-1.325
X76.67 Z-1.259
X76.662 Z-1.19
G0 Z15
M9
M5
M30
