(1001)
(Machine)
(  vendor: Autodesk)
(  description: Generic 3-axis)
(T3  D=3 CR=0 - ZMIN=-1.35 - flat end mill)
G90 G94
G17
G21

(2D Contour2)
T3
S1000 M3
G54
M8
G0 X43.296 Y-15.31
Z15
Z5
G1 Z0.01 F200
Z-1.05
X43.301 Y-15.304 Z-1.117 F450
X43.316 Y-15.288 Z-1.18
X43.341 Y-15.263 Z-1.237
X43.374 Y-15.228 Z-1.285
X43.413 Y-15.187 Z-1.32
X43.457 Y-15.142 Z-1.342
X43.504 Y-15.094 Z-1.35
X43.712 Y-14.877
G3 X43.703 Y-14.453 I-0.216 J0.208
G2 X42.6 Y-12.505 I2.722 J2.828
X34.95 Y-10.745 I-3.825 J0.88
X42.6 Y-10.745 I3.825 J-0.88
X50.25 Y-12.505 I3.825 J-0.88
X43.703 Y-14.453 I-3.825 J0.88
G3 X43.279 Y-14.461 I-0.208 J-0.216
G1 X43.071 Y-14.678
X43.025 Y-14.726 Z-1.342
X42.981 Y-14.771 Z-1.32
X42.942 Y-14.812 Z-1.285
X42.909 Y-14.847 Z-1.237
X42.884 Y-14.872 Z-1.18
X42.868 Y-14.888 Z-1.117
X42.863 Y-14.894 Z-1.05
G0 Z5
Y-16.306
G1 Z0.01 F200
Z-1.05
X42.868 Y-16.312 Z-1.117 F450
X42.884 Y-16.328 Z-1.18
X42.909 Y-16.353 Z-1.237
X42.942 Y-16.388 Z-1.285
X42.981 Y-16.429 Z-1.32
X43.025 Y-16.474 Z-1.342
X43.071 Y-16.522 Z-1.35
X43.279 Y-16.739
G3 X43.703 Y-16.747 I0.216 J0.208
G2 X49.147 Y-22.403 I2.722 J-2.828
X42.6 Y-20.455 I-2.722 J2.828
X34.95 Y-18.695 I-3.825 J0.88
X42.6 Y-18.695 I3.825 J-0.88
X43.703 Y-16.747 I3.825 J-0.88
G3 X43.712 Y-16.323 I-0.208 J0.216
G1 X43.504 Y-16.106
X43.457 Y-16.058 Z-1.342
X43.413 Y-16.013 Z-1.32
X43.374 Y-15.972 Z-1.285
X43.341 Y-15.937 Z-1.237
X43.316 Y-15.912 Z-1.18
X43.301 Y-15.896 Z-1.117
X43.296 Y-15.89 Z-1.05
G0 Z5
X50.912 Y-16.421
G1 Z0.01 F200
Z-1.05
X50.917 Y-16.426 Z-1.117 F450
X50.933 Y-16.441 Z-1.18
X50.958 Y-16.466 Z-1.237
X50.992 Y-16.499 Z-1.285
X51.033 Y-16.539 Z-1.32
X51.079 Y-16.583 Z-1.342
X51.126 Y-16.63 Z-1.35
X51.341 Y-16.84
G3 X51.765 Y-16.834 I0.209 J0.215
G2 X54.575 Y-15.65 I2.81 J-2.741
G1 X54.587
G2 X58.5 Y-19.575 I-0.012 J-3.925
X50.65 Y-19.575 I-3.925 J0
X51.765 Y-16.834 I3.925 J0
G3 X51.76 Y-16.41 I-0.215 J0.209
G1 X51.545 Y-16.201
X51.498 Y-16.154 Z-1.342
X51.452 Y-16.11 Z-1.32
X51.411 Y-16.07 Z-1.285
X51.377 Y-16.037 Z-1.237
X51.352 Y-16.012 Z-1.18
X51.336 Y-15.996 Z-1.117
X51.331 Y-15.991 Z-1.05
G0 Z5
Y-15.209
G1 Z0.01 F200
Z-1.05
X51.336 Y-15.204 Z-1.117 F450
X51.352 Y-15.188 Z-1.18
X51.377 Y-15.163 Z-1.237
X51.411 Y-15.13 Z-1.285
X51.452 Y-15.09 Z-1.32
X51.498 Y-15.046 Z-1.342
X51.545 Y-14.999 Z-1.35
X51.76 Y-14.79
G3 X51.765 Y-14.366 I-0.209 J0.215
G2 X50.65 Y-11.625 I2.81 J2.741
G1 Y-11.613
G2 X54.575 Y-7.7 I3.925 J-0.012
X54.575 Y-15.55 I0 J-3.925
X51.765 Y-14.366 I0 J3.925
G3 X51.341 Y-14.36 I-0.215 J-0.209
G1 X51.126 Y-14.57
X51.079 Y-14.617 Z-1.342
X51.033 Y-14.661 Z-1.32
X50.992 Y-14.701 Z-1.285
X50.958 Y-14.734 Z-1.237
X50.933 Y-14.759 Z-1.18
X50.917 Y-14.774 Z-1.117
X50.912 Y-14.779 Z-1.05
G0 Z5
X34.288
G1 Z0.01 F200
Z-1.05
X34.283 Y-14.774 Z-1.117 F450
X34.267 Y-14.759 Z-1.18
X34.242 Y-14.734 Z-1.237
X34.208 Y-14.701 Z-1.285
X34.167 Y-14.661 Z-1.32
X34.121 Y-14.617 Z-1.342
X34.074 Y-14.57 Z-1.35
X33.859 Y-14.36
G3 X33.435 Y-14.366 I-0.209 J-0.215
G2 X30.625 Y-15.55 I-2.81 J2.741
X30.625 Y-7.7 I0 J3.925
X34.55 Y-11.625 I0 J-3.925
G1 Y-11.637
G2 X33.435 Y-14.366 I-3.925 J0.012
G3 X33.44 Y-14.79 I0.215 J-0.209
G1 X33.655 Y-14.999
X33.702 Y-15.046 Z-1.342
X33.748 Y-15.09 Z-1.32
X33.789 Y-15.13 Z-1.285
X33.823 Y-15.163 Z-1.237
X33.848 Y-15.188 Z-1.18
X33.864 Y-15.204 Z-1.117
X33.869 Y-15.209 Z-1.05
G0 Z5
Y-15.991
G1 Z0.01 F200
Z-1.05
X33.864 Y-15.996 Z-1.117 F450
X33.848 Y-16.012 Z-1.18
X33.823 Y-16.037 Z-1.237
X33.789 Y-16.07 Z-1.285
X33.748 Y-16.11 Z-1.32
X33.702 Y-16.154 Z-1.342
X33.655 Y-16.201 Z-1.35
X33.44 Y-16.41
G3 X33.435 Y-16.834 I0.209 J-0.215
G2 X34.55 Y-19.575 I-2.81 J-2.741
X26.7 Y-19.575 I-3.925 J0
X30.625 Y-15.65 I3.925 J0
G1 X30.637
G2 X33.435 Y-16.834 I-0.012 J-3.925
G3 X33.859 Y-16.84 I0.215 J0.209
G1 X34.074 Y-16.63
X34.121 Y-16.583 Z-1.342
X34.167 Y-16.539 Z-1.32
X34.208 Y-16.499 Z-1.285
X34.242 Y-16.466 Z-1.237
X34.267 Y-16.441 Z-1.18
X34.283 Y-16.426 Z-1.117
X34.288 Y-16.421 Z-1.05
G0 Z15
M9
M5
M30
