(1001)
(Machine)
(  vendor: Autodesk)
(  description: Generic 3-axis)
(T3  D=3 CR=0 - ZMIN=-1.35 - flat end mill)
G90 G94
G17
G21

(2D Contour2)
T3
S1000 M3
G54
M8
G0 X17.286 Y-0.706
Z15
Z5
G1 Z0.2 F200
X17.291 Y-0.712 Z0.133 F450
X17.307 Y-0.728 Z0.07
X17.331 Y-0.753 Z0.013
X17.364 Y-0.788 Z-0.035
X17.404 Y-0.829 Z-0.07
X17.448 Y-0.874 Z-0.092
X17.494 Y-0.922 Z-0.1
X17.702 Y-1.139
G3 X18.126 Y-1.147 I0.216 J0.208
G2 X23.569 Y-6.803 I2.722 J-2.828
X17.023 Y-4.855 I-2.722 J2.828
X9.373 Y-3.095 I-3.825 J0.88
X17.023 Y-3.095 I3.825 J-0.88
X18.126 Y-1.147 I3.825 J-0.88
G3 X18.134 Y-0.723 I-0.208 J0.216
G1 X17.926 Y-0.506
X17.88 Y-0.458 Z-0.092
X17.836 Y-0.413 Z-0.07
X17.797 Y-0.372 Z-0.035
X17.764 Y-0.337 Z0.013
X17.739 Y-0.312 Z0.07
X17.724 Y-0.296 Z0.133
X17.718 Y-0.29 Z0.2
G0 Z5
Y0.29
G1 Z0.2 F200
X17.724 Y0.296 Z0.133 F450
X17.739 Y0.312 Z0.07
X17.764 Y0.337 Z0.013
X17.797 Y0.372 Z-0.035
X17.836 Y0.413 Z-0.07
X17.88 Y0.458 Z-0.092
X17.926 Y0.506 Z-0.1
X18.134 Y0.723
G3 X18.126 Y1.147 I-0.216 J0.208
G2 X17.023 Y3.095 I2.722 J2.828
X9.373 Y4.855 I-3.825 J0.88
X17.023 Y4.855 I3.825 J-0.88
X24.673 Y3.095 I3.825 J-0.88
X18.126 Y1.147 I-3.825 J0.88
G3 X17.702 Y1.139 I-0.208 J-0.216
G1 X17.494 Y0.922
X17.448 Y0.874 Z-0.092
X17.404 Y0.829 Z-0.07
X17.364 Y0.788 Z-0.035
X17.331 Y0.753 Z0.013
X17.307 Y0.728 Z0.07
X17.291 Y0.712 Z0.133
X17.286 Y0.706 Z0.2
G0 Z5
X25.753 Y0.391
G1 Z0.2 F200
X25.759 Y0.396 Z0.133 F450
X25.775 Y0.412 Z0.07
X25.8 Y0.437 Z0.013
X25.834 Y0.47 Z-0.035
X25.875 Y0.51 Z-0.07
X25.92 Y0.554 Z-0.092
X25.968 Y0.601 Z-0.1
X26.183 Y0.81
G3 X26.188 Y1.234 I-0.209 J0.215
G2 X25.073 Y3.975 I2.81 J2.741
G1 Y3.987
G2 X28.998 Y7.9 I3.925 J-0.012
X28.998 Y0.05 I0 J-3.925
X26.188 Y1.234 I0 J3.925
G3 X25.764 Y1.24 I-0.215 J-0.209
G1 X25.549 Y1.03
X25.501 Y0.983 Z-0.092
X25.456 Y0.939 Z-0.07
X25.415 Y0.899 Z-0.035
X25.381 Y0.866 Z0.013
X25.356 Y0.841 Z0.07
X25.34 Y0.826 Z0.133
X25.334 Y0.821 Z0.2
G0 Z5
Y-0.821
G1 Z0.2 F200
X25.34 Y-0.826 Z0.133 F450
X25.356 Y-0.841 Z0.07
X25.381 Y-0.866 Z0.013
X25.415 Y-0.899 Z-0.035
X25.456 Y-0.939 Z-0.07
X25.501 Y-0.983 Z-0.092
X25.549 Y-1.03 Z-0.1
X25.764 Y-1.24
G3 X26.188 Y-1.234 I0.209 J0.215
G2 X28.998 Y-0.05 I2.81 J-2.741
G1 X29.01
G2 X32.923 Y-3.975 I-0.012 J-3.925
X25.073 Y-3.975 I-3.925 J0
X26.188 Y-1.234 I3.925 J0
G3 X26.183 Y-0.81 I-0.215 J0.209
G1 X25.968 Y-0.601
X25.92 Y-0.554 Z-0.092
X25.875 Y-0.51 Z-0.07
X25.834 Y-0.47 Z-0.035
X25.8 Y-0.437 Z0.013
X25.775 Y-0.412 Z0.07
X25.759 Y-0.396 Z0.133
X25.753 Y-0.391 Z0.2
G0 Z5
X25.334 Y-0.821
G1 Z0.1 F200
X25.34 Y-0.826 Z0.033 F450
X25.356 Y-0.841 Z-0.03
X25.381 Y-0.866 Z-0.087
X25.415 Y-0.899 Z-0.135
X25.456 Y-0.939 Z-0.17
X25.501 Y-0.983 Z-0.192
X25.549 Y-1.03 Z-0.2
X25.764 Y-1.24
G3 X26.188 Y-1.234 I0.209 J0.215
G2 X28.998 Y-0.05 I2.81 J-2.741
G1 X29.01
G2 X32.923 Y-3.975 I-0.012 J-3.925
X25.073 Y-3.975 I-3.925 J0
X26.188 Y-1.234 I3.925 J0
G3 X26.183 Y-0.81 I-0.215 J0.209
G1 X25.968 Y-0.601
X25.92 Y-0.554 Z-0.192
X25.875 Y-0.51 Z-0.17
X25.834 Y-0.47 Z-0.135
X25.8 Y-0.437 Z-0.087
X25.775 Y-0.412 Z-0.03
X25.759 Y-0.396 Z0.033
X25.753 Y-0.391 Z0.1
G0 Z5
Y0.391
G1 Z0.1 F200
X25.759 Y0.396 Z0.033 F450
X25.775 Y0.412 Z-0.03
X25.8 Y0.437 Z-0.087
X25.834 Y0.47 Z-0.135
X25.875 Y0.51 Z-0.17
X25.92 Y0.554 Z-0.192
X25.968 Y0.601 Z-0.2
X26.183 Y0.81
G3 X26.188 Y1.234 I-0.209 J0.215
G2 X25.073 Y3.975 I2.81 J2.741
G1 Y3.987
G2 X28.998 Y7.9 I3.925 J-0.012
X28.998 Y0.05 I0 J-3.925
X26.188 Y1.234 I0 J3.925
G3 X25.764 Y1.24 I-0.215 J-0.209
G1 X25.549 Y1.03
X25.501 Y0.983 Z-0.192
X25.456 Y0.939 Z-0.17
X25.415 Y0.899 Z-0.135
X25.381 Y0.866 Z-0.087
X25.356 Y0.841 Z-0.03
X25.34 Y0.826 Z0.033
X25.334 Y0.821 Z0.1
G0 Z5
X8.711
G1 Z0.2 F200
X8.706 Y0.826 Z0.133 F450
X8.69 Y0.841 Z0.07
X8.664 Y0.866 Z0.013
X8.63 Y0.899 Z-0.035
X8.59 Y0.939 Z-0.07
X8.544 Y0.983 Z-0.092
X8.496 Y1.03 Z-0.1
X8.282 Y1.24
G3 X7.857 Y1.234 I-0.209 J-0.215
G2 X5.048 Y0.05 I-2.81 J2.741
X5.048 Y7.9 I0 J3.925
X8.973 Y3.975 I0 J-3.925
G1 Y3.963
G2 X7.857 Y1.234 I-3.925 J0.012
G3 X7.863 Y0.81 I0.215 J-0.209
G1 X8.077 Y0.601
X8.125 Y0.554 Z-0.092
X8.171 Y0.51 Z-0.07
X8.211 Y0.47 Z-0.035
X8.245 Y0.437 Z0.013
X8.271 Y0.412 Z0.07
X8.287 Y0.396 Z0.133
X8.292 Y0.391 Z0.2
G0 Z5
Y-0.391
G1 Z0.2 F200
X8.287 Y-0.396 Z0.133 F450
X8.271 Y-0.412 Z0.07
X8.245 Y-0.437 Z0.013
X8.211 Y-0.47 Z-0.035
X8.171 Y-0.51 Z-0.07
X8.125 Y-0.554 Z-0.092
X8.077 Y-0.601 Z-0.1
X7.863 Y-0.81
G3 X7.857 Y-1.234 I0.209 J-0.215
G2 X8.973 Y-3.975 I-2.81 J-2.741
X1.123 Y-3.975 I-3.925 J0
X5.048 Y-0.05 I3.925 J0
G1 X5.06
G2 X7.857 Y-1.234 I-0.012 J-3.925
G3 X8.282 Y-1.24 I0.215 J0.209
G1 X8.496 Y-1.03
X8.544 Y-0.983 Z-0.092
X8.59 Y-0.939 Z-0.07
X8.63 Y-0.899 Z-0.035
X8.664 Y-0.866 Z0.013
X8.69 Y-0.841 Z0.07
X8.706 Y-0.826 Z0.133
X8.711 Y-0.821 Z0.2
G0 Z5
X8.292 Y-0.391
G1 Z0.1 F200
X8.287 Y-0.396 Z0.033 F450
X8.271 Y-0.412 Z-0.03
X8.245 Y-0.437 Z-0.087
X8.211 Y-0.47 Z-0.135
X8.171 Y-0.51 Z-0.17
X8.125 Y-0.554 Z-0.192
X8.077 Y-0.601 Z-0.2
X7.863 Y-0.81
G3 X7.857 Y-1.234 I0.209 J-0.215
G2 X8.973 Y-3.975 I-2.81 J-2.741
X1.123 Y-3.975 I-3.925 J0
X5.048 Y-0.05 I3.925 J0
G1 X5.06
G2 X7.857 Y-1.234 I-0.012 J-3.925
G3 X8.282 Y-1.24 I0.215 J0.209
G1 X8.496 Y-1.03
X8.544 Y-0.983 Z-0.192
X8.59 Y-0.939 Z-0.17
X8.63 Y-0.899 Z-0.135
X8.664 Y-0.866 Z-0.087
X8.69 Y-0.841 Z-0.03
X8.706 Y-0.826 Z0.033
X8.711 Y-0.821 Z0.1
G0 Z5
X9.534
G1 Z0.1 F200
X9.54 Y-0.826 Z0.033 F450
X9.556 Y-0.841 Z-0.03
X9.581 Y-0.866 Z-0.087
X9.615 Y-0.899 Z-0.135
X9.656 Y-0.939 Z-0.17
X9.701 Y-0.983 Z-0.192
X9.749 Y-1.03 Z-0.2
X9.964 Y-1.24
G3 X10.388 Y-1.234 I0.209 J0.215
G2 X17.023 Y-3.095 I2.81 J-2.741
X24.673 Y-4.855 I3.825 J-0.88
X17.023 Y-4.855 I-3.825 J0.88
X9.373 Y-3.095 I-3.825 J0.88
X10.388 Y-1.234 I3.825 J-0.88
G3 X10.383 Y-0.81 I-0.215 J0.209
G1 X10.168 Y-0.601
X10.12 Y-0.554 Z-0.192
X10.075 Y-0.51 Z-0.17
X10.034 Y-0.47 Z-0.135
X10 Y-0.437 Z-0.087
X9.975 Y-0.412 Z-0.03
X9.959 Y-0.396 Z0.033
X9.953 Y-0.391 Z0.1
G0 Z5
Y0.391
G1 Z0.1 F200
X9.959 Y0.396 Z0.033 F450
X9.975 Y0.412 Z-0.03
X10 Y0.437 Z-0.087
X10.034 Y0.47 Z-0.135
X10.075 Y0.51 Z-0.17
X10.12 Y0.554 Z-0.192
X10.168 Y0.601 Z-0.2
X10.383 Y0.81
G3 X10.388 Y1.234 I-0.209 J0.215
G2 X16.007 Y6.716 I2.81 J2.741
X17.023 Y4.855 I-2.81 J-2.741
X24.673 Y3.095 I3.825 J-0.88
X17.023 Y3.095 I-3.825 J0.88
X10.388 Y1.234 I-3.825 J0.88
G3 X9.964 Y1.24 I-0.215 J-0.209
G1 X9.749 Y1.03
X9.701 Y0.983 Z-0.192
X9.656 Y0.939 Z-0.17
X9.615 Y0.899 Z-0.135
X9.581 Y0.866 Z-0.087
X9.556 Y0.841 Z-0.03
X9.54 Y0.826 Z0.033
X9.534 Y0.821 Z0.1
G0 Z5
X8.711
G1 Z0.1 F200
X8.706 Y0.826 Z0.033 F450
X8.69 Y0.841 Z-0.03
X8.664 Y0.866 Z-0.087
X8.63 Y0.899 Z-0.135
X8.59 Y0.939 Z-0.17
X8.544 Y0.983 Z-0.192
X8.496 Y1.03 Z-0.2
X8.282 Y1.24
G3 X7.857 Y1.234 I-0.209 J-0.215
G2 X5.048 Y0.05 I-2.81 J2.741
X5.048 Y7.9 I0 J3.925
X8.973 Y3.975 I0 J-3.925
G1 Y3.963
G2 X7.857 Y1.234 I-3.925 J0.012
G3 X7.863 Y0.81 I0.215 J-0.209
G1 X8.077 Y0.601
X8.125 Y0.554 Z-0.192
X8.171 Y0.51 Z-0.17
X8.211 Y0.47 Z-0.135
X8.245 Y0.437 Z-0.087
X8.271 Y0.412 Z-0.03
X8.287 Y0.396 Z0.033
X8.292 Y0.391 Z0.1
G0 Z5
X8.711 Y0.821
G1 Z0 F200
X8.706 Y0.826 Z-0.067 F450
X8.69 Y0.841 Z-0.13
X8.664 Y0.866 Z-0.187
X8.63 Y0.899 Z-0.235
X8.59 Y0.939 Z-0.27
X8.544 Y0.983 Z-0.292
X8.496 Y1.03 Z-0.3
X8.282 Y1.24
G3 X7.857 Y1.234 I-0.209 J-0.215
G2 X5.048 Y0.05 I-2.81 J2.741
X5.048 Y7.9 I0 J3.925
X8.973 Y3.975 I0 J-3.925
G1 Y3.963
G2 X7.857 Y1.234 I-3.925 J0.012
G3 X7.863 Y0.81 I0.215 J-0.209
G1 X8.077 Y0.601
X8.125 Y0.554 Z-0.292
X8.171 Y0.51 Z-0.27
X8.211 Y0.47 Z-0.235
X8.245 Y0.437 Z-0.187
X8.271 Y0.412 Z-0.13
X8.287 Y0.396 Z-0.067
X8.292 Y0.391 Z0
G0 Z5
Y-0.391
G1 Z0 F200
X8.287 Y-0.396 Z-0.067 F450
X8.271 Y-0.412 Z-0.13
X8.245 Y-0.437 Z-0.187
X8.211 Y-0.47 Z-0.235
X8.171 Y-0.51 Z-0.27
X8.125 Y-0.554 Z-0.292
X8.077 Y-0.601 Z-0.3
X7.863 Y-0.81
G3 X7.857 Y-1.234 I0.209 J-0.215
G2 X8.973 Y-3.975 I-2.81 J-2.741
X1.123 Y-3.975 I-3.925 J0
X5.048 Y-0.05 I3.925 J0
G1 X5.06
G2 X7.857 Y-1.234 I-0.012 J-3.925
G3 X8.282 Y-1.24 I0.215 J0.209
G1 X8.496 Y-1.03
X8.544 Y-0.983 Z-0.292
X8.59 Y-0.939 Z-0.27
X8.63 Y-0.899 Z-0.235
X8.664 Y-0.866 Z-0.187
X8.69 Y-0.841 Z-0.13
X8.706 Y-0.826 Z-0.067
X8.711 Y-0.821 Z0
G0 Z5
X9.534
G1 Z0 F200
X9.54 Y-0.826 Z-0.067 F450
X9.556 Y-0.841 Z-0.13
X9.581 Y-0.866 Z-0.187
X9.615 Y-0.899 Z-0.235
X9.656 Y-0.939 Z-0.27
X9.701 Y-0.983 Z-0.292
X9.749 Y-1.03 Z-0.3
X9.964 Y-1.24
G3 X10.388 Y-1.234 I0.209 J0.215
G2 X17.023 Y-3.095 I2.81 J-2.741
X24.673 Y-4.855 I3.825 J-0.88
X17.023 Y-4.855 I-3.825 J0.88
X9.373 Y-3.095 I-3.825 J0.88
X10.388 Y-1.234 I3.825 J-0.88
G3 X10.383 Y-0.81 I-0.215 J0.209
G1 X10.168 Y-0.601
X10.12 Y-0.554 Z-0.292
X10.075 Y-0.51 Z-0.27
X10.034 Y-0.47 Z-0.235
X10 Y-0.437 Z-0.187
X9.975 Y-0.412 Z-0.13
X9.959 Y-0.396 Z-0.067
X9.953 Y-0.391 Z0
G0 Z5
Y0.391
G1 Z0 F200
X9.959 Y0.396 Z-0.067 F450
X9.975 Y0.412 Z-0.13
X10 Y0.437 Z-0.187
X10.034 Y0.47 Z-0.235
X10.075 Y0.51 Z-0.27
X10.12 Y0.554 Z-0.292
X10.168 Y0.601 Z-0.3
X10.383 Y0.81
G3 X10.388 Y1.234 I-0.209 J0.215
G2 X16.007 Y6.716 I2.81 J2.741
X17.023 Y4.855 I-2.81 J-2.741
X24.673 Y3.095 I3.825 J-0.88
X17.023 Y3.095 I-3.825 J0.88
X10.388 Y1.234 I-3.825 J0.88
G3 X9.964 Y1.24 I-0.215 J-0.209
G1 X9.749 Y1.03
X9.701 Y0.983 Z-0.292
X9.656 Y0.939 Z-0.27
X9.615 Y0.899 Z-0.235
X9.581 Y0.866 Z-0.187
X9.556 Y0.841 Z-0.13
X9.54 Y0.826 Z-0.067
X9.534 Y0.821 Z0
G0 Z5
X8.711
G1 Z-0.1 F200
X8.706 Y0.826 Z-0.167 F450
X8.69 Y0.841 Z-0.23
X8.664 Y0.866 Z-0.287
X8.63 Y0.899 Z-0.335
X8.59 Y0.939 Z-0.37
X8.544 Y0.983 Z-0.392
X8.496 Y1.03 Z-0.4
X8.282 Y1.24
G3 X7.857 Y1.234 I-0.209 J-0.215
G2 X5.048 Y0.05 I-2.81 J2.741
X5.048 Y7.9 I0 J3.925
X8.973 Y3.975 I0 J-3.925
G1 Y3.963
G2 X7.857 Y1.234 I-3.925 J0.012
G3 X7.863 Y0.81 I0.215 J-0.209
G1 X8.077 Y0.601
X8.125 Y0.554 Z-0.392
X8.171 Y0.51 Z-0.37
X8.211 Y0.47 Z-0.335
X8.245 Y0.437 Z-0.287
X8.271 Y0.412 Z-0.23
X8.287 Y0.396 Z-0.167
X8.292 Y0.391 Z-0.1
G0 Z5
Y-0.391
G1 Z-0.1 F200
X8.287 Y-0.396 Z-0.167 F450
X8.271 Y-0.412 Z-0.23
X8.245 Y-0.437 Z-0.287
X8.211 Y-0.47 Z-0.335
X8.171 Y-0.51 Z-0.37
X8.125 Y-0.554 Z-0.392
X8.077 Y-0.601 Z-0.4
X7.863 Y-0.81
G3 X7.857 Y-1.234 I0.209 J-0.215
G2 X8.973 Y-3.975 I-2.81 J-2.741
X1.123 Y-3.975 I-3.925 J0
X5.048 Y-0.05 I3.925 J0
G1 X5.06
G2 X7.857 Y-1.234 I-0.012 J-3.925
G3 X8.282 Y-1.24 I0.215 J0.209
G1 X8.496 Y-1.03
X8.544 Y-0.983 Z-0.392
X8.59 Y-0.939 Z-0.37
X8.63 Y-0.899 Z-0.335
X8.664 Y-0.866 Z-0.287
X8.69 Y-0.841 Z-0.23
X8.706 Y-0.826 Z-0.167
X8.711 Y-0.821 Z-0.1
G0 Z5
X25.334
G1 Z0 F200
X25.34 Y-0.826 Z-0.067 F450
X25.356 Y-0.841 Z-0.13
X25.381 Y-0.866 Z-0.187
X25.415 Y-0.899 Z-0.235
X25.456 Y-0.939 Z-0.27
X25.501 Y-0.983 Z-0.292
X25.549 Y-1.03 Z-0.3
X25.764 Y-1.24
G3 X26.188 Y-1.234 I0.209 J0.215
G2 X28.998 Y-0.05 I2.81 J-2.741
G1 X29.01
G2 X32.923 Y-3.975 I-0.012 J-3.925
X25.073 Y-3.975 I-3.925 J0
X26.188 Y-1.234 I3.925 J0
G3 X26.183 Y-0.81 I-0.215 J0.209
G1 X25.968 Y-0.601
X25.92 Y-0.554 Z-0.292
X25.875 Y-0.51 Z-0.27
X25.834 Y-0.47 Z-0.235
X25.8 Y-0.437 Z-0.187
X25.775 Y-0.412 Z-0.13
X25.759 Y-0.396 Z-0.067
X25.753 Y-0.391 Z0
G0 Z5
Y0.391
G1 Z0 F200
X25.759 Y0.396 Z-0.067 F450
X25.775 Y0.412 Z-0.13
X25.8 Y0.437 Z-0.187
X25.834 Y0.47 Z-0.235
X25.875 Y0.51 Z-0.27
X25.92 Y0.554 Z-0.292
X25.968 Y0.601 Z-0.3
X26.183 Y0.81
G3 X26.188 Y1.234 I-0.209 J0.215
G2 X25.073 Y3.975 I2.81 J2.741
G1 Y3.987
G2 X28.998 Y7.9 I3.925 J-0.012
X28.998 Y0.05 I0 J-3.925
X26.188 Y1.234 I0 J3.925
G3 X25.764 Y1.24 I-0.215 J-0.209
G1 X25.549 Y1.03
X25.501 Y0.983 Z-0.292
X25.456 Y0.939 Z-0.27
X25.415 Y0.899 Z-0.235
X25.381 Y0.866 Z-0.187
X25.356 Y0.841 Z-0.13
X25.34 Y0.826 Z-0.067
X25.334 Y0.821 Z0
G0 Z5
X25.753 Y0.391
G1 Z-0.1 F200
X25.759 Y0.396 Z-0.167 F450
X25.775 Y0.412 Z-0.23
X25.8 Y0.437 Z-0.287
X25.834 Y0.47 Z-0.335
X25.875 Y0.51 Z-0.37
X25.92 Y0.554 Z-0.392
X25.968 Y0.601 Z-0.4
X26.183 Y0.81
G3 X26.188 Y1.234 I-0.209 J0.215
G2 X25.073 Y3.975 I2.81 J2.741
G1 Y3.987
G2 X28.998 Y7.9 I3.925 J-0.012
X28.998 Y0.05 I0 J-3.925
X26.188 Y1.234 I0 J3.925
G3 X25.764 Y1.24 I-0.215 J-0.209
G1 X25.549 Y1.03
X25.501 Y0.983 Z-0.392
X25.456 Y0.939 Z-0.37
X25.415 Y0.899 Z-0.335
X25.381 Y0.866 Z-0.287
X25.356 Y0.841 Z-0.23
X25.34 Y0.826 Z-0.167
X25.334 Y0.821 Z-0.1
G0 Z5
X24.511
G1 Z-0.1 F200
X24.506 Y0.826 Z-0.167 F450
X24.49 Y0.841 Z-0.23
X24.464 Y0.866 Z-0.287
X24.43 Y0.899 Z-0.335
X24.39 Y0.939 Z-0.37
X24.344 Y0.983 Z-0.392
X24.296 Y1.03 Z-0.4
X24.082 Y1.24
G3 X23.657 Y1.234 I-0.209 J-0.215
G2 X17.023 Y3.095 I-2.81 J2.741
X9.373 Y4.855 I-3.825 J0.88
X17.023 Y4.855 I3.825 J-0.88
X24.673 Y3.095 I3.825 J-0.88
X23.657 Y1.234 I-3.825 J0.88
G3 X23.663 Y0.81 I0.215 J-0.209
G1 X23.877 Y0.601
X23.925 Y0.554 Z-0.392
X23.971 Y0.51 Z-0.37
X24.011 Y0.47 Z-0.335
X24.045 Y0.437 Z-0.287
X24.071 Y0.412 Z-0.23
X24.087 Y0.396 Z-0.167
X24.092 Y0.391 Z-0.1
G0 Z5
Y-0.391
G1 Z-0.1 F200
X24.087 Y-0.396 Z-0.167 F450
X24.071 Y-0.412 Z-0.23
X24.045 Y-0.437 Z-0.287
X24.011 Y-0.47 Z-0.335
X23.971 Y-0.51 Z-0.37
X23.925 Y-0.554 Z-0.392
X23.877 Y-0.601 Z-0.4
X23.663 Y-0.81
G3 X23.657 Y-1.234 I0.209 J-0.215
G2 X18.038 Y-6.716 I-2.81 J-2.741
X17.023 Y-4.855 I2.81 J2.741
X9.373 Y-3.095 I-3.825 J0.88
X17.023 Y-3.095 I3.825 J-0.88
X23.657 Y-1.234 I3.825 J-0.88
G3 X24.082 Y-1.24 I0.215 J0.209
G1 X24.296 Y-1.03
X24.344 Y-0.983 Z-0.392
X24.39 Y-0.939 Z-0.37
X24.43 Y-0.899 Z-0.335
X24.464 Y-0.866 Z-0.287
X24.49 Y-0.841 Z-0.23
X24.506 Y-0.826 Z-0.167
X24.511 Y-0.821 Z-0.1
G0 Z5
X25.334
G1 Z-0.1 F200
X25.34 Y-0.826 Z-0.167 F450
X25.356 Y-0.841 Z-0.23
X25.381 Y-0.866 Z-0.287
X25.415 Y-0.899 Z-0.335
X25.456 Y-0.939 Z-0.37
X25.501 Y-0.983 Z-0.392
X25.549 Y-1.03 Z-0.4
X25.764 Y-1.24
G3 X26.188 Y-1.234 I0.209 J0.215
G2 X28.998 Y-0.05 I2.81 J-2.741
G1 X29.01
G2 X32.923 Y-3.975 I-0.012 J-3.925
X25.073 Y-3.975 I-3.925 J0
X26.188 Y-1.234 I3.925 J0
G3 X26.183 Y-0.81 I-0.215 J0.209
G1 X25.968 Y-0.601
X25.92 Y-0.554 Z-0.392
X25.875 Y-0.51 Z-0.37
X25.834 Y-0.47 Z-0.335
X25.8 Y-0.437 Z-0.287
X25.775 Y-0.412 Z-0.23
X25.759 Y-0.396 Z-0.167
X25.753 Y-0.391 Z-0.1
G0 Z5
X25.334 Y-0.821
G1 Z-0.2 F200
X25.34 Y-0.826 Z-0.267 F450
X25.356 Y-0.841 Z-0.33
X25.381 Y-0.866 Z-0.387
X25.415 Y-0.899 Z-0.435
X25.456 Y-0.939 Z-0.47
X25.501 Y-0.983 Z-0.492
X25.549 Y-1.03 Z-0.5
X25.764 Y-1.24
G3 X26.188 Y-1.234 I0.209 J0.215
G2 X28.998 Y-0.05 I2.81 J-2.741
G1 X29.01
G2 X32.923 Y-3.975 I-0.012 J-3.925
X25.073 Y-3.975 I-3.925 J0
X26.188 Y-1.234 I3.925 J0
G3 X26.183 Y-0.81 I-0.215 J0.209
G1 X25.968 Y-0.601
X25.92 Y-0.554 Z-0.492
X25.875 Y-0.51 Z-0.47
X25.834 Y-0.47 Z-0.435
X25.8 Y-0.437 Z-0.387
X25.775 Y-0.412 Z-0.33
X25.759 Y-0.396 Z-0.267
X25.753 Y-0.391 Z-0.2
G0 Z5
Y0.391
G1 Z-0.2 F200
X25.759 Y0.396 Z-0.267 F450
X25.775 Y0.412 Z-0.33
X25.8 Y0.437 Z-0.387
X25.834 Y0.47 Z-0.435
X25.875 Y0.51 Z-0.47
X25.92 Y0.554 Z-0.492
X25.968 Y0.601 Z-0.5
X26.183 Y0.81
G3 X26.188 Y1.234 I-0.209 J0.215
G2 X25.073 Y3.975 I2.81 J2.741
G1 Y3.987
G2 X28.998 Y7.9 I3.925 J-0.012
X28.998 Y0.05 I0 J-3.925
X26.188 Y1.234 I0 J3.925
G3 X25.764 Y1.24 I-0.215 J-0.209
G1 X25.549 Y1.03
X25.501 Y0.983 Z-0.492
X25.456 Y0.939 Z-0.47
X25.415 Y0.899 Z-0.435
X25.381 Y0.866 Z-0.387
X25.356 Y0.841 Z-0.33
X25.34 Y0.826 Z-0.267
X25.334 Y0.821 Z-0.2
G0 Z5
X24.511
G1 Z-0.2 F200
X24.506 Y0.826 Z-0.267 F450
X24.49 Y0.841 Z-0.33
X24.464 Y0.866 Z-0.387
X24.43 Y0.899 Z-0.435
X24.39 Y0.939 Z-0.47
X24.344 Y0.983 Z-0.492
X24.296 Y1.03 Z-0.5
X24.082 Y1.24
G3 X23.657 Y1.234 I-0.209 J-0.215
G2 X17.023 Y3.095 I-2.81 J2.741
X9.373 Y4.855 I-3.825 J0.88
X17.023 Y4.855 I3.825 J-0.88
X24.673 Y3.095 I3.825 J-0.88
X23.657 Y1.234 I-3.825 J0.88
G3 X23.663 Y0.81 I0.215 J-0.209
G1 X23.877 Y0.601
X23.925 Y0.554 Z-0.492
X23.971 Y0.51 Z-0.47
X24.011 Y0.47 Z-0.435
X24.045 Y0.437 Z-0.387
X24.071 Y0.412 Z-0.33
X24.087 Y0.396 Z-0.267
X24.092 Y0.391 Z-0.2
G0 Z5
Y-0.391
G1 Z-0.2 F200
X24.087 Y-0.396 Z-0.267 F450
X24.071 Y-0.412 Z-0.33
X24.045 Y-0.437 Z-0.387
X24.011 Y-0.47 Z-0.435
X23.971 Y-0.51 Z-0.47
X23.925 Y-0.554 Z-0.492
X23.877 Y-0.601 Z-0.5
X23.663 Y-0.81
G3 X23.657 Y-1.234 I0.209 J-0.215
G2 X18.038 Y-6.716 I-2.81 J-2.741
X17.023 Y-4.855 I2.81 J2.741
X9.373 Y-3.095 I-3.825 J0.88
X17.023 Y-3.095 I3.825 J-0.88
X23.657 Y-1.234 I3.825 J-0.88
G3 X24.082 Y-1.24 I0.215 J0.209
G1 X24.296 Y-1.03
X24.344 Y-0.983 Z-0.492
X24.39 Y-0.939 Z-0.47
X24.43 Y-0.899 Z-0.435
X24.464 Y-0.866 Z-0.387
X24.49 Y-0.841 Z-0.33
X24.506 Y-0.826 Z-0.267
X24.511 Y-0.821 Z-0.2
G0 Z5
X25.334
G1 Z-0.3 F200
X25.34 Y-0.826 Z-0.367 F450
X25.356 Y-0.841 Z-0.43
X25.381 Y-0.866 Z-0.487
X25.415 Y-0.899 Z-0.535
X25.456 Y-0.939 Z-0.57
X25.501 Y-0.983 Z-0.592
X25.549 Y-1.03 Z-0.6
X25.764 Y-1.24
G3 X26.188 Y-1.234 I0.209 J0.215
G2 X28.998 Y-0.05 I2.81 J-2.741
G1 X29.01
G2 X32.923 Y-3.975 I-0.012 J-3.925
X25.073 Y-3.975 I-3.925 J0
X26.188 Y-1.234 I3.925 J0
G3 X26.183 Y-0.81 I-0.215 J0.209
G1 X25.968 Y-0.601
X25.92 Y-0.554 Z-0.592
X25.875 Y-0.51 Z-0.57
X25.834 Y-0.47 Z-0.535
X25.8 Y-0.437 Z-0.487
X25.775 Y-0.412 Z-0.43
X25.759 Y-0.396 Z-0.367
X25.753 Y-0.391 Z-0.3
G0 Z5
Y0.391
G1 Z-0.3 F200
X25.759 Y0.396 Z-0.367 F450
X25.775 Y0.412 Z-0.43
X25.8 Y0.437 Z-0.487
X25.834 Y0.47 Z-0.535
X25.875 Y0.51 Z-0.57
X25.92 Y0.554 Z-0.592
X25.968 Y0.601 Z-0.6
X26.183 Y0.81
G3 X26.188 Y1.234 I-0.209 J0.215
G2 X25.073 Y3.975 I2.81 J2.741
G1 Y3.987
G2 X28.998 Y7.9 I3.925 J-0.012
X28.998 Y0.05 I0 J-3.925
X26.188 Y1.234 I0 J3.925
G3 X25.764 Y1.24 I-0.215 J-0.209
G1 X25.549 Y1.03
X25.501 Y0.983 Z-0.592
X25.456 Y0.939 Z-0.57
X25.415 Y0.899 Z-0.535
X25.381 Y0.866 Z-0.487
X25.356 Y0.841 Z-0.43
X25.34 Y0.826 Z-0.367
X25.334 Y0.821 Z-0.3
G0 Z5
X8.711
G1 Z-0.2 F200
X8.706 Y0.826 Z-0.267 F450
X8.69 Y0.841 Z-0.33
X8.664 Y0.866 Z-0.387
X8.63 Y0.899 Z-0.435
X8.59 Y0.939 Z-0.47
X8.544 Y0.983 Z-0.492
X8.496 Y1.03 Z-0.5
X8.282 Y1.24
G3 X7.857 Y1.234 I-0.209 J-0.215
G2 X5.048 Y0.05 I-2.81 J2.741
X5.048 Y7.9 I0 J3.925
X8.973 Y3.975 I0 J-3.925
G1 Y3.963
G2 X7.857 Y1.234 I-3.925 J0.012
G3 X7.863 Y0.81 I0.215 J-0.209
G1 X8.077 Y0.601
X8.125 Y0.554 Z-0.492
X8.171 Y0.51 Z-0.47
X8.211 Y0.47 Z-0.435
X8.245 Y0.437 Z-0.387
X8.271 Y0.412 Z-0.33
X8.287 Y0.396 Z-0.267
X8.292 Y0.391 Z-0.2
G0 Z5
Y-0.391
G1 Z-0.2 F200
X8.287 Y-0.396 Z-0.267 F450
X8.271 Y-0.412 Z-0.33
X8.245 Y-0.437 Z-0.387
X8.211 Y-0.47 Z-0.435
X8.171 Y-0.51 Z-0.47
X8.125 Y-0.554 Z-0.492
X8.077 Y-0.601 Z-0.5
X7.863 Y-0.81
G3 X7.857 Y-1.234 I0.209 J-0.215
G2 X8.973 Y-3.975 I-2.81 J-2.741
X1.123 Y-3.975 I-3.925 J0
X5.048 Y-0.05 I3.925 J0
G1 X5.06
G2 X7.857 Y-1.234 I-0.012 J-3.925
G3 X8.282 Y-1.24 I0.215 J0.209
G1 X8.496 Y-1.03
X8.544 Y-0.983 Z-0.492
X8.59 Y-0.939 Z-0.47
X8.63 Y-0.899 Z-0.435
X8.664 Y-0.866 Z-0.387
X8.69 Y-0.841 Z-0.33
X8.706 Y-0.826 Z-0.267
X8.711 Y-0.821 Z-0.2
G0 Z5
X8.292 Y-0.391
G1 Z-0.3 F200
X8.287 Y-0.396 Z-0.367 F450
X8.271 Y-0.412 Z-0.43
X8.245 Y-0.437 Z-0.487
X8.211 Y-0.47 Z-0.535
X8.171 Y-0.51 Z-0.57
X8.125 Y-0.554 Z-0.592
X8.077 Y-0.601 Z-0.6
X7.863 Y-0.81
G3 X7.857 Y-1.234 I0.209 J-0.215
G2 X8.973 Y-3.975 I-2.81 J-2.741
X1.123 Y-3.975 I-3.925 J0
X5.048 Y-0.05 I3.925 J0
G1 X5.06
G2 X7.857 Y-1.234 I-0.012 J-3.925
G3 X8.282 Y-1.24 I0.215 J0.209
G1 X8.496 Y-1.03
X8.544 Y-0.983 Z-0.592
X8.59 Y-0.939 Z-0.57
X8.63 Y-0.899 Z-0.535
X8.664 Y-0.866 Z-0.487
X8.69 Y-0.841 Z-0.43
X8.706 Y-0.826 Z-0.367
X8.711 Y-0.821 Z-0.3
G0 Z5
X9.534
G1 Z-0.3 F200
X9.54 Y-0.826 Z-0.367 F450
X9.556 Y-0.841 Z-0.43
X9.581 Y-0.866 Z-0.487
X9.615 Y-0.899 Z-0.535
X9.656 Y-0.939 Z-0.57
X9.701 Y-0.983 Z-0.592
X9.749 Y-1.03 Z-0.6
X9.964 Y-1.24
G3 X10.388 Y-1.234 I0.209 J0.215
G2 X17.023 Y-3.095 I2.81 J-2.741
X24.673 Y-4.855 I3.825 J-0.88
X17.023 Y-4.855 I-3.825 J0.88
X9.373 Y-3.095 I-3.825 J0.88
X10.388 Y-1.234 I3.825 J-0.88
G3 X10.383 Y-0.81 I-0.215 J0.209
G1 X10.168 Y-0.601
X10.12 Y-0.554 Z-0.592
X10.075 Y-0.51 Z-0.57
X10.034 Y-0.47 Z-0.535
X10 Y-0.437 Z-0.487
X9.975 Y-0.412 Z-0.43
X9.959 Y-0.396 Z-0.367
X9.953 Y-0.391 Z-0.3
G0 Z5
Y0.391
G1 Z-0.3 F200
X9.959 Y0.396 Z-0.367 F450
X9.975 Y0.412 Z-0.43
X10 Y0.437 Z-0.487
X10.034 Y0.47 Z-0.535
X10.075 Y0.51 Z-0.57
X10.12 Y0.554 Z-0.592
X10.168 Y0.601 Z-0.6
X10.383 Y0.81
G3 X10.388 Y1.234 I-0.209 J0.215
G2 X16.007 Y6.716 I2.81 J2.741
X17.023 Y4.855 I-2.81 J-2.741
X24.673 Y3.095 I3.825 J-0.88
X17.023 Y3.095 I-3.825 J0.88
X10.388 Y1.234 I-3.825 J0.88
G3 X9.964 Y1.24 I-0.215 J-0.209
G1 X9.749 Y1.03
X9.701 Y0.983 Z-0.592
X9.656 Y0.939 Z-0.57
X9.615 Y0.899 Z-0.535
X9.581 Y0.866 Z-0.487
X9.556 Y0.841 Z-0.43
X9.54 Y0.826 Z-0.367
X9.534 Y0.821 Z-0.3
G0 Z5
X8.711
G1 Z-0.3 F200
X8.706 Y0.826 Z-0.367 F450
X8.69 Y0.841 Z-0.43
X8.664 Y0.866 Z-0.487
X8.63 Y0.899 Z-0.535
X8.59 Y0.939 Z-0.57
X8.544 Y0.983 Z-0.592
X8.496 Y1.03 Z-0.6
X8.282 Y1.24
G3 X7.857 Y1.234 I-0.209 J-0.215
G2 X5.048 Y0.05 I-2.81 J2.741
X5.048 Y7.9 I0 J3.925
X8.973 Y3.975 I0 J-3.925
G1 Y3.963
G2 X7.857 Y1.234 I-3.925 J0.012
G3 X7.863 Y0.81 I0.215 J-0.209
G1 X8.077 Y0.601
X8.125 Y0.554 Z-0.592
X8.171 Y0.51 Z-0.57
X8.211 Y0.47 Z-0.535
X8.245 Y0.437 Z-0.487
X8.271 Y0.412 Z-0.43
X8.287 Y0.396 Z-0.367
X8.292 Y0.391 Z-0.3
G0 Z5
X8.711 Y0.821
G1 Z-0.4 F200
X8.706 Y0.826 Z-0.467 F450
X8.69 Y0.841 Z-0.53
X8.664 Y0.866 Z-0.587
X8.63 Y0.899 Z-0.635
X8.59 Y0.939 Z-0.67
X8.544 Y0.983 Z-0.692
X8.496 Y1.03 Z-0.7
X8.282 Y1.24
G3 X7.857 Y1.234 I-0.209 J-0.215
G2 X5.048 Y0.05 I-2.81 J2.741
X5.048 Y7.9 I0 J3.925
X8.973 Y3.975 I0 J-3.925
G1 Y3.963
G2 X7.857 Y1.234 I-3.925 J0.012
G3 X7.863 Y0.81 I0.215 J-0.209
G1 X8.077 Y0.601
X8.125 Y0.554 Z-0.692
X8.171 Y0.51 Z-0.67
X8.211 Y0.47 Z-0.635
X8.245 Y0.437 Z-0.587
X8.271 Y0.412 Z-0.53
X8.287 Y0.396 Z-0.467
X8.292 Y0.391 Z-0.4
G0 Z5
Y-0.391
G1 Z-0.4 F200
X8.287 Y-0.396 Z-0.467 F450
X8.271 Y-0.412 Z-0.53
X8.245 Y-0.437 Z-0.587
X8.211 Y-0.47 Z-0.635
X8.171 Y-0.51 Z-0.67
X8.125 Y-0.554 Z-0.692
X8.077 Y-0.601 Z-0.7
X7.863 Y-0.81
G3 X7.857 Y-1.234 I0.209 J-0.215
G2 X8.973 Y-3.975 I-2.81 J-2.741
X1.123 Y-3.975 I-3.925 J0
X5.048 Y-0.05 I3.925 J0
G1 X5.06
G2 X7.857 Y-1.234 I-0.012 J-3.925
G3 X8.282 Y-1.24 I0.215 J0.209
G1 X8.496 Y-1.03
X8.544 Y-0.983 Z-0.692
X8.59 Y-0.939 Z-0.67
X8.63 Y-0.899 Z-0.635
X8.664 Y-0.866 Z-0.587
X8.69 Y-0.841 Z-0.53
X8.706 Y-0.826 Z-0.467
X8.711 Y-0.821 Z-0.4
G0 Z5
X9.534
G1 Z-0.4 F200
X9.54 Y-0.826 Z-0.467 F450
X9.556 Y-0.841 Z-0.53
X9.581 Y-0.866 Z-0.587
X9.615 Y-0.899 Z-0.635
X9.656 Y-0.939 Z-0.67
X9.701 Y-0.983 Z-0.692
X9.749 Y-1.03 Z-0.7
X9.964 Y-1.24
G3 X10.388 Y-1.234 I0.209 J0.215
G2 X17.023 Y-3.095 I2.81 J-2.741
X24.673 Y-4.855 I3.825 J-0.88
X17.023 Y-4.855 I-3.825 J0.88
X9.373 Y-3.095 I-3.825 J0.88
X10.388 Y-1.234 I3.825 J-0.88
G3 X10.383 Y-0.81 I-0.215 J0.209
G1 X10.168 Y-0.601
X10.12 Y-0.554 Z-0.692
X10.075 Y-0.51 Z-0.67
X10.034 Y-0.47 Z-0.635
X10 Y-0.437 Z-0.587
X9.975 Y-0.412 Z-0.53
X9.959 Y-0.396 Z-0.467
X9.953 Y-0.391 Z-0.4
G0 Z5
Y0.391
G1 Z-0.4 F200
X9.959 Y0.396 Z-0.467 F450
X9.975 Y0.412 Z-0.53
X10 Y0.437 Z-0.587
X10.034 Y0.47 Z-0.635
X10.075 Y0.51 Z-0.67
X10.12 Y0.554 Z-0.692
X10.168 Y0.601 Z-0.7
X10.383 Y0.81
G3 X10.388 Y1.234 I-0.209 J0.215
G2 X16.007 Y6.716 I2.81 J2.741
X17.023 Y4.855 I-2.81 J-2.741
X24.673 Y3.095 I3.825 J-0.88
X17.023 Y3.095 I-3.825 J0.88
X10.388 Y1.234 I-3.825 J0.88
G3 X9.964 Y1.24 I-0.215 J-0.209
G1 X9.749 Y1.03
X9.701 Y0.983 Z-0.692
X9.656 Y0.939 Z-0.67
X9.615 Y0.899 Z-0.635
X9.581 Y0.866 Z-0.587
X9.556 Y0.841 Z-0.53
X9.54 Y0.826 Z-0.467
X9.534 Y0.821 Z-0.4
G0 Z5
X8.711
G1 Z-0.5 F200
X8.706 Y0.826 Z-0.567 F450
X8.69 Y0.841 Z-0.63
X8.664 Y0.866 Z-0.687
X8.63 Y0.899 Z-0.735
X8.59 Y0.939 Z-0.77
X8.544 Y0.983 Z-0.792
X8.496 Y1.03 Z-0.8
X8.282 Y1.24
G3 X7.857 Y1.234 I-0.209 J-0.215
G2 X5.048 Y0.05 I-2.81 J2.741
X5.048 Y7.9 I0 J3.925
X8.973 Y3.975 I0 J-3.925
G1 Y3.963
G2 X7.857 Y1.234 I-3.925 J0.012
G3 X7.863 Y0.81 I0.215 J-0.209
G1 X8.077 Y0.601
X8.125 Y0.554 Z-0.792
X8.171 Y0.51 Z-0.77
X8.211 Y0.47 Z-0.735
X8.245 Y0.437 Z-0.687
X8.271 Y0.412 Z-0.63
X8.287 Y0.396 Z-0.567
X8.292 Y0.391 Z-0.5
G0 Z5
Y-0.391
G1 Z-0.5 F200
X8.287 Y-0.396 Z-0.567 F450
X8.271 Y-0.412 Z-0.63
X8.245 Y-0.437 Z-0.687
X8.211 Y-0.47 Z-0.735
X8.171 Y-0.51 Z-0.77
X8.125 Y-0.554 Z-0.792
X8.077 Y-0.601 Z-0.8
X7.863 Y-0.81
G3 X7.857 Y-1.234 I0.209 J-0.215
G2 X8.973 Y-3.975 I-2.81 J-2.741
X1.123 Y-3.975 I-3.925 J0
X5.048 Y-0.05 I3.925 J0
G1 X5.06
G2 X7.857 Y-1.234 I-0.012 J-3.925
G3 X8.282 Y-1.24 I0.215 J0.209
G1 X8.496 Y-1.03
X8.544 Y-0.983 Z-0.792
X8.59 Y-0.939 Z-0.77
X8.63 Y-0.899 Z-0.735
X8.664 Y-0.866 Z-0.687
X8.69 Y-0.841 Z-0.63
X8.706 Y-0.826 Z-0.567
X8.711 Y-0.821 Z-0.5
G0 Z5
X25.334
G1 Z-0.4 F200
X25.34 Y-0.826 Z-0.467 F450
X25.356 Y-0.841 Z-0.53
X25.381 Y-0.866 Z-0.587
X25.415 Y-0.899 Z-0.635
X25.456 Y-0.939 Z-0.67
X25.501 Y-0.983 Z-0.692
X25.549 Y-1.03 Z-0.7
X25.764 Y-1.24
G3 X26.188 Y-1.234 I0.209 J0.215
G2 X28.998 Y-0.05 I2.81 J-2.741
G1 X29.01
G2 X32.923 Y-3.975 I-0.012 J-3.925
X25.073 Y-3.975 I-3.925 J0
X26.188 Y-1.234 I3.925 J0
G3 X26.183 Y-0.81 I-0.215 J0.209
G1 X25.968 Y-0.601
X25.92 Y-0.554 Z-0.692
X25.875 Y-0.51 Z-0.67
X25.834 Y-0.47 Z-0.635
X25.8 Y-0.437 Z-0.587
X25.775 Y-0.412 Z-0.53
X25.759 Y-0.396 Z-0.467
X25.753 Y-0.391 Z-0.4
G0 Z5
Y0.391
G1 Z-0.4 F200
X25.759 Y0.396 Z-0.467 F450
X25.775 Y0.412 Z-0.53
X25.8 Y0.437 Z-0.587
X25.834 Y0.47 Z-0.635
X25.875 Y0.51 Z-0.67
X25.92 Y0.554 Z-0.692
X25.968 Y0.601 Z-0.7
X26.183 Y0.81
G3 X26.188 Y1.234 I-0.209 J0.215
G2 X25.073 Y3.975 I2.81 J2.741
G1 Y3.987
G2 X28.998 Y7.9 I3.925 J-0.012
X28.998 Y0.05 I0 J-3.925
X26.188 Y1.234 I0 J3.925
G3 X25.764 Y1.24 I-0.215 J-0.209
G1 X25.549 Y1.03
X25.501 Y0.983 Z-0.692
X25.456 Y0.939 Z-0.67
X25.415 Y0.899 Z-0.635
X25.381 Y0.866 Z-0.587
X25.356 Y0.841 Z-0.53
X25.34 Y0.826 Z-0.467
X25.334 Y0.821 Z-0.4
G0 Z5
X25.753 Y0.391
G1 Z-0.5 F200
X25.759 Y0.396 Z-0.567 F450
X25.775 Y0.412 Z-0.63
X25.8 Y0.437 Z-0.687
X25.834 Y0.47 Z-0.735
X25.875 Y0.51 Z-0.77
X25.92 Y0.554 Z-0.792
X25.968 Y0.601 Z-0.8
X26.183 Y0.81
G3 X26.188 Y1.234 I-0.209 J0.215
G2 X25.073 Y3.975 I2.81 J2.741
G1 Y3.987
G2 X28.998 Y7.9 I3.925 J-0.012
X28.998 Y0.05 I0 J-3.925
X26.188 Y1.234 I0 J3.925
G3 X25.764 Y1.24 I-0.215 J-0.209
G1 X25.549 Y1.03
X25.501 Y0.983 Z-0.792
X25.456 Y0.939 Z-0.77
X25.415 Y0.899 Z-0.735
X25.381 Y0.866 Z-0.687
X25.356 Y0.841 Z-0.63
X25.34 Y0.826 Z-0.567
X25.334 Y0.821 Z-0.5
G0 Z5
X24.511
G1 Z-0.5 F200
X24.506 Y0.826 Z-0.567 F450
X24.49 Y0.841 Z-0.63
X24.464 Y0.866 Z-0.687
X24.43 Y0.899 Z-0.735
X24.39 Y0.939 Z-0.77
X24.344 Y0.983 Z-0.792
X24.296 Y1.03 Z-0.8
X24.082 Y1.24
G3 X23.657 Y1.234 I-0.209 J-0.215
G2 X17.023 Y3.095 I-2.81 J2.741
X9.373 Y4.855 I-3.825 J0.88
X17.023 Y4.855 I3.825 J-0.88
X24.673 Y3.095 I3.825 J-0.88
X23.657 Y1.234 I-3.825 J0.88
G3 X23.663 Y0.81 I0.215 J-0.209
G1 X23.877 Y0.601
X23.925 Y0.554 Z-0.792
X23.971 Y0.51 Z-0.77
X24.011 Y0.47 Z-0.735
X24.045 Y0.437 Z-0.687
X24.071 Y0.412 Z-0.63
X24.087 Y0.396 Z-0.567
X24.092 Y0.391 Z-0.5
G0 Z5
Y-0.391
G1 Z-0.5 F200
X24.087 Y-0.396 Z-0.567 F450
X24.071 Y-0.412 Z-0.63
X24.045 Y-0.437 Z-0.687
X24.011 Y-0.47 Z-0.735
X23.971 Y-0.51 Z-0.77
X23.925 Y-0.554 Z-0.792
X23.877 Y-0.601 Z-0.8
X23.663 Y-0.81
G3 X23.657 Y-1.234 I0.209 J-0.215
G2 X18.038 Y-6.716 I-2.81 J-2.741
X17.023 Y-4.855 I2.81 J2.741
X9.373 Y-3.095 I-3.825 J0.88
X17.023 Y-3.095 I3.825 J-0.88
X23.657 Y-1.234 I3.825 J-0.88
G3 X24.082 Y-1.24 I0.215 J0.209
G1 X24.296 Y-1.03
X24.344 Y-0.983 Z-0.792
X24.39 Y-0.939 Z-0.77
X24.43 Y-0.899 Z-0.735
X24.464 Y-0.866 Z-0.687
X24.49 Y-0.841 Z-0.63
X24.506 Y-0.826 Z-0.567
X24.511 Y-0.821 Z-0.5
G0 Z5
X25.334
G1 Z-0.5 F200
X25.34 Y-0.826 Z-0.567 F450
X25.356 Y-0.841 Z-0.63
X25.381 Y-0.866 Z-0.687
X25.415 Y-0.899 Z-0.735
X25.456 Y-0.939 Z-0.77
X25.501 Y-0.983 Z-0.792
X25.549 Y-1.03 Z-0.8
X25.764 Y-1.24
G3 X26.188 Y-1.234 I0.209 J0.215
G2 X28.998 Y-0.05 I2.81 J-2.741
G1 X29.01
G2 X32.923 Y-3.975 I-0.012 J-3.925
X25.073 Y-3.975 I-3.925 J0
X26.188 Y-1.234 I3.925 J0
G3 X26.183 Y-0.81 I-0.215 J0.209
G1 X25.968 Y-0.601
X25.92 Y-0.554 Z-0.792
X25.875 Y-0.51 Z-0.77
X25.834 Y-0.47 Z-0.735
X25.8 Y-0.437 Z-0.687
X25.775 Y-0.412 Z-0.63
X25.759 Y-0.396 Z-0.567
X25.753 Y-0.391 Z-0.5
G0 Z5
X25.334 Y-0.821
G1 Z-0.6 F200
X25.34 Y-0.826 Z-0.667 F450
X25.356 Y-0.841 Z-0.73
X25.381 Y-0.866 Z-0.787
X25.415 Y-0.899 Z-0.835
X25.456 Y-0.939 Z-0.87
X25.501 Y-0.983 Z-0.892
X25.549 Y-1.03 Z-0.9
X25.764 Y-1.24
G3 X26.188 Y-1.234 I0.209 J0.215
G2 X28.998 Y-0.05 I2.81 J-2.741
G1 X29.01
G2 X32.923 Y-3.975 I-0.012 J-3.925
X25.073 Y-3.975 I-3.925 J0
X26.188 Y-1.234 I3.925 J0
G3 X26.183 Y-0.81 I-0.215 J0.209
G1 X25.968 Y-0.601
X25.92 Y-0.554 Z-0.892
X25.875 Y-0.51 Z-0.87
X25.834 Y-0.47 Z-0.835
X25.8 Y-0.437 Z-0.787
X25.775 Y-0.412 Z-0.73
X25.759 Y-0.396 Z-0.667
X25.753 Y-0.391 Z-0.6
G0 Z5
Y0.391
G1 Z-0.6 F200
X25.759 Y0.396 Z-0.667 F450
X25.775 Y0.412 Z-0.73
X25.8 Y0.437 Z-0.787
X25.834 Y0.47 Z-0.835
X25.875 Y0.51 Z-0.87
X25.92 Y0.554 Z-0.892
X25.968 Y0.601 Z-0.9
X26.183 Y0.81
G3 X26.188 Y1.234 I-0.209 J0.215
G2 X25.073 Y3.975 I2.81 J2.741
G1 Y3.987
G2 X28.998 Y7.9 I3.925 J-0.012
X28.998 Y0.05 I0 J-3.925
X26.188 Y1.234 I0 J3.925
G3 X25.764 Y1.24 I-0.215 J-0.209
G1 X25.549 Y1.03
X25.501 Y0.983 Z-0.892
X25.456 Y0.939 Z-0.87
X25.415 Y0.899 Z-0.835
X25.381 Y0.866 Z-0.787
X25.356 Y0.841 Z-0.73
X25.34 Y0.826 Z-0.667
X25.334 Y0.821 Z-0.6
G0 Z5
X24.511
G1 Z-0.6 F200
X24.506 Y0.826 Z-0.667 F450
X24.49 Y0.841 Z-0.73
X24.464 Y0.866 Z-0.787
X24.43 Y0.899 Z-0.835
X24.39 Y0.939 Z-0.87
X24.344 Y0.983 Z-0.892
X24.296 Y1.03 Z-0.9
X24.082 Y1.24
G3 X23.657 Y1.234 I-0.209 J-0.215
G2 X17.023 Y3.095 I-2.81 J2.741
X9.373 Y4.855 I-3.825 J0.88
X17.023 Y4.855 I3.825 J-0.88
X24.673 Y3.095 I3.825 J-0.88
X23.657 Y1.234 I-3.825 J0.88
G3 X23.663 Y0.81 I0.215 J-0.209
G1 X23.877 Y0.601
X23.925 Y0.554 Z-0.892
X23.971 Y0.51 Z-0.87
X24.011 Y0.47 Z-0.835
X24.045 Y0.437 Z-0.787
X24.071 Y0.412 Z-0.73
X24.087 Y0.396 Z-0.667
X24.092 Y0.391 Z-0.6
G0 Z5
Y-0.391
G1 Z-0.6 F200
X24.087 Y-0.396 Z-0.667 F450
X24.071 Y-0.412 Z-0.73
X24.045 Y-0.437 Z-0.787
X24.011 Y-0.47 Z-0.835
X23.971 Y-0.51 Z-0.87
X23.925 Y-0.554 Z-0.892
X23.877 Y-0.601 Z-0.9
X23.663 Y-0.81
G3 X23.657 Y-1.234 I0.209 J-0.215
G2 X18.038 Y-6.716 I-2.81 J-2.741
X17.023 Y-4.855 I2.81 J2.741
X9.373 Y-3.095 I-3.825 J0.88
X17.023 Y-3.095 I3.825 J-0.88
X23.657 Y-1.234 I3.825 J-0.88
G3 X24.082 Y-1.24 I0.215 J0.209
G1 X24.296 Y-1.03
X24.344 Y-0.983 Z-0.892
X24.39 Y-0.939 Z-0.87
X24.43 Y-0.899 Z-0.835
X24.464 Y-0.866 Z-0.787
X24.49 Y-0.841 Z-0.73
X24.506 Y-0.826 Z-0.667
X24.511 Y-0.821 Z-0.6
G0 Z5
X25.334
G1 Z-0.7 F200
X25.34 Y-0.826 Z-0.767 F450
X25.356 Y-0.841 Z-0.83
X25.381 Y-0.866 Z-0.887
X25.415 Y-0.899 Z-0.935
X25.456 Y-0.939 Z-0.97
X25.501 Y-0.983 Z-0.992
X25.549 Y-1.03 Z-1
X25.764 Y-1.24
G3 X26.188 Y-1.234 I0.209 J0.215
G2 X28.998 Y-0.05 I2.81 J-2.741
G1 X29.01
G2 X32.923 Y-3.975 I-0.012 J-3.925
X25.073 Y-3.975 I-3.925 J0
X26.188 Y-1.234 I3.925 J0
G3 X26.183 Y-0.81 I-0.215 J0.209
G1 X25.968 Y-0.601
X25.92 Y-0.554 Z-0.992
X25.875 Y-0.51 Z-0.97
X25.834 Y-0.47 Z-0.935
X25.8 Y-0.437 Z-0.887
X25.775 Y-0.412 Z-0.83
X25.759 Y-0.396 Z-0.767
X25.753 Y-0.391 Z-0.7
G0 Z5
Y0.391
G1 Z-0.7 F200
X25.759 Y0.396 Z-0.767 F450
X25.775 Y0.412 Z-0.83
X25.8 Y0.437 Z-0.887
X25.834 Y0.47 Z-0.935
X25.875 Y0.51 Z-0.97
X25.92 Y0.554 Z-0.992
X25.968 Y0.601 Z-1
X26.183 Y0.81
G3 X26.188 Y1.234 I-0.209 J0.215
G2 X25.073 Y3.975 I2.81 J2.741
G1 Y3.987
G2 X28.998 Y7.9 I3.925 J-0.012
X28.998 Y0.05 I0 J-3.925
X26.188 Y1.234 I0 J3.925
G3 X25.764 Y1.24 I-0.215 J-0.209
G1 X25.549 Y1.03
X25.501 Y0.983 Z-0.992
X25.456 Y0.939 Z-0.97
X25.415 Y0.899 Z-0.935
X25.381 Y0.866 Z-0.887
X25.356 Y0.841 Z-0.83
X25.34 Y0.826 Z-0.767
X25.334 Y0.821 Z-0.7
G0 Z5
X8.711
G1 Z-0.6 F200
X8.706 Y0.826 Z-0.667 F450
X8.69 Y0.841 Z-0.73
X8.664 Y0.866 Z-0.787
X8.63 Y0.899 Z-0.835
X8.59 Y0.939 Z-0.87
X8.544 Y0.983 Z-0.892
X8.496 Y1.03 Z-0.9
X8.282 Y1.24
G3 X7.857 Y1.234 I-0.209 J-0.215
G2 X5.048 Y0.05 I-2.81 J2.741
X5.048 Y7.9 I0 J3.925
X8.973 Y3.975 I0 J-3.925
G1 Y3.963
G2 X7.857 Y1.234 I-3.925 J0.012
G3 X7.863 Y0.81 I0.215 J-0.209
G1 X8.077 Y0.601
X8.125 Y0.554 Z-0.892
X8.171 Y0.51 Z-0.87
X8.211 Y0.47 Z-0.835
X8.245 Y0.437 Z-0.787
X8.271 Y0.412 Z-0.73
X8.287 Y0.396 Z-0.667
X8.292 Y0.391 Z-0.6
G0 Z5
Y-0.391
G1 Z-0.6 F200
X8.287 Y-0.396 Z-0.667 F450
X8.271 Y-0.412 Z-0.73
X8.245 Y-0.437 Z-0.787
X8.211 Y-0.47 Z-0.835
X8.171 Y-0.51 Z-0.87
X8.125 Y-0.554 Z-0.892
X8.077 Y-0.601 Z-0.9
X7.863 Y-0.81
G3 X7.857 Y-1.234 I0.209 J-0.215
G2 X8.973 Y-3.975 I-2.81 J-2.741
X1.123 Y-3.975 I-3.925 J0
X5.048 Y-0.05 I3.925 J0
G1 X5.06
G2 X7.857 Y-1.234 I-0.012 J-3.925
G3 X8.282 Y-1.24 I0.215 J0.209
G1 X8.496 Y-1.03
X8.544 Y-0.983 Z-0.892
X8.59 Y-0.939 Z-0.87
X8.63 Y-0.899 Z-0.835
X8.664 Y-0.866 Z-0.787
X8.69 Y-0.841 Z-0.73
X8.706 Y-0.826 Z-0.667
X8.711 Y-0.821 Z-0.6
G0 Z5
X8.292 Y-0.391
G1 Z-0.7 F200
X8.287 Y-0.396 Z-0.767 F450
X8.271 Y-0.412 Z-0.83
X8.245 Y-0.437 Z-0.887
X8.211 Y-0.47 Z-0.935
X8.171 Y-0.51 Z-0.97
X8.125 Y-0.554 Z-0.992
X8.077 Y-0.601 Z-1
X7.863 Y-0.81
G3 X7.857 Y-1.234 I0.209 J-0.215
G2 X8.973 Y-3.975 I-2.81 J-2.741
X1.123 Y-3.975 I-3.925 J0
X5.048 Y-0.05 I3.925 J0
G1 X5.06
G2 X7.857 Y-1.234 I-0.012 J-3.925
G3 X8.282 Y-1.24 I0.215 J0.209
G1 X8.496 Y-1.03
X8.544 Y-0.983 Z-0.992
X8.59 Y-0.939 Z-0.97
X8.63 Y-0.899 Z-0.935
X8.664 Y-0.866 Z-0.887
X8.69 Y-0.841 Z-0.83
X8.706 Y-0.826 Z-0.767
X8.711 Y-0.821 Z-0.7
G0 Z5
X9.534
G1 Z-0.7 F200
X9.54 Y-0.826 Z-0.767 F450
X9.556 Y-0.841 Z-0.83
X9.581 Y-0.866 Z-0.887
X9.615 Y-0.899 Z-0.935
X9.656 Y-0.939 Z-0.97
X9.701 Y-0.983 Z-0.992
X9.749 Y-1.03 Z-1
X9.964 Y-1.24
G3 X10.388 Y-1.234 I0.209 J0.215
G2 X17.023 Y-3.095 I2.81 J-2.741
X24.673 Y-4.855 I3.825 J-0.88
X17.023 Y-4.855 I-3.825 J0.88
X9.373 Y-3.095 I-3.825 J0.88
X10.388 Y-1.234 I3.825 J-0.88
G3 X10.383 Y-0.81 I-0.215 J0.209
G1 X10.168 Y-0.601
X10.12 Y-0.554 Z-0.992
X10.075 Y-0.51 Z-0.97
X10.034 Y-0.47 Z-0.935
X10 Y-0.437 Z-0.887
X9.975 Y-0.412 Z-0.83
X9.959 Y-0.396 Z-0.767
X9.953 Y-0.391 Z-0.7
G0 Z5
Y0.391
G1 Z-0.7 F200
X9.959 Y0.396 Z-0.767 F450
X9.975 Y0.412 Z-0.83
X10 Y0.437 Z-0.887
X10.034 Y0.47 Z-0.935
X10.075 Y0.51 Z-0.97
X10.12 Y0.554 Z-0.992
X10.168 Y0.601 Z-1
X10.383 Y0.81
G3 X10.388 Y1.234 I-0.209 J0.215
G2 X16.007 Y6.716 I2.81 J2.741
X17.023 Y4.855 I-2.81 J-2.741
X24.673 Y3.095 I3.825 J-0.88
X17.023 Y3.095 I-3.825 J0.88
X10.388 Y1.234 I-3.825 J0.88
G3 X9.964 Y1.24 I-0.215 J-0.209
G1 X9.749 Y1.03
X9.701 Y0.983 Z-0.992
X9.656 Y0.939 Z-0.97
X9.615 Y0.899 Z-0.935
X9.581 Y0.866 Z-0.887
X9.556 Y0.841 Z-0.83
X9.54 Y0.826 Z-0.767
X9.534 Y0.821 Z-0.7
G0 Z5
X8.711
G1 Z-0.7 F200
X8.706 Y0.826 Z-0.767 F450
X8.69 Y0.841 Z-0.83
X8.664 Y0.866 Z-0.887
X8.63 Y0.899 Z-0.935
X8.59 Y0.939 Z-0.97
X8.544 Y0.983 Z-0.992
X8.496 Y1.03 Z-1
X8.282 Y1.24
G3 X7.857 Y1.234 I-0.209 J-0.215
G2 X5.048 Y0.05 I-2.81 J2.741
X5.048 Y7.9 I0 J3.925
X8.973 Y3.975 I0 J-3.925
G1 Y3.963
G2 X7.857 Y1.234 I-3.925 J0.012
G3 X7.863 Y0.81 I0.215 J-0.209
G1 X8.077 Y0.601
X8.125 Y0.554 Z-0.992
X8.171 Y0.51 Z-0.97
X8.211 Y0.47 Z-0.935
X8.245 Y0.437 Z-0.887
X8.271 Y0.412 Z-0.83
X8.287 Y0.396 Z-0.767
X8.292 Y0.391 Z-0.7
G0 Z5
X8.711 Y0.821
G1 Z-0.8 F200
X8.706 Y0.826 Z-0.867 F450
X8.69 Y0.841 Z-0.93
X8.664 Y0.866 Z-0.987
X8.63 Y0.899 Z-1.035
X8.59 Y0.939 Z-1.07
X8.544 Y0.983 Z-1.092
X8.496 Y1.03 Z-1.1
X8.282 Y1.24
G3 X7.857 Y1.234 I-0.209 J-0.215
G2 X5.048 Y0.05 I-2.81 J2.741
X5.048 Y7.9 I0 J3.925
X8.973 Y3.975 I0 J-3.925
G1 Y3.963
G2 X7.857 Y1.234 I-3.925 J0.012
G3 X7.863 Y0.81 I0.215 J-0.209
G1 X8.077 Y0.601
X8.125 Y0.554 Z-1.092
X8.171 Y0.51 Z-1.07
X8.211 Y0.47 Z-1.035
X8.245 Y0.437 Z-0.987
X8.271 Y0.412 Z-0.93
X8.287 Y0.396 Z-0.867
X8.292 Y0.391 Z-0.8
G0 Z5
Y-0.391
G1 Z-0.8 F200
X8.287 Y-0.396 Z-0.867 F450
X8.271 Y-0.412 Z-0.93
X8.245 Y-0.437 Z-0.987
X8.211 Y-0.47 Z-1.035
X8.171 Y-0.51 Z-1.07
X8.125 Y-0.554 Z-1.092
X8.077 Y-0.601 Z-1.1
X7.863 Y-0.81
G3 X7.857 Y-1.234 I0.209 J-0.215
G2 X8.973 Y-3.975 I-2.81 J-2.741
X1.123 Y-3.975 I-3.925 J0
X5.048 Y-0.05 I3.925 J0
G1 X5.06
G2 X7.857 Y-1.234 I-0.012 J-3.925
G3 X8.282 Y-1.24 I0.215 J0.209
G1 X8.496 Y-1.03
X8.544 Y-0.983 Z-1.092
X8.59 Y-0.939 Z-1.07
X8.63 Y-0.899 Z-1.035
X8.664 Y-0.866 Z-0.987
X8.69 Y-0.841 Z-0.93
X8.706 Y-0.826 Z-0.867
X8.711 Y-0.821 Z-0.8
G0 Z5
X9.534
G1 Z-0.8 F200
X9.54 Y-0.826 Z-0.867 F450
X9.556 Y-0.841 Z-0.93
X9.581 Y-0.866 Z-0.987
X9.615 Y-0.899 Z-1.035
X9.656 Y-0.939 Z-1.07
X9.701 Y-0.983 Z-1.092
X9.749 Y-1.03 Z-1.1
X9.964 Y-1.24
G3 X10.388 Y-1.234 I0.209 J0.215
G2 X17.023 Y-3.095 I2.81 J-2.741
X24.673 Y-4.855 I3.825 J-0.88
X17.023 Y-4.855 I-3.825 J0.88
X9.373 Y-3.095 I-3.825 J0.88
X10.388 Y-1.234 I3.825 J-0.88
G3 X10.383 Y-0.81 I-0.215 J0.209
G1 X10.168 Y-0.601
X10.12 Y-0.554 Z-1.092
X10.075 Y-0.51 Z-1.07
X10.034 Y-0.47 Z-1.035
X10 Y-0.437 Z-0.987
X9.975 Y-0.412 Z-0.93
X9.959 Y-0.396 Z-0.867
X9.953 Y-0.391 Z-0.8
G0 Z5
Y0.391
G1 Z-0.8 F200
X9.959 Y0.396 Z-0.867 F450
X9.975 Y0.412 Z-0.93
X10 Y0.437 Z-0.987
X10.034 Y0.47 Z-1.035
X10.075 Y0.51 Z-1.07
X10.12 Y0.554 Z-1.092
X10.168 Y0.601 Z-1.1
X10.383 Y0.81
G3 X10.388 Y1.234 I-0.209 J0.215
G2 X16.007 Y6.716 I2.81 J2.741
X17.023 Y4.855 I-2.81 J-2.741
X24.673 Y3.095 I3.825 J-0.88
X17.023 Y3.095 I-3.825 J0.88
X10.388 Y1.234 I-3.825 J0.88
G3 X9.964 Y1.24 I-0.215 J-0.209
G1 X9.749 Y1.03
X9.701 Y0.983 Z-1.092
X9.656 Y0.939 Z-1.07
X9.615 Y0.899 Z-1.035
X9.581 Y0.866 Z-0.987
X9.556 Y0.841 Z-0.93
X9.54 Y0.826 Z-0.867
X9.534 Y0.821 Z-0.8
G0 Z5
X8.711
G1 Z-0.9 F200
X8.706 Y0.826 Z-0.967 F450
X8.69 Y0.841 Z-1.03
X8.664 Y0.866 Z-1.087
X8.63 Y0.899 Z-1.135
X8.59 Y0.939 Z-1.17
X8.544 Y0.983 Z-1.192
X8.496 Y1.03 Z-1.2
X8.282 Y1.24
G3 X7.857 Y1.234 I-0.209 J-0.215
G2 X5.048 Y0.05 I-2.81 J2.741
X5.048 Y7.9 I0 J3.925
X8.973 Y3.975 I0 J-3.925
G1 Y3.963
G2 X7.857 Y1.234 I-3.925 J0.012
G3 X7.863 Y0.81 I0.215 J-0.209
G1 X8.077 Y0.601
X8.125 Y0.554 Z-1.192
X8.171 Y0.51 Z-1.17
X8.211 Y0.47 Z-1.135
X8.245 Y0.437 Z-1.087
X8.271 Y0.412 Z-1.03
X8.287 Y0.396 Z-0.967
X8.292 Y0.391 Z-0.9
G0 Z5
Y-0.391
G1 Z-0.9 F200
X8.287 Y-0.396 Z-0.967 F450
X8.271 Y-0.412 Z-1.03
X8.245 Y-0.437 Z-1.087
X8.211 Y-0.47 Z-1.135
X8.171 Y-0.51 Z-1.17
X8.125 Y-0.554 Z-1.192
X8.077 Y-0.601 Z-1.2
X7.863 Y-0.81
G3 X7.857 Y-1.234 I0.209 J-0.215
G2 X8.973 Y-3.975 I-2.81 J-2.741
X1.123 Y-3.975 I-3.925 J0
X5.048 Y-0.05 I3.925 J0
G1 X5.06
G2 X7.857 Y-1.234 I-0.012 J-3.925
G3 X8.282 Y-1.24 I0.215 J0.209
G1 X8.496 Y-1.03
X8.544 Y-0.983 Z-1.192
X8.59 Y-0.939 Z-1.17
X8.63 Y-0.899 Z-1.135
X8.664 Y-0.866 Z-1.087
X8.69 Y-0.841 Z-1.03
X8.706 Y-0.826 Z-0.967
X8.711 Y-0.821 Z-0.9
G0 Z5
X25.334
G1 Z-0.8 F200
X25.34 Y-0.826 Z-0.867 F450
X25.356 Y-0.841 Z-0.93
X25.381 Y-0.866 Z-0.987
X25.415 Y-0.899 Z-1.035
X25.456 Y-0.939 Z-1.07
X25.501 Y-0.983 Z-1.092
X25.549 Y-1.03 Z-1.1
X25.764 Y-1.24
G3 X26.188 Y-1.234 I0.209 J0.215
G2 X28.998 Y-0.05 I2.81 J-2.741
G1 X29.01
G2 X32.923 Y-3.975 I-0.012 J-3.925
X25.073 Y-3.975 I-3.925 J0
X26.188 Y-1.234 I3.925 J0
G3 X26.183 Y-0.81 I-0.215 J0.209
G1 X25.968 Y-0.601
X25.92 Y-0.554 Z-1.092
X25.875 Y-0.51 Z-1.07
X25.834 Y-0.47 Z-1.035
X25.8 Y-0.437 Z-0.987
X25.775 Y-0.412 Z-0.93
X25.759 Y-0.396 Z-0.867
X25.753 Y-0.391 Z-0.8
G0 Z5
Y0.391
G1 Z-0.8 F200
X25.759 Y0.396 Z-0.867 F450
X25.775 Y0.412 Z-0.93
X25.8 Y0.437 Z-0.987
X25.834 Y0.47 Z-1.035
X25.875 Y0.51 Z-1.07
X25.92 Y0.554 Z-1.092
X25.968 Y0.601 Z-1.1
X26.183 Y0.81
G3 X26.188 Y1.234 I-0.209 J0.215
G2 X25.073 Y3.975 I2.81 J2.741
G1 Y3.987
G2 X28.998 Y7.9 I3.925 J-0.012
X28.998 Y0.05 I0 J-3.925
X26.188 Y1.234 I0 J3.925
G3 X25.764 Y1.24 I-0.215 J-0.209
G1 X25.549 Y1.03
X25.501 Y0.983 Z-1.092
X25.456 Y0.939 Z-1.07
X25.415 Y0.899 Z-1.035
X25.381 Y0.866 Z-0.987
X25.356 Y0.841 Z-0.93
X25.34 Y0.826 Z-0.867
X25.334 Y0.821 Z-0.8
G0 Z5
X25.753 Y0.391
G1 Z-0.9 F200
X25.759 Y0.396 Z-0.967 F450
X25.775 Y0.412 Z-1.03
X25.8 Y0.437 Z-1.087
X25.834 Y0.47 Z-1.135
X25.875 Y0.51 Z-1.17
X25.92 Y0.554 Z-1.192
X25.968 Y0.601 Z-1.2
X26.183 Y0.81
G3 X26.188 Y1.234 I-0.209 J0.215
G2 X25.073 Y3.975 I2.81 J2.741
G1 Y3.987
G2 X28.998 Y7.9 I3.925 J-0.012
X28.998 Y0.05 I0 J-3.925
X26.188 Y1.234 I0 J3.925
G3 X25.764 Y1.24 I-0.215 J-0.209
G1 X25.549 Y1.03
X25.501 Y0.983 Z-1.192
X25.456 Y0.939 Z-1.17
X25.415 Y0.899 Z-1.135
X25.381 Y0.866 Z-1.087
X25.356 Y0.841 Z-1.03
X25.34 Y0.826 Z-0.967
X25.334 Y0.821 Z-0.9
G0 Z5
X24.511
G1 Z-0.9 F200
X24.506 Y0.826 Z-0.967 F450
X24.49 Y0.841 Z-1.03
X24.464 Y0.866 Z-1.087
X24.43 Y0.899 Z-1.135
X24.39 Y0.939 Z-1.17
X24.344 Y0.983 Z-1.192
X24.296 Y1.03 Z-1.2
X24.082 Y1.24
G3 X23.657 Y1.234 I-0.209 J-0.215
G2 X17.023 Y3.095 I-2.81 J2.741
X9.373 Y4.855 I-3.825 J0.88
X17.023 Y4.855 I3.825 J-0.88
X24.673 Y3.095 I3.825 J-0.88
X23.657 Y1.234 I-3.825 J0.88
G3 X23.663 Y0.81 I0.215 J-0.209
G1 X23.877 Y0.601
X23.925 Y0.554 Z-1.192
X23.971 Y0.51 Z-1.17
X24.011 Y0.47 Z-1.135
X24.045 Y0.437 Z-1.087
X24.071 Y0.412 Z-1.03
X24.087 Y0.396 Z-0.967
X24.092 Y0.391 Z-0.9
G0 Z5
Y-0.391
G1 Z-0.9 F200
X24.087 Y-0.396 Z-0.967 F450
X24.071 Y-0.412 Z-1.03
X24.045 Y-0.437 Z-1.087
X24.011 Y-0.47 Z-1.135
X23.971 Y-0.51 Z-1.17
X23.925 Y-0.554 Z-1.192
X23.877 Y-0.601 Z-1.2
X23.663 Y-0.81
G3 X23.657 Y-1.234 I0.209 J-0.215
G2 X18.038 Y-6.716 I-2.81 J-2.741
X17.023 Y-4.855 I2.81 J2.741
X9.373 Y-3.095 I-3.825 J0.88
X17.023 Y-3.095 I3.825 J-0.88
X23.657 Y-1.234 I3.825 J-0.88
G3 X24.082 Y-1.24 I0.215 J0.209
G1 X24.296 Y-1.03
X24.344 Y-0.983 Z-1.192
X24.39 Y-0.939 Z-1.17
X24.43 Y-0.899 Z-1.135
X24.464 Y-0.866 Z-1.087
X24.49 Y-0.841 Z-1.03
X24.506 Y-0.826 Z-0.967
X24.511 Y-0.821 Z-0.9
G0 Z5
X25.334
G1 Z-0.9 F200
X25.34 Y-0.826 Z-0.967 F450
X25.356 Y-0.841 Z-1.03
X25.381 Y-0.866 Z-1.087
X25.415 Y-0.899 Z-1.135
X25.456 Y-0.939 Z-1.17
X25.501 Y-0.983 Z-1.192
X25.549 Y-1.03 Z-1.2
X25.764 Y-1.24
G3 X26.188 Y-1.234 I0.209 J0.215
G2 X28.998 Y-0.05 I2.81 J-2.741
G1 X29.01
G2 X32.923 Y-3.975 I-0.012 J-3.925
X25.073 Y-3.975 I-3.925 J0
X26.188 Y-1.234 I3.925 J0
G3 X26.183 Y-0.81 I-0.215 J0.209
G1 X25.968 Y-0.601
X25.92 Y-0.554 Z-1.192
X25.875 Y-0.51 Z-1.17
X25.834 Y-0.47 Z-1.135
X25.8 Y-0.437 Z-1.087
X25.775 Y-0.412 Z-1.03
X25.759 Y-0.396 Z-0.967
X25.753 Y-0.391 Z-0.9
G0 Z5
X25.334 Y-0.821
G1 Z-1 F200
X25.34 Y-0.826 Z-1.067 F450
X25.356 Y-0.841 Z-1.13
X25.381 Y-0.866 Z-1.187
X25.415 Y-0.899 Z-1.235
X25.456 Y-0.939 Z-1.27
X25.501 Y-0.983 Z-1.292
X25.549 Y-1.03 Z-1.3
X25.764 Y-1.24
G3 X26.188 Y-1.234 I0.209 J0.215
G2 X28.998 Y-0.05 I2.81 J-2.741
G1 X29.01
G2 X32.923 Y-3.975 I-0.012 J-3.925
X25.073 Y-3.975 I-3.925 J0
X26.188 Y-1.234 I3.925 J0
G3 X26.183 Y-0.81 I-0.215 J0.209
G1 X25.968 Y-0.601
X25.92 Y-0.554 Z-1.292
X25.875 Y-0.51 Z-1.27
X25.834 Y-0.47 Z-1.235
X25.8 Y-0.437 Z-1.187
X25.775 Y-0.412 Z-1.13
X25.759 Y-0.396 Z-1.067
X25.753 Y-0.391 Z-1
G0 Z5
Y0.391
G1 Z-1 F200
X25.759 Y0.396 Z-1.067 F450
X25.775 Y0.412 Z-1.13
X25.8 Y0.437 Z-1.187
X25.834 Y0.47 Z-1.235
X25.875 Y0.51 Z-1.27
X25.92 Y0.554 Z-1.292
X25.968 Y0.601 Z-1.3
X26.183 Y0.81
G3 X26.188 Y1.234 I-0.209 J0.215
G2 X25.073 Y3.975 I2.81 J2.741
G1 Y3.987
G2 X28.998 Y7.9 I3.925 J-0.012
X28.998 Y0.05 I0 J-3.925
X26.188 Y1.234 I0 J3.925
G3 X25.764 Y1.24 I-0.215 J-0.209
G1 X25.549 Y1.03
X25.501 Y0.983 Z-1.292
X25.456 Y0.939 Z-1.27
X25.415 Y0.899 Z-1.235
X25.381 Y0.866 Z-1.187
X25.356 Y0.841 Z-1.13
X25.34 Y0.826 Z-1.067
X25.334 Y0.821 Z-1
G0 Z5
X24.511
G1 Z-1 F200
X24.506 Y0.826 Z-1.067 F450
X24.49 Y0.841 Z-1.13
X24.464 Y0.866 Z-1.187
X24.43 Y0.899 Z-1.235
X24.39 Y0.939 Z-1.27
X24.344 Y0.983 Z-1.292
X24.296 Y1.03 Z-1.3
X24.082 Y1.24
G3 X23.657 Y1.234 I-0.209 J-0.215
G2 X17.023 Y3.095 I-2.81 J2.741
X9.373 Y4.855 I-3.825 J0.88
X17.023 Y4.855 I3.825 J-0.88
X24.673 Y3.095 I3.825 J-0.88
X23.657 Y1.234 I-3.825 J0.88
G3 X23.663 Y0.81 I0.215 J-0.209
G1 X23.877 Y0.601
X23.925 Y0.554 Z-1.292
X23.971 Y0.51 Z-1.27
X24.011 Y0.47 Z-1.235
X24.045 Y0.437 Z-1.187
X24.071 Y0.412 Z-1.13
X24.087 Y0.396 Z-1.067
X24.092 Y0.391 Z-1
G0 Z5
Y-0.391
G1 Z-1 F200
X24.087 Y-0.396 Z-1.067 F450
X24.071 Y-0.412 Z-1.13
X24.045 Y-0.437 Z-1.187
X24.011 Y-0.47 Z-1.235
X23.971 Y-0.51 Z-1.27
X23.925 Y-0.554 Z-1.292
X23.877 Y-0.601 Z-1.3
X23.663 Y-0.81
G3 X23.657 Y-1.234 I0.209 J-0.215
G2 X18.038 Y-6.716 I-2.81 J-2.741
X17.023 Y-4.855 I2.81 J2.741
X9.373 Y-3.095 I-3.825 J0.88
X17.023 Y-3.095 I3.825 J-0.88
X23.657 Y-1.234 I3.825 J-0.88
G3 X24.082 Y-1.24 I0.215 J0.209
G1 X24.296 Y-1.03
X24.344 Y-0.983 Z-1.292
X24.39 Y-0.939 Z-1.27
X24.43 Y-0.899 Z-1.235
X24.464 Y-0.866 Z-1.187
X24.49 Y-0.841 Z-1.13
X24.506 Y-0.826 Z-1.067
X24.511 Y-0.821 Z-1
G0 Z5
X25.334
G1 Z-1.05 F200
X25.34 Y-0.826 Z-1.117 F450
X25.356 Y-0.841 Z-1.18
X25.381 Y-0.866 Z-1.237
X25.415 Y-0.899 Z-1.285
X25.456 Y-0.939 Z-1.32
X25.501 Y-0.983 Z-1.342
X25.549 Y-1.03 Z-1.35
X25.764 Y-1.24
G3 X26.188 Y-1.234 I0.209 J0.215
G2 X28.998 Y-0.05 I2.81 J-2.741
G1 X29.01
G2 X32.923 Y-3.975 I-0.012 J-3.925
X25.073 Y-3.975 I-3.925 J0
X26.188 Y-1.234 I3.925 J0
G3 X26.183 Y-0.81 I-0.215 J0.209
G1 X25.968 Y-0.601
X25.92 Y-0.554 Z-1.342
X25.875 Y-0.51 Z-1.32
X25.834 Y-0.47 Z-1.285
X25.8 Y-0.437 Z-1.237
X25.775 Y-0.412 Z-1.18
X25.759 Y-0.396 Z-1.117
X25.753 Y-0.391 Z-1.05
G0 Z5
Y0.391
G1 Z-1.05 F200
X25.759 Y0.396 Z-1.117 F450
X25.775 Y0.412 Z-1.18
X25.8 Y0.437 Z-1.237
X25.834 Y0.47 Z-1.285
X25.875 Y0.51 Z-1.32
X25.92 Y0.554 Z-1.342
X25.968 Y0.601 Z-1.35
X26.183 Y0.81
G3 X26.188 Y1.234 I-0.209 J0.215
G2 X25.073 Y3.975 I2.81 J2.741
G1 Y3.987
G2 X28.998 Y7.9 I3.925 J-0.012
X28.998 Y0.05 I0 J-3.925
X26.188 Y1.234 I0 J3.925
G3 X25.764 Y1.24 I-0.215 J-0.209
G1 X25.549 Y1.03
X25.501 Y0.983 Z-1.342
X25.456 Y0.939 Z-1.32
X25.415 Y0.899 Z-1.285
X25.381 Y0.866 Z-1.237
X25.356 Y0.841 Z-1.18
X25.34 Y0.826 Z-1.117
X25.334 Y0.821 Z-1.05
G0 Z5
X8.711
G1 Z-1 F200
X8.706 Y0.826 Z-1.067 F450
X8.69 Y0.841 Z-1.13
X8.664 Y0.866 Z-1.187
X8.63 Y0.899 Z-1.235
X8.59 Y0.939 Z-1.27
X8.544 Y0.983 Z-1.292
X8.496 Y1.03 Z-1.3
X8.282 Y1.24
G3 X7.857 Y1.234 I-0.209 J-0.215
G2 X5.048 Y0.05 I-2.81 J2.741
X5.048 Y7.9 I0 J3.925
X8.973 Y3.975 I0 J-3.925
G1 Y3.963
G2 X7.857 Y1.234 I-3.925 J0.012
G3 X7.863 Y0.81 I0.215 J-0.209
G1 X8.077 Y0.601
X8.125 Y0.554 Z-1.292
X8.171 Y0.51 Z-1.27
X8.211 Y0.47 Z-1.235
X8.245 Y0.437 Z-1.187
X8.271 Y0.412 Z-1.13
X8.287 Y0.396 Z-1.067
X8.292 Y0.391 Z-1
G0 Z5
Y-0.391
G1 Z-1 F200
X8.287 Y-0.396 Z-1.067 F450
X8.271 Y-0.412 Z-1.13
X8.245 Y-0.437 Z-1.187
X8.211 Y-0.47 Z-1.235
X8.171 Y-0.51 Z-1.27
X8.125 Y-0.554 Z-1.292
X8.077 Y-0.601 Z-1.3
X7.863 Y-0.81
G3 X7.857 Y-1.234 I0.209 J-0.215
G2 X8.973 Y-3.975 I-2.81 J-2.741
X1.123 Y-3.975 I-3.925 J0
X5.048 Y-0.05 I3.925 J0
G1 X5.06
G2 X7.857 Y-1.234 I-0.012 J-3.925
G3 X8.282 Y-1.24 I0.215 J0.209
G1 X8.496 Y-1.03
X8.544 Y-0.983 Z-1.292
X8.59 Y-0.939 Z-1.27
X8.63 Y-0.899 Z-1.235
X8.664 Y-0.866 Z-1.187
X8.69 Y-0.841 Z-1.13
X8.706 Y-0.826 Z-1.067
X8.711 Y-0.821 Z-1
G0 Z5
X8.292 Y-0.391
G1 Z-1.05 F200
X8.287 Y-0.396 Z-1.117 F450
X8.271 Y-0.412 Z-1.18
X8.245 Y-0.437 Z-1.237
X8.211 Y-0.47 Z-1.285
X8.171 Y-0.51 Z-1.32
X8.125 Y-0.554 Z-1.342
X8.077 Y-0.601 Z-1.35
X7.863 Y-0.81
G3 X7.857 Y-1.234 I0.209 J-0.215
G2 X8.973 Y-3.975 I-2.81 J-2.741
X1.123 Y-3.975 I-3.925 J0
X5.048 Y-0.05 I3.925 J0
G1 X5.06
G2 X7.857 Y-1.234 I-0.012 J-3.925
G3 X8.282 Y-1.24 I0.215 J0.209
G1 X8.496 Y-1.03
X8.544 Y-0.983 Z-1.342
X8.59 Y-0.939 Z-1.32
X8.63 Y-0.899 Z-1.285
X8.664 Y-0.866 Z-1.237
X8.69 Y-0.841 Z-1.18
X8.706 Y-0.826 Z-1.117
X8.711 Y-0.821 Z-1.05
G0 Z5
X9.534
G1 Z-1.05 F200
X9.54 Y-0.826 Z-1.117 F450
X9.556 Y-0.841 Z-1.18
X9.581 Y-0.866 Z-1.237
X9.615 Y-0.899 Z-1.285
X9.656 Y-0.939 Z-1.32
X9.701 Y-0.983 Z-1.342
X9.749 Y-1.03 Z-1.35
X9.964 Y-1.24
G3 X10.388 Y-1.234 I0.209 J0.215
G2 X17.023 Y-3.095 I2.81 J-2.741
X24.673 Y-4.855 I3.825 J-0.88
X17.023 Y-4.855 I-3.825 J0.88
X9.373 Y-3.095 I-3.825 J0.88
X10.388 Y-1.234 I3.825 J-0.88
G3 X10.383 Y-0.81 I-0.215 J0.209
G1 X10.168 Y-0.601
X10.12 Y-0.554 Z-1.342
X10.075 Y-0.51 Z-1.32
X10.034 Y-0.47 Z-1.285
X10 Y-0.437 Z-1.237
X9.975 Y-0.412 Z-1.18
X9.959 Y-0.396 Z-1.117
X9.953 Y-0.391 Z-1.05
G0 Z5
Y0.391
G1 Z-1.05 F200
X9.959 Y0.396 Z-1.117 F450
X9.975 Y0.412 Z-1.18
X10 Y0.437 Z-1.237
X10.034 Y0.47 Z-1.285
X10.075 Y0.51 Z-1.32
X10.12 Y0.554 Z-1.342
X10.168 Y0.601 Z-1.35
X10.383 Y0.81
G3 X10.388 Y1.234 I-0.209 J0.215
G2 X16.007 Y6.716 I2.81 J2.741
X17.023 Y4.855 I-2.81 J-2.741
X24.673 Y3.095 I3.825 J-0.88
X17.023 Y3.095 I-3.825 J0.88
X10.388 Y1.234 I-3.825 J0.88
G3 X9.964 Y1.24 I-0.215 J-0.209
G1 X9.749 Y1.03
X9.701 Y0.983 Z-1.342
X9.656 Y0.939 Z-1.32
X9.615 Y0.899 Z-1.285
X9.581 Y0.866 Z-1.237
X9.556 Y0.841 Z-1.18
X9.54 Y0.826 Z-1.117
X9.534 Y0.821 Z-1.05
G0 Z5
X8.711
G1 Z-1.05 F200
X8.706 Y0.826 Z-1.117 F450
X8.69 Y0.841 Z-1.18
X8.664 Y0.866 Z-1.237
X8.63 Y0.899 Z-1.285
X8.59 Y0.939 Z-1.32
X8.544 Y0.983 Z-1.342
X8.496 Y1.03 Z-1.35
X8.282 Y1.24
G3 X7.857 Y1.234 I-0.209 J-0.215
G2 X5.048 Y0.05 I-2.81 J2.741
X5.048 Y7.9 I0 J3.925
X8.973 Y3.975 I0 J-3.925
G1 Y3.963
G2 X7.857 Y1.234 I-3.925 J0.012
G3 X7.863 Y0.81 I0.215 J-0.209
G1 X8.077 Y0.601
X8.125 Y0.554 Z-1.342
X8.171 Y0.51 Z-1.32
X8.211 Y0.47 Z-1.285
X8.245 Y0.437 Z-1.237
X8.271 Y0.412 Z-1.18
X8.287 Y0.396 Z-1.117
X8.292 Y0.391 Z-1.05
G0 Z15
M9
M5
M30
