(1001)
(Machine)
(  vendor: Autodesk)
(  description: Generic 3-axis)
(T3  D=3.1 CR=0 - ZMIN=-1.5 - flat end mill)
G90 G94
G17
G21

(2D Contour1)
T3
S1000 M3
G54
M8
G0 X84.82 Y11.565
Z15
Z5
G1 Z1 F200
Z-1.19
G18 G2 X85.13 Z-1.5 I0.31 K0 F450
G1 X85.44
G17 G3 X85.75 Y11.875 I0 J0.31
X84 Y11.875 I-0.875 J0
X85.75 Y11.875 I0.875 J0
X85.44 Y12.185 I-0.31 J0
G1 X85.13
G18 G3 X84.82 Z-1.19 I0 K0.31
G0 Z5
X92.47 Y11.565
G1 Z1 F200
Z-1.19
G2 X92.78 Z-1.5 I0.31 K0 F450
G1 X93.09
G17 G3 X93.4 Y11.875 I0 J0.31
X91.65 Y11.875 I-0.875 J0
X93.4 Y11.875 I0.875 J0
X93.09 Y12.185 I-0.31 J0
G1 X92.78
G18 G3 X92.47 Z-1.19 I0 K0.31
G0 Z5
X100.62 Y11.565
G1 Z1 F200
Z-1.19
G2 X100.93 Z-1.5 I0.31 K0 F450
G1 X101.24
G17 G3 X101.55 Y11.875 I0 J0.31
X99.8 Y11.875 I-0.875 J0
X101.55 Y11.875 I0.875 J0
X101.24 Y12.185 I-0.31 J0
G1 X100.93
G18 G3 X100.62 Z-1.19 I0 K0.31
G0 Z5
X100.628 Y3.614
G1 Z1 F200
Z-1.19
X100.635 Z-1.259 F450
X100.658 Z-1.325
X100.695 Y3.615 Z-1.383
X100.744 Y3.617 Z-1.432
X100.803 Y3.618 Z-1.469
X100.869 Y3.62 Z-1.492
X100.938 Y3.621 Z-1.5
X101.247 Y3.629
G17 G3 X101.55 Y3.946 I-0.008 J0.31
X99.8 Y3.904 I-0.875 J-0.021
X101.55 Y3.946 I0.875 J0.021
X101.232 Y4.249 I-0.31 J-0.008
G1 X100.922 Y4.241
X100.853 Y4.239 Z-1.492
X100.788 Y4.238 Z-1.469
X100.729 Y4.236 Z-1.432
X100.68 Y4.235 Z-1.383
X100.643 Y4.234 Z-1.325
X100.62 Z-1.259
X100.612 Z-1.19
G0 Z5
X92.478 Y3.614
G1 Z1 F200
Z-1.19
X92.485 Z-1.259 F450
X92.508 Z-1.325
X92.545 Y3.615 Z-1.383
X92.594 Y3.617 Z-1.432
X92.653 Y3.618 Z-1.469
X92.719 Y3.62 Z-1.492
X92.788 Y3.621 Z-1.5
X93.097 Y3.629
G3 X93.4 Y3.946 I-0.008 J0.31
X91.65 Y3.904 I-0.875 J-0.021
X93.4 Y3.946 I0.875 J0.021
X93.082 Y4.249 I-0.31 J-0.008
G1 X92.772 Y4.241
X92.703 Y4.239 Z-1.492
X92.638 Y4.238 Z-1.469
X92.579 Y4.236 Z-1.432
X92.53 Y4.235 Z-1.383
X92.493 Y4.234 Z-1.325
X92.47 Z-1.259
X92.462 Z-1.19
G0 Z5
X84.828 Y3.614
G1 Z1 F200
Z-1.19
X84.835 Z-1.259 F450
X84.858 Z-1.325
X84.895 Y3.615 Z-1.383
X84.944 Y3.617 Z-1.432
X85.003 Y3.618 Z-1.469
X85.069 Y3.62 Z-1.492
X85.138 Y3.621 Z-1.5
X85.447 Y3.629
G3 X85.75 Y3.946 I-0.008 J0.31
X84 Y3.904 I-0.875 J-0.021
X85.75 Y3.946 I0.875 J0.021
X85.432 Y4.249 I-0.31 J-0.008
G1 X85.122 Y4.241
X85.053 Y4.239 Z-1.492
X84.988 Y4.238 Z-1.469
X84.929 Y4.236 Z-1.432
X84.88 Y4.235 Z-1.383
X84.843 Y4.234 Z-1.325
X84.82 Z-1.259
X84.812 Z-1.19
G0 Z5
X76.67 Y3.615
G1 Z1 F200
Z-1.19
G18 G2 X76.98 Z-1.5 I0.31 K0 F450
G1 X77.29
G17 G3 X77.6 Y3.925 I0 J0.31
X75.85 Y3.925 I-0.875 J0
X77.6 Y3.925 I0.875 J0
X77.29 Y4.235 I-0.31 J0
G1 X76.98
G18 G3 X76.67 Z-1.19 I0 K0.31
G0 Z5
X76.678 Y11.564
G1 Z1 F200
Z-1.19
X76.685 Z-1.259 F450
X76.708 Z-1.325
X76.745 Y11.565 Z-1.383
X76.794 Y11.567 Z-1.432
X76.853 Y11.568 Z-1.469
X76.919 Y11.57 Z-1.492
X76.988 Y11.571 Z-1.5
X77.297 Y11.579
G17 G3 X77.6 Y11.896 I-0.008 J0.31
X75.85 Y11.854 I-0.875 J-0.021
X77.6 Y11.896 I0.875 J0.021
X77.282 Y12.199 I-0.31 J-0.008
G1 X76.972 Y12.191
X76.903 Y12.189 Z-1.492
X76.838 Y12.188 Z-1.469
X76.779 Y12.186 Z-1.432
X76.73 Y12.185 Z-1.383
X76.693 Y12.184 Z-1.325
X76.67 Z-1.259
X76.662 Z-1.19
G0 Z15
M9
M5
M30
