(1001)
(Machine)
(  vendor: Autodesk)
(  description: Generic 3-axis)
(T3  D=3 CR=0 - ZMIN=-8.35 - flat end mill)
G90 G94
G17
G21

(Drill1)
T3
S1 M3
G54
M8
G0 X40.62 Y26.685
Z15
Z5
G1 Z0 F200
G0 Z5
Y-2.631
G1 Z0 F200
G0 Z5
X16.918 Y-26.685
G1 Z0 F200
G0 Z5
X-16.918
G1 Z0 F200
G0 Z5
X-40.62 Y-2.631
G1 Z0 F200
G0 Z5
Y26.685
G1 Z0 F200
G0 Z5
Z15

(2D Adaptive2)
S1000 M3
X-26.752 Y30.049
Z15
Z5
Z-0.1
G1 Z-0.4 F200
X-26.756 Y30.043 Z-0.467
X-26.767 Y30.024 Z-0.53
X-26.785 Y29.993 Z-0.587
X-26.809 Y29.952 Z-0.635
X-26.839 Y29.903 Z-0.67
X-26.871 Y29.849 Z-0.692
X-26.905 Y29.791 Z-0.7
G3 X-27.37 Y28.208 I2.858 J-1.699
G1 Y28.037
X-27.368 Y27.999
X-27.28 Y27.878
X-27.174 Y27.771
X-27.058 Y27.677
X-26.933 Y27.593
X-26.803 Y27.518
X-26.669 Y27.451
X-26.531 Y27.392
X-26.391 Y27.339
X-26.249 Y27.291
X-26.105 Y27.249
X-25.96 Y27.211
X-25.814 Y27.176
X-25.667 Y27.146
X-25.519 Y27.118
X-25.371 Y27.094
X-25.223 Y27.072
X-25.074 Y27.052
X-24.925 Y27.034
X-24.776 Y27.018
X-24.627 Y27.004
X-24.478 Y26.991
X-24.328 Y26.979
X-24.172 Y26.969
X-23.998 Y26.958
X-23.799 Y26.947
X-23.57 Y26.936
X-23.298 Y26.925
X-22.964 Y26.914
X-22.532 Y26.904
X-21.923 Y26.893
X-21.299 Y26.886
X-20.675 Y26.882
X-19.427 Y26.879
X-16.697 Y26.877
X-16.229
X-16.077 Y26.843
X-15.936 Y26.775
X-15.814 Y26.678
X-15.716 Y26.557
X-15.648 Y26.417
X-15.612 Y26.265
X-15.611 Y26.109
X-15.644 Y25.956
X-15.91 Y25.392
X-16.139 Y25.067
X-16.449 Y24.621
X-16.801 Y24.106
X-17.151 Y23.589
X-17.409 Y23.206
X-17.491 Y23.08
X-17.571 Y22.954
X-17.65 Y22.826
X-17.728 Y22.698
X-17.804 Y22.569
X-17.88 Y22.439
X-17.961 Y22.297
X-18.051 Y22.137
X-18.152 Y21.952
X-18.269 Y21.736
X-18.408 Y21.476
X-18.579 Y21.15
X-18.738 Y20.839
X-18.806 Y20.705
X-18.872 Y20.57
X-18.935 Y20.434
X-18.997 Y20.298
X-19.058 Y20.16
X-19.117 Y20.022
X-19.174 Y19.884
X-19.233 Y19.742
X-19.297 Y19.582
X-19.368 Y19.4
X-19.448 Y19.189
X-19.542 Y18.94
X-19.653 Y18.635
X-19.79 Y18.254
X-19.84 Y18.112
X-19.887 Y17.97
X-19.932 Y17.827
X-19.976 Y17.683
X-20.017 Y17.539
X-20.058 Y17.395
X-20.097 Y17.25
X-20.134 Y17.105
X-20.175 Y16.943
X-20.22 Y16.759
X-20.27 Y16.548
X-20.327 Y16.3
X-20.394 Y16
X-20.475 Y15.62
X-20.505 Y15.473
X-20.535 Y15.326
X-20.561 Y15.178
X-20.586 Y15.03
X-20.609 Y14.882
X-20.631 Y14.734
X-20.651 Y14.585
X-20.67 Y14.436
X-20.688 Y14.281
X-20.707 Y14.107
X-20.727 Y13.909
X-20.749 Y13.68
X-20.773 Y13.409
X-20.8 Y13.075
X-20.825 Y12.728
X-20.835 Y12.579
X-20.843 Y12.429
X-20.848 Y12.279
X-20.851 Y12.129
X-20.853 Y11.979
X-20.854 Y11.829
X-20.852 Y11.679
X-20.85 Y11.528
X-20.846 Y11.36
X-20.841 Y11.17
X-20.832 Y10.951
X-20.821 Y10.694
X-20.805 Y10.383
X-20.781 Y9.988
X-20.771 Y9.839
X-20.76 Y9.689
X-20.746 Y9.54
X-20.73 Y9.391
X-20.712 Y9.242
X-20.693 Y9.093
X-20.672 Y8.944
X-20.65 Y8.796
X-20.626 Y8.638
X-20.597 Y8.461
X-20.563 Y8.259
X-20.521 Y8.025
X-20.469 Y7.746
X-20.402 Y7.401
X-20.347 Y7.125
X-20.316 Y6.979
X-20.283 Y6.832
X-20.248 Y6.686
X-20.212 Y6.541
X-20.173 Y6.396
X-20.133 Y6.251
X-20.092 Y6.107
X-20.049 Y5.961
X-20 Y5.798
X-19.943 Y5.613
X-19.876 Y5.402
X-19.794 Y5.153
X-19.693 Y4.851
X-19.562 Y4.467
X-19.512 Y4.325
X-19.461 Y4.185
X-19.407 Y4.045
X-19.351 Y3.905
X-19.294 Y3.767
X-19.235 Y3.628
X-19.175 Y3.491
X-19.114 Y3.354
X-19.046 Y3.203
X-18.967 Y3.034
X-18.876 Y2.84
X-18.767 Y2.614
X-18.634 Y2.342
X-18.464 Y2.002
X-18.386 Y1.848
X-18.317 Y1.715
X-18.246 Y1.583
X-18.173 Y1.452
X-18.099 Y1.322
X-18.023 Y1.192
X-17.946 Y1.064
X-17.868 Y0.936
X-17.786 Y0.804
X-17.693 Y0.658
X-17.587 Y0.492
X-17.463 Y0.302
X-17.314 Y0.078
X-17.13 Y-0.194
X-16.92 Y-0.5
X-16.835 Y-0.623
X-16.747 Y-0.745
X-16.658 Y-0.865
X-16.567 Y-0.985
X-16.475 Y-1.103
X-16.381 Y-1.22
X-16.287 Y-1.337
X-16.191 Y-1.453
X-16.083 Y-1.582
X-15.961 Y-1.726
X-15.819 Y-1.891
X-15.65 Y-2.083
X-15.445 Y-2.314
X-15.183 Y-2.605
X-15.082 Y-2.715
X-14.979 Y-2.825
X-14.876 Y-2.933
X-14.77 Y-3.04
X-14.664 Y-3.146
X-14.556 Y-3.25
X-14.447 Y-3.353
X-14.337 Y-3.455
X-14.221 Y-3.562
X-14.09 Y-3.681
X-13.939 Y-3.815
X-13.764 Y-3.969
X-13.554 Y-4.151
X-13.294 Y-4.373
X-13.051 Y-4.577
X-12.935 Y-4.673
X-12.818 Y-4.767
X-12.7 Y-4.859
X-12.58 Y-4.95
X-12.46 Y-5.039
X-12.338 Y-5.127
X-12.216 Y-5.214
X-12.092 Y-5.301
X-11.953 Y-5.397
X-11.794 Y-5.505
X-11.611 Y-5.627
X-11.394 Y-5.77
X-11.13 Y-5.941
X-10.792 Y-6.155
X-10.665 Y-6.235
X-10.537 Y-6.313
X-10.408 Y-6.389
X-10.277 Y-6.463
X-9.711 Y-6.726
X-9.142 Y-6.981
X-8.571 Y-7.232
X-7.999 Y-7.481
X-7.42 Y-7.716
X-6.831 Y-7.921
X-6.237 Y-8.109
X-5.639 Y-8.289
X-5.04 Y-8.462
X-4.431 Y-8.601
X-3.818 Y-8.716
X-3.202 Y-8.818
X-2.586 Y-8.912
X-1.966 Y-8.987
X-1.344 Y-9.03
X-0.72 Y-9.054
X-0.096 Y-9.068
X0.527 Y-9.076
X1.151 Y-9.047
X1.772 Y-8.994
X2.393 Y-8.928
X3.012 Y-8.855
X3.629 Y-8.761
X4.24 Y-8.636
X4.848 Y-8.492
X5.453 Y-8.339
X6.056 Y-8.181
X6.649 Y-7.986
X7.234 Y-7.769
X7.814 Y-7.539
X8.392 Y-7.303
X8.961 Y-7.047
X9.516 Y-6.763
X10.063 Y-6.463
X10.605 Y-6.154
X11.145 Y-5.841
X11.663 Y-5.494
X12.169 Y-5.128
X12.667 Y-4.752
X13.161 Y-4.371
X13.64 Y-3.972
X14.1 Y-3.549
X14.547 Y-3.114
X14.987 Y-2.672
X15.423 Y-2.226
X15.83 Y-1.753
X16.219 Y-1.265
X16.599 Y-0.77
X16.973 Y-0.27
X17.328 Y0.243
X17.658 Y0.772
X17.972 Y1.311
X18.278 Y1.855
X18.579 Y2.401
X18.845 Y2.966
X19.09 Y3.54
X19.323 Y4.118
X19.55 Y4.7
X19.755 Y5.289
X19.931 Y5.888
X20.091 Y6.491
X20.241 Y7.096
X20.384 Y7.704
X20.489 Y8.319
X20.572 Y8.937
X20.643 Y9.557
X20.706 Y10.178
X20.746 Y10.8
X20.756 Y11.424
X20.748 Y12.048
X20.731 Y12.672
X20.706 Y13.295
X20.643 Y13.916
X20.558 Y14.534
X20.461 Y15.151
X20.357 Y15.766
X20.228 Y16.376
X20.07 Y16.98
X19.897 Y17.579
X19.714 Y18.176
X19.523 Y18.77
X19.454 Y18.987
X19.407 Y19.13
X19.357 Y19.271
X19.306 Y19.412
X19.254 Y19.553
X19.2 Y19.693
X19.144 Y19.832
X19.085 Y19.98
X19.016 Y20.145
X18.937 Y20.332
X18.844 Y20.55
X18.752 Y20.757
X18.691 Y20.894
X18.627 Y21.03
X18.562 Y21.164
X18.494 Y21.298
X18.425 Y21.431
X18.354 Y21.564
X18.282 Y21.695
X18.209 Y21.826
X18.132 Y21.961
X18.045 Y22.111
X17.946 Y22.28
X17.829 Y22.475
X17.689 Y22.704
X17.517 Y22.983
X17.371 Y23.214
X17.29 Y23.34
X17.207 Y23.465
X17.123 Y23.589
X17.037 Y23.712
X16.949 Y23.834
X16.86 Y23.955
X16.771 Y24.075
X16.679 Y24.195
X16.577 Y24.327
X16.46 Y24.476
X16.324 Y24.647
X16.164 Y24.845
X15.968 Y25.084
X15.654 Y25.458
X15.583 Y25.597
X15.543 Y25.748
X15.539 Y25.904
X15.569 Y26.057
X15.632 Y26.199
X15.725 Y26.325
X15.843 Y26.426
X16.119 Y26.571
X16.73 Y26.698
X17.35 Y26.772
X17.972 Y26.816
X18.596 Y26.842
X19.219 Y26.856
X19.843 Y26.865
X20.467 Y26.87
X21.091 Y26.873
X22.339 Y26.876
X26.083 Y26.877
X26.67
X26.886 Y26.911
X27.081 Y27.011
X27.236 Y27.166
X27.336 Y27.361
X27.37 Y27.577
G0 Z5
X-26.995 Y29.048
Z-0.1
G1 Z-0.4 F200
X-26.999 Y29.042 Z-0.467
X-27.011 Y29.022 Z-0.53
X-27.029 Y28.992 Z-0.587
X-27.053 Y28.951 Z-0.635
X-27.082 Y28.902 Z-0.67
X-27.115 Y28.847 Z-0.692
X-27.149 Y28.79 Z-0.7
G3 X-27.37 Y28.037 I1.36 J-0.809
G1 Y27.606
X-27.362 Y27.456
X-27.303 Y27.319
X-27.227 Y27.189
X-27.138 Y27.069
X-27.037 Y26.955
X-26.911 Y26.835
X-26.759 Y26.711
X-26.571 Y26.582
X-26.34 Y26.449
X-26.052 Y26.312
X-25.685 Y26.174
X-25.199 Y26.033
X-24.588 Y25.909
X-23.969 Y25.828
X-23.347 Y25.774
X-22.724 Y25.739
X-22.101 Y25.717
X-21.477 Y25.702
X-20.853 Y25.693
X-20.229 Y25.687
X-19.371 Y25.682
X-19.215
X-19.063 Y25.647
X-18.923 Y25.579
X-18.801 Y25.482
X-18.704 Y25.36
X-18.636 Y25.219
X-18.565 Y24.915
X-18.626 Y24.294
X-18.793 Y23.693
X-19.017 Y23.111
X-19.269 Y22.54
X-19.535 Y21.976
X-19.798 Y21.41
X-20.052 Y20.84
X-20.293 Y20.264
X-20.523 Y19.684
X-20.742 Y19.1
X-20.943 Y18.51
X-21.125 Y17.913
X-21.29 Y17.311
X-21.441 Y16.706
X-21.578 Y16.097
X-21.694 Y15.484
X-21.791 Y14.867
X-21.87 Y14.249
X-21.935 Y13.628
X-21.985 Y13.006
X-22.013 Y12.383
X-22.021 Y11.759
X-22.013 Y11.135
X-21.991 Y10.511
X-21.951 Y9.889
X-21.89 Y9.268
X-21.81 Y8.649
X-21.715 Y8.032
X-21.606 Y7.418
X-21.478 Y6.807
X-21.329 Y6.201
X-21.163 Y5.6
X-20.982 Y5.003
X-20.788 Y4.41
X-20.574 Y3.824
X-20.341 Y3.245
X-20.091 Y2.673
X-19.829 Y2.107
X-19.552 Y1.548
X-19.257 Y0.998
X-18.944 Y0.458
X-18.617 Y-0.073
X-18.279 Y-0.597
X-17.926 Y-1.112
X-17.555 Y-1.614
X-17.169 Y-2.104
X-16.771 Y-2.584
X-16.362 Y-3.056
X-15.939 Y-3.514
X-15.501 Y-3.959
X-15.05 Y-4.389
X-14.588 Y-4.809
X-14.117 Y-5.219
X-13.633 Y-5.613
X-13.136 Y-5.99
X-12.629 Y-6.353
X-12.114 Y-6.705
X-11.59 Y-7.043
X-11.047 Y-7.352
X-10.493 Y-7.639
X-9.932 Y-7.911
X-9.366 Y-8.173
X-8.795 Y-8.425
X-8.217 Y-8.662
X-7.633 Y-8.88
X-7.043 Y-9.084
X-6.45 Y-9.276
X-5.851 Y-9.453
X-5.247 Y-9.61
X-4.639 Y-9.748
X-4.027 Y-9.869
X-3.412 Y-9.976
X-2.795 Y-10.068
X-2.175 Y-10.138
X-1.553 Y-10.188
X-0.93 Y-10.222
X-0.306 Y-10.245
X0.317 Y-10.246
X0.941 Y-10.226
X1.564 Y-10.187
X2.185 Y-10.133
X2.806 Y-10.065
X3.423 Y-9.977
X4.038 Y-9.868
X4.649 Y-9.742
X5.257 Y-9.603
X5.862 Y-9.449
X6.46 Y-9.273
X7.053 Y-9.078
X7.64 Y-8.867
X8.223 Y-8.644
X8.799 Y-8.404
X9.366 Y-8.145
X9.925 Y-7.868
X10.477 Y-7.577
X11.024 Y-7.276
X11.56 Y-6.956
X12.084 Y-6.617
X12.597 Y-6.263
X13.103 Y-5.898
X13.6 Y-5.52
X14.083 Y-5.126
X14.554 Y-4.716
X15.013 Y-4.294
X15.464 Y-3.862
X15.903 Y-3.418
X16.326 Y-2.96
X16.733 Y-2.487
X17.128 Y-2.005
X17.513 Y-1.513
X17.883 Y-1.011
X18.236 Y-0.496
X18.573 Y0.029
X18.896 Y0.562
X19.21 Y1.102
X19.505 Y1.652
X19.78 Y2.212
X20.038 Y2.78
X20.284 Y3.353
X20.515 Y3.933
X20.727 Y4.52
X20.92 Y5.113
X21.096 Y5.712
X21.26 Y6.314
X21.408 Y6.92
X21.534 Y7.531
X21.641 Y8.146
X21.731 Y8.763
X21.808 Y9.382
X21.867 Y10.003
X21.905 Y10.626
X21.923 Y11.25
X21.926 Y11.874
X21.917 Y12.498
X21.887 Y13.121
X21.834 Y13.742
X21.763 Y14.362
X21.679 Y14.981
X21.579 Y15.596
X21.459 Y16.209
X21.318 Y16.817
X21.162 Y17.421
X20.992 Y18.021
X20.814 Y18.619
X20.622 Y19.213
X20.412 Y19.8
X20.187 Y20.382
X19.945 Y20.957
X19.682 Y21.523
X19.398 Y22.079
X19.098 Y22.626
X18.784 Y23.165
X18.456 Y23.696
X18.369 Y23.825
X18.281 Y23.954
X18.224 Y24.099
X18.201 Y24.254
X18.212 Y24.409
X18.258 Y24.558
X18.335 Y24.694
X18.546 Y24.924
X19.094 Y25.223
X19.69 Y25.407
X20.304 Y25.518
X20.924 Y25.584
X21.547 Y25.623
X22.171 Y25.645
X22.794 Y25.659
X23.418 Y25.666
X24.042 Y25.671
X24.666 Y25.673
X25.907 Y25.677
X26.208 Y25.702
X26.485 Y25.748
X26.686 Y25.798
X26.889 Y25.866
X26.946 Y25.891
X27.119 Y25.997
X27.254 Y26.149
X27.34 Y26.333
X27.37 Y26.534
Y26.628
G0 Z5
X-26.995 Y28.618
Z-0.1
G1 Z-0.4 F200
X-26.999 Y28.611 Z-0.467
X-27.011 Y28.592 Z-0.53
X-27.029 Y28.561 Z-0.587
X-27.053 Y28.521 Z-0.635
X-27.082 Y28.472 Z-0.67
X-27.115 Y28.417 Z-0.692
X-27.149 Y28.36 Z-0.7
G3 X-27.37 Y27.606 I1.36 J-0.809
G1 Y26.933
X-27.362 Y26.783
X-27.329 Y26.637
X-27.276 Y26.496
X-27.209 Y26.362
X-27.13 Y26.235
X-27.031 Y26.101
X-26.908 Y25.961
X-26.762 Y25.819
X-26.57 Y25.66
X-26.36 Y25.514
X-26.077 Y25.347
X-25.76 Y25.195
X-25.342 Y25.033
X-24.811 Y24.875
X-24.2 Y24.746
X-23.583 Y24.657
X-22.962 Y24.597
X-22.339 Y24.557
X-21.716 Y24.53
X-21.56 Y24.525
X-21.409 Y24.486
X-21.27 Y24.415
X-21.151 Y24.314
X-21.057 Y24.19
X-20.928 Y23.906
X-20.828 Y23.29
X-20.878 Y22.668
X-21.012 Y22.058
X-21.19 Y21.461
X-21.39 Y20.869
X-21.598 Y20.281
X-21.803 Y19.692
X-21.998 Y19.099
X-22.181 Y18.503
X-22.352 Y17.902
X-22.509 Y17.299
X-22.651 Y16.691
X-22.776 Y16.08
X-22.884 Y15.465
X-22.977 Y14.848
X-23.054 Y14.229
X-23.115 Y13.608
X-23.158 Y12.986
X-23.184 Y12.362
X-23.193 Y11.738
X-23.187 Y11.115
X-23.164 Y10.491
X-23.124 Y9.868
X-23.066 Y9.247
X-22.992 Y8.628
X-22.902 Y8.01
X-22.796 Y7.395
X-22.672 Y6.784
X-22.531 Y6.176
X-22.374 Y5.572
X-22.202 Y4.972
X-22.014 Y4.377
X-21.809 Y3.788
X-21.588 Y3.205
X-21.351 Y2.627
X-21.1 Y2.056
X-20.834 Y1.492
X-20.553 Y0.935
X-20.255 Y0.386
X-19.943 Y-0.154
X-19.618 Y-0.687
X-19.28 Y-1.211
X-18.926 Y-1.725
X-18.558 Y-2.229
X-18.177 Y-2.722
X-17.783 Y-3.207
X-17.377 Y-3.68
X-16.957 Y-4.142
X-16.525 Y-4.592
X-16.08 Y-5.029
X-15.625 Y-5.456
X-15.159 Y-5.871
X-14.681 Y-6.272
X-14.192 Y-6.66
X-13.693 Y-7.034
X-13.185 Y-7.396
X-12.666 Y-7.743
X-12.135 Y-8.07
X-11.592 Y-8.379
X-11.041 Y-8.671
X-10.483 Y-8.949
X-9.918 Y-9.215
X-9.348 Y-9.468
X-8.771 Y-9.705
X-8.188 Y-9.929
X-7.6 Y-10.138
X-7.008 Y-10.334
X-6.411 Y-10.514
X-5.808 Y-10.677
X-5.202 Y-10.824
X-4.592 Y-10.955
X-3.979 Y-11.071
X-3.363 Y-11.171
X-2.744 Y-11.253
X-2.124 Y-11.317
X-1.502 Y-11.366
X-0.879 Y-11.4
X-0.255 Y-11.417
X0.369 Y-11.414
X0.993 Y-11.395
X1.615 Y-11.359
X2.237 Y-11.308
X2.858 Y-11.24
X3.476 Y-11.154
X4.091 Y-11.05
X4.703 Y-10.932
X5.313 Y-10.798
X5.918 Y-10.647
X6.519 Y-10.478
X7.115 Y-10.293
X7.706 Y-10.092
X8.291 Y-9.877
X8.871 Y-9.646
X9.443 Y-9.398
X10.009 Y-9.134
X10.567 Y-8.856
X11.119 Y-8.565
X11.663 Y-8.258
X12.197 Y-7.936
X12.721 Y-7.598
X13.237 Y-7.247
X13.744 Y-6.883
X14.241 Y-6.506
X14.727 Y-6.114
X15.201 Y-5.709
X15.666 Y-5.292
X16.119 Y-4.864
X16.561 Y-4.423
X16.989 Y-3.97
X17.405 Y-3.504
X17.809 Y-3.029
X18.2 Y-2.543
X18.578 Y-2.046
X18.942 Y-1.539
X19.291 Y-1.022
X19.627 Y-0.497
X19.951 Y0.037
X20.259 Y0.579
X20.551 Y1.131
X20.827 Y1.69
X21.089 Y2.256
X21.337 Y2.829
X21.569 Y3.408
X21.784 Y3.994
X21.983 Y4.586
X22.166 Y5.182
X22.335 Y5.782
X22.487 Y6.388
X22.621 Y6.997
X22.738 Y7.61
X22.84 Y8.225
X22.926 Y8.843
X22.995 Y9.464
X23.046 Y10.085
X23.079 Y10.709
X23.098 Y11.332
X23.1 Y11.956
X23.086 Y12.58
X23.052 Y13.203
X23.002 Y13.825
X22.936 Y14.445
X22.853 Y15.064
X22.754 Y15.68
X22.638 Y16.293
X22.504 Y16.902
X22.355 Y17.508
X22.193 Y18.111
X22.019 Y18.71
X21.831 Y19.305
X21.628 Y19.895
X21.41 Y20.479
X21.176 Y21.058
X20.923 Y21.628
X20.653 Y22.191
X20.51 Y22.468
X20.437 Y22.606
X20.397 Y22.757
X20.39 Y22.912
X20.419 Y23.066
X20.48 Y23.209
X20.664 Y23.461
X21.153 Y23.849
X21.726 Y24.095
X22.331 Y24.248
X22.948 Y24.34
X23.57 Y24.396
X24.193 Y24.429
X24.817 Y24.449
X25.44 Y24.472
X25.973 Y24.523
X26.321 Y24.585
X26.615 Y24.662
X26.823 Y24.735
X26.953 Y24.792
X27.124 Y24.899
X27.257 Y25.05
X27.341 Y25.233
X27.37 Y25.432
Y26.534
G0 Z5
X-26.995 Y27.944
Z-0.1
G1 Z-0.4 F200
X-26.999 Y27.938 Z-0.467
X-27.011 Y27.919 Z-0.53
X-27.029 Y27.888 Z-0.587
X-27.053 Y27.847 Z-0.635
X-27.082 Y27.798 Z-0.67
X-27.115 Y27.744 Z-0.692
X-27.149 Y27.686 Z-0.7
G3 X-27.37 Y26.933 I1.36 J-0.809
G1 Y26.048
X-27.362 Y25.898
X-27.334 Y25.75
X-27.29 Y25.607
X-27.23 Y25.47
X-27.159 Y25.337
X-27.063 Y25.19
X-26.951 Y25.043
X-26.806 Y24.883
X-26.632 Y24.719
X-26.419 Y24.548
X-26.158 Y24.372
X-25.847 Y24.196
X-25.468 Y24.02
X-24.989 Y23.843
X-24.388 Y23.675
X-23.776 Y23.554
X-23.621 Y23.533
X-23.475 Y23.478
X-23.345 Y23.392
X-23.129 Y23.167
X-22.827 Y22.621
X-22.729 Y22.005
X-22.756 Y21.381
X-22.856 Y20.765
X-22.995 Y20.157
X-23.151 Y19.553
X-23.312 Y18.95
X-23.472 Y18.347
X-23.623 Y17.742
X-23.764 Y17.134
X-23.89 Y16.523
X-24.003 Y15.909
X-24.101 Y15.293
X-24.185 Y14.675
X-24.253 Y14.054
X-24.305 Y13.433
X-24.341 Y12.81
X-24.362 Y12.186
X-24.367 Y11.562
X-24.356 Y10.938
X-24.329 Y10.315
X-24.286 Y9.693
X-24.227 Y9.071
X-24.152 Y8.452
X-24.062 Y7.834
X-23.956 Y7.22
X-23.834 Y6.608
X-23.696 Y5.999
X-23.543 Y5.394
X-23.374 Y4.794
X-23.19 Y4.197
X-22.991 Y3.606
X-22.776 Y3.021
X-22.546 Y2.441
X-22.302 Y1.866
X-22.043 Y1.299
X-21.77 Y0.738
X-21.482 Y0.184
X-21.18 Y-0.362
X-20.865 Y-0.901
X-20.536 Y-1.431
X-20.194 Y-1.953
X-19.838 Y-2.465
X-19.469 Y-2.968
X-19.088 Y-3.462
X-18.694 Y-3.946
X-18.288 Y-4.42
X-17.87 Y-4.883
X-17.44 Y-5.335
X-16.998 Y-5.776
X-16.546 Y-6.206
X-16.083 Y-6.624
X-15.608 Y-7.029
X-15.123 Y-7.422
X-14.629 Y-7.802
X-14.125 Y-8.17
X-13.61 Y-8.523
X-13.085 Y-8.859
X-12.55 Y-9.18
X-12.005 Y-9.485
X-11.454 Y-9.776
X-10.895 Y-10.054
X-10.33 Y-10.318
X-9.758 Y-10.569
X-9.181 Y-10.806
X-8.599 Y-11.03
X-8.011 Y-11.241
X-7.419 Y-11.437
X-6.822 Y-11.618
X-6.22 Y-11.783
X-5.615 Y-11.934
X-5.006 Y-12.07
X-4.394 Y-12.191
X-3.779 Y-12.295
X-3.161 Y-12.383
X-2.541 Y-12.456
X-1.92 Y-12.514
X-1.298 Y-12.555
X-0.674 Y-12.581
X-0.05 Y-12.59
X0.574 Y-12.582
X1.197 Y-12.56
X1.82 Y-12.521
X2.442 Y-12.466
X3.061 Y-12.395
X3.679 Y-12.308
X4.295 Y-12.206
X4.908 Y-12.089
X5.517 Y-11.955
X6.123 Y-11.806
X6.724 Y-11.64
X7.322 Y-11.46
X7.914 Y-11.264
X8.501 Y-11.053
X9.083 Y-10.827
X9.658 Y-10.585
X10.227 Y-10.329
X10.79 Y-10.06
X11.345 Y-9.776
X11.893 Y-9.477
X12.433 Y-9.164
X12.965 Y-8.837
X13.488 Y-8.497
X14.002 Y-8.144
X14.507 Y-7.778
X15.002 Y-7.398
X15.488 Y-7.006
X15.963 Y-6.602
X16.428 Y-6.186
X16.883 Y-5.759
X17.326 Y-5.319
X17.757 Y-4.868
X18.176 Y-4.406
X18.584 Y-3.934
X18.979 Y-3.451
X19.362 Y-2.958
X19.731 Y-2.455
X20.088 Y-1.943
X20.431 Y-1.423
X20.762 Y-0.893
X21.079 Y-0.356
X21.381 Y0.19
X21.669 Y0.744
X21.943 Y1.304
X22.203 Y1.871
X22.448 Y2.445
X22.677 Y3.025
X22.892 Y3.611
X23.092 Y4.202
X23.277 Y4.798
X23.448 Y5.398
X23.602 Y6.003
X23.74 Y6.611
X23.862 Y7.223
X23.969 Y7.838
X24.06 Y8.455
X24.135 Y9.075
X24.193 Y9.696
X24.236 Y10.318
X24.263 Y10.942
X24.275 Y11.566
X24.27 Y12.19
X24.249 Y12.813
X24.211 Y13.436
X24.158 Y14.058
X24.089 Y14.678
X24.005 Y15.296
X23.904 Y15.912
X23.787 Y16.525
X23.655 Y17.134
X23.509 Y17.741
X23.35 Y18.344
X23.178 Y18.944
X22.992 Y19.54
X22.793 Y20.131
X22.578 Y20.717
X22.463 Y21.007
X22.343 Y21.295
X22.316 Y21.448
X22.323 Y21.604
X22.365 Y21.754
X22.513 Y22.029
X22.938 Y22.486
X23.484 Y22.788
X24.078 Y22.98
X24.689 Y23.104
X25.305 Y23.202
X25.92 Y23.31
X26.356 Y23.414
X26.678 Y23.518
X26.899 Y23.61
X26.99 Y23.657
X27.146 Y23.766
X27.267 Y23.915
X27.344 Y24.09
X27.37 Y24.279
Y25.432
G0 Z5
X-26.995 Y27.059
Z-0.1
G1 Z-0.4 F200
X-26.999 Y27.052 Z-0.467
X-27.011 Y27.033 Z-0.53
X-27.029 Y27.003 Z-0.587
X-27.053 Y26.962 Z-0.635
X-27.082 Y26.913 Z-0.67
X-27.115 Y26.858 Z-0.692
X-27.149 Y26.801 Z-0.7
G3 X-27.37 Y26.048 I1.36 J-0.809
G1 Y25.056
X-27.362 Y24.906
X-27.335 Y24.758
X-27.292 Y24.615
X-27.236 Y24.476
X-27.162 Y24.333
X-27.068 Y24.18
X-26.952 Y24.021
X-26.802 Y23.849
X-26.628 Y23.677
X-26.402 Y23.488
X-26.145 Y23.306
X-25.811 Y23.108
X-25.251 Y22.834
X-24.999 Y22.649
X-24.799 Y22.41
X-24.495 Y21.865
X-24.368 Y21.255
X-24.358 Y20.631
X-24.418 Y20.01
X-24.519 Y19.394
X-24.641 Y18.782
X-24.77 Y18.172
X-24.898 Y17.561
X-25.02 Y16.949
X-25.132 Y16.335
X-25.232 Y15.719
X-25.319 Y15.101
X-25.392 Y14.482
X-25.451 Y13.861
X-25.496 Y13.238
X-25.525 Y12.615
X-25.54 Y11.991
Y11.367
X-25.524 Y10.744
X-25.493 Y10.12
X-25.448 Y9.498
X-25.387 Y8.877
X-25.311 Y8.258
X-25.22 Y7.641
X-25.114 Y7.026
X-24.993 Y6.414
X-24.857 Y5.805
X-24.707 Y5.199
X-24.541 Y4.597
X-24.361 Y4
X-24.166 Y3.408
X-23.956 Y2.82
X-23.732 Y2.238
X-23.494 Y1.661
X-23.241 Y1.09
X-22.975 Y0.526
X-22.695 Y-0.032
X-22.402 Y-0.582
X-22.096 Y-1.126
X-21.776 Y-1.662
X-21.444 Y-2.19
X-21.099 Y-2.71
X-20.741 Y-3.221
X-20.371 Y-3.723
X-19.989 Y-4.217
X-19.595 Y-4.7
X-19.189 Y-5.174
X-18.771 Y-5.638
X-18.343 Y-6.091
X-17.903 Y-6.534
X-17.453 Y-6.967
X-16.993 Y-7.387
X-16.522 Y-7.797
X-16.041 Y-8.194
X-15.55 Y-8.579
X-15.049 Y-8.952
X-14.539 Y-9.31
X-14.018 Y-9.655
X-13.489 Y-9.985
X-12.951 Y-10.3
X-12.405 Y-10.602
X-11.852 Y-10.891
X-11.292 Y-11.167
X-10.726 Y-11.429
X-10.154 Y-11.678
X-9.576 Y-11.915
X-8.994 Y-12.138
X-8.406 Y-12.348
X-7.814 Y-12.545
X-7.217 Y-12.727
X-6.616 Y-12.895
X-6.012 Y-13.049
X-5.403 Y-13.188
X-4.792 Y-13.313
X-4.178 Y-13.422
X-4.107 Y-13.431
X-4.072 Y-13.434
X-4.037 Y-13.435
X2.834
X3.457 Y-13.404
X4.08 Y-13.364
X4.699 Y-13.286
X5.314 Y-13.18
X5.924 Y-13.052
X6.531 Y-12.904
X7.132 Y-12.74
X7.73 Y-12.56
X8.322 Y-12.364
X8.909 Y-12.153
X9.491 Y-11.928
X10.067 Y-11.688
X10.637 Y-11.434
X11.201 Y-11.167
X11.758 Y-10.886
X12.308 Y-10.591
X12.85 Y-10.283
X13.385 Y-9.961
X13.911 Y-9.626
X14.43 Y-9.278
X14.939 Y-8.918
X15.439 Y-8.545
X15.931 Y-8.161
X16.412 Y-7.764
X16.884 Y-7.356
X17.346 Y-6.937
X17.798 Y-6.506
X18.238 Y-6.064
X18.668 Y-5.612
X19.087 Y-5.149
X19.494 Y-4.676
X19.889 Y-4.193
X20.272 Y-3.701
X20.643 Y-3.199
X21.002 Y-2.689
X21.348 Y-2.17
X21.682 Y-1.643
X22.002 Y-1.107
X22.309 Y-0.564
X22.602 Y-0.013
X22.882 Y0.545
X23.148 Y1.109
X23.4 Y1.68
X23.638 Y2.257
X23.862 Y2.839
X24.071 Y3.427
X24.267 Y4.019
X24.448 Y4.616
X24.614 Y5.218
X24.765 Y5.823
X24.901 Y6.432
X25.023 Y7.044
X25.129 Y7.659
X25.22 Y8.276
X25.296 Y8.895
X25.357 Y9.516
X25.402 Y10.139
X25.433 Y10.762
X25.449 Y11.386
X25.448 Y12.01
X25.432 Y12.633
X25.401 Y13.257
X25.355 Y13.879
X25.293 Y14.5
X25.216 Y15.119
X25.124 Y15.736
X25.017 Y16.351
X24.896 Y16.963
X24.761 Y17.572
X24.612 Y18.178
X24.451 Y18.78
X24.276 Y19.379
X24.088 Y19.974
X24.075 Y20.13
X24.116 Y20.439
X24.25 Y20.721
X24.633 Y21.213
X25.146 Y21.568
X25.709 Y21.837
X26.288 Y22.07
X26.734 Y22.259
X26.992 Y22.394
X27.043 Y22.427
X27.179 Y22.538
X27.283 Y22.681
X27.348 Y22.844
X27.37 Y23.019
Y24.279
G0 Z5
X1.822 Y-13.06
Z-0.1
G1 Z-0.4 F200
X1.829 Y-13.064 Z-0.467
X1.848 Y-13.076 Z-0.53
X1.879 Y-13.094 Z-0.587
X1.919 Y-13.118 Z-0.635
X1.968 Y-13.147 Z-0.67
X2.023 Y-13.18 Z-0.692
X2.08 Y-13.214 Z-0.7
G3 X2.834 Y-13.435 I0.809 J1.36
G1 X7.51
X8.052 Y-13.408
X8.516 Y-13.347
X9.126 Y-13.216
X9.724 Y-13.038
X10.311 Y-12.826
X10.889 Y-12.591
X11.459 Y-12.337
X12.021 Y-12.066
X12.576 Y-11.78
X13.123 Y-11.48
X13.453 Y-11.288
X13.506 Y-11.254
X13.555 Y-11.216
X13.6 Y-11.174
G3 X13.275 Y-10.69 I-0.221 J0.203
G1 X7.416 Y-12.854
G3 X7.51 Y-13.435 I0.104 J-0.281
G1 X10.627
X10.768
X10.811
X10.961 Y-13.427
X11.212 Y-13.392
X11.359 Y-13.355
X11.495 Y-13.287
X11.613 Y-13.19
G3 X11.317 Y-12.697 I-0.221 J0.203
G1 X11.302 Y-12.701
X10.747 Y-12.845
G3 X10.811 Y-13.435 I0.075 J-0.29
G1 X11.194
X11.335 Y-13.434
X11.35 Y-13.431
X11.366 Y-13.427
X11.381 Y-13.42
X11.396 Y-13.41
X11.955 Y-12.843
X22.245 Y-2.401
X22.661 Y-1.935
X23.04 Y-1.446
X23.382 Y-0.924
X23.694 Y-0.383
X23.984 Y0.169
X24.255 Y0.731
X24.509 Y1.301
X24.748 Y1.877
X24.972 Y2.46
X25.183 Y3.047
X25.379 Y3.639
X25.561 Y4.236
X25.729 Y4.837
X25.883 Y5.442
X26.023 Y6.05
X26.148 Y6.661
X26.259 Y7.275
X26.355 Y7.892
X26.436 Y8.51
X26.503 Y9.131
X26.555 Y9.752
X26.593 Y10.375
X26.617 Y10.999
X26.626 Y11.622
X26.619 Y12.246
X26.599 Y12.87
X26.563 Y13.493
X26.513 Y14.115
X26.449 Y14.735
X26.37 Y15.354
X26.277 Y15.971
X26.169 Y16.586
X26.049 Y17.198
X25.914 Y17.807
X25.767 Y18.414
X25.687 Y18.715
X25.652 Y19.025
X25.709 Y19.332
X25.955 Y19.905
X26.368 Y20.373
X26.852 Y20.767
X27.1 Y20.961
X27.246 Y21.115
X27.338 Y21.305
X27.37 Y21.513
Y23.019
G0 Z5
X21.269 Y-2.858
Z-0.1
G1 Z-0.4 F200
X21.276 Y-2.856 Z-0.467
X21.297 Y-2.851 Z-0.53
X21.332 Y-2.842 Z-0.587
X21.378 Y-2.829 Z-0.635
X21.433 Y-2.815 Z-0.67
X21.494 Y-2.799 Z-0.692
X21.559 Y-2.782 Z-0.7
G3 X22.245 Y-2.401 I-0.401 J1.531
G1 X24.796 Y0.188
X25.086 Y0.513
X25.324 Y0.827
X25.596 Y1.255
X25.888 Y1.807
X26.141 Y2.377
X26.365 Y2.96
X26.566 Y3.55
X26.75 Y4.147
X26.916 Y4.748
X27.068 Y5.353
X27.205 Y5.962
X27.327 Y6.574
X27.359 Y6.757
X27.365 Y6.797
X27.369 Y6.837
X27.37 Y6.878
G3 X26.79 Y6.975 I-0.3 J-0.01
G1 X24.31 Y0.513
G3 X24.796 Y0.188 I0.28 J-0.108
G1 X26.757 Y2.177
X26.964 Y2.41
X27.148 Y2.654
X27.26 Y2.83
X27.321 Y2.947
X27.358 Y3.074
X27.37 Y3.206
G3 X26.819 Y3.359 I-0.3 J-0.01
G1 X26.804 Y3.337
X26.299 Y2.559
G3 X26.757 Y2.177 I0.252 J-0.163
G1 X27.315 Y2.744
X27.346 Y2.778
X27.354 Y2.791
X27.36 Y2.805
X27.368 Y2.832
X27.37 Y2.845
Y15.356
X27.339 Y15.979
X27.291 Y16.601
X27.205 Y17.219
X27.093 Y17.833
X27.099 Y18.145
X27.228 Y18.755
X27.29 Y18.872
X27.334 Y18.976
X27.361 Y19.085
X27.37 Y19.198
G3 X26.77 Y19.187 I-0.3 J-0.01
G1 Y15.366
G3 X27.37 Y15.356 I0.3 J0
G1 Y21.513
G0 Z5
X-26.995 Y26.067
Z-0.1
G1 Z-0.4 F200
X-26.999 Y26.061 Z-0.467
X-27.011 Y26.041 Z-0.53
X-27.029 Y26.011 Z-0.587
X-27.053 Y25.97 Z-0.635
X-27.082 Y25.921 Z-0.67
X-27.115 Y25.867 Z-0.692
X-27.149 Y25.809 Z-0.7
G3 X-27.37 Y25.056 I1.36 J-0.809
G1 Y24
X-27.362 Y23.85
X-27.334 Y23.703
X-27.29 Y23.559
X-27.234 Y23.42
X-27.158 Y23.271
X-27.06 Y23.11
X-26.939 Y22.943
X-26.532 Y22.47
X-26.152 Y21.976
X-25.917 Y21.398
X-25.808 Y20.783
X-25.791 Y20.159
X-25.833 Y19.537
X-25.911 Y18.918
X-26.008 Y18.302
X-26.22 Y17.072
X-26.321 Y16.456
X-26.414 Y15.839
X-26.496 Y15.221
X-26.566 Y14.601
X-26.624 Y13.979
X-26.668 Y13.357
X-26.699 Y12.734
X-26.715 Y12.11
X-26.718 Y11.486
X-26.706 Y10.862
X-26.679 Y10.239
X-26.638 Y9.616
X-26.583 Y8.995
X-26.513 Y8.375
X-26.428 Y7.757
X-26.329 Y7.141
X-26.216 Y6.527
X-26.089 Y5.916
X-25.947 Y5.309
X-25.791 Y4.704
X-25.621 Y4.104
X-25.437 Y3.508
X-25.239 Y2.916
X-25.027 Y2.329
X-24.802 Y1.748
X-24.562 Y1.171
X-24.31 Y0.601
X-24.044 Y0.036
X-23.765 Y-0.522
X-23.474 Y-1.074
X-23.417 Y-1.176
X-23.384 Y-1.23
X-23.346 Y-1.28
X-23.304 Y-1.326
X-14.19 Y-10.576
X-13.798 Y-10.935
X-13.332 Y-11.299
X-12.811 Y-11.642
X-12.27 Y-11.954
X-11.717 Y-12.242
X-11.155 Y-12.512
X-10.585 Y-12.766
X-10.008 Y-13.005
X-9.427 Y-13.231
X-8.975 Y-13.393
X-8.898 Y-13.416
X-8.818 Y-13.43
X-8.738 Y-13.435
G3 X-8.608 Y-12.87 I-0.01 J0.3
G1 X-13.828 Y-10.108
G3 X-14.19 Y-10.576 I-0.14 J-0.265
G1 X-11.816 Y-12.985
X-11.76 Y-13.041
X-11.676 Y-13.127
X-11.529 Y-13.262
X-11.497 Y-13.287
X-11.365 Y-13.368
X-11.219 Y-13.418
X-11.066 Y-13.435
G3 X-10.93 Y-12.873 I-0.01 J0.3
G1 X-10.936 Y-12.87
X-11.309 Y-12.662
G3 X-11.676 Y-13.127 I-0.146 J-0.262
G1 X-11.396 Y-13.41
X-11.381 Y-13.42
X-11.366 Y-13.427
X-11.35 Y-13.431
X-11.335 Y-13.434
X-11.052 Y-13.435
X-4.037
G0 Z5
X-26.995 Y25.011
Z-0.1
G1 Z-0.4 F200
X-26.999 Y25.005 Z-0.467
X-27.011 Y24.986 Z-0.53
X-27.029 Y24.955 Z-0.587
X-27.053 Y24.914 Z-0.635
X-27.082 Y24.865 Z-0.67
X-27.115 Y24.811 Z-0.692
X-27.149 Y24.753 Z-0.7
G3 X-27.37 Y24 I1.36 J-0.809
G1 Y22.866
X-27.362 Y22.716
X-27.279 Y22.098
X-27.164 Y21.485
X-27.098 Y20.864
X-27.083 Y20.241
X-27.112 Y19.617
X-27.171 Y18.996
X-27.25 Y18.377
X-27.34 Y17.76
X-27.362 Y17.607
X-27.367 Y17.573
X-27.369 Y17.538
X-27.37 Y17.504
G3 X-26.77 Y17.514 I0.3 J0.01
G1 Y22.856
G3 X-27.37 Y22.866 I-0.3 J0
G1 Y7.562
X-27.339 Y6.939
X-27.289 Y6.317
X-27.197 Y5.7
X-27.077 Y5.088
X-26.934 Y4.48
X-26.772 Y3.878
X-26.595 Y3.28
X-26.402 Y2.686
X-26.195 Y2.097
X-25.975 Y1.514
X-25.938 Y1.423
X-25.898 Y1.34
X-25.848 Y1.263
X-25.788 Y1.194
G3 X-25.29 Y1.483 I0.206 J0.218
G1 X-25.293 Y1.498
X-26.779 Y7.622
G3 X-27.37 Y7.562 I-0.292 J-0.071
G1 Y3.169
Y2.845
X-27.368 Y2.832
X-27.36 Y2.805
X-27.354 Y2.791
X-27.346 Y2.778
X-27.315 Y2.744
X-23.304 Y-1.326
G3 X-22.871 Y-1.304 I0.206 J0.218
G1 X-22.847 Y-1.257 Z-0.695
X-22.825 Y-1.211 Z-0.681
X-22.804 Y-1.168 Z-0.658
X-22.801 Y-1.136 Z-0.636
X-22.798 Y-1.108 Z-0.611
X-22.803 Y-1.072 Z-0.566
X-22.807 Y-1.045 Z-0.514
X-22.81 Y-1.028 Z-0.458
Y-1.023 Z-0.4
G0 Z5
X-26.752 Y30.049
Z-0.8
G1 Z-1.1 F200
X-26.756 Y30.043 Z-1.167
X-26.767 Y30.024 Z-1.23
X-26.785 Y29.993 Z-1.287
X-26.809 Y29.952 Z-1.335
X-26.839 Y29.903 Z-1.37
X-26.871 Y29.849 Z-1.392
X-26.905 Y29.791 Z-1.4
G3 X-27.37 Y28.208 I2.858 J-1.699
G1 Y28.037
X-27.368 Y27.999
X-27.28 Y27.878
X-27.174 Y27.771
X-27.058 Y27.677
X-26.933 Y27.593
X-26.803 Y27.518
X-26.669 Y27.451
X-26.531 Y27.392
X-26.391 Y27.339
X-26.249 Y27.291
X-26.105 Y27.249
X-25.96 Y27.211
X-25.814 Y27.176
X-25.667 Y27.146
X-25.519 Y27.118
X-25.371 Y27.094
X-25.223 Y27.072
X-25.074 Y27.052
X-24.925 Y27.034
X-24.776 Y27.018
X-24.627 Y27.004
X-24.478 Y26.991
X-24.328 Y26.979
X-24.172 Y26.969
X-23.998 Y26.958
X-23.799 Y26.947
X-23.57 Y26.936
X-23.298 Y26.925
X-22.964 Y26.914
X-22.532 Y26.904
X-21.923 Y26.893
X-21.299 Y26.886
X-20.675 Y26.882
X-19.427 Y26.879
X-16.697 Y26.877
X-16.229
X-16.077 Y26.843
X-15.936 Y26.775
X-15.814 Y26.678
X-15.716 Y26.557
X-15.648 Y26.417
X-15.612 Y26.265
X-15.611 Y26.109
X-15.644 Y25.956
X-15.91 Y25.392
X-16.139 Y25.067
X-16.449 Y24.621
X-16.801 Y24.106
X-17.151 Y23.589
X-17.409 Y23.206
X-17.491 Y23.08
X-17.571 Y22.954
X-17.65 Y22.826
X-17.728 Y22.698
X-17.804 Y22.569
X-17.88 Y22.439
X-17.961 Y22.297
X-18.051 Y22.137
X-18.152 Y21.952
X-18.269 Y21.736
X-18.408 Y21.476
X-18.579 Y21.15
X-18.738 Y20.839
X-18.806 Y20.705
X-18.872 Y20.57
X-18.935 Y20.434
X-18.997 Y20.298
X-19.058 Y20.16
X-19.117 Y20.022
X-19.174 Y19.884
X-19.233 Y19.742
X-19.297 Y19.582
X-19.368 Y19.4
X-19.448 Y19.189
X-19.542 Y18.94
X-19.653 Y18.635
X-19.79 Y18.254
X-19.84 Y18.112
X-19.887 Y17.97
X-19.932 Y17.827
X-19.976 Y17.683
X-20.017 Y17.539
X-20.058 Y17.395
X-20.097 Y17.25
X-20.134 Y17.105
X-20.175 Y16.943
X-20.22 Y16.759
X-20.27 Y16.548
X-20.327 Y16.3
X-20.394 Y16
X-20.475 Y15.62
X-20.505 Y15.473
X-20.535 Y15.326
X-20.561 Y15.178
X-20.586 Y15.03
X-20.609 Y14.882
X-20.631 Y14.734
X-20.651 Y14.585
X-20.67 Y14.436
X-20.688 Y14.281
X-20.707 Y14.107
X-20.727 Y13.909
X-20.749 Y13.68
X-20.773 Y13.409
X-20.8 Y13.075
X-20.825 Y12.728
X-20.835 Y12.579
X-20.843 Y12.429
X-20.848 Y12.279
X-20.851 Y12.129
X-20.853 Y11.979
X-20.854 Y11.829
X-20.852 Y11.679
X-20.85 Y11.528
X-20.846 Y11.36
X-20.841 Y11.17
X-20.832 Y10.951
X-20.821 Y10.694
X-20.805 Y10.383
X-20.781 Y9.988
X-20.771 Y9.839
X-20.76 Y9.689
X-20.746 Y9.54
X-20.73 Y9.391
X-20.712 Y9.242
X-20.693 Y9.093
X-20.672 Y8.944
X-20.65 Y8.796
X-20.626 Y8.638
X-20.597 Y8.461
X-20.563 Y8.259
X-20.521 Y8.025
X-20.469 Y7.746
X-20.402 Y7.401
X-20.347 Y7.125
X-20.316 Y6.979
X-20.283 Y6.832
X-20.248 Y6.686
X-20.212 Y6.541
X-20.173 Y6.396
X-20.133 Y6.251
X-20.092 Y6.107
X-20.049 Y5.961
X-20 Y5.798
X-19.943 Y5.613
X-19.876 Y5.402
X-19.794 Y5.153
X-19.693 Y4.851
X-19.562 Y4.467
X-19.512 Y4.325
X-19.461 Y4.185
X-19.407 Y4.045
X-19.351 Y3.905
X-19.294 Y3.767
X-19.235 Y3.628
X-19.175 Y3.491
X-19.114 Y3.354
X-19.046 Y3.203
X-18.967 Y3.034
X-18.876 Y2.84
X-18.767 Y2.614
X-18.634 Y2.342
X-18.464 Y2.002
X-18.386 Y1.848
X-18.317 Y1.715
X-18.246 Y1.583
X-18.173 Y1.452
X-18.099 Y1.322
X-18.023 Y1.192
X-17.946 Y1.064
X-17.868 Y0.936
X-17.786 Y0.804
X-17.693 Y0.658
X-17.587 Y0.492
X-17.463 Y0.302
X-17.314 Y0.078
X-17.13 Y-0.194
X-16.92 Y-0.5
X-16.835 Y-0.623
X-16.747 Y-0.745
X-16.658 Y-0.865
X-16.567 Y-0.985
X-16.475 Y-1.103
X-16.381 Y-1.22
X-16.287 Y-1.337
X-16.191 Y-1.453
X-16.083 Y-1.582
X-15.961 Y-1.726
X-15.819 Y-1.891
X-15.65 Y-2.083
X-15.445 Y-2.314
X-15.183 Y-2.605
X-15.082 Y-2.715
X-14.979 Y-2.825
X-14.876 Y-2.933
X-14.77 Y-3.04
X-14.664 Y-3.146
X-14.556 Y-3.25
X-14.447 Y-3.353
X-14.337 Y-3.455
X-14.221 Y-3.562
X-14.09 Y-3.681
X-13.939 Y-3.815
X-13.764 Y-3.969
X-13.554 Y-4.151
X-13.294 Y-4.373
X-13.051 Y-4.577
X-12.935 Y-4.673
X-12.818 Y-4.767
X-12.7 Y-4.859
X-12.58 Y-4.95
X-12.46 Y-5.039
X-12.338 Y-5.127
X-12.216 Y-5.214
X-12.092 Y-5.301
X-11.953 Y-5.397
X-11.794 Y-5.505
X-11.611 Y-5.627
X-11.394 Y-5.77
X-11.13 Y-5.941
X-10.792 Y-6.155
X-10.665 Y-6.235
X-10.537 Y-6.313
X-10.408 Y-6.389
X-10.277 Y-6.463
X-9.711 Y-6.726
X-9.142 Y-6.981
X-8.571 Y-7.232
X-7.999 Y-7.481
X-7.42 Y-7.716
X-6.831 Y-7.921
X-6.237 Y-8.109
X-5.639 Y-8.289
X-5.04 Y-8.462
X-4.431 Y-8.601
X-3.818 Y-8.716
X-3.202 Y-8.818
X-2.586 Y-8.912
X-1.966 Y-8.987
X-1.344 Y-9.03
X-0.72 Y-9.054
X-0.096 Y-9.068
X0.527 Y-9.076
X1.151 Y-9.047
X1.772 Y-8.994
X2.393 Y-8.928
X3.012 Y-8.855
X3.629 Y-8.761
X4.24 Y-8.636
X4.848 Y-8.492
X5.453 Y-8.339
X6.056 Y-8.181
X6.649 Y-7.986
X7.234 Y-7.769
X7.814 Y-7.539
X8.392 Y-7.303
X8.961 Y-7.047
X9.516 Y-6.763
X10.063 Y-6.463
X10.605 Y-6.154
X11.145 Y-5.841
X11.663 Y-5.494
X12.169 Y-5.128
X12.667 Y-4.752
X13.161 Y-4.371
X13.64 Y-3.972
X14.1 Y-3.549
X14.547 Y-3.114
X14.987 Y-2.672
X15.423 Y-2.226
X15.83 Y-1.753
X16.219 Y-1.265
X16.599 Y-0.77
X16.973 Y-0.27
X17.328 Y0.243
X17.658 Y0.772
X17.972 Y1.311
X18.278 Y1.855
X18.579 Y2.401
X18.845 Y2.966
X19.09 Y3.54
X19.323 Y4.118
X19.55 Y4.7
X19.755 Y5.289
X19.931 Y5.888
X20.091 Y6.491
X20.241 Y7.096
X20.384 Y7.704
X20.489 Y8.319
X20.572 Y8.937
X20.643 Y9.557
X20.706 Y10.178
X20.746 Y10.8
X20.756 Y11.424
X20.748 Y12.048
X20.731 Y12.672
X20.706 Y13.295
X20.643 Y13.916
X20.558 Y14.534
X20.461 Y15.151
X20.357 Y15.766
X20.228 Y16.376
X20.07 Y16.98
X19.897 Y17.579
X19.714 Y18.176
X19.523 Y18.77
X19.454 Y18.987
X19.407 Y19.13
X19.357 Y19.271
X19.306 Y19.412
X19.254 Y19.553
X19.2 Y19.693
X19.144 Y19.832
X19.085 Y19.98
X19.016 Y20.145
X18.937 Y20.332
X18.844 Y20.55
X18.752 Y20.757
X18.691 Y20.894
X18.627 Y21.03
X18.562 Y21.164
X18.494 Y21.298
X18.425 Y21.431
X18.354 Y21.564
X18.282 Y21.695
X18.209 Y21.826
X18.132 Y21.961
X18.045 Y22.111
X17.946 Y22.28
X17.829 Y22.475
X17.689 Y22.704
X17.517 Y22.983
X17.371 Y23.214
X17.29 Y23.34
X17.207 Y23.465
X17.123 Y23.589
X17.037 Y23.712
X16.949 Y23.834
X16.86 Y23.955
X16.771 Y24.075
X16.679 Y24.195
X16.577 Y24.327
X16.46 Y24.476
X16.324 Y24.647
X16.164 Y24.845
X15.968 Y25.084
X15.654 Y25.458
X15.583 Y25.597
X15.543 Y25.748
X15.539 Y25.904
X15.569 Y26.057
X15.632 Y26.199
X15.725 Y26.325
X15.843 Y26.426
X16.119 Y26.571
X16.73 Y26.698
X17.35 Y26.772
X17.972 Y26.816
X18.596 Y26.842
X19.219 Y26.856
X19.843 Y26.865
X20.467 Y26.87
X21.091 Y26.873
X22.339 Y26.876
X26.083 Y26.877
X26.67
X26.886 Y26.911
X27.081 Y27.011
X27.236 Y27.166
X27.336 Y27.361
X27.37 Y27.577
G0 Z5
X-26.995 Y29.048
Z-0.8
G1 Z-1.1 F200
X-26.999 Y29.042 Z-1.167
X-27.011 Y29.022 Z-1.23
X-27.029 Y28.992 Z-1.287
X-27.053 Y28.951 Z-1.335
X-27.082 Y28.902 Z-1.37
X-27.115 Y28.847 Z-1.392
X-27.149 Y28.79 Z-1.4
G3 X-27.37 Y28.037 I1.36 J-0.809
G1 Y27.606
X-27.362 Y27.456
X-27.303 Y27.319
X-27.227 Y27.189
X-27.138 Y27.069
X-27.037 Y26.955
X-26.911 Y26.835
X-26.759 Y26.711
X-26.571 Y26.582
X-26.34 Y26.449
X-26.052 Y26.312
X-25.685 Y26.174
X-25.199 Y26.033
X-24.588 Y25.909
X-23.969 Y25.828
X-23.347 Y25.774
X-22.724 Y25.739
X-22.101 Y25.717
X-21.477 Y25.702
X-20.853 Y25.693
X-20.229 Y25.687
X-19.371 Y25.682
X-19.215
X-19.063 Y25.647
X-18.923 Y25.579
X-18.801 Y25.482
X-18.704 Y25.36
X-18.636 Y25.219
X-18.565 Y24.915
X-18.626 Y24.294
X-18.793 Y23.693
X-19.017 Y23.111
X-19.269 Y22.54
X-19.535 Y21.976
X-19.798 Y21.41
X-20.052 Y20.84
X-20.293 Y20.264
X-20.523 Y19.684
X-20.742 Y19.1
X-20.943 Y18.51
X-21.125 Y17.913
X-21.29 Y17.311
X-21.441 Y16.706
X-21.578 Y16.097
X-21.694 Y15.484
X-21.791 Y14.867
X-21.87 Y14.249
X-21.935 Y13.628
X-21.985 Y13.006
X-22.013 Y12.383
X-22.021 Y11.759
X-22.013 Y11.135
X-21.991 Y10.511
X-21.951 Y9.889
X-21.89 Y9.268
X-21.81 Y8.649
X-21.715 Y8.032
X-21.606 Y7.418
X-21.478 Y6.807
X-21.329 Y6.201
X-21.163 Y5.6
X-20.982 Y5.003
X-20.788 Y4.41
X-20.574 Y3.824
X-20.341 Y3.245
X-20.091 Y2.673
X-19.829 Y2.107
X-19.552 Y1.548
X-19.257 Y0.998
X-18.944 Y0.458
X-18.617 Y-0.073
X-18.279 Y-0.597
X-17.926 Y-1.112
X-17.555 Y-1.614
X-17.169 Y-2.104
X-16.771 Y-2.584
X-16.362 Y-3.056
X-15.939 Y-3.514
X-15.501 Y-3.959
X-15.05 Y-4.389
X-14.588 Y-4.809
X-14.117 Y-5.219
X-13.633 Y-5.613
X-13.136 Y-5.99
X-12.629 Y-6.353
X-12.114 Y-6.705
X-11.59 Y-7.043
X-11.047 Y-7.352
X-10.493 Y-7.639
X-9.932 Y-7.911
X-9.366 Y-8.173
X-8.795 Y-8.425
X-8.217 Y-8.662
X-7.633 Y-8.88
X-7.043 Y-9.084
X-6.45 Y-9.276
X-5.851 Y-9.453
X-5.247 Y-9.61
X-4.639 Y-9.748
X-4.027 Y-9.869
X-3.412 Y-9.976
X-2.795 Y-10.068
X-2.175 Y-10.138
X-1.553 Y-10.188
X-0.93 Y-10.222
X-0.306 Y-10.245
X0.317 Y-10.246
X0.941 Y-10.226
X1.564 Y-10.187
X2.185 Y-10.133
X2.806 Y-10.065
X3.423 Y-9.977
X4.038 Y-9.868
X4.649 Y-9.742
X5.257 Y-9.603
X5.862 Y-9.449
X6.46 Y-9.273
X7.053 Y-9.078
X7.64 Y-8.867
X8.223 Y-8.644
X8.799 Y-8.404
X9.366 Y-8.145
X9.925 Y-7.868
X10.477 Y-7.577
X11.024 Y-7.276
X11.56 Y-6.956
X12.084 Y-6.617
X12.597 Y-6.263
X13.103 Y-5.898
X13.6 Y-5.52
X14.083 Y-5.126
X14.554 Y-4.716
X15.013 Y-4.294
X15.464 Y-3.862
X15.903 Y-3.418
X16.326 Y-2.96
X16.733 Y-2.487
X17.128 Y-2.005
X17.513 Y-1.513
X17.883 Y-1.011
X18.236 Y-0.496
X18.573 Y0.029
X18.896 Y0.562
X19.21 Y1.102
X19.505 Y1.652
X19.78 Y2.212
X20.038 Y2.78
X20.284 Y3.353
X20.515 Y3.933
X20.727 Y4.52
X20.92 Y5.113
X21.096 Y5.712
X21.26 Y6.314
X21.408 Y6.92
X21.534 Y7.531
X21.641 Y8.146
X21.731 Y8.763
X21.808 Y9.382
X21.867 Y10.003
X21.905 Y10.626
X21.923 Y11.25
X21.926 Y11.874
X21.917 Y12.498
X21.887 Y13.121
X21.834 Y13.742
X21.763 Y14.362
X21.679 Y14.981
X21.579 Y15.596
X21.459 Y16.209
X21.318 Y16.817
X21.162 Y17.421
X20.992 Y18.021
X20.814 Y18.619
X20.622 Y19.213
X20.412 Y19.8
X20.187 Y20.382
X19.945 Y20.957
X19.682 Y21.523
X19.398 Y22.079
X19.098 Y22.626
X18.784 Y23.165
X18.456 Y23.696
X18.369 Y23.825
X18.281 Y23.954
X18.224 Y24.099
X18.201 Y24.254
X18.212 Y24.409
X18.258 Y24.558
X18.335 Y24.694
X18.546 Y24.924
X19.094 Y25.223
X19.69 Y25.407
X20.304 Y25.518
X20.924 Y25.584
X21.547 Y25.623
X22.171 Y25.645
X22.794 Y25.659
X23.418 Y25.666
X24.042 Y25.671
X24.666 Y25.673
X25.907 Y25.677
X26.208 Y25.702
X26.485 Y25.748
X26.686 Y25.798
X26.889 Y25.866
X26.946 Y25.891
X27.119 Y25.997
X27.254 Y26.149
X27.34 Y26.333
X27.37 Y26.534
Y26.628
G0 Z5
X-26.995 Y28.618
Z-0.8
G1 Z-1.1 F200
X-26.999 Y28.611 Z-1.167
X-27.011 Y28.592 Z-1.23
X-27.029 Y28.561 Z-1.287
X-27.053 Y28.521 Z-1.335
X-27.082 Y28.472 Z-1.37
X-27.115 Y28.417 Z-1.392
X-27.149 Y28.36 Z-1.4
G3 X-27.37 Y27.606 I1.36 J-0.809
G1 Y26.933
X-27.362 Y26.783
X-27.329 Y26.637
X-27.276 Y26.496
X-27.209 Y26.362
X-27.13 Y26.235
X-27.031 Y26.101
X-26.908 Y25.961
X-26.762 Y25.819
X-26.57 Y25.66
X-26.36 Y25.514
X-26.077 Y25.347
X-25.76 Y25.195
X-25.342 Y25.033
X-24.811 Y24.875
X-24.2 Y24.746
X-23.583 Y24.657
X-22.962 Y24.597
X-22.339 Y24.557
X-21.716 Y24.53
X-21.56 Y24.525
X-21.409 Y24.486
X-21.27 Y24.415
X-21.151 Y24.314
X-21.057 Y24.19
X-20.928 Y23.906
X-20.828 Y23.29
X-20.878 Y22.668
X-21.012 Y22.058
X-21.19 Y21.461
X-21.39 Y20.869
X-21.598 Y20.281
X-21.803 Y19.692
X-21.998 Y19.099
X-22.181 Y18.503
X-22.352 Y17.902
X-22.509 Y17.299
X-22.651 Y16.691
X-22.776 Y16.08
X-22.884 Y15.465
X-22.977 Y14.848
X-23.054 Y14.229
X-23.115 Y13.608
X-23.158 Y12.986
X-23.184 Y12.362
X-23.193 Y11.738
X-23.187 Y11.115
X-23.164 Y10.491
X-23.124 Y9.868
X-23.066 Y9.247
X-22.992 Y8.628
X-22.902 Y8.01
X-22.796 Y7.395
X-22.672 Y6.784
X-22.531 Y6.176
X-22.374 Y5.572
X-22.202 Y4.972
X-22.014 Y4.377
X-21.809 Y3.788
X-21.588 Y3.205
X-21.351 Y2.627
X-21.1 Y2.056
X-20.834 Y1.492
X-20.553 Y0.935
X-20.255 Y0.386
X-19.943 Y-0.154
X-19.618 Y-0.687
X-19.28 Y-1.211
X-18.926 Y-1.725
X-18.558 Y-2.229
X-18.177 Y-2.722
X-17.783 Y-3.207
X-17.377 Y-3.68
X-16.957 Y-4.142
X-16.525 Y-4.592
X-16.08 Y-5.029
X-15.625 Y-5.456
X-15.159 Y-5.871
X-14.681 Y-6.272
X-14.192 Y-6.66
X-13.693 Y-7.034
X-13.185 Y-7.396
X-12.666 Y-7.743
X-12.135 Y-8.07
X-11.592 Y-8.379
X-11.041 Y-8.671
X-10.483 Y-8.949
X-9.918 Y-9.215
X-9.348 Y-9.468
X-8.771 Y-9.705
X-8.188 Y-9.929
X-7.6 Y-10.138
X-7.008 Y-10.334
X-6.411 Y-10.514
X-5.808 Y-10.677
X-5.202 Y-10.824
X-4.592 Y-10.955
X-3.979 Y-11.071
X-3.363 Y-11.171
X-2.744 Y-11.253
X-2.124 Y-11.317
X-1.502 Y-11.366
X-0.879 Y-11.4
X-0.255 Y-11.417
X0.369 Y-11.414
X0.993 Y-11.395
X1.615 Y-11.359
X2.237 Y-11.308
X2.858 Y-11.24
X3.476 Y-11.154
X4.091 Y-11.05
X4.703 Y-10.932
X5.313 Y-10.798
X5.918 Y-10.647
X6.519 Y-10.478
X7.115 Y-10.293
X7.706 Y-10.092
X8.291 Y-9.877
X8.871 Y-9.646
X9.443 Y-9.398
X10.009 Y-9.134
X10.567 Y-8.856
X11.119 Y-8.565
X11.663 Y-8.258
X12.197 Y-7.936
X12.721 Y-7.598
X13.237 Y-7.247
X13.744 Y-6.883
X14.241 Y-6.506
X14.727 Y-6.114
X15.201 Y-5.709
X15.666 Y-5.292
X16.119 Y-4.864
X16.561 Y-4.423
X16.989 Y-3.97
X17.405 Y-3.504
X17.809 Y-3.029
X18.2 Y-2.543
X18.578 Y-2.046
X18.942 Y-1.539
X19.291 Y-1.022
X19.627 Y-0.497
X19.951 Y0.037
X20.259 Y0.579
X20.551 Y1.131
X20.827 Y1.69
X21.089 Y2.256
X21.337 Y2.829
X21.569 Y3.408
X21.784 Y3.994
X21.983 Y4.586
X22.166 Y5.182
X22.335 Y5.782
X22.487 Y6.388
X22.621 Y6.997
X22.738 Y7.61
X22.84 Y8.225
X22.926 Y8.843
X22.995 Y9.464
X23.046 Y10.085
X23.079 Y10.709
X23.098 Y11.332
X23.1 Y11.956
X23.086 Y12.58
X23.052 Y13.203
X23.002 Y13.825
X22.936 Y14.445
X22.853 Y15.064
X22.754 Y15.68
X22.638 Y16.293
X22.504 Y16.902
X22.355 Y17.508
X22.193 Y18.111
X22.019 Y18.71
X21.831 Y19.305
X21.628 Y19.895
X21.41 Y20.479
X21.176 Y21.058
X20.923 Y21.628
X20.653 Y22.191
X20.51 Y22.468
X20.437 Y22.606
X20.397 Y22.757
X20.39 Y22.912
X20.419 Y23.066
X20.48 Y23.209
X20.664 Y23.461
X21.153 Y23.849
X21.726 Y24.095
X22.331 Y24.248
X22.948 Y24.34
X23.57 Y24.396
X24.193 Y24.429
X24.817 Y24.449
X25.44 Y24.472
X25.973 Y24.523
X26.321 Y24.585
X26.615 Y24.662
X26.823 Y24.735
X26.953 Y24.792
X27.124 Y24.899
X27.257 Y25.05
X27.341 Y25.233
X27.37 Y25.432
Y26.534
G0 Z5
X-26.995 Y27.944
Z-0.8
G1 Z-1.1 F200
X-26.999 Y27.938 Z-1.167
X-27.011 Y27.919 Z-1.23
X-27.029 Y27.888 Z-1.287
X-27.053 Y27.847 Z-1.335
X-27.082 Y27.798 Z-1.37
X-27.115 Y27.744 Z-1.392
X-27.149 Y27.686 Z-1.4
G3 X-27.37 Y26.933 I1.36 J-0.809
G1 Y26.048
X-27.362 Y25.898
X-27.334 Y25.75
X-27.29 Y25.607
X-27.23 Y25.47
X-27.159 Y25.337
X-27.063 Y25.19
X-26.951 Y25.043
X-26.806 Y24.883
X-26.632 Y24.719
X-26.419 Y24.548
X-26.158 Y24.372
X-25.847 Y24.196
X-25.468 Y24.02
X-24.989 Y23.843
X-24.388 Y23.675
X-23.776 Y23.554
X-23.621 Y23.533
X-23.475 Y23.478
X-23.345 Y23.392
X-23.129 Y23.167
X-22.827 Y22.621
X-22.729 Y22.005
X-22.756 Y21.381
X-22.856 Y20.765
X-22.995 Y20.157
X-23.151 Y19.553
X-23.312 Y18.95
X-23.472 Y18.347
X-23.623 Y17.742
X-23.764 Y17.134
X-23.89 Y16.523
X-24.003 Y15.909
X-24.101 Y15.293
X-24.185 Y14.675
X-24.253 Y14.054
X-24.305 Y13.433
X-24.341 Y12.81
X-24.362 Y12.186
X-24.367 Y11.562
X-24.356 Y10.938
X-24.329 Y10.315
X-24.286 Y9.693
X-24.227 Y9.071
X-24.152 Y8.452
X-24.062 Y7.834
X-23.956 Y7.22
X-23.834 Y6.608
X-23.696 Y5.999
X-23.543 Y5.394
X-23.374 Y4.794
X-23.19 Y4.197
X-22.991 Y3.606
X-22.776 Y3.021
X-22.546 Y2.441
X-22.302 Y1.866
X-22.043 Y1.299
X-21.77 Y0.738
X-21.482 Y0.184
X-21.18 Y-0.362
X-20.865 Y-0.901
X-20.536 Y-1.431
X-20.194 Y-1.953
X-19.838 Y-2.465
X-19.469 Y-2.968
X-19.088 Y-3.462
X-18.694 Y-3.946
X-18.288 Y-4.42
X-17.87 Y-4.883
X-17.44 Y-5.335
X-16.998 Y-5.776
X-16.546 Y-6.206
X-16.083 Y-6.624
X-15.608 Y-7.029
X-15.123 Y-7.422
X-14.629 Y-7.802
X-14.125 Y-8.17
X-13.61 Y-8.523
X-13.085 Y-8.859
X-12.55 Y-9.18
X-12.005 Y-9.485
X-11.454 Y-9.776
X-10.895 Y-10.054
X-10.33 Y-10.318
X-9.758 Y-10.569
X-9.181 Y-10.806
X-8.599 Y-11.03
X-8.011 Y-11.241
X-7.419 Y-11.437
X-6.822 Y-11.618
X-6.22 Y-11.783
X-5.615 Y-11.934
X-5.006 Y-12.07
X-4.394 Y-12.191
X-3.779 Y-12.295
X-3.161 Y-12.383
X-2.541 Y-12.456
X-1.92 Y-12.514
X-1.298 Y-12.555
X-0.674 Y-12.581
X-0.05 Y-12.59
X0.574 Y-12.582
X1.197 Y-12.56
X1.82 Y-12.521
X2.442 Y-12.466
X3.061 Y-12.395
X3.679 Y-12.308
X4.295 Y-12.206
X4.908 Y-12.089
X5.517 Y-11.955
X6.123 Y-11.806
X6.724 Y-11.64
X7.322 Y-11.46
X7.914 Y-11.264
X8.501 Y-11.053
X9.083 Y-10.827
X9.658 Y-10.585
X10.227 Y-10.329
X10.79 Y-10.06
X11.345 Y-9.776
X11.893 Y-9.477
X12.433 Y-9.164
X12.965 Y-8.837
X13.488 Y-8.497
X14.002 Y-8.144
X14.507 Y-7.778
X15.002 Y-7.398
X15.488 Y-7.006
X15.963 Y-6.602
X16.428 Y-6.186
X16.883 Y-5.759
X17.326 Y-5.319
X17.757 Y-4.868
X18.176 Y-4.406
X18.584 Y-3.934
X18.979 Y-3.451
X19.362 Y-2.958
X19.731 Y-2.455
X20.088 Y-1.943
X20.431 Y-1.423
X20.762 Y-0.893
X21.079 Y-0.356
X21.381 Y0.19
X21.669 Y0.744
X21.943 Y1.304
X22.203 Y1.871
X22.448 Y2.445
X22.677 Y3.025
X22.892 Y3.611
X23.092 Y4.202
X23.277 Y4.798
X23.448 Y5.398
X23.602 Y6.003
X23.74 Y6.611
X23.862 Y7.223
X23.969 Y7.838
X24.06 Y8.455
X24.135 Y9.075
X24.193 Y9.696
X24.236 Y10.318
X24.263 Y10.942
X24.275 Y11.566
X24.27 Y12.19
X24.249 Y12.813
X24.211 Y13.436
X24.158 Y14.058
X24.089 Y14.678
X24.005 Y15.296
X23.904 Y15.912
X23.787 Y16.525
X23.655 Y17.134
X23.509 Y17.741
X23.35 Y18.344
X23.178 Y18.944
X22.992 Y19.54
X22.793 Y20.131
X22.578 Y20.717
X22.463 Y21.007
X22.343 Y21.295
X22.316 Y21.448
X22.323 Y21.604
X22.365 Y21.754
X22.513 Y22.029
X22.938 Y22.486
X23.484 Y22.788
X24.078 Y22.98
X24.689 Y23.104
X25.305 Y23.202
X25.92 Y23.31
X26.356 Y23.414
X26.678 Y23.518
X26.899 Y23.61
X26.99 Y23.657
X27.146 Y23.766
X27.267 Y23.915
X27.344 Y24.09
X27.37 Y24.279
Y25.432
G0 Z5
X-26.995 Y27.059
Z-0.8
G1 Z-1.1 F200
X-26.999 Y27.052 Z-1.167
X-27.011 Y27.033 Z-1.23
X-27.029 Y27.003 Z-1.287
X-27.053 Y26.962 Z-1.335
X-27.082 Y26.913 Z-1.37
X-27.115 Y26.858 Z-1.392
X-27.149 Y26.801 Z-1.4
G3 X-27.37 Y26.048 I1.36 J-0.809
G1 Y25.056
X-27.362 Y24.906
X-27.335 Y24.758
X-27.292 Y24.615
X-27.236 Y24.476
X-27.162 Y24.333
X-27.068 Y24.18
X-26.952 Y24.021
X-26.802 Y23.849
X-26.628 Y23.677
X-26.402 Y23.488
X-26.145 Y23.306
X-25.811 Y23.108
X-25.251 Y22.834
X-24.999 Y22.649
X-24.799 Y22.41
X-24.495 Y21.865
X-24.368 Y21.255
X-24.358 Y20.631
X-24.418 Y20.01
X-24.519 Y19.394
X-24.641 Y18.782
X-24.77 Y18.172
X-24.898 Y17.561
X-25.02 Y16.949
X-25.132 Y16.335
X-25.232 Y15.719
X-25.319 Y15.101
X-25.392 Y14.482
X-25.451 Y13.861
X-25.496 Y13.238
X-25.525 Y12.615
X-25.54 Y11.991
Y11.367
X-25.524 Y10.744
X-25.493 Y10.12
X-25.448 Y9.498
X-25.387 Y8.877
X-25.311 Y8.258
X-25.22 Y7.641
X-25.114 Y7.026
X-24.993 Y6.414
X-24.857 Y5.805
X-24.707 Y5.199
X-24.541 Y4.597
X-24.361 Y4
X-24.166 Y3.408
X-23.956 Y2.82
X-23.732 Y2.238
X-23.494 Y1.661
X-23.241 Y1.09
X-22.975 Y0.526
X-22.695 Y-0.032
X-22.402 Y-0.582
X-22.096 Y-1.126
X-21.776 Y-1.662
X-21.444 Y-2.19
X-21.099 Y-2.71
X-20.741 Y-3.221
X-20.371 Y-3.723
X-19.989 Y-4.217
X-19.595 Y-4.7
X-19.189 Y-5.174
X-18.771 Y-5.638
X-18.343 Y-6.091
X-17.903 Y-6.534
X-17.453 Y-6.967
X-16.993 Y-7.387
X-16.522 Y-7.797
X-16.041 Y-8.194
X-15.55 Y-8.579
X-15.049 Y-8.952
X-14.539 Y-9.31
X-14.018 Y-9.655
X-13.489 Y-9.985
X-12.951 Y-10.3
X-12.405 Y-10.602
X-11.852 Y-10.891
X-11.292 Y-11.167
X-10.726 Y-11.429
X-10.154 Y-11.678
X-9.576 Y-11.915
X-8.994 Y-12.138
X-8.406 Y-12.348
X-7.814 Y-12.545
X-7.217 Y-12.727
X-6.616 Y-12.895
X-6.012 Y-13.049
X-5.403 Y-13.188
X-4.792 Y-13.313
X-4.178 Y-13.422
X-4.107 Y-13.431
X-4.072 Y-13.434
X-4.037 Y-13.435
X2.834
X3.457 Y-13.404
X4.08 Y-13.364
X4.699 Y-13.286
X5.314 Y-13.18
X5.924 Y-13.052
X6.531 Y-12.904
X7.132 Y-12.74
X7.73 Y-12.56
X8.322 Y-12.364
X8.909 Y-12.153
X9.491 Y-11.928
X10.067 Y-11.688
X10.637 Y-11.434
X11.201 Y-11.167
X11.758 Y-10.886
X12.308 Y-10.591
X12.85 Y-10.283
X13.385 Y-9.961
X13.911 Y-9.626
X14.43 Y-9.278
X14.939 Y-8.918
X15.439 Y-8.545
X15.931 Y-8.161
X16.412 Y-7.764
X16.884 Y-7.356
X17.346 Y-6.937
X17.798 Y-6.506
X18.238 Y-6.064
X18.668 Y-5.612
X19.087 Y-5.149
X19.494 Y-4.676
X19.889 Y-4.193
X20.272 Y-3.701
X20.643 Y-3.199
X21.002 Y-2.689
X21.348 Y-2.17
X21.682 Y-1.643
X22.002 Y-1.107
X22.309 Y-0.564
X22.602 Y-0.013
X22.882 Y0.545
X23.148 Y1.109
X23.4 Y1.68
X23.638 Y2.257
X23.862 Y2.839
X24.071 Y3.427
X24.267 Y4.019
X24.448 Y4.616
X24.614 Y5.218
X24.765 Y5.823
X24.901 Y6.432
X25.023 Y7.044
X25.129 Y7.659
X25.22 Y8.276
X25.296 Y8.895
X25.357 Y9.516
X25.402 Y10.139
X25.433 Y10.762
X25.449 Y11.386
X25.448 Y12.01
X25.432 Y12.633
X25.401 Y13.257
X25.355 Y13.879
X25.293 Y14.5
X25.216 Y15.119
X25.124 Y15.736
X25.017 Y16.351
X24.896 Y16.963
X24.761 Y17.572
X24.612 Y18.178
X24.451 Y18.78
X24.276 Y19.379
X24.088 Y19.974
X24.075 Y20.13
X24.116 Y20.439
X24.25 Y20.721
X24.633 Y21.213
X25.146 Y21.568
X25.709 Y21.837
X26.288 Y22.07
X26.734 Y22.259
X26.992 Y22.394
X27.043 Y22.427
X27.179 Y22.538
X27.283 Y22.681
X27.348 Y22.844
X27.37 Y23.019
Y24.279
G0 Z5
X1.822 Y-13.06
Z-0.8
G1 Z-1.1 F200
X1.829 Y-13.064 Z-1.167
X1.848 Y-13.076 Z-1.23
X1.879 Y-13.094 Z-1.287
X1.919 Y-13.118 Z-1.335
X1.968 Y-13.147 Z-1.37
X2.023 Y-13.18 Z-1.392
X2.08 Y-13.214 Z-1.4
G3 X2.834 Y-13.435 I0.809 J1.36
G1 X7.51
X8.052 Y-13.408
X8.516 Y-13.347
X9.126 Y-13.216
X9.724 Y-13.038
X10.311 Y-12.826
X10.889 Y-12.591
X11.459 Y-12.337
X12.021 Y-12.066
X12.576 Y-11.78
X13.123 Y-11.48
X13.453 Y-11.288
X13.506 Y-11.254
X13.555 Y-11.216
X13.6 Y-11.174
G3 X13.275 Y-10.69 I-0.221 J0.203
G1 X7.416 Y-12.854
G3 X7.51 Y-13.435 I0.104 J-0.281
G1 X10.627
X10.768
X10.811
X10.961 Y-13.427
X11.212 Y-13.392
X11.359 Y-13.355
X11.495 Y-13.287
X11.613 Y-13.19
G3 X11.317 Y-12.697 I-0.221 J0.203
G1 X11.302 Y-12.701
X10.747 Y-12.845
G3 X10.811 Y-13.435 I0.075 J-0.29
G1 X11.194
X11.335 Y-13.434
X11.35 Y-13.431
X11.366 Y-13.427
X11.381 Y-13.42
X11.396 Y-13.41
X11.955 Y-12.843
X22.245 Y-2.401
X22.661 Y-1.935
X23.04 Y-1.446
X23.382 Y-0.924
X23.694 Y-0.383
X23.984 Y0.169
X24.255 Y0.731
X24.509 Y1.301
X24.748 Y1.877
X24.972 Y2.46
X25.183 Y3.047
X25.379 Y3.639
X25.561 Y4.236
X25.729 Y4.837
X25.883 Y5.442
X26.023 Y6.05
X26.148 Y6.661
X26.259 Y7.275
X26.355 Y7.892
X26.436 Y8.51
X26.503 Y9.131
X26.555 Y9.752
X26.593 Y10.375
X26.617 Y10.999
X26.626 Y11.622
X26.619 Y12.246
X26.599 Y12.87
X26.563 Y13.493
X26.513 Y14.115
X26.449 Y14.735
X26.37 Y15.354
X26.277 Y15.971
X26.169 Y16.586
X26.049 Y17.198
X25.914 Y17.807
X25.767 Y18.414
X25.687 Y18.715
X25.652 Y19.025
X25.709 Y19.332
X25.955 Y19.905
X26.368 Y20.373
X26.852 Y20.767
X27.1 Y20.961
X27.246 Y21.115
X27.338 Y21.305
X27.37 Y21.513
Y23.019
G0 Z5
X21.269 Y-2.858
Z-0.8
G1 Z-1.1 F200
X21.276 Y-2.856 Z-1.167
X21.297 Y-2.851 Z-1.23
X21.332 Y-2.842 Z-1.287
X21.378 Y-2.829 Z-1.335
X21.433 Y-2.815 Z-1.37
X21.494 Y-2.799 Z-1.392
X21.559 Y-2.782 Z-1.4
G3 X22.245 Y-2.401 I-0.401 J1.531
G1 X24.796 Y0.188
X25.086 Y0.513
X25.324 Y0.827
X25.596 Y1.255
X25.888 Y1.807
X26.141 Y2.377
X26.365 Y2.96
X26.566 Y3.55
X26.75 Y4.147
X26.916 Y4.748
X27.068 Y5.353
X27.205 Y5.962
X27.327 Y6.574
X27.359 Y6.757
X27.365 Y6.797
X27.369 Y6.837
X27.37 Y6.878
G3 X26.79 Y6.975 I-0.3 J-0.01
G1 X24.31 Y0.513
G3 X24.796 Y0.188 I0.28 J-0.108
G1 X26.757 Y2.177
X26.964 Y2.41
X27.148 Y2.654
X27.26 Y2.83
X27.321 Y2.947
X27.358 Y3.074
X27.37 Y3.206
G3 X26.819 Y3.359 I-0.3 J-0.01
G1 X26.804 Y3.337
X26.299 Y2.559
G3 X26.757 Y2.177 I0.252 J-0.163
G1 X27.315 Y2.744
X27.346 Y2.778
X27.354 Y2.791
X27.36 Y2.805
X27.368 Y2.832
X27.37 Y2.845
Y15.356
X27.339 Y15.979
X27.291 Y16.601
X27.205 Y17.219
X27.093 Y17.833
X27.099 Y18.145
X27.228 Y18.755
X27.29 Y18.872
X27.334 Y18.976
X27.361 Y19.085
X27.37 Y19.198
G3 X26.77 Y19.187 I-0.3 J-0.01
G1 Y15.366
G3 X27.37 Y15.356 I0.3 J0
G1 Y21.513
G0 Z5
X-26.995 Y26.067
Z-0.8
G1 Z-1.1 F200
X-26.999 Y26.061 Z-1.167
X-27.011 Y26.041 Z-1.23
X-27.029 Y26.011 Z-1.287
X-27.053 Y25.97 Z-1.335
X-27.082 Y25.921 Z-1.37
X-27.115 Y25.867 Z-1.392
X-27.149 Y25.809 Z-1.4
G3 X-27.37 Y25.056 I1.36 J-0.809
G1 Y24
X-27.362 Y23.85
X-27.334 Y23.703
X-27.29 Y23.559
X-27.234 Y23.42
X-27.158 Y23.271
X-27.06 Y23.11
X-26.939 Y22.943
X-26.532 Y22.47
X-26.152 Y21.976
X-25.917 Y21.398
X-25.808 Y20.783
X-25.791 Y20.159
X-25.833 Y19.537
X-25.911 Y18.918
X-26.008 Y18.302
X-26.22 Y17.072
X-26.321 Y16.456
X-26.414 Y15.839
X-26.496 Y15.221
X-26.566 Y14.601
X-26.624 Y13.979
X-26.668 Y13.357
X-26.699 Y12.734
X-26.715 Y12.11
X-26.718 Y11.486
X-26.706 Y10.862
X-26.679 Y10.239
X-26.638 Y9.616
X-26.583 Y8.995
X-26.513 Y8.375
X-26.428 Y7.757
X-26.329 Y7.141
X-26.216 Y6.527
X-26.089 Y5.916
X-25.947 Y5.309
X-25.791 Y4.704
X-25.621 Y4.104
X-25.437 Y3.508
X-25.239 Y2.916
X-25.027 Y2.329
X-24.802 Y1.748
X-24.562 Y1.171
X-24.31 Y0.601
X-24.044 Y0.036
X-23.765 Y-0.522
X-23.474 Y-1.074
X-23.417 Y-1.176
X-23.384 Y-1.23
X-23.346 Y-1.28
X-23.304 Y-1.326
X-14.19 Y-10.576
X-13.798 Y-10.935
X-13.332 Y-11.299
X-12.811 Y-11.642
X-12.27 Y-11.954
X-11.717 Y-12.242
X-11.155 Y-12.512
X-10.585 Y-12.766
X-10.008 Y-13.005
X-9.427 Y-13.231
X-8.975 Y-13.393
X-8.898 Y-13.416
X-8.818 Y-13.43
X-8.738 Y-13.435
G3 X-8.608 Y-12.87 I-0.01 J0.3
G1 X-13.828 Y-10.108
G3 X-14.19 Y-10.576 I-0.14 J-0.265
G1 X-11.816 Y-12.985
X-11.76 Y-13.041
X-11.676 Y-13.127
X-11.529 Y-13.262
X-11.497 Y-13.287
X-11.365 Y-13.368
X-11.219 Y-13.418
X-11.066 Y-13.435
G3 X-10.93 Y-12.873 I-0.01 J0.3
G1 X-10.936 Y-12.87
X-11.309 Y-12.662
G3 X-11.676 Y-13.127 I-0.146 J-0.262
G1 X-11.396 Y-13.41
X-11.381 Y-13.42
X-11.366 Y-13.427
X-11.35 Y-13.431
X-11.335 Y-13.434
X-11.052 Y-13.435
X-4.037
G0 Z5
X-26.995 Y25.011
Z-0.8
G1 Z-1.1 F200
X-26.999 Y25.005 Z-1.167
X-27.011 Y24.986 Z-1.23
X-27.029 Y24.955 Z-1.287
X-27.053 Y24.914 Z-1.335
X-27.082 Y24.865 Z-1.37
X-27.115 Y24.811 Z-1.392
X-27.149 Y24.753 Z-1.4
G3 X-27.37 Y24 I1.36 J-0.809
G1 Y22.866
X-27.362 Y22.716
X-27.279 Y22.098
X-27.164 Y21.485
X-27.098 Y20.864
X-27.083 Y20.241
X-27.112 Y19.617
X-27.171 Y18.996
X-27.25 Y18.377
X-27.34 Y17.76
X-27.362 Y17.607
X-27.367 Y17.573
X-27.369 Y17.538
X-27.37 Y17.504
G3 X-26.77 Y17.514 I0.3 J0.01
G1 Y22.856
G3 X-27.37 Y22.866 I-0.3 J0
G1 Y7.562
X-27.339 Y6.939
X-27.289 Y6.317
X-27.197 Y5.7
X-27.077 Y5.088
X-26.934 Y4.48
X-26.772 Y3.878
X-26.595 Y3.28
X-26.402 Y2.686
X-26.195 Y2.097
X-25.975 Y1.514
X-25.938 Y1.423
X-25.898 Y1.34
X-25.848 Y1.263
X-25.788 Y1.194
G3 X-25.29 Y1.483 I0.206 J0.218
G1 X-25.293 Y1.498
X-26.779 Y7.622
G3 X-27.37 Y7.562 I-0.292 J-0.071
G1 Y3.169
Y2.845
X-27.368 Y2.832
X-27.36 Y2.805
X-27.354 Y2.791
X-27.346 Y2.778
X-27.315 Y2.744
X-23.304 Y-1.326
G3 X-22.871 Y-1.304 I0.206 J0.218
G1 X-22.847 Y-1.257 Z-1.395
X-22.825 Y-1.211 Z-1.381
X-22.804 Y-1.168 Z-1.358
X-22.801 Y-1.136 Z-1.336
X-22.798 Y-1.108 Z-1.311
X-22.803 Y-1.072 Z-1.266
X-22.807 Y-1.045 Z-1.214
X-22.81 Y-1.028 Z-1.158
Y-1.023 Z-1.1
G0 Z5
X-26.752 Y30.049
Z-1.5
G1 Z-1.8 F200
X-26.756 Y30.043 Z-1.867
X-26.767 Y30.024 Z-1.93
X-26.785 Y29.993 Z-1.987
X-26.809 Y29.952 Z-2.035
X-26.839 Y29.903 Z-2.07
X-26.871 Y29.849 Z-2.092
X-26.905 Y29.791 Z-2.1
G3 X-27.37 Y28.208 I2.858 J-1.699
G1 Y28.037
X-27.368 Y27.999
X-27.28 Y27.878
X-27.174 Y27.771
X-27.058 Y27.677
X-26.933 Y27.593
X-26.803 Y27.518
X-26.669 Y27.451
X-26.531 Y27.392
X-26.391 Y27.339
X-26.249 Y27.291
X-26.105 Y27.249
X-25.96 Y27.211
X-25.814 Y27.176
X-25.667 Y27.146
X-25.519 Y27.118
X-25.371 Y27.094
X-25.223 Y27.072
X-25.074 Y27.052
X-24.925 Y27.034
X-24.776 Y27.018
X-24.627 Y27.004
X-24.478 Y26.991
X-24.328 Y26.979
X-24.172 Y26.969
X-23.998 Y26.958
X-23.799 Y26.947
X-23.57 Y26.936
X-23.298 Y26.925
X-22.964 Y26.914
X-22.532 Y26.904
X-21.923 Y26.893
X-21.299 Y26.886
X-20.675 Y26.882
X-19.427 Y26.879
X-16.697 Y26.877
X-16.229
X-16.077 Y26.843
X-15.936 Y26.775
X-15.814 Y26.678
X-15.716 Y26.557
X-15.648 Y26.417
X-15.612 Y26.265
X-15.611 Y26.109
X-15.644 Y25.956
X-15.91 Y25.392
X-16.139 Y25.067
X-16.449 Y24.621
X-16.801 Y24.106
X-17.151 Y23.589
X-17.409 Y23.206
X-17.491 Y23.08
X-17.571 Y22.954
X-17.65 Y22.826
X-17.728 Y22.698
X-17.804 Y22.569
X-17.88 Y22.439
X-17.961 Y22.297
X-18.051 Y22.137
X-18.152 Y21.952
X-18.269 Y21.736
X-18.408 Y21.476
X-18.579 Y21.15
X-18.738 Y20.839
X-18.806 Y20.705
X-18.872 Y20.57
X-18.935 Y20.434
X-18.997 Y20.298
X-19.058 Y20.16
X-19.117 Y20.022
X-19.174 Y19.884
X-19.233 Y19.742
X-19.297 Y19.582
X-19.368 Y19.4
X-19.448 Y19.189
X-19.542 Y18.94
X-19.653 Y18.635
X-19.79 Y18.254
X-19.84 Y18.112
X-19.887 Y17.97
X-19.932 Y17.827
X-19.976 Y17.683
X-20.017 Y17.539
X-20.058 Y17.395
X-20.097 Y17.25
X-20.134 Y17.105
X-20.175 Y16.943
X-20.22 Y16.759
X-20.27 Y16.548
X-20.327 Y16.3
X-20.394 Y16
X-20.475 Y15.62
X-20.505 Y15.473
X-20.535 Y15.326
X-20.561 Y15.178
X-20.586 Y15.03
X-20.609 Y14.882
X-20.631 Y14.734
X-20.651 Y14.585
X-20.67 Y14.436
X-20.688 Y14.281
X-20.707 Y14.107
X-20.727 Y13.909
X-20.749 Y13.68
X-20.773 Y13.409
X-20.8 Y13.075
X-20.825 Y12.728
X-20.835 Y12.579
X-20.843 Y12.429
X-20.848 Y12.279
X-20.851 Y12.129
X-20.853 Y11.979
X-20.854 Y11.829
X-20.852 Y11.679
X-20.85 Y11.528
X-20.846 Y11.36
X-20.841 Y11.17
X-20.832 Y10.951
X-20.821 Y10.694
X-20.805 Y10.383
X-20.781 Y9.988
X-20.771 Y9.839
X-20.76 Y9.689
X-20.746 Y9.54
X-20.73 Y9.391
X-20.712 Y9.242
X-20.693 Y9.093
X-20.672 Y8.944
X-20.65 Y8.796
X-20.626 Y8.638
X-20.597 Y8.461
X-20.563 Y8.259
X-20.521 Y8.025
X-20.469 Y7.746
X-20.402 Y7.401
X-20.347 Y7.125
X-20.316 Y6.979
X-20.283 Y6.832
X-20.248 Y6.686
X-20.212 Y6.541
X-20.173 Y6.396
X-20.133 Y6.251
X-20.092 Y6.107
X-20.049 Y5.961
X-20 Y5.798
X-19.943 Y5.613
X-19.876 Y5.402
X-19.794 Y5.153
X-19.693 Y4.851
X-19.562 Y4.467
X-19.512 Y4.325
X-19.461 Y4.185
X-19.407 Y4.045
X-19.351 Y3.905
X-19.294 Y3.767
X-19.235 Y3.628
X-19.175 Y3.491
X-19.114 Y3.354
X-19.046 Y3.203
X-18.967 Y3.034
X-18.876 Y2.84
X-18.767 Y2.614
X-18.634 Y2.342
X-18.464 Y2.002
X-18.386 Y1.848
X-18.317 Y1.715
X-18.246 Y1.583
X-18.173 Y1.452
X-18.099 Y1.322
X-18.023 Y1.192
X-17.946 Y1.064
X-17.868 Y0.936
X-17.786 Y0.804
X-17.693 Y0.658
X-17.587 Y0.492
X-17.463 Y0.302
X-17.314 Y0.078
X-17.13 Y-0.194
X-16.92 Y-0.5
X-16.835 Y-0.623
X-16.747 Y-0.745
X-16.658 Y-0.865
X-16.567 Y-0.985
X-16.475 Y-1.103
X-16.381 Y-1.22
X-16.287 Y-1.337
X-16.191 Y-1.453
X-16.083 Y-1.582
X-15.961 Y-1.726
X-15.819 Y-1.891
X-15.65 Y-2.083
X-15.445 Y-2.314
X-15.183 Y-2.605
X-15.082 Y-2.715
X-14.979 Y-2.825
X-14.876 Y-2.933
X-14.77 Y-3.04
X-14.664 Y-3.146
X-14.556 Y-3.25
X-14.447 Y-3.353
X-14.337 Y-3.455
X-14.221 Y-3.562
X-14.09 Y-3.681
X-13.939 Y-3.815
X-13.764 Y-3.969
X-13.554 Y-4.151
X-13.294 Y-4.373
X-13.051 Y-4.577
X-12.935 Y-4.673
X-12.818 Y-4.767
X-12.7 Y-4.859
X-12.58 Y-4.95
X-12.46 Y-5.039
X-12.338 Y-5.127
X-12.216 Y-5.214
X-12.092 Y-5.301
X-11.953 Y-5.397
X-11.794 Y-5.505
X-11.611 Y-5.627
X-11.394 Y-5.77
X-11.13 Y-5.941
X-10.792 Y-6.155
X-10.665 Y-6.235
X-10.537 Y-6.313
X-10.408 Y-6.389
X-10.277 Y-6.463
X-9.711 Y-6.726
X-9.142 Y-6.981
X-8.571 Y-7.232
X-7.999 Y-7.481
X-7.42 Y-7.716
X-6.831 Y-7.921
X-6.237 Y-8.109
X-5.639 Y-8.289
X-5.04 Y-8.462
X-4.431 Y-8.601
X-3.818 Y-8.716
X-3.202 Y-8.818
X-2.586 Y-8.912
X-1.966 Y-8.987
X-1.344 Y-9.03
X-0.72 Y-9.054
X-0.096 Y-9.068
X0.527 Y-9.076
X1.151 Y-9.047
X1.772 Y-8.994
X2.393 Y-8.928
X3.012 Y-8.855
X3.629 Y-8.761
X4.24 Y-8.636
X4.848 Y-8.492
X5.453 Y-8.339
X6.056 Y-8.181
X6.649 Y-7.986
X7.234 Y-7.769
X7.814 Y-7.539
X8.392 Y-7.303
X8.961 Y-7.047
X9.516 Y-6.763
X10.063 Y-6.463
X10.605 Y-6.154
X11.145 Y-5.841
X11.663 Y-5.494
X12.169 Y-5.128
X12.667 Y-4.752
X13.161 Y-4.371
X13.64 Y-3.972
X14.1 Y-3.549
X14.547 Y-3.114
X14.987 Y-2.672
X15.423 Y-2.226
X15.83 Y-1.753
X16.219 Y-1.265
X16.599 Y-0.77
X16.973 Y-0.27
X17.328 Y0.243
X17.658 Y0.772
X17.972 Y1.311
X18.278 Y1.855
X18.579 Y2.401
X18.845 Y2.966
X19.09 Y3.54
X19.323 Y4.118
X19.55 Y4.7
X19.755 Y5.289
X19.931 Y5.888
X20.091 Y6.491
X20.241 Y7.096
X20.384 Y7.704
X20.489 Y8.319
X20.572 Y8.937
X20.643 Y9.557
X20.706 Y10.178
X20.746 Y10.8
X20.756 Y11.424
X20.748 Y12.048
X20.731 Y12.672
X20.706 Y13.295
X20.643 Y13.916
X20.558 Y14.534
X20.461 Y15.151
X20.357 Y15.766
X20.228 Y16.376
X20.07 Y16.98
X19.897 Y17.579
X19.714 Y18.176
X19.523 Y18.77
X19.454 Y18.987
X19.407 Y19.13
X19.357 Y19.271
X19.306 Y19.412
X19.254 Y19.553
X19.2 Y19.693
X19.144 Y19.832
X19.085 Y19.98
X19.016 Y20.145
X18.937 Y20.332
X18.844 Y20.55
X18.752 Y20.757
X18.691 Y20.894
X18.627 Y21.03
X18.562 Y21.164
X18.494 Y21.298
X18.425 Y21.431
X18.354 Y21.564
X18.282 Y21.695
X18.209 Y21.826
X18.132 Y21.961
X18.045 Y22.111
X17.946 Y22.28
X17.829 Y22.475
X17.689 Y22.704
X17.517 Y22.983
X17.371 Y23.214
X17.29 Y23.34
X17.207 Y23.465
X17.123 Y23.589
X17.037 Y23.712
X16.949 Y23.834
X16.86 Y23.955
X16.771 Y24.075
X16.679 Y24.195
X16.577 Y24.327
X16.46 Y24.476
X16.324 Y24.647
X16.164 Y24.845
X15.968 Y25.084
X15.654 Y25.458
X15.583 Y25.597
X15.543 Y25.748
X15.539 Y25.904
X15.569 Y26.057
X15.632 Y26.199
X15.725 Y26.325
X15.843 Y26.426
X16.119 Y26.571
X16.73 Y26.698
X17.35 Y26.772
X17.972 Y26.816
X18.596 Y26.842
X19.219 Y26.856
X19.843 Y26.865
X20.467 Y26.87
X21.091 Y26.873
X22.339 Y26.876
X26.083 Y26.877
X26.67
X26.886 Y26.911
X27.081 Y27.011
X27.236 Y27.166
X27.336 Y27.361
X27.37 Y27.577
G0 Z5
X-26.995 Y29.048
Z-1.5
G1 Z-1.8 F200
X-26.999 Y29.042 Z-1.867
X-27.011 Y29.022 Z-1.93
X-27.029 Y28.992 Z-1.987
X-27.053 Y28.951 Z-2.035
X-27.082 Y28.902 Z-2.07
X-27.115 Y28.847 Z-2.092
X-27.149 Y28.79 Z-2.1
G3 X-27.37 Y28.037 I1.36 J-0.809
G1 Y27.606
X-27.362 Y27.456
X-27.303 Y27.319
X-27.227 Y27.189
X-27.138 Y27.069
X-27.037 Y26.955
X-26.911 Y26.835
X-26.759 Y26.711
X-26.571 Y26.582
X-26.34 Y26.449
X-26.052 Y26.312
X-25.685 Y26.174
X-25.199 Y26.033
X-24.588 Y25.909
X-23.969 Y25.828
X-23.347 Y25.774
X-22.724 Y25.739
X-22.101 Y25.717
X-21.477 Y25.702
X-20.853 Y25.693
X-20.229 Y25.687
X-19.371 Y25.682
X-19.215
X-19.063 Y25.647
X-18.923 Y25.579
X-18.801 Y25.482
X-18.704 Y25.36
X-18.636 Y25.219
X-18.565 Y24.915
X-18.626 Y24.294
X-18.793 Y23.693
X-19.017 Y23.111
X-19.269 Y22.54
X-19.535 Y21.976
X-19.798 Y21.41
X-20.052 Y20.84
X-20.293 Y20.264
X-20.523 Y19.684
X-20.742 Y19.1
X-20.943 Y18.51
X-21.125 Y17.913
X-21.29 Y17.311
X-21.441 Y16.706
X-21.578 Y16.097
X-21.694 Y15.484
X-21.791 Y14.867
X-21.87 Y14.249
X-21.935 Y13.628
X-21.985 Y13.006
X-22.013 Y12.383
X-22.021 Y11.759
X-22.013 Y11.135
X-21.991 Y10.511
X-21.951 Y9.889
X-21.89 Y9.268
X-21.81 Y8.649
X-21.715 Y8.032
X-21.606 Y7.418
X-21.478 Y6.807
X-21.329 Y6.201
X-21.163 Y5.6
X-20.982 Y5.003
X-20.788 Y4.41
X-20.574 Y3.824
X-20.341 Y3.245
X-20.091 Y2.673
X-19.829 Y2.107
X-19.552 Y1.548
X-19.257 Y0.998
X-18.944 Y0.458
X-18.617 Y-0.073
X-18.279 Y-0.597
X-17.926 Y-1.112
X-17.555 Y-1.614
X-17.169 Y-2.104
X-16.771 Y-2.584
X-16.362 Y-3.056
X-15.939 Y-3.514
X-15.501 Y-3.959
X-15.05 Y-4.389
X-14.588 Y-4.809
X-14.117 Y-5.219
X-13.633 Y-5.613
X-13.136 Y-5.99
X-12.629 Y-6.353
X-12.114 Y-6.705
X-11.59 Y-7.043
X-11.047 Y-7.352
X-10.493 Y-7.639
X-9.932 Y-7.911
X-9.366 Y-8.173
X-8.795 Y-8.425
X-8.217 Y-8.662
X-7.633 Y-8.88
X-7.043 Y-9.084
X-6.45 Y-9.276
X-5.851 Y-9.453
X-5.247 Y-9.61
X-4.639 Y-9.748
X-4.027 Y-9.869
X-3.412 Y-9.976
X-2.795 Y-10.068
X-2.175 Y-10.138
X-1.553 Y-10.188
X-0.93 Y-10.222
X-0.306 Y-10.245
X0.317 Y-10.246
X0.941 Y-10.226
X1.564 Y-10.187
X2.185 Y-10.133
X2.806 Y-10.065
X3.423 Y-9.977
X4.038 Y-9.868
X4.649 Y-9.742
X5.257 Y-9.603
X5.862 Y-9.449
X6.46 Y-9.273
X7.053 Y-9.078
X7.64 Y-8.867
X8.223 Y-8.644
X8.799 Y-8.404
X9.366 Y-8.145
X9.925 Y-7.868
X10.477 Y-7.577
X11.024 Y-7.276
X11.56 Y-6.956
X12.084 Y-6.617
X12.597 Y-6.263
X13.103 Y-5.898
X13.6 Y-5.52
X14.083 Y-5.126
X14.554 Y-4.716
X15.013 Y-4.294
X15.464 Y-3.862
X15.903 Y-3.418
X16.326 Y-2.96
X16.733 Y-2.487
X17.128 Y-2.005
X17.513 Y-1.513
X17.883 Y-1.011
X18.236 Y-0.496
X18.573 Y0.029
X18.896 Y0.562
X19.21 Y1.102
X19.505 Y1.652
X19.78 Y2.212
X20.038 Y2.78
X20.284 Y3.353
X20.515 Y3.933
X20.727 Y4.52
X20.92 Y5.113
X21.096 Y5.712
X21.26 Y6.314
X21.408 Y6.92
X21.534 Y7.531
X21.641 Y8.146
X21.731 Y8.763
X21.808 Y9.382
X21.867 Y10.003
X21.905 Y10.626
X21.923 Y11.25
X21.926 Y11.874
X21.917 Y12.498
X21.887 Y13.121
X21.834 Y13.742
X21.763 Y14.362
X21.679 Y14.981
X21.579 Y15.596
X21.459 Y16.209
X21.318 Y16.817
X21.162 Y17.421
X20.992 Y18.021
X20.814 Y18.619
X20.622 Y19.213
X20.412 Y19.8
X20.187 Y20.382
X19.945 Y20.957
X19.682 Y21.523
X19.398 Y22.079
X19.098 Y22.626
X18.784 Y23.165
X18.456 Y23.696
X18.369 Y23.825
X18.281 Y23.954
X18.224 Y24.099
X18.201 Y24.254
X18.212 Y24.409
X18.258 Y24.558
X18.335 Y24.694
X18.546 Y24.924
X19.094 Y25.223
X19.69 Y25.407
X20.304 Y25.518
X20.924 Y25.584
X21.547 Y25.623
X22.171 Y25.645
X22.794 Y25.659
X23.418 Y25.666
X24.042 Y25.671
X24.666 Y25.673
X25.907 Y25.677
X26.208 Y25.702
X26.485 Y25.748
X26.686 Y25.798
X26.889 Y25.866
X26.946 Y25.891
X27.119 Y25.997
X27.254 Y26.149
X27.34 Y26.333
X27.37 Y26.534
Y26.628
G0 Z5
X-26.995 Y28.618
Z-1.5
G1 Z-1.8 F200
X-26.999 Y28.611 Z-1.867
X-27.011 Y28.592 Z-1.93
X-27.029 Y28.561 Z-1.987
X-27.053 Y28.521 Z-2.035
X-27.082 Y28.472 Z-2.07
X-27.115 Y28.417 Z-2.092
X-27.149 Y28.36 Z-2.1
G3 X-27.37 Y27.606 I1.36 J-0.809
G1 Y26.933
X-27.362 Y26.783
X-27.329 Y26.637
X-27.276 Y26.496
X-27.209 Y26.362
X-27.13 Y26.235
X-27.031 Y26.101
X-26.908 Y25.961
X-26.762 Y25.819
X-26.57 Y25.66
X-26.36 Y25.514
X-26.077 Y25.347
X-25.76 Y25.195
X-25.342 Y25.033
X-24.811 Y24.875
X-24.2 Y24.746
X-23.583 Y24.657
X-22.962 Y24.597
X-22.339 Y24.557
X-21.716 Y24.53
X-21.56 Y24.525
X-21.409 Y24.486
X-21.27 Y24.415
X-21.151 Y24.314
X-21.057 Y24.19
X-20.928 Y23.906
X-20.828 Y23.29
X-20.878 Y22.668
X-21.012 Y22.058
X-21.19 Y21.461
X-21.39 Y20.869
X-21.598 Y20.281
X-21.803 Y19.692
X-21.998 Y19.099
X-22.181 Y18.503
X-22.352 Y17.902
X-22.509 Y17.299
X-22.651 Y16.691
X-22.776 Y16.08
X-22.884 Y15.465
X-22.977 Y14.848
X-23.054 Y14.229
X-23.115 Y13.608
X-23.158 Y12.986
X-23.184 Y12.362
X-23.193 Y11.738
X-23.187 Y11.115
X-23.164 Y10.491
X-23.124 Y9.868
X-23.066 Y9.247
X-22.992 Y8.628
X-22.902 Y8.01
X-22.796 Y7.395
X-22.672 Y6.784
X-22.531 Y6.176
X-22.374 Y5.572
X-22.202 Y4.972
X-22.014 Y4.377
X-21.809 Y3.788
X-21.588 Y3.205
X-21.351 Y2.627
X-21.1 Y2.056
X-20.834 Y1.492
X-20.553 Y0.935
X-20.255 Y0.386
X-19.943 Y-0.154
X-19.618 Y-0.687
X-19.28 Y-1.211
X-18.926 Y-1.725
X-18.558 Y-2.229
X-18.177 Y-2.722
X-17.783 Y-3.207
X-17.377 Y-3.68
X-16.957 Y-4.142
X-16.525 Y-4.592
X-16.08 Y-5.029
X-15.625 Y-5.456
X-15.159 Y-5.871
X-14.681 Y-6.272
X-14.192 Y-6.66
X-13.693 Y-7.034
X-13.185 Y-7.396
X-12.666 Y-7.743
X-12.135 Y-8.07
X-11.592 Y-8.379
X-11.041 Y-8.671
X-10.483 Y-8.949
X-9.918 Y-9.215
X-9.348 Y-9.468
X-8.771 Y-9.705
X-8.188 Y-9.929
X-7.6 Y-10.138
X-7.008 Y-10.334
X-6.411 Y-10.514
X-5.808 Y-10.677
X-5.202 Y-10.824
X-4.592 Y-10.955
X-3.979 Y-11.071
X-3.363 Y-11.171
X-2.744 Y-11.253
X-2.124 Y-11.317
X-1.502 Y-11.366
X-0.879 Y-11.4
X-0.255 Y-11.417
X0.369 Y-11.414
X0.993 Y-11.395
X1.615 Y-11.359
X2.237 Y-11.308
X2.858 Y-11.24
X3.476 Y-11.154
X4.091 Y-11.05
X4.703 Y-10.932
X5.313 Y-10.798
X5.918 Y-10.647
X6.519 Y-10.478
X7.115 Y-10.293
X7.706 Y-10.092
X8.291 Y-9.877
X8.871 Y-9.646
X9.443 Y-9.398
X10.009 Y-9.134
X10.567 Y-8.856
X11.119 Y-8.565
X11.663 Y-8.258
X12.197 Y-7.936
X12.721 Y-7.598
X13.237 Y-7.247
X13.744 Y-6.883
X14.241 Y-6.506
X14.727 Y-6.114
X15.201 Y-5.709
X15.666 Y-5.292
X16.119 Y-4.864
X16.561 Y-4.423
X16.989 Y-3.97
X17.405 Y-3.504
X17.809 Y-3.029
X18.2 Y-2.543
X18.578 Y-2.046
X18.942 Y-1.539
X19.291 Y-1.022
X19.627 Y-0.497
X19.951 Y0.037
X20.259 Y0.579
X20.551 Y1.131
X20.827 Y1.69
X21.089 Y2.256
X21.337 Y2.829
X21.569 Y3.408
X21.784 Y3.994
X21.983 Y4.586
X22.166 Y5.182
X22.335 Y5.782
X22.487 Y6.388
X22.621 Y6.997
X22.738 Y7.61
X22.84 Y8.225
X22.926 Y8.843
X22.995 Y9.464
X23.046 Y10.085
X23.079 Y10.709
X23.098 Y11.332
X23.1 Y11.956
X23.086 Y12.58
X23.052 Y13.203
X23.002 Y13.825
X22.936 Y14.445
X22.853 Y15.064
X22.754 Y15.68
X22.638 Y16.293
X22.504 Y16.902
X22.355 Y17.508
X22.193 Y18.111
X22.019 Y18.71
X21.831 Y19.305
X21.628 Y19.895
X21.41 Y20.479
X21.176 Y21.058
X20.923 Y21.628
X20.653 Y22.191
X20.51 Y22.468
X20.437 Y22.606
X20.397 Y22.757
X20.39 Y22.912
X20.419 Y23.066
X20.48 Y23.209
X20.664 Y23.461
X21.153 Y23.849
X21.726 Y24.095
X22.331 Y24.248
X22.948 Y24.34
X23.57 Y24.396
X24.193 Y24.429
X24.817 Y24.449
X25.44 Y24.472
X25.973 Y24.523
X26.321 Y24.585
X26.615 Y24.662
X26.823 Y24.735
X26.953 Y24.792
X27.124 Y24.899
X27.257 Y25.05
X27.341 Y25.233
X27.37 Y25.432
Y26.534
G0 Z5
X-26.995 Y27.944
Z-1.5
G1 Z-1.8 F200
X-26.999 Y27.938 Z-1.867
X-27.011 Y27.919 Z-1.93
X-27.029 Y27.888 Z-1.987
X-27.053 Y27.847 Z-2.035
X-27.082 Y27.798 Z-2.07
X-27.115 Y27.744 Z-2.092
X-27.149 Y27.686 Z-2.1
G3 X-27.37 Y26.933 I1.36 J-0.809
G1 Y26.048
X-27.362 Y25.898
X-27.334 Y25.75
X-27.29 Y25.607
X-27.23 Y25.47
X-27.159 Y25.337
X-27.063 Y25.19
X-26.951 Y25.043
X-26.806 Y24.883
X-26.632 Y24.719
X-26.419 Y24.548
X-26.158 Y24.372
X-25.847 Y24.196
X-25.468 Y24.02
X-24.989 Y23.843
X-24.388 Y23.675
X-23.776 Y23.554
X-23.621 Y23.533
X-23.475 Y23.478
X-23.345 Y23.392
X-23.129 Y23.167
X-22.827 Y22.621
X-22.729 Y22.005
X-22.756 Y21.381
X-22.856 Y20.765
X-22.995 Y20.157
X-23.151 Y19.553
X-23.312 Y18.95
X-23.472 Y18.347
X-23.623 Y17.742
X-23.764 Y17.134
X-23.89 Y16.523
X-24.003 Y15.909
X-24.101 Y15.293
X-24.185 Y14.675
X-24.253 Y14.054
X-24.305 Y13.433
X-24.341 Y12.81
X-24.362 Y12.186
X-24.367 Y11.562
X-24.356 Y10.938
X-24.329 Y10.315
X-24.286 Y9.693
X-24.227 Y9.071
X-24.152 Y8.452
X-24.062 Y7.834
X-23.956 Y7.22
X-23.834 Y6.608
X-23.696 Y5.999
X-23.543 Y5.394
X-23.374 Y4.794
X-23.19 Y4.197
X-22.991 Y3.606
X-22.776 Y3.021
X-22.546 Y2.441
X-22.302 Y1.866
X-22.043 Y1.299
X-21.77 Y0.738
X-21.482 Y0.184
X-21.18 Y-0.362
X-20.865 Y-0.901
X-20.536 Y-1.431
X-20.194 Y-1.953
X-19.838 Y-2.465
X-19.469 Y-2.968
X-19.088 Y-3.462
X-18.694 Y-3.946
X-18.288 Y-4.42
X-17.87 Y-4.883
X-17.44 Y-5.335
X-16.998 Y-5.776
X-16.546 Y-6.206
X-16.083 Y-6.624
X-15.608 Y-7.029
X-15.123 Y-7.422
X-14.629 Y-7.802
X-14.125 Y-8.17
X-13.61 Y-8.523
X-13.085 Y-8.859
X-12.55 Y-9.18
X-12.005 Y-9.485
X-11.454 Y-9.776
X-10.895 Y-10.054
X-10.33 Y-10.318
X-9.758 Y-10.569
X-9.181 Y-10.806
X-8.599 Y-11.03
X-8.011 Y-11.241
X-7.419 Y-11.437
X-6.822 Y-11.618
X-6.22 Y-11.783
X-5.615 Y-11.934
X-5.006 Y-12.07
X-4.394 Y-12.191
X-3.779 Y-12.295
X-3.161 Y-12.383
X-2.541 Y-12.456
X-1.92 Y-12.514
X-1.298 Y-12.555
X-0.674 Y-12.581
X-0.05 Y-12.59
X0.574 Y-12.582
X1.197 Y-12.56
X1.82 Y-12.521
X2.442 Y-12.466
X3.061 Y-12.395
X3.679 Y-12.308
X4.295 Y-12.206
X4.908 Y-12.089
X5.517 Y-11.955
X6.123 Y-11.806
X6.724 Y-11.64
X7.322 Y-11.46
X7.914 Y-11.264
X8.501 Y-11.053
X9.083 Y-10.827
X9.658 Y-10.585
X10.227 Y-10.329
X10.79 Y-10.06
X11.345 Y-9.776
X11.893 Y-9.477
X12.433 Y-9.164
X12.965 Y-8.837
X13.488 Y-8.497
X14.002 Y-8.144
X14.507 Y-7.778
X15.002 Y-7.398
X15.488 Y-7.006
X15.963 Y-6.602
X16.428 Y-6.186
X16.883 Y-5.759
X17.326 Y-5.319
X17.757 Y-4.868
X18.176 Y-4.406
X18.584 Y-3.934
X18.979 Y-3.451
X19.362 Y-2.958
X19.731 Y-2.455
X20.088 Y-1.943
X20.431 Y-1.423
X20.762 Y-0.893
X21.079 Y-0.356
X21.381 Y0.19
X21.669 Y0.744
X21.943 Y1.304
X22.203 Y1.871
X22.448 Y2.445
X22.677 Y3.025
X22.892 Y3.611
X23.092 Y4.202
X23.277 Y4.798
X23.448 Y5.398
X23.602 Y6.003
X23.74 Y6.611
X23.862 Y7.223
X23.969 Y7.838
X24.06 Y8.455
X24.135 Y9.075
X24.193 Y9.696
X24.236 Y10.318
X24.263 Y10.942
X24.275 Y11.566
X24.27 Y12.19
X24.249 Y12.813
X24.211 Y13.436
X24.158 Y14.058
X24.089 Y14.678
X24.005 Y15.296
X23.904 Y15.912
X23.787 Y16.525
X23.655 Y17.134
X23.509 Y17.741
X23.35 Y18.344
X23.178 Y18.944
X22.992 Y19.54
X22.793 Y20.131
X22.578 Y20.717
X22.463 Y21.007
X22.343 Y21.295
X22.316 Y21.448
X22.323 Y21.604
X22.365 Y21.754
X22.513 Y22.029
X22.938 Y22.486
X23.484 Y22.788
X24.078 Y22.98
X24.689 Y23.104
X25.305 Y23.202
X25.92 Y23.31
X26.356 Y23.414
X26.678 Y23.518
X26.899 Y23.61
X26.99 Y23.657
X27.146 Y23.766
X27.267 Y23.915
X27.344 Y24.09
X27.37 Y24.279
Y25.432
G0 Z5
X-26.995 Y27.059
Z-1.5
G1 Z-1.8 F200
X-26.999 Y27.052 Z-1.867
X-27.011 Y27.033 Z-1.93
X-27.029 Y27.003 Z-1.987
X-27.053 Y26.962 Z-2.035
X-27.082 Y26.913 Z-2.07
X-27.115 Y26.858 Z-2.092
X-27.149 Y26.801 Z-2.1
G3 X-27.37 Y26.048 I1.36 J-0.809
G1 Y25.056
X-27.362 Y24.906
X-27.335 Y24.758
X-27.292 Y24.615
X-27.236 Y24.476
X-27.162 Y24.333
X-27.068 Y24.18
X-26.952 Y24.021
X-26.802 Y23.849
X-26.628 Y23.677
X-26.402 Y23.488
X-26.145 Y23.306
X-25.811 Y23.108
X-25.251 Y22.834
X-24.999 Y22.649
X-24.799 Y22.41
X-24.495 Y21.865
X-24.368 Y21.255
X-24.358 Y20.631
X-24.418 Y20.01
X-24.519 Y19.394
X-24.641 Y18.782
X-24.77 Y18.172
X-24.898 Y17.561
X-25.02 Y16.949
X-25.132 Y16.335
X-25.232 Y15.719
X-25.319 Y15.101
X-25.392 Y14.482
X-25.451 Y13.861
X-25.496 Y13.238
X-25.525 Y12.615
X-25.54 Y11.991
Y11.367
X-25.524 Y10.744
X-25.493 Y10.12
X-25.448 Y9.498
X-25.387 Y8.877
X-25.311 Y8.258
X-25.22 Y7.641
X-25.114 Y7.026
X-24.993 Y6.414
X-24.857 Y5.805
X-24.707 Y5.199
X-24.541 Y4.597
X-24.361 Y4
X-24.166 Y3.408
X-23.956 Y2.82
X-23.732 Y2.238
X-23.494 Y1.661
X-23.241 Y1.09
X-22.975 Y0.526
X-22.695 Y-0.032
X-22.402 Y-0.582
X-22.096 Y-1.126
X-21.776 Y-1.662
X-21.444 Y-2.19
X-21.099 Y-2.71
X-20.741 Y-3.221
X-20.371 Y-3.723
X-19.989 Y-4.217
X-19.595 Y-4.7
X-19.189 Y-5.174
X-18.771 Y-5.638
X-18.343 Y-6.091
X-17.903 Y-6.534
X-17.453 Y-6.967
X-16.993 Y-7.387
X-16.522 Y-7.797
X-16.041 Y-8.194
X-15.55 Y-8.579
X-15.049 Y-8.952
X-14.539 Y-9.31
X-14.018 Y-9.655
X-13.489 Y-9.985
X-12.951 Y-10.3
X-12.405 Y-10.602
X-11.852 Y-10.891
X-11.292 Y-11.167
X-10.726 Y-11.429
X-10.154 Y-11.678
X-9.576 Y-11.915
X-8.994 Y-12.138
X-8.406 Y-12.348
X-7.814 Y-12.545
X-7.217 Y-12.727
X-6.616 Y-12.895
X-6.012 Y-13.049
X-5.403 Y-13.188
X-4.792 Y-13.313
X-4.178 Y-13.422
X-4.107 Y-13.431
X-4.072 Y-13.434
X-4.037 Y-13.435
X2.834
X3.457 Y-13.404
X4.08 Y-13.364
X4.699 Y-13.286
X5.314 Y-13.18
X5.924 Y-13.052
X6.531 Y-12.904
X7.132 Y-12.74
X7.73 Y-12.56
X8.322 Y-12.364
X8.909 Y-12.153
X9.491 Y-11.928
X10.067 Y-11.688
X10.637 Y-11.434
X11.201 Y-11.167
X11.758 Y-10.886
X12.308 Y-10.591
X12.85 Y-10.283
X13.385 Y-9.961
X13.911 Y-9.626
X14.43 Y-9.278
X14.939 Y-8.918
X15.439 Y-8.545
X15.931 Y-8.161
X16.412 Y-7.764
X16.884 Y-7.356
X17.346 Y-6.937
X17.798 Y-6.506
X18.238 Y-6.064
X18.668 Y-5.612
X19.087 Y-5.149
X19.494 Y-4.676
X19.889 Y-4.193
X20.272 Y-3.701
X20.643 Y-3.199
X21.002 Y-2.689
X21.348 Y-2.17
X21.682 Y-1.643
X22.002 Y-1.107
X22.309 Y-0.564
X22.602 Y-0.013
X22.882 Y0.545
X23.148 Y1.109
X23.4 Y1.68
X23.638 Y2.257
X23.862 Y2.839
X24.071 Y3.427
X24.267 Y4.019
X24.448 Y4.616
X24.614 Y5.218
X24.765 Y5.823
X24.901 Y6.432
X25.023 Y7.044
X25.129 Y7.659
X25.22 Y8.276
X25.296 Y8.895
X25.357 Y9.516
X25.402 Y10.139
X25.433 Y10.762
X25.449 Y11.386
X25.448 Y12.01
X25.432 Y12.633
X25.401 Y13.257
X25.355 Y13.879
X25.293 Y14.5
X25.216 Y15.119
X25.124 Y15.736
X25.017 Y16.351
X24.896 Y16.963
X24.761 Y17.572
X24.612 Y18.178
X24.451 Y18.78
X24.276 Y19.379
X24.088 Y19.974
X24.075 Y20.13
X24.116 Y20.439
X24.25 Y20.721
X24.633 Y21.213
X25.146 Y21.568
X25.709 Y21.837
X26.288 Y22.07
X26.734 Y22.259
X26.992 Y22.394
X27.043 Y22.427
X27.179 Y22.538
X27.283 Y22.681
X27.348 Y22.844
X27.37 Y23.019
Y24.279
G0 Z5
X1.822 Y-13.06
Z-1.5
G1 Z-1.8 F200
X1.829 Y-13.064 Z-1.867
X1.848 Y-13.076 Z-1.93
X1.879 Y-13.094 Z-1.987
X1.919 Y-13.118 Z-2.035
X1.968 Y-13.147 Z-2.07
X2.023 Y-13.18 Z-2.092
X2.08 Y-13.214 Z-2.1
G3 X2.834 Y-13.435 I0.809 J1.36
G1 X7.51
X8.052 Y-13.408
X8.516 Y-13.347
X9.126 Y-13.216
X9.724 Y-13.038
X10.311 Y-12.826
X10.889 Y-12.591
X11.459 Y-12.337
X12.021 Y-12.066
X12.576 Y-11.78
X13.123 Y-11.48
X13.453 Y-11.288
X13.506 Y-11.254
X13.555 Y-11.216
X13.6 Y-11.174
G3 X13.275 Y-10.69 I-0.221 J0.203
G1 X7.416 Y-12.854
G3 X7.51 Y-13.435 I0.104 J-0.281
G1 X10.627
X10.768
X10.811
X10.961 Y-13.427
X11.212 Y-13.392
X11.359 Y-13.355
X11.495 Y-13.287
X11.613 Y-13.19
G3 X11.317 Y-12.697 I-0.221 J0.203
G1 X11.302 Y-12.701
X10.747 Y-12.845
G3 X10.811 Y-13.435 I0.075 J-0.29
G1 X11.194
X11.335 Y-13.434
X11.35 Y-13.431
X11.366 Y-13.427
X11.381 Y-13.42
X11.396 Y-13.41
X11.955 Y-12.843
X22.245 Y-2.401
X22.661 Y-1.935
X23.04 Y-1.446
X23.382 Y-0.924
X23.694 Y-0.383
X23.984 Y0.169
X24.255 Y0.731
X24.509 Y1.301
X24.748 Y1.877
X24.972 Y2.46
X25.183 Y3.047
X25.379 Y3.639
X25.561 Y4.236
X25.729 Y4.837
X25.883 Y5.442
X26.023 Y6.05
X26.148 Y6.661
X26.259 Y7.275
X26.355 Y7.892
X26.436 Y8.51
X26.503 Y9.131
X26.555 Y9.752
X26.593 Y10.375
X26.617 Y10.999
X26.626 Y11.622
X26.619 Y12.246
X26.599 Y12.87
X26.563 Y13.493
X26.513 Y14.115
X26.449 Y14.735
X26.37 Y15.354
X26.277 Y15.971
X26.169 Y16.586
X26.049 Y17.198
X25.914 Y17.807
X25.767 Y18.414
X25.687 Y18.715
X25.652 Y19.025
X25.709 Y19.332
X25.955 Y19.905
X26.368 Y20.373
X26.852 Y20.767
X27.1 Y20.961
X27.246 Y21.115
X27.338 Y21.305
X27.37 Y21.513
Y23.019
G0 Z5
X21.269 Y-2.858
Z-1.5
G1 Z-1.8 F200
X21.276 Y-2.856 Z-1.867
X21.297 Y-2.851 Z-1.93
X21.332 Y-2.842 Z-1.987
X21.378 Y-2.829 Z-2.035
X21.433 Y-2.815 Z-2.07
X21.494 Y-2.799 Z-2.092
X21.559 Y-2.782 Z-2.1
G3 X22.245 Y-2.401 I-0.401 J1.531
G1 X24.796 Y0.188
X25.086 Y0.513
X25.324 Y0.827
X25.596 Y1.255
X25.888 Y1.807
X26.141 Y2.377
X26.365 Y2.96
X26.566 Y3.55
X26.75 Y4.147
X26.916 Y4.748
X27.068 Y5.353
X27.205 Y5.962
X27.327 Y6.574
X27.359 Y6.757
X27.365 Y6.797
X27.369 Y6.837
X27.37 Y6.878
G3 X26.79 Y6.975 I-0.3 J-0.01
G1 X24.31 Y0.513
G3 X24.796 Y0.188 I0.28 J-0.108
G1 X26.757 Y2.177
X26.964 Y2.41
X27.148 Y2.654
X27.26 Y2.83
X27.321 Y2.947
X27.358 Y3.074
X27.37 Y3.206
G3 X26.819 Y3.359 I-0.3 J-0.01
G1 X26.804 Y3.337
X26.299 Y2.559
G3 X26.757 Y2.177 I0.252 J-0.163
G1 X27.315 Y2.744
X27.346 Y2.778
X27.354 Y2.791
X27.36 Y2.805
X27.368 Y2.832
X27.37 Y2.845
Y15.356
X27.339 Y15.979
X27.291 Y16.601
X27.205 Y17.219
X27.093 Y17.833
X27.099 Y18.145
X27.228 Y18.755
X27.29 Y18.872
X27.334 Y18.976
X27.361 Y19.085
X27.37 Y19.198
G3 X26.77 Y19.187 I-0.3 J-0.01
G1 Y15.366
G3 X27.37 Y15.356 I0.3 J0
G1 Y21.513
G0 Z5
X-26.995 Y26.067
Z-1.5
G1 Z-1.8 F200
X-26.999 Y26.061 Z-1.867
X-27.011 Y26.041 Z-1.93
X-27.029 Y26.011 Z-1.987
X-27.053 Y25.97 Z-2.035
X-27.082 Y25.921 Z-2.07
X-27.115 Y25.867 Z-2.092
X-27.149 Y25.809 Z-2.1
G3 X-27.37 Y25.056 I1.36 J-0.809
G1 Y24
X-27.362 Y23.85
X-27.334 Y23.703
X-27.29 Y23.559
X-27.234 Y23.42
X-27.158 Y23.271
X-27.06 Y23.11
X-26.939 Y22.943
X-26.532 Y22.47
X-26.152 Y21.976
X-25.917 Y21.398
X-25.808 Y20.783
X-25.791 Y20.159
X-25.833 Y19.537
X-25.911 Y18.918
X-26.008 Y18.302
X-26.22 Y17.072
X-26.321 Y16.456
X-26.414 Y15.839
X-26.496 Y15.221
X-26.566 Y14.601
X-26.624 Y13.979
X-26.668 Y13.357
X-26.699 Y12.734
X-26.715 Y12.11
X-26.718 Y11.486
X-26.706 Y10.862
X-26.679 Y10.239
X-26.638 Y9.616
X-26.583 Y8.995
X-26.513 Y8.375
X-26.428 Y7.757
X-26.329 Y7.141
X-26.216 Y6.527
X-26.089 Y5.916
X-25.947 Y5.309
X-25.791 Y4.704
X-25.621 Y4.104
X-25.437 Y3.508
X-25.239 Y2.916
X-25.027 Y2.329
X-24.802 Y1.748
X-24.562 Y1.171
X-24.31 Y0.601
X-24.044 Y0.036
X-23.765 Y-0.522
X-23.474 Y-1.074
X-23.417 Y-1.176
X-23.384 Y-1.23
X-23.346 Y-1.28
X-23.304 Y-1.326
X-14.19 Y-10.576
X-13.798 Y-10.935
X-13.332 Y-11.299
X-12.811 Y-11.642
X-12.27 Y-11.954
X-11.717 Y-12.242
X-11.155 Y-12.512
X-10.585 Y-12.766
X-10.008 Y-13.005
X-9.427 Y-13.231
X-8.975 Y-13.393
X-8.898 Y-13.416
X-8.818 Y-13.43
X-8.738 Y-13.435
G3 X-8.608 Y-12.87 I-0.01 J0.3
G1 X-13.828 Y-10.108
G3 X-14.19 Y-10.576 I-0.14 J-0.265
G1 X-11.816 Y-12.985
X-11.76 Y-13.041
X-11.676 Y-13.127
X-11.529 Y-13.262
X-11.497 Y-13.287
X-11.365 Y-13.368
X-11.219 Y-13.418
X-11.066 Y-13.435
G3 X-10.93 Y-12.873 I-0.01 J0.3
G1 X-10.936 Y-12.87
X-11.309 Y-12.662
G3 X-11.676 Y-13.127 I-0.146 J-0.262
G1 X-11.396 Y-13.41
X-11.381 Y-13.42
X-11.366 Y-13.427
X-11.35 Y-13.431
X-11.335 Y-13.434
X-11.052 Y-13.435
X-4.037
G0 Z5
X-26.995 Y25.011
Z-1.5
G1 Z-1.8 F200
X-26.999 Y25.005 Z-1.867
X-27.011 Y24.986 Z-1.93
X-27.029 Y24.955 Z-1.987
X-27.053 Y24.914 Z-2.035
X-27.082 Y24.865 Z-2.07
X-27.115 Y24.811 Z-2.092
X-27.149 Y24.753 Z-2.1
G3 X-27.37 Y24 I1.36 J-0.809
G1 Y22.866
X-27.362 Y22.716
X-27.279 Y22.098
X-27.164 Y21.485
X-27.098 Y20.864
X-27.083 Y20.241
X-27.112 Y19.617
X-27.171 Y18.996
X-27.25 Y18.377
X-27.34 Y17.76
X-27.362 Y17.607
X-27.367 Y17.573
X-27.369 Y17.538
X-27.37 Y17.504
G3 X-26.77 Y17.514 I0.3 J0.01
G1 Y22.856
G3 X-27.37 Y22.866 I-0.3 J0
G1 Y7.562
X-27.339 Y6.939
X-27.289 Y6.317
X-27.197 Y5.7
X-27.077 Y5.088
X-26.934 Y4.48
X-26.772 Y3.878
X-26.595 Y3.28
X-26.402 Y2.686
X-26.195 Y2.097
X-25.975 Y1.514
X-25.938 Y1.423
X-25.898 Y1.34
X-25.848 Y1.263
X-25.788 Y1.194
G3 X-25.29 Y1.483 I0.206 J0.218
G1 X-25.293 Y1.498
X-26.779 Y7.622
G3 X-27.37 Y7.562 I-0.292 J-0.071
G1 Y3.169
Y2.845
X-27.368 Y2.832
X-27.36 Y2.805
X-27.354 Y2.791
X-27.346 Y2.778
X-27.315 Y2.744
X-23.304 Y-1.326
G3 X-22.871 Y-1.304 I0.206 J0.218
G1 X-22.847 Y-1.257 Z-2.095
X-22.825 Y-1.211 Z-2.081
X-22.804 Y-1.168 Z-2.058
X-22.801 Y-1.136 Z-2.036
X-22.798 Y-1.108 Z-2.011
X-22.803 Y-1.072 Z-1.966
X-22.807 Y-1.045 Z-1.914
X-22.81 Y-1.028 Z-1.858
Y-1.023 Z-1.8
G0 Z5
X-26.752 Y30.049
Z-1.905
G1 Z-2.205 F200
X-26.756 Y30.043 Z-2.272
X-26.767 Y30.024 Z-2.335
X-26.785 Y29.993 Z-2.392
X-26.809 Y29.952 Z-2.44
X-26.839 Y29.903 Z-2.475
X-26.871 Y29.849 Z-2.497
X-26.905 Y29.791 Z-2.505
G3 X-27.37 Y28.208 I2.858 J-1.699
G1 Y28.037
X-27.368 Y27.999
X-27.28 Y27.878
X-27.174 Y27.771
X-27.058 Y27.677
X-26.933 Y27.593
X-26.803 Y27.518
X-26.669 Y27.451
X-26.531 Y27.392
X-26.391 Y27.339
X-26.249 Y27.291
X-26.105 Y27.249
X-25.96 Y27.211
X-25.814 Y27.176
X-25.667 Y27.146
X-25.519 Y27.118
X-25.371 Y27.094
X-25.223 Y27.072
X-25.074 Y27.052
X-24.925 Y27.034
X-24.776 Y27.018
X-24.627 Y27.004
X-24.478 Y26.991
X-24.328 Y26.979
X-24.172 Y26.969
X-23.998 Y26.958
X-23.799 Y26.947
X-23.57 Y26.936
X-23.298 Y26.925
X-22.964 Y26.914
X-22.532 Y26.904
X-21.923 Y26.893
X-21.299 Y26.886
X-20.675 Y26.882
X-19.427 Y26.879
X-16.697 Y26.877
X-16.229
X-16.077 Y26.843
X-15.936 Y26.775
X-15.814 Y26.678
X-15.716 Y26.557
X-15.648 Y26.417
X-15.612 Y26.265
X-15.611 Y26.109
X-15.644 Y25.956
X-15.91 Y25.392
X-16.139 Y25.067
X-16.449 Y24.621
X-16.801 Y24.106
X-17.151 Y23.589
X-17.409 Y23.206
X-17.491 Y23.08
X-17.571 Y22.954
X-17.65 Y22.826
X-17.728 Y22.698
X-17.804 Y22.569
X-17.88 Y22.439
X-17.961 Y22.297
X-18.051 Y22.137
X-18.152 Y21.952
X-18.269 Y21.736
X-18.408 Y21.476
X-18.579 Y21.15
X-18.738 Y20.839
X-18.806 Y20.705
X-18.872 Y20.57
X-18.935 Y20.434
X-18.997 Y20.298
X-19.058 Y20.16
X-19.117 Y20.022
X-19.174 Y19.884
X-19.233 Y19.742
X-19.297 Y19.582
X-19.368 Y19.4
X-19.448 Y19.189
X-19.542 Y18.94
X-19.653 Y18.635
X-19.79 Y18.254
X-19.84 Y18.112
X-19.887 Y17.97
X-19.932 Y17.827
X-19.976 Y17.683
X-20.017 Y17.539
X-20.058 Y17.395
X-20.097 Y17.25
X-20.134 Y17.105
X-20.175 Y16.943
X-20.22 Y16.759
X-20.27 Y16.548
X-20.327 Y16.3
X-20.394 Y16
X-20.475 Y15.62
X-20.505 Y15.473
X-20.535 Y15.326
X-20.561 Y15.178
X-20.586 Y15.03
X-20.609 Y14.882
X-20.631 Y14.734
X-20.651 Y14.585
X-20.67 Y14.436
X-20.688 Y14.281
X-20.707 Y14.107
X-20.727 Y13.909
X-20.749 Y13.68
X-20.773 Y13.409
X-20.8 Y13.075
X-20.825 Y12.728
X-20.835 Y12.579
X-20.843 Y12.429
X-20.848 Y12.279
X-20.851 Y12.129
X-20.853 Y11.979
X-20.854 Y11.829
X-20.852 Y11.679
X-20.85 Y11.528
X-20.846 Y11.36
X-20.841 Y11.17
X-20.832 Y10.951
X-20.821 Y10.694
X-20.805 Y10.383
X-20.781 Y9.988
X-20.771 Y9.839
X-20.76 Y9.689
X-20.746 Y9.54
X-20.73 Y9.391
X-20.712 Y9.242
X-20.693 Y9.093
X-20.672 Y8.944
X-20.65 Y8.796
X-20.626 Y8.638
X-20.597 Y8.461
X-20.563 Y8.259
X-20.521 Y8.025
X-20.469 Y7.746
X-20.402 Y7.401
X-20.347 Y7.125
X-20.316 Y6.979
X-20.283 Y6.832
X-20.248 Y6.686
X-20.212 Y6.541
X-20.173 Y6.396
X-20.133 Y6.251
X-20.092 Y6.107
X-20.049 Y5.961
X-20 Y5.798
X-19.943 Y5.613
X-19.876 Y5.402
X-19.794 Y5.153
X-19.693 Y4.851
X-19.562 Y4.467
X-19.512 Y4.325
X-19.461 Y4.185
X-19.407 Y4.045
X-19.351 Y3.905
X-19.294 Y3.767
X-19.235 Y3.628
X-19.175 Y3.491
X-19.114 Y3.354
X-19.046 Y3.203
X-18.967 Y3.034
X-18.876 Y2.84
X-18.767 Y2.614
X-18.634 Y2.342
X-18.464 Y2.002
X-18.386 Y1.848
X-18.317 Y1.715
X-18.246 Y1.583
X-18.173 Y1.452
X-18.099 Y1.322
X-18.023 Y1.192
X-17.946 Y1.064
X-17.868 Y0.936
X-17.786 Y0.804
X-17.693 Y0.658
X-17.587 Y0.492
X-17.463 Y0.302
X-17.314 Y0.078
X-17.13 Y-0.194
X-16.92 Y-0.5
X-16.835 Y-0.623
X-16.747 Y-0.745
X-16.658 Y-0.865
X-16.567 Y-0.985
X-16.475 Y-1.103
X-16.381 Y-1.22
X-16.287 Y-1.337
X-16.191 Y-1.453
X-16.083 Y-1.582
X-15.961 Y-1.726
X-15.819 Y-1.891
X-15.65 Y-2.083
X-15.445 Y-2.314
X-15.183 Y-2.605
X-15.082 Y-2.715
X-14.979 Y-2.825
X-14.876 Y-2.933
X-14.77 Y-3.04
X-14.664 Y-3.146
X-14.556 Y-3.25
X-14.447 Y-3.353
X-14.337 Y-3.455
X-14.221 Y-3.562
X-14.09 Y-3.681
X-13.939 Y-3.815
X-13.764 Y-3.969
X-13.554 Y-4.151
X-13.294 Y-4.373
X-13.051 Y-4.577
X-12.935 Y-4.673
X-12.818 Y-4.767
X-12.7 Y-4.859
X-12.58 Y-4.95
X-12.46 Y-5.039
X-12.338 Y-5.127
X-12.216 Y-5.214
X-12.092 Y-5.301
X-11.953 Y-5.397
X-11.794 Y-5.505
X-11.611 Y-5.627
X-11.394 Y-5.77
X-11.13 Y-5.941
X-10.792 Y-6.155
X-10.665 Y-6.235
X-10.537 Y-6.313
X-10.408 Y-6.389
X-10.277 Y-6.463
X-9.711 Y-6.726
X-9.142 Y-6.981
X-8.571 Y-7.232
X-7.999 Y-7.481
X-7.42 Y-7.716
X-6.831 Y-7.921
X-6.237 Y-8.109
X-5.639 Y-8.289
X-5.04 Y-8.462
X-4.431 Y-8.601
X-3.818 Y-8.716
X-3.202 Y-8.818
X-2.586 Y-8.912
X-1.966 Y-8.987
X-1.344 Y-9.03
X-0.72 Y-9.054
X-0.096 Y-9.068
X0.527 Y-9.076
X1.151 Y-9.047
X1.772 Y-8.994
X2.393 Y-8.928
X3.012 Y-8.855
X3.629 Y-8.761
X4.24 Y-8.636
X4.848 Y-8.492
X5.453 Y-8.339
X6.056 Y-8.181
X6.649 Y-7.986
X7.234 Y-7.769
X7.814 Y-7.539
X8.392 Y-7.303
X8.961 Y-7.047
X9.516 Y-6.763
X10.063 Y-6.463
X10.605 Y-6.154
X11.145 Y-5.841
X11.663 Y-5.494
X12.169 Y-5.128
X12.667 Y-4.752
X13.161 Y-4.371
X13.64 Y-3.972
X14.1 Y-3.549
X14.547 Y-3.114
X14.987 Y-2.672
X15.423 Y-2.226
X15.83 Y-1.753
X16.219 Y-1.265
X16.599 Y-0.77
X16.973 Y-0.27
X17.328 Y0.243
X17.658 Y0.772
X17.972 Y1.311
X18.278 Y1.855
X18.579 Y2.401
X18.845 Y2.966
X19.09 Y3.54
X19.323 Y4.118
X19.55 Y4.7
X19.755 Y5.289
X19.931 Y5.888
X20.091 Y6.491
X20.241 Y7.096
X20.384 Y7.704
X20.489 Y8.319
X20.572 Y8.937
X20.643 Y9.557
X20.706 Y10.178
X20.746 Y10.8
X20.756 Y11.424
X20.748 Y12.048
X20.731 Y12.672
X20.706 Y13.295
X20.643 Y13.916
X20.558 Y14.534
X20.461 Y15.151
X20.357 Y15.766
X20.228 Y16.376
X20.07 Y16.98
X19.897 Y17.579
X19.714 Y18.176
X19.523 Y18.77
X19.454 Y18.987
X19.407 Y19.13
X19.357 Y19.271
X19.306 Y19.412
X19.254 Y19.553
X19.2 Y19.693
X19.144 Y19.832
X19.085 Y19.98
X19.016 Y20.145
X18.937 Y20.332
X18.844 Y20.55
X18.752 Y20.757
X18.691 Y20.894
X18.627 Y21.03
X18.562 Y21.164
X18.494 Y21.298
X18.425 Y21.431
X18.354 Y21.564
X18.282 Y21.695
X18.209 Y21.826
X18.132 Y21.961
X18.045 Y22.111
X17.946 Y22.28
X17.829 Y22.475
X17.689 Y22.704
X17.517 Y22.983
X17.371 Y23.214
X17.29 Y23.34
X17.207 Y23.465
X17.123 Y23.589
X17.037 Y23.712
X16.949 Y23.834
X16.86 Y23.955
X16.771 Y24.075
X16.679 Y24.195
X16.577 Y24.327
X16.46 Y24.476
X16.324 Y24.647
X16.164 Y24.845
X15.968 Y25.084
X15.654 Y25.458
X15.583 Y25.597
X15.543 Y25.748
X15.539 Y25.904
X15.569 Y26.057
X15.632 Y26.199
X15.725 Y26.325
X15.843 Y26.426
X16.119 Y26.571
X16.73 Y26.698
X17.35 Y26.772
X17.972 Y26.816
X18.596 Y26.842
X19.219 Y26.856
X19.843 Y26.865
X20.467 Y26.87
X21.091 Y26.873
X22.339 Y26.876
X26.083 Y26.877
X26.67
X26.886 Y26.911
X27.081 Y27.011
X27.236 Y27.166
X27.336 Y27.361
X27.37 Y27.577
G0 Z5
X-26.995 Y29.048
Z-1.905
G1 Z-2.205 F200
X-26.999 Y29.042 Z-2.272
X-27.011 Y29.022 Z-2.335
X-27.029 Y28.992 Z-2.392
X-27.053 Y28.951 Z-2.44
X-27.082 Y28.902 Z-2.475
X-27.115 Y28.847 Z-2.497
X-27.149 Y28.79 Z-2.505
G3 X-27.37 Y28.037 I1.36 J-0.809
G1 Y27.606
X-27.362 Y27.456
X-27.303 Y27.319
X-27.227 Y27.189
X-27.138 Y27.069
X-27.037 Y26.955
X-26.911 Y26.835
X-26.759 Y26.711
X-26.571 Y26.582
X-26.34 Y26.449
X-26.052 Y26.312
X-25.685 Y26.174
X-25.199 Y26.033
X-24.588 Y25.909
X-23.969 Y25.828
X-23.347 Y25.774
X-22.724 Y25.739
X-22.101 Y25.717
X-21.477 Y25.702
X-20.853 Y25.693
X-20.229 Y25.687
X-19.371 Y25.682
X-19.215
X-19.063 Y25.647
X-18.923 Y25.579
X-18.801 Y25.482
X-18.704 Y25.36
X-18.636 Y25.219
X-18.565 Y24.915
X-18.626 Y24.294
X-18.793 Y23.693
X-19.017 Y23.111
X-19.269 Y22.54
X-19.535 Y21.976
X-19.798 Y21.41
X-20.052 Y20.84
X-20.293 Y20.264
X-20.523 Y19.684
X-20.742 Y19.1
X-20.943 Y18.51
X-21.125 Y17.913
X-21.29 Y17.311
X-21.441 Y16.706
X-21.578 Y16.097
X-21.694 Y15.484
X-21.791 Y14.867
X-21.87 Y14.249
X-21.935 Y13.628
X-21.985 Y13.006
X-22.013 Y12.383
X-22.021 Y11.759
X-22.013 Y11.135
X-21.991 Y10.511
X-21.951 Y9.889
X-21.89 Y9.268
X-21.81 Y8.649
X-21.715 Y8.032
X-21.606 Y7.418
X-21.478 Y6.807
X-21.329 Y6.201
X-21.163 Y5.6
X-20.982 Y5.003
X-20.788 Y4.41
X-20.574 Y3.824
X-20.341 Y3.245
X-20.091 Y2.673
X-19.829 Y2.107
X-19.552 Y1.548
X-19.257 Y0.998
X-18.944 Y0.458
X-18.617 Y-0.073
X-18.279 Y-0.597
X-17.926 Y-1.112
X-17.555 Y-1.614
X-17.169 Y-2.104
X-16.771 Y-2.584
X-16.362 Y-3.056
X-15.939 Y-3.514
X-15.501 Y-3.959
X-15.05 Y-4.389
X-14.588 Y-4.809
X-14.117 Y-5.219
X-13.633 Y-5.613
X-13.136 Y-5.99
X-12.629 Y-6.353
X-12.114 Y-6.705
X-11.59 Y-7.043
X-11.047 Y-7.352
X-10.493 Y-7.639
X-9.932 Y-7.911
X-9.366 Y-8.173
X-8.795 Y-8.425
X-8.217 Y-8.662
X-7.633 Y-8.88
X-7.043 Y-9.084
X-6.45 Y-9.276
X-5.851 Y-9.453
X-5.247 Y-9.61
X-4.639 Y-9.748
X-4.027 Y-9.869
X-3.412 Y-9.976
X-2.795 Y-10.068
X-2.175 Y-10.138
X-1.553 Y-10.188
X-0.93 Y-10.222
X-0.306 Y-10.245
X0.317 Y-10.246
X0.941 Y-10.226
X1.564 Y-10.187
X2.185 Y-10.133
X2.806 Y-10.065
X3.423 Y-9.977
X4.038 Y-9.868
X4.649 Y-9.742
X5.257 Y-9.603
X5.862 Y-9.449
X6.46 Y-9.273
X7.053 Y-9.078
X7.64 Y-8.867
X8.223 Y-8.644
X8.799 Y-8.404
X9.366 Y-8.145
X9.925 Y-7.868
X10.477 Y-7.577
X11.024 Y-7.276
X11.56 Y-6.956
X12.084 Y-6.617
X12.597 Y-6.263
X13.103 Y-5.898
X13.6 Y-5.52
X14.083 Y-5.126
X14.554 Y-4.716
X15.013 Y-4.294
X15.464 Y-3.862
X15.903 Y-3.418
X16.326 Y-2.96
X16.733 Y-2.487
X17.128 Y-2.005
X17.513 Y-1.513
X17.883 Y-1.011
X18.236 Y-0.496
X18.573 Y0.029
X18.896 Y0.562
X19.21 Y1.102
X19.505 Y1.652
X19.78 Y2.212
X20.038 Y2.78
X20.284 Y3.353
X20.515 Y3.933
X20.727 Y4.52
X20.92 Y5.113
X21.096 Y5.712
X21.26 Y6.314
X21.408 Y6.92
X21.534 Y7.531
X21.641 Y8.146
X21.731 Y8.763
X21.808 Y9.382
X21.867 Y10.003
X21.905 Y10.626
X21.923 Y11.25
X21.926 Y11.874
X21.917 Y12.498
X21.887 Y13.121
X21.834 Y13.742
X21.763 Y14.362
X21.679 Y14.981
X21.579 Y15.596
X21.459 Y16.209
X21.318 Y16.817
X21.162 Y17.421
X20.992 Y18.021
X20.814 Y18.619
X20.622 Y19.213
X20.412 Y19.8
X20.187 Y20.382
X19.945 Y20.957
X19.682 Y21.523
X19.398 Y22.079
X19.098 Y22.626
X18.784 Y23.165
X18.456 Y23.696
X18.369 Y23.825
X18.281 Y23.954
X18.224 Y24.099
X18.201 Y24.254
X18.212 Y24.409
X18.258 Y24.558
X18.335 Y24.694
X18.546 Y24.924
X19.094 Y25.223
X19.69 Y25.407
X20.304 Y25.518
X20.924 Y25.584
X21.547 Y25.623
X22.171 Y25.645
X22.794 Y25.659
X23.418 Y25.666
X24.042 Y25.671
X24.666 Y25.673
X25.907 Y25.677
X26.208 Y25.702
X26.485 Y25.748
X26.686 Y25.798
X26.889 Y25.866
X26.946 Y25.891
X27.119 Y25.997
X27.254 Y26.149
X27.34 Y26.333
X27.37 Y26.534
Y26.628
G0 Z5
X-26.995 Y28.618
Z-1.905
G1 Z-2.205 F200
X-26.999 Y28.611 Z-2.272
X-27.011 Y28.592 Z-2.335
X-27.029 Y28.561 Z-2.392
X-27.053 Y28.521 Z-2.44
X-27.082 Y28.472 Z-2.475
X-27.115 Y28.417 Z-2.497
X-27.149 Y28.36 Z-2.505
G3 X-27.37 Y27.606 I1.36 J-0.809
G1 Y26.933
X-27.362 Y26.783
X-27.329 Y26.637
X-27.276 Y26.496
X-27.209 Y26.362
X-27.13 Y26.235
X-27.031 Y26.101
X-26.908 Y25.961
X-26.762 Y25.819
X-26.57 Y25.66
X-26.36 Y25.514
X-26.077 Y25.347
X-25.76 Y25.195
X-25.342 Y25.033
X-24.811 Y24.875
X-24.2 Y24.746
X-23.583 Y24.657
X-22.962 Y24.597
X-22.339 Y24.557
X-21.716 Y24.53
X-21.56 Y24.525
X-21.409 Y24.486
X-21.27 Y24.415
X-21.151 Y24.314
X-21.057 Y24.19
X-20.928 Y23.906
X-20.828 Y23.29
X-20.878 Y22.668
X-21.012 Y22.058
X-21.19 Y21.461
X-21.39 Y20.869
X-21.598 Y20.281
X-21.803 Y19.692
X-21.998 Y19.099
X-22.181 Y18.503
X-22.352 Y17.902
X-22.509 Y17.299
X-22.651 Y16.691
X-22.776 Y16.08
X-22.884 Y15.465
X-22.977 Y14.848
X-23.054 Y14.229
X-23.115 Y13.608
X-23.158 Y12.986
X-23.184 Y12.362
X-23.193 Y11.738
X-23.187 Y11.115
X-23.164 Y10.491
X-23.124 Y9.868
X-23.066 Y9.247
X-22.992 Y8.628
X-22.902 Y8.01
X-22.796 Y7.395
X-22.672 Y6.784
X-22.531 Y6.176
X-22.374 Y5.572
X-22.202 Y4.972
X-22.014 Y4.377
X-21.809 Y3.788
X-21.588 Y3.205
X-21.351 Y2.627
X-21.1 Y2.056
X-20.834 Y1.492
X-20.553 Y0.935
X-20.255 Y0.386
X-19.943 Y-0.154
X-19.618 Y-0.687
X-19.28 Y-1.211
X-18.926 Y-1.725
X-18.558 Y-2.229
X-18.177 Y-2.722
X-17.783 Y-3.207
X-17.377 Y-3.68
X-16.957 Y-4.142
X-16.525 Y-4.592
X-16.08 Y-5.029
X-15.625 Y-5.456
X-15.159 Y-5.871
X-14.681 Y-6.272
X-14.192 Y-6.66
X-13.693 Y-7.034
X-13.185 Y-7.396
X-12.666 Y-7.743
X-12.135 Y-8.07
X-11.592 Y-8.379
X-11.041 Y-8.671
X-10.483 Y-8.949
X-9.918 Y-9.215
X-9.348 Y-9.468
X-8.771 Y-9.705
X-8.188 Y-9.929
X-7.6 Y-10.138
X-7.008 Y-10.334
X-6.411 Y-10.514
X-5.808 Y-10.677
X-5.202 Y-10.824
X-4.592 Y-10.955
X-3.979 Y-11.071
X-3.363 Y-11.171
X-2.744 Y-11.253
X-2.124 Y-11.317
X-1.502 Y-11.366
X-0.879 Y-11.4
X-0.255 Y-11.417
X0.369 Y-11.414
X0.993 Y-11.395
X1.615 Y-11.359
X2.237 Y-11.308
X2.858 Y-11.24
X3.476 Y-11.154
X4.091 Y-11.05
X4.703 Y-10.932
X5.313 Y-10.798
X5.918 Y-10.647
X6.519 Y-10.478
X7.115 Y-10.293
X7.706 Y-10.092
X8.291 Y-9.877
X8.871 Y-9.646
X9.443 Y-9.398
X10.009 Y-9.134
X10.567 Y-8.856
X11.119 Y-8.565
X11.663 Y-8.258
X12.197 Y-7.936
X12.721 Y-7.598
X13.237 Y-7.247
X13.744 Y-6.883
X14.241 Y-6.506
X14.727 Y-6.114
X15.201 Y-5.709
X15.666 Y-5.292
X16.119 Y-4.864
X16.561 Y-4.423
X16.989 Y-3.97
X17.405 Y-3.504
X17.809 Y-3.029
X18.2 Y-2.543
X18.578 Y-2.046
X18.942 Y-1.539
X19.291 Y-1.022
X19.627 Y-0.497
X19.951 Y0.037
X20.259 Y0.579
X20.551 Y1.131
X20.827 Y1.69
X21.089 Y2.256
X21.337 Y2.829
X21.569 Y3.408
X21.784 Y3.994
X21.983 Y4.586
X22.166 Y5.182
X22.335 Y5.782
X22.487 Y6.388
X22.621 Y6.997
X22.738 Y7.61
X22.84 Y8.225
X22.926 Y8.843
X22.995 Y9.464
X23.046 Y10.085
X23.079 Y10.709
X23.098 Y11.332
X23.1 Y11.956
X23.086 Y12.58
X23.052 Y13.203
X23.002 Y13.825
X22.936 Y14.445
X22.853 Y15.064
X22.754 Y15.68
X22.638 Y16.293
X22.504 Y16.902
X22.355 Y17.508
X22.193 Y18.111
X22.019 Y18.71
X21.831 Y19.305
X21.628 Y19.895
X21.41 Y20.479
X21.176 Y21.058
X20.923 Y21.628
X20.653 Y22.191
X20.51 Y22.468
X20.437 Y22.606
X20.397 Y22.757
X20.39 Y22.912
X20.419 Y23.066
X20.48 Y23.209
X20.664 Y23.461
X21.153 Y23.849
X21.726 Y24.095
X22.331 Y24.248
X22.948 Y24.34
X23.57 Y24.396
X24.193 Y24.429
X24.817 Y24.449
X25.44 Y24.472
X25.973 Y24.523
X26.321 Y24.585
X26.615 Y24.662
X26.823 Y24.735
X26.953 Y24.792
X27.124 Y24.899
X27.257 Y25.05
X27.341 Y25.233
X27.37 Y25.432
Y26.534
G0 Z5
X-26.995 Y27.944
Z-1.905
G1 Z-2.205 F200
X-26.999 Y27.938 Z-2.272
X-27.011 Y27.919 Z-2.335
X-27.029 Y27.888 Z-2.392
X-27.053 Y27.847 Z-2.44
X-27.082 Y27.798 Z-2.475
X-27.115 Y27.744 Z-2.497
X-27.149 Y27.686 Z-2.505
G3 X-27.37 Y26.933 I1.36 J-0.809
G1 Y26.048
X-27.362 Y25.898
X-27.334 Y25.75
X-27.29 Y25.607
X-27.23 Y25.47
X-27.159 Y25.337
X-27.063 Y25.19
X-26.951 Y25.043
X-26.806 Y24.883
X-26.632 Y24.719
X-26.419 Y24.548
X-26.158 Y24.372
X-25.847 Y24.196
X-25.468 Y24.02
X-24.989 Y23.843
X-24.388 Y23.675
X-23.776 Y23.554
X-23.621 Y23.533
X-23.475 Y23.478
X-23.345 Y23.392
X-23.129 Y23.167
X-22.827 Y22.621
X-22.729 Y22.005
X-22.756 Y21.381
X-22.856 Y20.765
X-22.995 Y20.157
X-23.151 Y19.553
X-23.312 Y18.95
X-23.472 Y18.347
X-23.623 Y17.742
X-23.764 Y17.134
X-23.89 Y16.523
X-24.003 Y15.909
X-24.101 Y15.293
X-24.185 Y14.675
X-24.253 Y14.054
X-24.305 Y13.433
X-24.341 Y12.81
X-24.362 Y12.186
X-24.367 Y11.562
X-24.356 Y10.938
X-24.329 Y10.315
X-24.286 Y9.693
X-24.227 Y9.071
X-24.152 Y8.452
X-24.062 Y7.834
X-23.956 Y7.22
X-23.834 Y6.608
X-23.696 Y5.999
X-23.543 Y5.394
X-23.374 Y4.794
X-23.19 Y4.197
X-22.991 Y3.606
X-22.776 Y3.021
X-22.546 Y2.441
X-22.302 Y1.866
X-22.043 Y1.299
X-21.77 Y0.738
X-21.482 Y0.184
X-21.18 Y-0.362
X-20.865 Y-0.901
X-20.536 Y-1.431
X-20.194 Y-1.953
X-19.838 Y-2.465
X-19.469 Y-2.968
X-19.088 Y-3.462
X-18.694 Y-3.946
X-18.288 Y-4.42
X-17.87 Y-4.883
X-17.44 Y-5.335
X-16.998 Y-5.776
X-16.546 Y-6.206
X-16.083 Y-6.624
X-15.608 Y-7.029
X-15.123 Y-7.422
X-14.629 Y-7.802
X-14.125 Y-8.17
X-13.61 Y-8.523
X-13.085 Y-8.859
X-12.55 Y-9.18
X-12.005 Y-9.485
X-11.454 Y-9.776
X-10.895 Y-10.054
X-10.33 Y-10.318
X-9.758 Y-10.569
X-9.181 Y-10.806
X-8.599 Y-11.03
X-8.011 Y-11.241
X-7.419 Y-11.437
X-6.822 Y-11.618
X-6.22 Y-11.783
X-5.615 Y-11.934
X-5.006 Y-12.07
X-4.394 Y-12.191
X-3.779 Y-12.295
X-3.161 Y-12.383
X-2.541 Y-12.456
X-1.92 Y-12.514
X-1.298 Y-12.555
X-0.674 Y-12.581
X-0.05 Y-12.59
X0.574 Y-12.582
X1.197 Y-12.56
X1.82 Y-12.521
X2.442 Y-12.466
X3.061 Y-12.395
X3.679 Y-12.308
X4.295 Y-12.206
X4.908 Y-12.089
X5.517 Y-11.955
X6.123 Y-11.806
X6.724 Y-11.64
X7.322 Y-11.46
X7.914 Y-11.264
X8.501 Y-11.053
X9.083 Y-10.827
X9.658 Y-10.585
X10.227 Y-10.329
X10.79 Y-10.06
X11.345 Y-9.776
X11.893 Y-9.477
X12.433 Y-9.164
X12.965 Y-8.837
X13.488 Y-8.497
X14.002 Y-8.144
X14.507 Y-7.778
X15.002 Y-7.398
X15.488 Y-7.006
X15.963 Y-6.602
X16.428 Y-6.186
X16.883 Y-5.759
X17.326 Y-5.319
X17.757 Y-4.868
X18.176 Y-4.406
X18.584 Y-3.934
X18.979 Y-3.451
X19.362 Y-2.958
X19.731 Y-2.455
X20.088 Y-1.943
X20.431 Y-1.423
X20.762 Y-0.893
X21.079 Y-0.356
X21.381 Y0.19
X21.669 Y0.744
X21.943 Y1.304
X22.203 Y1.871
X22.448 Y2.445
X22.677 Y3.025
X22.892 Y3.611
X23.092 Y4.202
X23.277 Y4.798
X23.448 Y5.398
X23.602 Y6.003
X23.74 Y6.611
X23.862 Y7.223
X23.969 Y7.838
X24.06 Y8.455
X24.135 Y9.075
X24.193 Y9.696
X24.236 Y10.318
X24.263 Y10.942
X24.275 Y11.566
X24.27 Y12.19
X24.249 Y12.813
X24.211 Y13.436
X24.158 Y14.058
X24.089 Y14.678
X24.005 Y15.296
X23.904 Y15.912
X23.787 Y16.525
X23.655 Y17.134
X23.509 Y17.741
X23.35 Y18.344
X23.178 Y18.944
X22.992 Y19.54
X22.793 Y20.131
X22.578 Y20.717
X22.463 Y21.007
X22.343 Y21.295
X22.316 Y21.448
X22.323 Y21.604
X22.365 Y21.754
X22.513 Y22.029
X22.938 Y22.486
X23.484 Y22.788
X24.078 Y22.98
X24.689 Y23.104
X25.305 Y23.202
X25.92 Y23.31
X26.356 Y23.414
X26.678 Y23.518
X26.899 Y23.61
X26.99 Y23.657
X27.146 Y23.766
X27.267 Y23.915
X27.344 Y24.09
X27.37 Y24.279
Y25.432
G0 Z5
X-26.995 Y27.059
Z-1.905
G1 Z-2.205 F200
X-26.999 Y27.052 Z-2.272
X-27.011 Y27.033 Z-2.335
X-27.029 Y27.003 Z-2.392
X-27.053 Y26.962 Z-2.44
X-27.082 Y26.913 Z-2.475
X-27.115 Y26.858 Z-2.497
X-27.149 Y26.801 Z-2.505
G3 X-27.37 Y26.048 I1.36 J-0.809
G1 Y25.056
X-27.362 Y24.906
X-27.335 Y24.758
X-27.292 Y24.615
X-27.236 Y24.476
X-27.162 Y24.333
X-27.068 Y24.18
X-26.952 Y24.021
X-26.802 Y23.849
X-26.628 Y23.677
X-26.402 Y23.488
X-26.145 Y23.306
X-25.811 Y23.108
X-25.251 Y22.834
X-24.999 Y22.649
X-24.799 Y22.41
X-24.495 Y21.865
X-24.368 Y21.255
X-24.358 Y20.631
X-24.418 Y20.01
X-24.519 Y19.394
X-24.641 Y18.782
X-24.77 Y18.172
X-24.898 Y17.561
X-25.02 Y16.949
X-25.132 Y16.335
X-25.232 Y15.719
X-25.319 Y15.101
X-25.392 Y14.482
X-25.451 Y13.861
X-25.496 Y13.238
X-25.525 Y12.615
X-25.54 Y11.991
Y11.367
X-25.524 Y10.744
X-25.493 Y10.12
X-25.448 Y9.498
X-25.387 Y8.877
X-25.311 Y8.258
X-25.22 Y7.641
X-25.114 Y7.026
X-24.993 Y6.414
X-24.857 Y5.805
X-24.707 Y5.199
X-24.541 Y4.597
X-24.361 Y4
X-24.166 Y3.408
X-23.956 Y2.82
X-23.732 Y2.238
X-23.494 Y1.661
X-23.241 Y1.09
X-22.975 Y0.526
X-22.695 Y-0.032
X-22.402 Y-0.582
X-22.096 Y-1.126
X-21.776 Y-1.662
X-21.444 Y-2.19
X-21.099 Y-2.71
X-20.741 Y-3.221
X-20.371 Y-3.723
X-19.989 Y-4.217
X-19.595 Y-4.7
X-19.189 Y-5.174
X-18.771 Y-5.638
X-18.343 Y-6.091
X-17.903 Y-6.534
X-17.453 Y-6.967
X-16.993 Y-7.387
X-16.522 Y-7.797
X-16.041 Y-8.194
X-15.55 Y-8.579
X-15.049 Y-8.952
X-14.539 Y-9.31
X-14.018 Y-9.655
X-13.489 Y-9.985
X-12.951 Y-10.3
X-12.405 Y-10.602
X-11.852 Y-10.891
X-11.292 Y-11.167
X-10.726 Y-11.429
X-10.154 Y-11.678
X-9.576 Y-11.915
X-8.994 Y-12.138
X-8.406 Y-12.348
X-7.814 Y-12.545
X-7.217 Y-12.727
X-6.616 Y-12.895
X-6.012 Y-13.049
X-5.403 Y-13.188
X-4.792 Y-13.313
X-4.178 Y-13.422
X-4.107 Y-13.431
X-4.072 Y-13.434
X-4.037 Y-13.435
X2.834
X3.457 Y-13.404
X4.08 Y-13.364
X4.699 Y-13.286
X5.314 Y-13.18
X5.924 Y-13.052
X6.531 Y-12.904
X7.132 Y-12.74
X7.73 Y-12.56
X8.322 Y-12.364
X8.909 Y-12.153
X9.491 Y-11.928
X10.067 Y-11.688
X10.637 Y-11.434
X11.201 Y-11.167
X11.758 Y-10.886
X12.308 Y-10.591
X12.85 Y-10.283
X13.385 Y-9.961
X13.911 Y-9.626
X14.43 Y-9.278
X14.939 Y-8.918
X15.439 Y-8.545
X15.931 Y-8.161
X16.412 Y-7.764
X16.884 Y-7.356
X17.346 Y-6.937
X17.798 Y-6.506
X18.238 Y-6.064
X18.668 Y-5.612
X19.087 Y-5.149
X19.494 Y-4.676
X19.889 Y-4.193
X20.272 Y-3.701
X20.643 Y-3.199
X21.002 Y-2.689
X21.348 Y-2.17
X21.682 Y-1.643
X22.002 Y-1.107
X22.309 Y-0.564
X22.602 Y-0.013
X22.882 Y0.545
X23.148 Y1.109
X23.4 Y1.68
X23.638 Y2.257
X23.862 Y2.839
X24.071 Y3.427
X24.267 Y4.019
X24.448 Y4.616
X24.614 Y5.218
X24.765 Y5.823
X24.901 Y6.432
X25.023 Y7.044
X25.129 Y7.659
X25.22 Y8.276
X25.296 Y8.895
X25.357 Y9.516
X25.402 Y10.139
X25.433 Y10.762
X25.449 Y11.386
X25.448 Y12.01
X25.432 Y12.633
X25.401 Y13.257
X25.355 Y13.879
X25.293 Y14.5
X25.216 Y15.119
X25.124 Y15.736
X25.017 Y16.351
X24.896 Y16.963
X24.761 Y17.572
X24.612 Y18.178
X24.451 Y18.78
X24.276 Y19.379
X24.088 Y19.974
X24.075 Y20.13
X24.116 Y20.439
X24.25 Y20.721
X24.633 Y21.213
X25.146 Y21.568
X25.709 Y21.837
X26.288 Y22.07
X26.734 Y22.259
X26.992 Y22.394
X27.043 Y22.427
X27.179 Y22.538
X27.283 Y22.681
X27.348 Y22.844
X27.37 Y23.019
Y24.279
G0 Z5
X1.822 Y-13.06
Z-1.905
G1 Z-2.205 F200
X1.829 Y-13.064 Z-2.272
X1.848 Y-13.076 Z-2.335
X1.879 Y-13.094 Z-2.392
X1.919 Y-13.118 Z-2.44
X1.968 Y-13.147 Z-2.475
X2.023 Y-13.18 Z-2.497
X2.08 Y-13.214 Z-2.505
G3 X2.834 Y-13.435 I0.809 J1.36
G1 X7.51
X8.052 Y-13.408
X8.516 Y-13.347
X9.126 Y-13.216
X9.724 Y-13.038
X10.311 Y-12.826
X10.889 Y-12.591
X11.459 Y-12.337
X12.021 Y-12.066
X12.576 Y-11.78
X13.123 Y-11.48
X13.453 Y-11.288
X13.506 Y-11.254
X13.555 Y-11.216
X13.6 Y-11.174
G3 X13.275 Y-10.69 I-0.221 J0.203
G1 X7.416 Y-12.854
G3 X7.51 Y-13.435 I0.104 J-0.281
G1 X10.627
X10.768
X10.811
X10.961 Y-13.427
X11.212 Y-13.392
X11.359 Y-13.355
X11.495 Y-13.287
X11.613 Y-13.19
G3 X11.317 Y-12.697 I-0.221 J0.203
G1 X11.302 Y-12.701
X10.747 Y-12.845
G3 X10.811 Y-13.435 I0.075 J-0.29
G1 X11.194
X11.335 Y-13.434
X11.35 Y-13.431
X11.366 Y-13.427
X11.381 Y-13.42
X11.396 Y-13.41
X11.955 Y-12.843
X22.245 Y-2.401
X22.661 Y-1.935
X23.04 Y-1.446
X23.382 Y-0.924
X23.694 Y-0.383
X23.984 Y0.169
X24.255 Y0.731
X24.509 Y1.301
X24.748 Y1.877
X24.972 Y2.46
X25.183 Y3.047
X25.379 Y3.639
X25.561 Y4.236
X25.729 Y4.837
X25.883 Y5.442
X26.023 Y6.05
X26.148 Y6.661
X26.259 Y7.275
X26.355 Y7.892
X26.436 Y8.51
X26.503 Y9.131
X26.555 Y9.752
X26.593 Y10.375
X26.617 Y10.999
X26.626 Y11.622
X26.619 Y12.246
X26.599 Y12.87
X26.563 Y13.493
X26.513 Y14.115
X26.449 Y14.735
X26.37 Y15.354
X26.277 Y15.971
X26.169 Y16.586
X26.049 Y17.198
X25.914 Y17.807
X25.767 Y18.414
X25.687 Y18.715
X25.652 Y19.025
X25.709 Y19.332
X25.955 Y19.905
X26.368 Y20.373
X26.852 Y20.767
X27.1 Y20.961
X27.246 Y21.115
X27.338 Y21.305
X27.37 Y21.513
Y23.019
G0 Z5
X21.269 Y-2.858
Z-1.905
G1 Z-2.205 F200
X21.276 Y-2.856 Z-2.272
X21.297 Y-2.851 Z-2.335
X21.332 Y-2.842 Z-2.392
X21.378 Y-2.829 Z-2.44
X21.433 Y-2.815 Z-2.475
X21.494 Y-2.799 Z-2.497
X21.559 Y-2.782 Z-2.505
G3 X22.245 Y-2.401 I-0.401 J1.531
G1 X24.796 Y0.188
X25.086 Y0.513
X25.324 Y0.827
X25.596 Y1.255
X25.888 Y1.807
X26.141 Y2.377
X26.365 Y2.96
X26.566 Y3.55
X26.75 Y4.147
X26.916 Y4.748
X27.068 Y5.353
X27.205 Y5.962
X27.327 Y6.574
X27.359 Y6.757
X27.365 Y6.797
X27.369 Y6.837
X27.37 Y6.878
G3 X26.79 Y6.975 I-0.3 J-0.01
G1 X24.31 Y0.513
G3 X24.796 Y0.188 I0.28 J-0.108
G1 X26.757 Y2.177
X26.964 Y2.41
X27.148 Y2.654
X27.26 Y2.83
X27.321 Y2.947
X27.358 Y3.074
X27.37 Y3.206
G3 X26.819 Y3.359 I-0.3 J-0.01
G1 X26.804 Y3.337
X26.299 Y2.559
G3 X26.757 Y2.177 I0.252 J-0.163
G1 X27.315 Y2.744
X27.346 Y2.778
X27.354 Y2.791
X27.36 Y2.805
X27.368 Y2.832
X27.37 Y2.845
Y15.356
X27.339 Y15.979
X27.291 Y16.601
X27.205 Y17.219
X27.093 Y17.833
X27.099 Y18.145
X27.228 Y18.755
X27.29 Y18.872
X27.334 Y18.976
