(1001)
(Machine)
(  vendor: Autodesk)
(  description: Generic 3-axis)
(T3  D=3 CR=0 - ZMIN=-4.95 - flat end mill)
G90 G94
G17
G21

(2D Contour4)
T3
S1000 M3
G54
M8
G0 X41.377 Y-54.784
Z15
Z5
G1 Z1 F200
Z-4.65
X41.379 Y-54.777 Z-4.717
X41.383 Y-54.755 Z-4.78
X41.389 Y-54.72 Z-4.837
X41.398 Y-54.673 Z-4.885
X41.409 Y-54.617 Z-4.92
X41.421 Y-54.555 Z-4.942
X41.433 Y-54.489 Z-4.95
X41.489 Y-54.194
G3 X41.25 Y-53.844 I-0.295 J0.056
G2 X40.23 Y-51.62 I0.279 J1.474
G1 X42.144 Y-48.305
X40.882 Y-46.12
X38.359
X37.097 Y-48.305
X38.792 Y-51.241
G2 X37.493 Y-53.491 I-1.299 J-0.75
G1 X22.433
G2 X21.348 Y-53.027 I0 J1.5
G1 X11.602 Y-42.811
G2 X12.333 Y-40.318 I1.085 J1.035
G1 X15.632 Y-39.517
X16.343 Y-37.091
X14.598 Y-35.262
X12.142 Y-35.859
X11.186 Y-39.116
G2 X8.662 Y-39.729 I-1.439 J0.422
G1 X-1.084 Y-29.513
G2 X-1.499 Y-28.478 I1.085 J1.035
G1 Y-17.213
G2 X0.751 Y-15.914 I1.5 J0
G1 X3.833 Y-17.693
X6.165 Y-16.346
Y-13.653
X3.832 Y-12.307
X0.75 Y-14.087
G2 X-1.5 Y-12.788 I-0.75 J1.299
G1 Y0
G2 X0 Y1.5 I1.5 J0
G1 X24.752
G2 X25.808 Y-1.065 I0 J-1.5
G3 X53.432 Y-28.935 I13.812 J-13.935
X53.432 Y-1.065 I-13.812 J13.935
G2 X54.488 Y1.5 I1.056 J1.065
G1 X79.268
G2 X80.768 Y0 I0 J-1.5
G1 Y-12.773
G2 X78.517 Y-14.072 I-1.5 J0
G1 X75.409 Y-12.277
X73.051 Y-13.639
Y-16.361
X75.409 Y-17.723
X78.517 Y-15.928
G2 X80.768 Y-17.228 I0.75 J-1.299
G1 Y-28.753
G2 X80.333 Y-29.809 I-1.5 J0
G1 X70.127 Y-40.103
G2 X67.614 Y-39.44 I-1.065 J1.056
G1 X66.726 Y-36.17
X64.282 Y-35.523
X62.5 Y-37.317
X63.163 Y-39.756
X66.444 Y-40.624
G2 X67.126 Y-43.13 I-0.383 J-1.45
G1 X56.918 Y-53.426
G2 X55.852 Y-53.87 I-1.065 J1.056
G1 X41.529
G2 X41.25 Y-53.844 I0 J1.5
G3 X40.899 Y-54.083 I-0.056 J-0.295
G1 X40.844 Y-54.377
X40.831 Y-54.443 Z-4.942
X40.819 Y-54.505 Z-4.92
X40.809 Y-54.561 Z-4.885
X40.8 Y-54.608 Z-4.837
X40.793 Y-54.643 Z-4.78
X40.789 Y-54.665 Z-4.717
X40.788 Y-54.672 Z-4.65
G0 Z15
M9
M5
M30
