(1001)
(Machine)
(  vendor: Autodesk)
(  description: Generic 3-axis)
(T1  D=3 CR=0 - ZMIN=-17.1 - flat end mill)
(T3  D=3 CR=0 - ZMIN=-11 - flat end mill)
N10 G90
N15 G17
N20 G21
(2D Pocket8 2)
N25 T1 M6
N30 T3
N35 S21000 M3
N40 M8
N45 G0 X20.119 Y94.8
N50 Z16
N55 Z6
N60 G1 Z3.5 F30000
N65 S1000
N70 X16.712 Z2.899 F10000
N75 X23.225 Z1.751
N80 X16.712 Z0.603
N85 X23.225 Z-0.546
N90 X20.65 Z-1
N95 S21000
N100 G17 G3 X19.35 I-0.65 J0 F30000
N105 X23.5 I2.075 J0
N110 X16.5 I-3.5 J0
N115 X23.5 I3.5 J0
N120 X22.67 Y95.279 I-0.553 J0
N125 G1 X20.404 Y93.97
N130 G2 X19.648 Y94.173 I-0.277 J0.479
N135 G1 X19.446 Y94.523
N140 G3 X18.967 Y94.8 I-0.479 J-0.277
N145 S1000
N150 G1 X16.712 Z-1.397 F10000
N155 X23.225 Z-2.546
N160 X20.65 Z-3
N165 S21000
N170 G3 X19.35 I-0.65 J0 F30000
N175 X23.5 I2.075 J0
N180 X16.5 I-3.5 J0
N185 X23.5 I3.5 J0
N190 X22.67 Y95.279 I-0.553 J0
N195 G1 X20.404 Y93.97
N200 G2 X19.648 Y94.173 I-0.277 J0.479
N205 G1 X19.446 Y94.523
N210 G3 X18.967 Y94.8 I-0.479 J-0.277
N215 S1000
N220 G1 X16.712 Z-3.397 F10000
N225 X23.225 Z-4.546
N230 X20.65 Z-5
N235 S21000
N240 G3 X19.35 I-0.65 J0 F30000
N245 X23.5 I2.075 J0
N250 X16.5 I-3.5 J0
N255 X23.5 I3.5 J0
N260 X22.67 Y95.279 I-0.553 J0
N265 G1 X20.404 Y93.97
N270 G2 X19.648 Y94.173 I-0.277 J0.479
N275 G1 X19.446 Y94.523
N280 G3 X18.967 Y94.8 I-0.479 J-0.277
N285 S1000
N290 G1 X16.712 Z-5.397 F10000
N295 X23.225 Z-6.546
N300 X20.65 Z-7
N305 S21000
N310 G3 X19.35 I-0.65 J0 F30000
N315 X23.5 I2.075 J0
N320 X16.5 I-3.5 J0
N325 X23.5 I3.5 J0
N330 X22.67 Y95.279 I-0.553 J0
N335 G1 X20.404 Y93.97
N340 G2 X19.648 Y94.173 I-0.277 J0.479
N345 G1 X19.446 Y94.523
N350 G3 X18.967 Y94.8 I-0.479 J-0.277
N355 S1000
N360 G1 X16.712 Z-7.397 F10000
N365 X23.225 Z-8.546
N370 X20.65 Z-9
N375 S21000
N380 G3 X19.35 I-0.65 J0 F30000
N385 X23.5 I2.075 J0
N390 X16.5 I-3.5 J0
N395 X23.5 I3.5 J0
N400 X22.67 Y95.279 I-0.553 J0
N405 G1 X20.404 Y93.97
N410 G2 X19.648 Y94.173 I-0.277 J0.479
N415 G1 X19.446 Y94.523
N420 G3 X18.967 Y94.8 I-0.479 J-0.277
N425 S1000
N430 G1 X16.712 Z-9.397 F10000
N435 X23.225 Z-10.546
N440 X20.65 Z-11
N445 S21000
N450 G3 X19.35 I-0.65 J0 F30000
N455 X23.5 I2.075 J0
N460 X16.5 I-3.5 J0
N465 X23.5 I3.5 J0
N470 X22.67 Y95.279 I-0.553 J0
N475 G1 X20.404 Y93.97
N480 G2 X19.648 Y94.173 I-0.277 J0.479
N485 G1 X19.446 Y94.523
N490 G3 X18.967 Y94.8 I-0.479 J-0.277
N495 S1000
N500 G1 X16.712 Z-11.397 F10000
N505 X23.225 Z-12.546
N510 X20.65 Z-13
N515 S21000
N520 G3 X19.35 I-0.65 J0 F30000
N525 X23.5 I2.075 J0
N530 X16.5 I-3.5 J0
N535 X23.5 I3.5 J0
N540 X22.67 Y95.279 I-0.553 J0
N545 G1 X20.404 Y93.97
N550 G2 X19.648 Y94.173 I-0.277 J0.479
N555 G1 X19.446 Y94.523
N560 G3 X18.967 Y94.8 I-0.479 J-0.277
N565 S1000
N570 G1 X16.712 Z-13.397 F10000
N575 X23.225 Z-14.546
N580 X20.65 Z-15
N585 S21000
N590 G3 X19.35 I-0.65 J0 F30000
N595 X23.5 I2.075 J0
N600 X16.5 I-3.5 J0
N605 X23.5 I3.5 J0
N610 X23.093 Y95.244 I-0.446 J0
N615 G1 X21.188 Y95.411
N620 X21.124 Y95.421
N625 X21.062 Y95.441
N630 X21.004 Y95.469
N635 X20.933 Y95.502
N640 X20.858 Y95.522
N645 X19.922 Y95.685
N650 G3 X19.401 Y95.284 I-0.077 J-0.439
N655 X19.846 Y94.8 I0.444 J-0.038
N660 S1000
N665 G1 X23.225 Z-15.596 F10000
N670 X20.65 Z-16.05
N675 S21000
N680 G3 X19.35 I-0.65 J0 F30000
N685 X23.5 I2.075 J0
N690 X16.5 I-3.5 J0
N695 X23.5 I3.5 J0
N700 X23.093 Y95.244 I-0.446 J0
N705 G1 X21.188 Y95.411
N710 X21.124 Y95.421
N715 X21.062 Y95.441
N720 X21.004 Y95.469
N725 X20.933 Y95.502
N730 X20.858 Y95.522
N735 X19.922 Y95.685
N740 G3 X19.401 Y95.284 I-0.077 J-0.439
N745 X19.846 Y94.8 I0.444 J-0.038
N750 S1000
N755 G1 X23.225 Z-16.646 F10000
N760 X20.65 Z-17.1
N765 S21000
N770 G3 X19.35 I-0.65 J0 F30000
N775 X23.5 I2.075 J0
N780 X16.5 I-3.5 J0
N785 X23.5 I3.5 J0
N790 G0 Z6
N795 X17.935 Y63.856
N800 G1 Z3.5 F30000
N805 S1000
N810 X17.411 Y64.072 Z3.4 F10000
N815 X30.233 Y58.761 Z0.953
N820 X20 Y63 Z-1
N825 X18.553 Y63.691
N830 G2 X19.042 Y64.714 I0.245 J0.511
N835 X19.198 Y63.802 I-0.245 J-0.511
N840 S21000
N845 G3 X20 Y61.861 I0.804 J-0.804 F30000
N850 G2 X20.625 Y61.783 I0 J-2.529
N855 X21.223 Y61.589 I-1.219 J-4.784
N860 G3 X21.411 Y61.777 I0.053 J0.135
N865 G2 X21.217 Y62.375 I4.59 J1.818
N870 X21.139 Y63 I2.451 J0.625
N875 G3 X19.198 Y63.802 I-1.136 J0
N880 G0 Z6
N885 X26.314 Y54.45
N890 G1 Z3.5 F30000
N895 S1000
N900 X21.66 Z2.679 F10000
N905 X35.538 Z0.232
N910 X28.55 Z-1
N915 G3 Y54.015 I0 J-0.217
N920 X28.767 Y54.233 I0 J0.217
N925 G1 Y54.667
N930 G3 X28.55 Y54.885 I-0.217 J0
N935 S21000
N940 G1 X28.435 F30000
N945 G3 X28.115 Y54.565 I0 J-0.319
N950 G1 Y54.443
N955 Y54.335
N960 G3 X28.435 Y54.015 I0.319 J0
N965 G1 X71.565
N970 G3 X71.885 Y54.335 I0 J0.319
N975 G1 Y54.565
N980 G3 X71.565 Y54.885 I-0.319 J0
N985 G1 X28.55
N990 G2 X27.196 Y55.62 I0 J1.615
N995 G3 X25.719 Y55.182 I-0.674 J-0.438
N1000 G1 Y51.938
N1005 G3 X26.038 Y51.619 I0.319 J0
N1010 G1 X73.962
N1015 G3 X74.281 Y51.938 I0 J0.319
N1020 G1 Y56.962
N1025 G3 X73.962 Y57.281 I-0.319 J0
N1030 G1 X26.038
N1035 G3 X25.719 Y56.962 I0 J-0.319
N1040 G1 Y55.182
N1045 G2 X24.54 Y53.414 I-1.916 J0
N1050 G3 X23.361 Y51.645 I0.737 J-1.768
N1055 G1 Y50.4
N1060 G2 X23.283 Y49.775 I-2.529 J0
N1065 X23.089 Y49.177 I-4.784 J1.219
N1070 G3 X23.277 Y48.989 I0.135 J-0.053
N1075 G2 X23.875 Y49.183 I1.818 J-4.59
N1080 X24.5 Y49.261 I0.625 J-2.451
N1085 G1 X75.5
N1090 G2 X76.125 Y49.183 I0 J-2.529
N1095 X76.723 Y48.989 I-1.219 J-4.784
N1100 G3 X76.911 Y49.177 I0.053 J0.135
N1105 G2 X76.717 Y49.775 I4.59 J1.818
N1110 X76.639 Y50.4 I2.451 J0.625
N1115 G1 Y58.5
N1120 G2 X76.717 Y59.125 I2.529 J0
N1125 X76.911 Y59.723 I4.784 J-1.219
N1130 G3 X76.723 Y59.911 I-0.135 J0.053
N1135 G2 X76.125 Y59.717 I-1.818 J4.59
N1140 X75.5 Y59.639 I-0.625 J2.451
N1145 G1 X24.5
N1150 G2 X23.875 Y59.717 I0 J2.529
N1155 X23.277 Y59.911 I1.219 J4.784
N1160 G3 X23.089 Y59.723 I-0.053 J-0.135
N1165 G2 X23.283 Y59.125 I-4.59 J-1.818
N1170 X23.361 Y58.5 I-2.451 J-0.625
N1175 G1 Y51.645
N1180 Z4
N1185 X25.242 Y51.142
N1190 Z-1
N1195 X21.379 Y47.279
N1200 X21.345 Y47.304
N1205 X21.306 Y47.319
N1210 X21.264 Y47.321
N1215 X21.223 Y47.311
N1220 G2 X20.625 Y47.117 I-1.818 J4.59
N1225 X20 Y47.039 I-0.625 J2.451
N1230 G3 X19.198 Y45.098 I0 J-1.136
N1235 X21.139 Y45.9 I0.804 J0.804
N1240 G2 X21.217 Y46.525 I2.529 J0
N1245 X21.411 Y47.123 I4.784 J-1.219
N1250 G1 X21.421 Y47.164
N1255 X21.419 Y47.206
N1260 X21.404 Y47.245
N1265 X21.379 Y47.279
N1270 G0 Z6
N1275 X82.065 Y45.044
N1280 G1 Z3.5 F30000
N1285 S1000
N1290 X82.589 Y44.828 Z3.4 F10000
N1295 X69.767 Y50.139 Z0.953
N1300 X80 Y45.9 Z-1
N1305 X81.447 Y45.209
N1310 G2 X80.958 Y44.186 I-0.245 J-0.511
N1315 X80.802 Y45.098 I0.245 J0.511
N1320 S21000
N1325 G3 X80 Y47.039 I-0.804 J0.804 F30000
N1330 G2 X79.375 Y47.117 I0 J2.529
N1335 X78.777 Y47.311 I1.219 J4.784
N1340 G3 X78.589 Y47.123 I-0.053 J-0.135
N1345 G2 X78.783 Y46.525 I-4.59 J-1.818
N1350 X78.861 Y45.9 I-2.451 J-0.625
N1355 G3 X80.802 Y45.098 I1.136 J0
N1360 G0 Z6
N1365 X82.065 Y63.856
N1370 G1 Z3.5 F30000
N1375 S1000
N1380 X82.589 Y64.072 Z3.4 F10000
N1385 X69.767 Y58.761 Z0.953
N1390 X80 Y63 Z-1
N1395 G3 X80.321 Y63.345 I-0.217 J0.524
N1400 G1 X80.665 Y64.381
N1405 G2 X81.741 Y64.024 I0.538 J-0.178
N1410 X80.802 Y63.802 I-0.538 J0.178
N1415 S21000
N1420 G3 X78.861 Y63 I-0.804 J-0.804 F30000
N1425 G2 X78.783 Y62.375 I-2.529 J0
N1430 X78.589 Y61.777 I-4.784 J1.219
N1435 G3 X78.777 Y61.589 I0.135 J-0.053
N1440 G2 X79.375 Y61.783 I1.818 J-4.59
N1445 X80 Y61.861 I0.625 J-2.451
N1450 G3 X80.802 Y63.802 I0 J1.136
N1455 G2 X80.435 Y65.032 I0.949 J0.952
N1460 G3 X79.555 Y65.967 I-0.764 J0.162
N1465 X77 Y63 I0.445 J-2.967
N1470 G2 X75.5 Y61.5 I-1.5 J0
N1475 G1 X24.5
N1480 G2 X23 Y63 I0 J1.5
N1485 G3 X17 I-3 J0
N1490 X20 Y60 I3 J0
N1495 G2 X21.5 Y58.5 I0 J-1.5
N1500 G1 Y50.4
N1505 G2 X20 Y48.9 I-1.5 J0
N1510 G3 Y42.9 I0 J-3
N1515 X23 Y45.9 I0 J3
N1520 G2 X24.5 Y47.4 I1.5 J0
N1525 G1 X75.5
N1530 G2 X77 Y45.9 I0 J-1.5
N1535 G3 X83 I3 J0
N1540 X80 Y48.9 I-3 J0
N1545 G2 X78.5 Y50.4 I0 J1.5
N1550 G1 Y58.5
N1555 G2 X80 Y60 I1.5 J0
N1560 G3 X82.992 Y63.223 I0 J3
N1565 X79.555 Y65.967 I-2.992 J-0.223
N1570 X79.085 Y65.511 I0.083 J-0.556
N1575 G1 X78.72 Y63.505
N1580 G2 X78.538 Y63.184 I-0.553 J0.101
N1585 G1 X72.869 Y58.2
N1590 G2 X71.869 Y58.118 I-0.554 J0.63
N1595 G1 X70.78 Y58.8
N1600 G3 X70.014 Y58.863 I-0.445 J-0.712
N1605 S1000
N1610 G1 X69.767 Y58.761 Z-1.047 F10000
N1615 X80 Y63 Z-3
N1620 G3 X80.321 Y63.345 I-0.217 J0.524
N1625 G1 X80.665 Y64.381
N1630 G2 X81.741 Y64.024 I0.538 J-0.178
N1635 X80.802 Y63.802 I-0.538 J0.178
N1640 S21000
N1645 G3 X78.861 Y63 I-0.804 J-0.804 F30000
N1650 G2 X78.783 Y62.375 I-2.529 J0
N1655 X78.589 Y61.777 I-4.784 J1.219
N1660 G3 X78.777 Y61.589 I0.135 J-0.053
N1665 G2 X79.375 Y61.783 I1.818 J-4.59
N1670 X80 Y61.861 I0.625 J-2.451
N1675 G3 X80.802 Y63.802 I0 J1.136
N1680 G0 Z6
N1685 X26.314 Y54.45
N1690 G1 Z1.5 F30000
N1695 S1000
N1700 X21.66 Z0.679 F10000
N1705 X35.538 Z-1.768
N1710 X28.55 Z-3
N1715 G3 Y54.015 I0 J-0.217
N1720 X28.767 Y54.233 I0 J0.217
N1725 G1 Y54.667
N1730 G3 X28.55 Y54.885 I-0.217 J0
N1735 S21000
N1740 G1 X28.435 F30000
N1745 G3 X28.115 Y54.565 I0 J-0.319
N1750 G1 Y54.335
N1755 G3 X28.435 Y54.015 I0.319 J0
N1760 G1 X71.565
N1765 G3 X71.885 Y54.335 I0 J0.319
N1770 G1 Y54.565
N1775 G3 X71.565 Y54.885 I-0.319 J0
N1780 G1 X28.55
N1785 G2 X27.196 Y55.62 I0 J1.615
N1790 G3 X25.719 Y55.182 I-0.674 J-0.438
N1795 G1 Y51.938
N1800 G3 X26.038 Y51.619 I0.319 J0
N1805 G1 X73.962
N1810 G3 X74.281 Y51.938 I0 J0.319
N1815 G1 Y56.962
N1820 G3 X73.962 Y57.281 I-0.319 J0
N1825 G1 X26.038
N1830 G3 X25.719 Y56.962 I0 J-0.319
N1835 G1 Y55.182
N1840 G2 X24.54 Y53.414 I-1.916 J0
N1845 G3 X23.361 Y51.645 I0.737 J-1.768
N1850 G1 Y50.4
N1855 G2 X23.283 Y49.775 I-2.529 J0
N1860 X23.089 Y49.177 I-4.784 J1.219
N1865 G3 X23.277 Y48.989 I0.135 J-0.053
N1870 G2 X23.875 Y49.183 I1.818 J-4.59
N1875 X24.5 Y49.261 I0.625 J-2.451
N1880 G1 X75.5
N1885 G2 X76.125 Y49.183 I0 J-2.529
N1890 X76.723 Y48.989 I-1.219 J-4.784
N1895 G3 X76.911 Y49.177 I0.053 J0.135
N1900 G2 X76.717 Y49.775 I4.59 J1.818
N1905 X76.639 Y50.4 I2.451 J0.625
N1910 G1 Y58.5
N1915 G2 X76.717 Y59.125 I2.529 J0
N1920 X76.911 Y59.723 I4.784 J-1.219
N1925 G3 X76.723 Y59.911 I-0.135 J0.053
N1930 G2 X76.125 Y59.717 I-1.818 J4.59
N1935 X75.5 Y59.639 I-0.625 J2.451
N1940 G1 X24.5
N1945 G2 X23.875 Y59.717 I0 J2.529
N1950 X23.277 Y59.911 I1.219 J4.784
N1955 G3 X23.089 Y59.723 I-0.053 J-0.135
N1960 G2 X23.283 Y59.125 I-4.59 J-1.818
N1965 X23.361 Y58.5 I-2.451 J-0.625
N1970 G1 Y51.645
N1975 Z2
N1980 X25.242 Y51.142
N1985 Z-3
N1990 X21.379 Y47.279
N1995 X21.345 Y47.304
N2000 X21.306 Y47.319
N2005 X21.264 Y47.321
N2010 X21.223 Y47.311
N2015 G2 X20.625 Y47.117 I-1.818 J4.59
N2020 X20 Y47.039 I-0.625 J2.451
N2025 G3 X19.198 Y45.098 I0 J-1.136
N2030 X21.139 Y45.9 I0.804 J0.804
N2035 G2 X21.217 Y46.525 I2.529 J0
N2040 X21.411 Y47.123 I4.784 J-1.219
N2045 G1 X21.421 Y47.164
N2050 X21.419 Y47.206
N2055 X21.404 Y47.245
N2060 X21.379 Y47.279
N2065 Z2
N2070 X25.242 Y57.758
N2075 Z-3
N2080 X21.379 Y61.621
N2085 X21.404 Y61.655
N2090 X21.419 Y61.694
N2095 X21.421 Y61.736
N2100 X21.411 Y61.777
N2105 G2 X21.217 Y62.375 I4.59 J1.818
N2110 X21.139 Y63 I2.451 J0.625
N2115 G3 X19.198 Y63.802 I-1.136 J0
N2120 X20 Y61.861 I0.804 J-0.804
N2125 G2 X20.625 Y61.783 I0 J-2.529
N2130 X21.223 Y61.589 I-1.219 J-4.784
N2135 G1 X21.264 Y61.579
N2140 X21.306 Y61.581
N2145 X21.345 Y61.596
N2150 X21.379 Y61.621
N2155 G0 Z6
N2160 X82.065 Y45.044
N2165 G1 Z1.5 F30000
N2170 S1000
N2175 X82.589 Y44.828 Z1.4 F10000
N2180 X69.767 Y50.139 Z-1.047
N2185 X80 Y45.9 Z-3
N2190 X81.447 Y45.209
N2195 G2 X80.958 Y44.186 I-0.245 J-0.511
N2200 X80.802 Y45.098 I0.245 J0.511
N2205 S21000
N2210 G3 X80 Y47.039 I-0.804 J0.804 F30000
N2215 G2 X79.375 Y47.117 I0 J2.529
N2220 X78.777 Y47.311 I1.219 J4.784
N2225 G3 X78.589 Y47.123 I-0.053 J-0.135
N2230 G2 X78.783 Y46.525 I-4.59 J-1.818
N2235 X78.861 Y45.9 I-2.451 J-0.625
N2240 G3 X80.802 Y45.098 I1.136 J0
N2245 G2 X82.032 Y45.465 I0.952 J-0.949
N2250 G3 X82.967 Y46.345 I0.162 J0.764
N2255 X80 Y48.9 I-2.967 J-0.445
N2260 G2 X78.5 Y50.4 I0 J1.5
N2265 G1 Y58.5
N2270 G2 X80 Y60 I1.5 J0
N2275 G3 Y66 I0 J3
N2280 X77 Y63 I0 J-3
N2285 G2 X75.5 Y61.5 I-1.5 J0
N2290 G1 X24.5
N2295 G2 X23 Y63 I0 J1.5
N2300 G3 X17 I-3 J0
N2305 X20 Y60 I3 J0
N2310 G2 X21.5 Y58.5 I0 J-1.5
N2315 G1 Y50.4
N2320 G2 X20 Y48.9 I-1.5 J0
N2325 G3 Y42.9 I0 J-3
N2330 X23 Y45.9 I0 J3
N2335 G2 X24.5 Y47.4 I1.5 J0
N2340 G1 X75.5
N2345 G2 X77 Y45.9 I0 J-1.5
N2350 G3 X80.223 Y42.908 I3 J0
N2355 X82.967 Y46.345 I-0.223 J2.992
N2360 G1 X82.955 Y46.389
N2365 X82.933 Y46.43
N2370 X82.902 Y46.464
N2375 X82.865 Y46.491
N2380 X82.822 Y46.508
N2385 X70.014 Y50.037
N2390 S1000
N2395 X69.767 Y50.139 Z-3.047 F10000
N2400 X80 Y45.9 Z-5
N2405 X81.447 Y45.209
N2410 G2 X80.958 Y44.186 I-0.245 J-0.511
N2415 X80.802 Y45.098 I0.245 J0.511
N2420 S21000
N2425 G3 X80 Y47.039 I-0.804 J0.804 F30000
N2430 G2 X79.375 Y47.117 I0 J2.529
N2435 X78.777 Y47.311 I1.219 J4.784
N2440 G3 X78.589 Y47.123 I-0.053 J-0.135
N2445 G2 X78.783 Y46.525 I-4.59 J-1.818
N2450 X78.861 Y45.9 I-2.451 J-0.625
N2455 G3 X80.802 Y45.098 I1.136 J0
N2460 G0 Z6
N2465 X26.314 Y54.45
N2470 G1 Z-0.5 F30000
N2475 S1000
N2480 X21.66 Z-1.321 F10000
N2485 X35.538 Z-3.768
N2490 X28.55 Z-5
N2495 G3 Y54.015 I0 J-0.217
N2500 X28.767 Y54.233 I0 J0.217
N2505 G1 Y54.667
N2510 G3 X28.55 Y54.885 I-0.217 J0
N2515 S21000
N2520 G1 X28.435 F30000
N2525 G3 X28.115 Y54.565 I0 J-0.319
N2530 G1 Y54.335
N2535 G3 X28.435 Y54.015 I0.319 J0
N2540 G1 X71.565
N2545 G3 X71.885 Y54.335 I0 J0.319
N2550 G1 Y54.565
N2555 G3 X71.565 Y54.885 I-0.319 J0
N2560 G1 X28.552
N2565 X28.55
N2570 G2 X27.196 Y55.62 I0 J1.615
N2575 G3 X25.719 Y55.182 I-0.674 J-0.438
N2580 G1 Y51.938
N2585 G3 X26.038 Y51.619 I0.319 J0
N2590 G1 X73.962
N2595 G3 X74.281 Y51.938 I0 J0.319
N2600 G1 Y56.962
N2605 G3 X73.962 Y57.281 I-0.319 J0
N2610 G1 X26.038
N2615 G3 X25.719 Y56.962 I0 J-0.319
N2620 G1 Y55.182
N2625 G2 X24.54 Y53.414 I-1.916 J0
N2630 G3 X23.361 Y51.645 I0.737 J-1.768
N2635 G1 Y50.4
N2640 G2 X23.283 Y49.775 I-2.529 J0
N2645 X23.089 Y49.177 I-4.784 J1.219
N2650 G3 X23.277 Y48.989 I0.135 J-0.053
N2655 G2 X23.875 Y49.183 I1.818 J-4.59
N2660 X24.5 Y49.261 I0.625 J-2.451
N2665 G1 X75.5
N2670 G2 X76.125 Y49.183 I0 J-2.529
N2675 X76.723 Y48.989 I-1.219 J-4.784
N2680 G3 X76.911 Y49.177 I0.053 J0.135
N2685 G2 X76.717 Y49.775 I4.59 J1.818
N2690 X76.639 Y50.4 I2.451 J0.625
N2695 G1 Y58.5
N2700 G2 X76.717 Y59.125 I2.529 J0
N2705 X76.911 Y59.723 I4.784 J-1.219
N2710 G3 X76.723 Y59.911 I-0.135 J0.053
N2715 G2 X76.125 Y59.717 I-1.818 J4.59
N2720 X75.5 Y59.639 I-0.625 J2.451
N2725 G1 X24.5
N2730 G2 X23.875 Y59.717 I0 J2.529
N2735 X23.277 Y59.911 I1.219 J4.784
N2740 G3 X23.089 Y59.723 I-0.053 J-0.135
N2745 G2 X23.283 Y59.125 I-4.59 J-1.818
N2750 X23.361 Y58.5 I-2.451 J-0.625
N2755 G1 Y51.645
N2760 Z0
N2765 X25.242 Y51.142
N2770 Z-5
N2775 X21.379 Y47.279
N2780 X21.345 Y47.304
N2785 X21.306 Y47.319
N2790 X21.264 Y47.321
N2795 X21.223 Y47.311
N2800 G2 X20.625 Y47.117 I-1.818 J4.59
N2805 X20 Y47.039 I-0.625 J2.451
N2810 G3 X19.198 Y45.098 I0 J-1.136
N2815 X21.139 Y45.9 I0.804 J0.804
N2820 G2 X21.217 Y46.525 I2.529 J0
N2825 X21.411 Y47.123 I4.784 J-1.219
N2830 G1 X21.421 Y47.164
N2835 X21.419 Y47.206
N2840 X21.404 Y47.245
N2845 X21.379 Y47.279
N2850 Z0
N2855 X25.242 Y57.758
N2860 Z-5
N2865 X21.379 Y61.621
N2870 X21.404 Y61.655
N2875 X21.419 Y61.694
N2880 X21.421 Y61.736
N2885 X21.411 Y61.777
N2890 G2 X21.217 Y62.375 I4.59 J1.818
N2895 X21.139 Y63 I2.451 J0.625
N2900 G3 X19.198 Y63.802 I-1.136 J0
N2905 X20 Y61.861 I0.804 J-0.804
N2910 G2 X20.625 Y61.783 I0 J-2.529
N2915 X21.223 Y61.589 I-1.219 J-4.784
N2920 G1 X21.264 Y61.579
N2925 X21.306 Y61.581
N2930 X21.345 Y61.596
N2935 X21.379 Y61.621
N2940 G0 Z6
N2945 X82.065 Y63.856
N2950 G1 Z-0.5 F30000
N2955 S1000
N2960 X82.589 Y64.072 Z-0.6 F10000
N2965 X69.767 Y58.761 Z-3.047
N2970 X80 Y63 Z-5
N2975 G3 X80.321 Y63.345 I-0.217 J0.524
N2980 G1 X80.665 Y64.381
N2985 G2 X81.741 Y64.024 I0.538 J-0.178
N2990 X80.802 Y63.802 I-0.538 J0.178
N2995 S21000
N3000 G3 X78.861 Y63 I-0.804 J-0.804 F30000
N3005 G2 X78.783 Y62.375 I-2.529 J0
N3010 X78.589 Y61.777 I-4.784 J1.219
N3015 G3 X78.777 Y61.589 I0.135 J-0.053
N3020 G2 X79.375 Y61.783 I1.818 J-4.59
N3025 X80 Y61.861 I0.625 J-2.451
N3030 G3 X80.802 Y63.802 I0 J1.136
N3035 G2 X80.435 Y65.032 I0.949 J0.952
N3040 G3 X79.555 Y65.967 I-0.764 J0.162
N3045 X77 Y63 I0.445 J-2.967
N3050 G2 X75.5 Y61.5 I-1.5 J0
N3055 G1 X24.5
N3060 G2 X23 Y63 I0 J1.5
N3065 G3 X17 I-3 J0
N3070 X20 Y60 I3 J0
N3075 G2 X21.5 Y58.5 I0 J-1.5
N3080 G1 Y50.4
N3085 G2 X20 Y48.9 I-1.5 J0
N3090 G3 Y42.9 I0 J-3
N3095 X23 Y45.9 I0 J3
N3100 G2 X24.5 Y47.4 I1.5 J0
N3105 G1 X75.5
N3110 G2 X77 Y45.9 I0 J-1.5
N3115 G3 X83 I3 J0
N3120 X80 Y48.9 I-3 J0
N3125 G2 X78.5 Y50.4 I0 J1.5
N3130 G1 Y58.5
N3135 G2 X80 Y60 I1.5 J0
N3140 G3 X82.992 Y63.223 I0 J3
N3145 X79.555 Y65.967 I-2.992 J-0.223
N3150 X79.085 Y65.511 I0.083 J-0.556
N3155 G1 X78.72 Y63.505
N3160 G2 X78.538 Y63.184 I-0.553 J0.101
N3165 G1 X72.869 Y58.2
N3170 G2 X71.869 Y58.118 I-0.554 J0.63
N3175 G1 X70.78 Y58.8
N3180 G3 X70.014 Y58.863 I-0.445 J-0.712
N3185 S1000
N3190 G1 X69.767 Y58.761 Z-5.047 F10000
N3195 X80 Y63 Z-7
N3200 G3 X80.321 Y63.345 I-0.217 J0.524
N3205 G1 X80.665 Y64.381
N3210 G2 X81.741 Y64.024 I0.538 J-0.178
N3215 X80.802 Y63.802 I-0.538 J0.178
N3220 S21000
N3225 G3 X78.861 Y63 I-0.804 J-0.804 F30000
N3230 G2 X78.783 Y62.375 I-2.529 J0
N3235 X78.589 Y61.777 I-4.784 J1.219
N3240 G3 X78.777 Y61.589 I0.135 J-0.053
N3245 G2 X79.375 Y61.783 I1.818 J-4.59
N3250 X80 Y61.861 I0.625 J-2.451
N3255 G3 X80.802 Y63.802 I0 J1.136
N3260 G0 Z6
N3265 X26.314 Y54.45
N3270 G1 Z-2.5 F30000
N3275 S1000
N3280 X21.66 Z-3.321 F10000
N3285 X35.538 Z-5.768
N3290 X28.55 Z-7
N3295 G3 Y54.015 I0 J-0.217
N3300 X28.767 Y54.233 I0 J0.217
N3305 G1 Y54.667
N3310 G3 X28.55 Y54.885 I-0.217 J0
N3315 S21000
N3320 G1 X28.435 F30000
N3325 G3 X28.115 Y54.565 I0 J-0.319
N3330 G1 Y54.335
N3335 G3 X28.435 Y54.015 I0.319 J0
N3340 G1 X71.565
N3345 G3 X71.885 Y54.335 I0 J0.319
N3350 G1 Y54.565
N3355 G3 X71.565 Y54.885 I-0.319 J0
N3360 G1 X28.55
N3365 G2 X27.196 Y55.62 I0 J1.615
N3370 G3 X25.719 Y55.182 I-0.674 J-0.438
N3375 G1 Y51.938
N3380 G3 X26.038 Y51.619 I0.319 J0
N3385 G1 X73.962
N3390 G3 X74.281 Y51.938 I0 J0.319
N3395 G1 Y56.962
N3400 G3 X73.962 Y57.281 I-0.319 J0
N3405 G1 X26.038
N3410 G3 X25.719 Y56.962 I0 J-0.319
N3415 G1 Y55.182
N3420 G2 X24.54 Y53.414 I-1.916 J0
N3425 G3 X23.361 Y51.645 I0.737 J-1.768
N3430 G1 Y50.4
N3435 G2 X23.283 Y49.775 I-2.529 J0
N3440 X23.089 Y49.177 I-4.784 J1.219
N3445 G3 X23.277 Y48.989 I0.135 J-0.053
N3450 G2 X23.875 Y49.183 I1.818 J-4.59
N3455 X24.5 Y49.261 I0.625 J-2.451
N3460 G1 X75.5
N3465 G2 X76.125 Y49.183 I0 J-2.529
N3470 X76.723 Y48.989 I-1.219 J-4.784
N3475 G3 X76.911 Y49.177 I0.053 J0.135
N3480 G2 X76.717 Y49.775 I4.59 J1.818
N3485 X76.639 Y50.4 I2.451 J0.625
N3490 G1 Y58.5
N3495 G2 X76.717 Y59.125 I2.529 J0
N3500 X76.911 Y59.723 I4.784 J-1.219
N3505 G3 X76.723 Y59.911 I-0.135 J0.053
N3510 G2 X76.125 Y59.717 I-1.818 J4.59
N3515 X75.5 Y59.639 I-0.625 J2.451
N3520 G1 X24.5
N3525 G2 X23.875 Y59.717 I0 J2.529
N3530 X23.277 Y59.911 I1.219 J4.784
N3535 G3 X23.089 Y59.723 I-0.053 J-0.135
N3540 G2 X23.283 Y59.125 I-4.59 J-1.818
N3545 X23.361 Y58.5 I-2.451 J-0.625
N3550 G1 Y51.645
N3555 Z-2
N3560 X25.242 Y51.142
N3565 Z-7
N3570 X21.379 Y47.279
N3575 X21.345 Y47.304
N3580 X21.306 Y47.319
N3585 X21.264 Y47.321
N3590 X21.223 Y47.311
N3595 G2 X20.625 Y47.117 I-1.818 J4.59
N3600 X20 Y47.039 I-0.625 J2.451
N3605 G3 X19.198 Y45.098 I0 J-1.136
N3610 X21.139 Y45.9 I0.804 J0.804
N3615 G2 X21.217 Y46.525 I2.529 J0
N3620 X21.411 Y47.123 I4.784 J-1.219
N3625 G1 X21.421 Y47.164
N3630 X21.419 Y47.206
N3635 X21.404 Y47.245
N3640 X21.379 Y47.279
N3645 Z-2
N3650 X25.242 Y57.758
N3655 Z-7
N3660 X21.379 Y61.621
N3665 X21.404 Y61.655
N3670 X21.419 Y61.694
N3675 X21.421 Y61.736
N3680 X21.411 Y61.777
N3685 G2 X21.217 Y62.375 I4.59 J1.818
N3690 X21.139 Y63 I2.451 J0.625
N3695 G3 X19.198 Y63.802 I-1.136 J0
N3700 X20 Y61.861 I0.804 J-0.804
N3705 G2 X20.625 Y61.783 I0 J-2.529
N3710 X21.223 Y61.589 I-1.219 J-4.784
N3715 G1 X21.264 Y61.579
N3720 X21.306 Y61.581
N3725 X21.345 Y61.596
N3730 X21.379 Y61.621
N3735 G0 Z6
N3740 X82.065 Y45.044
N3745 G1 Z-2.5 F30000
N3750 S1000
N3755 X82.589 Y44.828 Z-2.6 F10000
N3760 X69.767 Y50.139 Z-5.047
N3765 X80 Y45.9 Z-7
N3770 X81.447 Y45.209
N3775 G2 X80.958 Y44.186 I-0.245 J-0.511
N3780 X80.802 Y45.098 I0.245 J0.511
N3785 S21000
N3790 G3 X80 Y47.039 I-0.804 J0.804 F30000
N3795 G2 X79.375 Y47.117 I0 J2.529
N3800 X78.777 Y47.311 I1.219 J4.784
N3805 G3 X78.589 Y47.123 I-0.053 J-0.135
N3810 G2 X78.783 Y46.525 I-4.59 J-1.818
N3815 X78.861 Y45.9 I-2.451 J-0.625
N3820 G3 X80.802 Y45.098 I1.136 J0
N3825 G2 X82.032 Y45.465 I0.952 J-0.949
N3830 G3 X82.967 Y46.345 I0.162 J0.764
N3835 X80 Y48.9 I-2.967 J-0.445
N3840 G2 X78.5 Y50.4 I0 J1.5
N3845 G1 Y58.5
N3850 G2 X80 Y60 I1.5 J0
N3855 G3 Y66 I0 J3
N3860 X77 Y63 I0 J-3
N3865 G2 X75.5 Y61.5 I-1.5 J0
N3870 G1 X24.5
N3875 G2 X23 Y63 I0 J1.5
N3880 G3 X17 I-3 J0
N3885 X20 Y60 I3 J0
N3890 G2 X21.5 Y58.5 I0 J-1.5
N3895 G1 Y50.4
N3900 G2 X20 Y48.9 I-1.5 J0
N3905 G3 Y42.9 I0 J-3
N3910 X23 Y45.9 I0 J3
N3915 G2 X24.5 Y47.4 I1.5 J0
N3920 G1 X75.5
N3925 G2 X77 Y45.9 I0 J-1.5
N3930 G3 X80.223 Y42.908 I3 J0
N3935 X82.967 Y46.345 I-0.223 J2.992
N3940 G1 X82.955 Y46.389
N3945 X82.933 Y46.43
N3950 X82.902 Y46.464
N3955 X82.865 Y46.491
N3960 X82.822 Y46.508
N3965 X70.014 Y50.037
N3970 S1000
N3975 X69.767 Y50.139 Z-7.047 F10000
N3980 X80 Y45.9 Z-9
N3985 X81.447 Y45.209
N3990 G2 X80.958 Y44.186 I-0.245 J-0.511
N3995 X80.802 Y45.098 I0.245 J0.511
N4000 S21000
N4005 G3 X80 Y47.039 I-0.804 J0.804 F30000
N4010 G2 X79.375 Y47.117 I0 J2.529
N4015 X78.777 Y47.311 I1.219 J4.784
N4020 G3 X78.589 Y47.123 I-0.053 J-0.135
N4025 G2 X78.783 Y46.525 I-4.59 J-1.818
N4030 X78.861 Y45.9 I-2.451 J-0.625
N4035 G3 X80.802 Y45.098 I1.136 J0
N4040 G0 Z6
N4045 X26.314 Y54.45
N4050 G1 Z-4.5 F30000
N4055 S1000
N4060 X21.66 Z-5.321 F10000
N4065 X35.538 Z-7.768
N4070 X28.55 Z-9
N4075 G3 Y54.015 I0 J-0.217
N4080 X28.767 Y54.233 I0 J0.217
N4085 G1 Y54.667
N4090 G3 X28.55 Y54.885 I-0.217 J0
N4095 S21000
N4100 G1 X28.435 F30000
N4105 G3 X28.115 Y54.565 I0 J-0.319
N4110 G1 Y54.335
N4115 G3 X28.435 Y54.015 I0.319 J0
N4120 G1 X71.565
N4125 G3 X71.885 Y54.335 I0 J0.319
N4130 G1 Y54.565
N4135 G3 X71.565 Y54.885 I-0.319 J0
N4140 G1 X28.552
N4145 X28.55
N4150 G2 X27.196 Y55.62 I0 J1.615
N4155 G3 X25.719 Y55.182 I-0.674 J-0.438
N4160 G1 Y51.938
N4165 G3 X26.038 Y51.619 I0.319 J0
N4170 G1 X73.962
N4175 G3 X74.281 Y51.938 I0 J0.319
N4180 G1 Y56.962
N4185 G3 X73.962 Y57.281 I-0.319 J0
N4190 G1 X26.038
N4195 G3 X25.719 Y56.962 I0 J-0.319
N4200 G1 Y55.182
N4205 G2 X24.54 Y53.414 I-1.916 J0
N4210 G3 X23.361 Y51.645 I0.737 J-1.768
N4215 G1 Y50.4
N4220 G2 X23.283 Y49.775 I-2.529 J0
N4225 X23.089 Y49.177 I-4.784 J1.219
N4230 G3 X23.277 Y48.989 I0.135 J-0.053
N4235 G2 X23.875 Y49.183 I1.818 J-4.59
N4240 X24.5 Y49.261 I0.625 J-2.451
N4245 G1 X75.5
N4250 G2 X76.125 Y49.183 I0 J-2.529
N4255 X76.723 Y48.989 I-1.219 J-4.784
N4260 G3 X76.911 Y49.177 I0.053 J0.135
N4265 G2 X76.717 Y49.775 I4.59 J1.818
N4270 X76.639 Y50.4 I2.451 J0.625
N4275 G1 Y58.5
N4280 G2 X76.717 Y59.125 I2.529 J0
N4285 X76.911 Y59.723 I4.784 J-1.219
N4290 G3 X76.723 Y59.911 I-0.135 J0.053
N4295 G2 X76.125 Y59.717 I-1.818 J4.59
N4300 X75.5 Y59.639 I-0.625 J2.451
N4305 G1 X24.5
N4310 G2 X23.875 Y59.717 I0 J2.529
N4315 X23.277 Y59.911 I1.219 J4.784
N4320 G3 X23.089 Y59.723 I-0.053 J-0.135
N4325 G2 X23.283 Y59.125 I-4.59 J-1.818
N4330 X23.361 Y58.5 I-2.451 J-0.625
N4335 G1 Y51.645
N4340 Z-4
N4345 X25.242 Y51.142
N4350 Z-9
N4355 X21.379 Y47.279
N4360 X21.345 Y47.304
N4365 X21.306 Y47.319
N4370 X21.264 Y47.321
N4375 X21.223 Y47.311
N4380 G2 X20.625 Y47.117 I-1.818 J4.59
N4385 X20 Y47.039 I-0.625 J2.451
N4390 G3 X19.198 Y45.098 I0 J-1.136
N4395 X21.139 Y45.9 I0.804 J0.804
N4400 G2 X21.217 Y46.525 I2.529 J0
N4405 X21.411 Y47.123 I4.784 J-1.219
N4410 G1 X21.421 Y47.164
N4415 X21.419 Y47.206
N4420 X21.404 Y47.245
N4425 X21.379 Y47.279
N4430 Z-4
N4435 X25.242 Y57.758
N4440 Z-9
N4445 X21.379 Y61.621
N4450 X21.404 Y61.655
N4455 X21.419 Y61.694
N4460 X21.421 Y61.736
N4465 X21.411 Y61.777
N4470 G2 X21.217 Y62.375 I4.59 J1.818
N4475 X21.139 Y63 I2.451 J0.625
N4480 G3 X19.198 Y63.802 I-1.136 J0
N4485 X20 Y61.861 I0.804 J-0.804
N4490 G2 X20.625 Y61.783 I0 J-2.529
N4495 X21.223 Y61.589 I-1.219 J-4.784
N4500 G1 X21.264 Y61.579
N4505 X21.306 Y61.581
N4510 X21.345 Y61.596
N4515 X21.379 Y61.621
N4520 G0 Z6
N4525 X82.065 Y63.856
N4530 G1 Z-4.5 F30000
N4535 S1000
N4540 X82.589 Y64.072 Z-4.6 F10000
N4545 X69.767 Y58.761 Z-7.047
N4550 X80 Y63 Z-9
N4555 G3 X80.321 Y63.345 I-0.217 J0.524
N4560 G1 X80.665 Y64.381
N4565 G2 X81.741 Y64.024 I0.538 J-0.178
N4570 X80.802 Y63.802 I-0.538 J0.178
N4575 S21000
N4580 G3 X78.861 Y63 I-0.804 J-0.804 F30000
N4585 G2 X78.783 Y62.375 I-2.529 J0
N4590 X78.589 Y61.777 I-4.784 J1.219
N4595 G3 X78.777 Y61.589 I0.135 J-0.053
N4600 G2 X79.375 Y61.783 I1.818 J-4.59
N4605 X80 Y61.861 I0.625 J-2.451
N4610 G3 X80.802 Y63.802 I0 J1.136
N4615 G2 X80.435 Y65.032 I0.949 J0.952
N4620 G3 X79.555 Y65.967 I-0.764 J0.162
N4625 X77 Y63 I0.445 J-2.967
N4630 G2 X75.5 Y61.5 I-1.5 J0
N4635 G1 X24.5
N4640 G2 X23 Y63 I0 J1.5
N4645 G3 X17 I-3 J0
N4650 X20 Y60 I3 J0
N4655 G2 X21.5 Y58.5 I0 J-1.5
N4660 G1 Y50.4
N4665 G2 X20 Y48.9 I-1.5 J0
N4670 G3 Y42.9 I0 J-3
N4675 X23 Y45.9 I0 J3
N4680 G2 X24.5 Y47.4 I1.5 J0
N4685 G1 X75.5
N4690 G2 X77 Y45.9 I0 J-1.5
N4695 G3 X83 I3 J0
N4700 X80 Y48.9 I-3 J0
N4705 G2 X78.5 Y50.4 I0 J1.5
N4710 G1 Y58.5
N4715 G2 X80 Y60 I1.5 J0
N4720 G3 X82.992 Y63.223 I0 J3
N4725 X79.555 Y65.967 I-2.992 J-0.223
N4730 X79.085 Y65.511 I0.083 J-0.556
N4735 G1 X78.72 Y63.505
N4740 G2 X78.538 Y63.184 I-0.553 J0.101
N4745 G1 X72.869 Y58.2
N4750 G2 X71.869 Y58.118 I-0.554 J0.63
N4755 G1 X70.78 Y58.8
N4760 G3 X70.014 Y58.863 I-0.445 J-0.712
N4765 S1000
N4770 G1 X69.767 Y58.761 Z-9.047 F10000
N4775 X80 Y63 Z-11
N4780 G3 X80.321 Y63.345 I-0.217 J0.524
N4785 G1 X80.665 Y64.381
N4790 G2 X81.741 Y64.024 I0.538 J-0.178
N4795 X80.802 Y63.802 I-0.538 J0.178
N4800 S21000
N4805 G3 X78.861 Y63 I-0.804 J-0.804 F30000
N4810 G2 X78.783 Y62.375 I-2.529 J0
N4815 X78.589 Y61.777 I-4.784 J1.219
N4820 G3 X78.777 Y61.589 I0.135 J-0.053
N4825 G2 X79.375 Y61.783 I1.818 J-4.59
N4830 X80 Y61.861 I0.625 J-2.451
N4835 G3 X80.802 Y63.802 I0 J1.136
N4840 G0 Z6
N4845 X26.314 Y54.45
N4850 G1 Z-6.5 F30000
N4855 S1000
N4860 X21.66 Z-7.321 F10000
N4865 X35.538 Z-9.768
N4870 X28.55 Z-11
N4875 G3 Y54.015 I0 J-0.217
N4880 X28.767 Y54.233 I0 J0.217
N4885 G1 Y54.667
N4890 G3 X28.55 Y54.885 I-0.217 J0
N4895 S21000
N4900 G1 X28.435 F30000
N4905 G3 X28.115 Y54.565 I0 J-0.319
N4910 G1 Y54.335
N4915 G3 X28.435 Y54.015 I0.319 J0
N4920 G1 X71.565
N4925 G3 X71.885 Y54.335 I0 J0.319
N4930 G1 Y54.565
N4935 G3 X71.565 Y54.885 I-0.319 J0
N4940 G1 X28.55
N4945 G2 X27.196 Y55.62 I0 J1.615
N4950 G3 X25.719 Y55.182 I-0.674 J-0.438
N4955 G1 Y51.938
N4960 G3 X26.038 Y51.619 I0.319 J0
N4965 G1 X73.962
N4970 G3 X74.281 Y51.938 I0 J0.319
N4975 G1 Y56.962
N4980 G3 X73.962 Y57.281 I-0.319 J0
N4985 G1 X26.038
N4990 G3 X25.719 Y56.962 I0 J-0.319
N4995 G1 Y55.182
N5000 G2 X24.54 Y53.414 I-1.916 J0
N5005 G3 X23.361 Y51.645 I0.737 J-1.768
N5010 G1 Y50.4
N5015 G2 X23.283 Y49.775 I-2.529 J0
N5020 X23.089 Y49.177 I-4.784 J1.219
N5025 G3 X23.277 Y48.989 I0.135 J-0.053
N5030 G2 X23.875 Y49.183 I1.818 J-4.59
N5035 X24.5 Y49.261 I0.625 J-2.451
N5040 G1 X75.5
N5045 G2 X76.125 Y49.183 I0 J-2.529
N5050 X76.723 Y48.989 I-1.219 J-4.784
N5055 G3 X76.911 Y49.177 I0.053 J0.135
N5060 G2 X76.717 Y49.775 I4.59 J1.818
N5065 X76.639 Y50.4 I2.451 J0.625
N5070 G1 Y58.5
N5075 G2 X76.717 Y59.125 I2.529 J0
N5080 X76.911 Y59.723 I4.784 J-1.219
N5085 G3 X76.723 Y59.911 I-0.135 J0.053
N5090 G2 X76.125 Y59.717 I-1.818 J4.59
N5095 X75.5 Y59.639 I-0.625 J2.451
N5100 G1 X24.5
N5105 G2 X23.875 Y59.717 I0 J2.529
N5110 X23.277 Y59.911 I1.219 J4.784
N5115 G3 X23.089 Y59.723 I-0.053 J-0.135
N5120 G2 X23.283 Y59.125 I-4.59 J-1.818
N5125 X23.361 Y58.5 I-2.451 J-0.625
N5130 G1 Y51.645
N5135 Z-6
N5140 X25.242 Y51.142
N5145 Z-11
N5150 X21.379 Y47.279
N5155 X21.345 Y47.304
N5160 X21.306 Y47.319
N5165 X21.264 Y47.321
N5170 X21.223 Y47.311
N5175 G2 X20.625 Y47.117 I-1.818 J4.59
N5180 X20 Y47.039 I-0.625 J2.451
N5185 G3 X19.198 Y45.098 I0 J-1.136
N5190 X21.139 Y45.9 I0.804 J0.804
N5195 G2 X21.217 Y46.525 I2.529 J0
N5200 X21.411 Y47.123 I4.784 J-1.219
N5205 G1 X21.421 Y47.164
N5210 X21.419 Y47.206
N5215 X21.404 Y47.245
N5220 X21.379 Y47.279
N5225 Z-6
N5230 X25.242 Y57.758
N5235 Z-11
N5240 X21.379 Y61.621
N5245 X21.404 Y61.655
N5250 X21.419 Y61.694
N5255 X21.421 Y61.736
N5260 X21.411 Y61.777
N5265 G2 X21.217 Y62.375 I4.59 J1.818
N5270 X21.139 Y63 I2.451 J0.625
N5275 G3 X19.198 Y63.802 I-1.136 J0
N5280 X20 Y61.861 I0.804 J-0.804
N5285 G2 X20.625 Y61.783 I0 J-2.529
N5290 X21.223 Y61.589 I-1.219 J-4.784
N5295 G1 X21.264 Y61.579
N5300 X21.306 Y61.581
N5305 X21.345 Y61.596
N5310 X21.379 Y61.621
N5315 G0 Z6
N5320 X82.065 Y45.044
N5325 G1 Z-6.5 F30000
N5330 S1000
N5335 X82.589 Y44.828 Z-6.6 F10000
N5340 X69.767 Y50.139 Z-9.047
N5345 X80 Y45.9 Z-11
N5350 X81.447 Y45.209
N5355 G2 X80.958 Y44.186 I-0.245 J-0.511
N5360 X80.802 Y45.098 I0.245 J0.511
N5365 S21000
N5370 G3 X80 Y47.039 I-0.804 J0.804 F30000
N5375 G2 X79.375 Y47.117 I0 J2.529
N5380 X78.777 Y47.311 I1.219 J4.784
N5385 G3 X78.589 Y47.123 I-0.053 J-0.135
N5390 G2 X78.783 Y46.525 I-4.59 J-1.818
N5395 X78.861 Y45.9 I-2.451 J-0.625
N5400 G3 X80.802 Y45.098 I1.136 J0
N5405 G2 X82.032 Y45.465 I0.952 J-0.949
N5410 G3 X82.967 Y46.345 I0.162 J0.764
N5415 X80 Y48.9 I-2.967 J-0.445
N5420 G2 X78.5 Y50.4 I0 J1.5
N5425 G1 Y58.5
N5430 G2 X80 Y60 I1.5 J0
N5435 G3 Y66 I0 J3
N5440 X77 Y63 I0 J-3
N5445 G2 X75.5 Y61.5 I-1.5 J0
N5450 G1 X24.5
N5455 G2 X23 Y63 I0 J1.5
N5460 G3 X17 I-3 J0
N5465 X20 Y60 I3 J0
N5470 G2 X21.5 Y58.5 I0 J-1.5
N5475 G1 Y50.4
N5480 G2 X20 Y48.9 I-1.5 J0
N5485 G3 Y42.9 I0 J-3
N5490 X23 Y45.9 I0 J3
N5495 G2 X24.5 Y47.4 I1.5 J0
N5500 G1 X75.5
N5505 G2 X77 Y45.9 I0 J-1.5
N5510 G3 X80.223 Y42.908 I3 J0
N5515 X82.967 Y46.345 I-0.223 J2.992
N5520 G1 X82.955 Y46.389
N5525 X82.933 Y46.43
N5530 X82.902 Y46.464
N5535 X82.865 Y46.491
N5540 X82.822 Y46.508
N5545 X70.014 Y50.037
N5550 S1000
N5555 X69.767 Y50.139 Z-11.047 F10000
N5560 X80 Y45.9 Z-13
N5565 X81.447 Y45.209
N5570 G2 X80.958 Y44.186 I-0.245 J-0.511
N5575 X80.802 Y45.098 I0.245 J0.511
N5580 S21000
N5585 G3 X80 Y47.039 I-0.804 J0.804 F30000
N5590 G2 X79.375 Y47.117 I0 J2.529
N5595 X78.777 Y47.311 I1.219 J4.784
N5600 G3 X78.589 Y47.123 I-0.053 J-0.135
N5605 G2 X78.783 Y46.525 I-4.59 J-1.818
N5610 X78.861 Y45.9 I-2.451 J-0.625
N5615 G3 X80.802 Y45.098 I1.136 J0
N5620 G0 Z6
N5625 X26.314 Y54.45
N5630 G1 Z-8.5 F30000
N5635 S1000
N5640 X21.66 Z-9.321 F10000
N5645 X35.538 Z-11.768
N5650 X28.55 Z-13
N5655 G3 Y54.015 I0 J-0.217
N5660 X28.767 Y54.233 I0 J0.217
N5665 G1 Y54.667
N5670 G3 X28.55 Y54.885 I-0.217 J0
N5675 S21000
N5680 G1 X28.435 F30000
N5685 G3 X28.115 Y54.565 I0 J-0.319
N5690 G1 Y54.335
N5695 G3 X28.435 Y54.015 I0.319 J0
N5700 G1 X71.565
N5705 G3 X71.885 Y54.335 I0 J0.319
N5710 G1 Y54.565
N5715 G3 X71.565 Y54.885 I-0.319 J0
N5720 G1 X28.552
N5725 X28.55
N5730 G2 X27.196 Y55.62 I0 J1.615
N5735 G3 X25.719 Y55.182 I-0.674 J-0.438
N5740 G1 Y51.938
N5745 G3 X26.038 Y51.619 I0.319 J0
N5750 G1 X73.962
N5755 G3 X74.281 Y51.938 I0 J0.319
N5760 G1 Y56.962
N5765 G3 X73.962 Y57.281 I-0.319 J0
N5770 G1 X26.038
N5775 G3 X25.719 Y56.962 I0 J-0.319
N5780 G1 Y55.182
N5785 G2 X24.54 Y53.414 I-1.916 J0
N5790 G3 X23.361 Y51.645 I0.737 J-1.768
N5795 G1 Y50.4
N5800 G2 X23.283 Y49.775 I-2.529 J0
N5805 X23.089 Y49.177 I-4.784 J1.219
N5810 G3 X23.277 Y48.989 I0.135 J-0.053
N5815 G2 X23.875 Y49.183 I1.818 J-4.59
N5820 X24.5 Y49.261 I0.625 J-2.451
N5825 G1 X75.5
N5830 G2 X76.125 Y49.183 I0 J-2.529
N5835 X76.723 Y48.989 I-1.219 J-4.784
N5840 G3 X76.911 Y49.177 I0.053 J0.135
N5845 G2 X76.717 Y49.775 I4.59 J1.818
N5850 X76.639 Y50.4 I2.451 J0.625
N5855 G1 Y58.5
N5860 G2 X76.717 Y59.125 I2.529 J0
N5865 X76.911 Y59.723 I4.784 J-1.219
N5870 G3 X76.723 Y59.911 I-0.135 J0.053
N5875 G2 X76.125 Y59.717 I-1.818 J4.59
N5880 X75.5 Y59.639 I-0.625 J2.451
N5885 G1 X24.5
N5890 G2 X23.875 Y59.717 I0 J2.529
N5895 X23.277 Y59.911 I1.219 J4.784
N5900 G3 X23.089 Y59.723 I-0.053 J-0.135
N5905 G2 X23.283 Y59.125 I-4.59 J-1.818
N5910 X23.361 Y58.5 I-2.451 J-0.625
N5915 G1 Y51.645
N5920 Z-8
N5925 X25.242 Y51.142
N5930 Z-13
N5935 X21.379 Y47.279
N5940 X21.345 Y47.304
N5945 X21.306 Y47.319
N5950 X21.264 Y47.321
N5955 X21.223 Y47.311
N5960 G2 X20.625 Y47.117 I-1.818 J4.59
N5965 X20 Y47.039 I-0.625 J2.451
N5970 G3 X19.198 Y45.098 I0 J-1.136
N5975 X21.139 Y45.9 I0.804 J0.804
N5980 G2 X21.217 Y46.525 I2.529 J0
N5985 X21.411 Y47.123 I4.784 J-1.219
N5990 G1 X21.421 Y47.164
N5995 X21.419 Y47.206
N6000 X21.404 Y47.245
N6005 X21.379 Y47.279
N6010 Z-8
N6015 X25.242 Y57.758
N6020 Z-13
N6025 X21.379 Y61.621
N6030 X21.404 Y61.655
N6035 X21.419 Y61.694
N6040 X21.421 Y61.736
N6045 X21.411 Y61.777
N6050 G2 X21.217 Y62.375 I4.59 J1.818
N6055 X21.139 Y63 I2.451 J0.625
N6060 G3 X19.198 Y63.802 I-1.136 J0
N6065 X20 Y61.861 I0.804 J-0.804
N6070 G2 X20.625 Y61.783 I0 J-2.529
N6075 X21.223 Y61.589 I-1.219 J-4.784
N6080 G1 X21.264 Y61.579
N6085 X21.306 Y61.581
N6090 X21.345 Y61.596
N6095 X21.379 Y61.621
N6100 G0 Z6
N6105 X82.065 Y63.856
N6110 G1 Z-8.5 F30000
N6115 S1000
N6120 X82.589 Y64.072 Z-8.6 F10000
N6125 X69.767 Y58.761 Z-11.047
N6130 X80 Y63 Z-13
N6135 G3 X80.321 Y63.345 I-0.217 J0.524
N6140 G1 X80.665 Y64.381
N6145 G2 X81.741 Y64.024 I0.538 J-0.178
N6150 X80.802 Y63.802 I-0.538 J0.178
N6155 S21000
N6160 G3 X78.861 Y63 I-0.804 J-0.804 F30000
N6165 G2 X78.783 Y62.375 I-2.529 J0
N6170 X78.589 Y61.777 I-4.784 J1.219
N6175 G3 X78.777 Y61.589 I0.135 J-0.053
N6180 G2 X79.375 Y61.783 I1.818 J-4.59
N6185 X80 Y61.861 I0.625 J-2.451
N6190 G3 X80.802 Y63.802 I0 J1.136
N6195 G2 X80.435 Y65.032 I0.949 J0.952
N6200 G3 X79.555 Y65.967 I-0.764 J0.162
N6205 X77 Y63 I0.445 J-2.967
N6210 G2 X75.5 Y61.5 I-1.5 J0
N6215 G1 X24.5
N6220 G2 X23 Y63 I0 J1.5
N6225 G3 X17 I-3 J0
N6230 X20 Y60 I3 J0
N6235 G2 X21.5 Y58.5 I0 J-1.5
N6240 G1 Y50.4
N6245 G2 X20 Y48.9 I-1.5 J0
N6250 G3 Y42.9 I0 J-3
N6255 X23 Y45.9 I0 J3
N6260 G2 X24.5 Y47.4 I1.5 J0
N6265 G1 X75.5
N6270 G2 X77 Y45.9 I0 J-1.5
N6275 G3 X83 I3 J0
N6280 X80 Y48.9 I-3 J0
N6285 G2 X78.5 Y50.4 I0 J1.5
N6290 G1 Y58.5
N6295 G2 X80 Y60 I1.5 J0
N6300 G3 X82.992 Y63.223 I0 J3
N6305 X79.555 Y65.967 I-2.992 J-0.223
N6310 X79.085 Y65.511 I0.083 J-0.556
N6315 G1 X78.72 Y63.505
N6320 G2 X78.538 Y63.184 I-0.553 J0.101
N6325 G1 X72.869 Y58.2
N6330 G2 X71.869 Y58.118 I-0.554 J0.63
N6335 G1 X70.78 Y58.8
N6340 G3 X70.014 Y58.863 I-0.445 J-0.712
N6345 S1000
N6350 G1 X69.767 Y58.761 Z-13.047 F10000
N6355 X80 Y63 Z-15
N6360 G3 X80.321 Y63.345 I-0.217 J0.524
N6365 G1 X80.665 Y64.381
N6370 G2 X81.741 Y64.024 I0.538 J-0.178
N6375 X80.802 Y63.802 I-0.538 J0.178
N6380 S21000
N6385 G3 X78.861 Y63 I-0.804 J-0.804 F30000
N6390 G2 X78.783 Y62.375 I-2.529 J0
N6395 X78.589 Y61.777 I-4.784 J1.219
N6400 G3 X78.777 Y61.589 I0.135 J-0.053
N6405 G2 X79.375 Y61.783 I1.818 J-4.59
N6410 X80 Y61.861 I0.625 J-2.451
N6415 G3 X80.802 Y63.802 I0 J1.136
N6420 G0 Z6
N6425 X26.314 Y54.45
N6430 G1 Z-10.5 F30000
N6435 S1000
N6440 X21.66 Z-11.321 F10000
N6445 X35.538 Z-13.768
N6450 X28.55 Z-15
N6455 G3 Y54.015 I0 J-0.217
N6460 X28.767 Y54.233 I0 J0.217
N6465 G1 Y54.667
N6470 G3 X28.55 Y54.885 I-0.217 J0
N6475 S21000
N6480 G1 X28.435 F30000
N6485 G3 X28.115 Y54.565 I0 J-0.319
N6490 G1 Y54.335
N6495 G3 X28.435 Y54.015 I0.319 J0
N6500 G1 X71.565
N6505 G3 X71.885 Y54.335 I0 J0.319
N6510 G1 Y54.565
N6515 G3 X71.565 Y54.885 I-0.319 J0
N6520 G1 X28.55
N6525 G2 X27.196 Y55.62 I0 J1.615
N6530 G3 X25.719 Y55.182 I-0.674 J-0.438
N6535 G1 Y51.938
N6540 G3 X26.038 Y51.619 I0.319 J0
N6545 G1 X73.962
N6550 G3 X74.281 Y51.938 I0 J0.319
N6555 G1 Y56.962
N6560 G3 X73.962 Y57.281 I-0.319 J0
N6565 G1 X26.038
N6570 G3 X25.719 Y56.962 I0 J-0.319
N6575 G1 Y55.182
N6580 G2 X24.54 Y53.414 I-1.916 J0
N6585 G3 X23.361 Y51.645 I0.737 J-1.768
N6590 G1 Y50.4
N6595 G2 X23.283 Y49.775 I-2.529 J0
N6600 X23.089 Y49.177 I-4.784 J1.219
N6605 G3 X23.277 Y48.989 I0.135 J-0.053
N6610 G2 X23.875 Y49.183 I1.818 J-4.59
N6615 X24.5 Y49.261 I0.625 J-2.451
N6620 G1 X75.5
N6625 G2 X76.125 Y49.183 I0 J-2.529
N6630 X76.723 Y48.989 I-1.219 J-4.784
N6635 G3 X76.911 Y49.177 I0.053 J0.135
N6640 G2 X76.717 Y49.775 I4.59 J1.818
N6645 X76.639 Y50.4 I2.451 J0.625
N6650 G1 Y58.5
N6655 G2 X76.717 Y59.125 I2.529 J0
N6660 X76.911 Y59.723 I4.784 J-1.219
N6665 G3 X76.723 Y59.911 I-0.135 J0.053
N6670 G2 X76.125 Y59.717 I-1.818 J4.59
N6675 X75.5 Y59.639 I-0.625 J2.451
N6680 G1 X24.5
N6685 G2 X23.875 Y59.717 I0 J2.529
N6690 X23.277 Y59.911 I1.219 J4.784
N6695 G3 X23.089 Y59.723 I-0.053 J-0.135
N6700 G2 X23.283 Y59.125 I-4.59 J-1.818
N6705 X23.361 Y58.5 I-2.451 J-0.625
N6710 G1 Y51.645
N6715 Z-10
N6720 X25.242 Y51.142
N6725 Z-15
N6730 X21.379 Y47.279
N6735 X21.345 Y47.304
N6740 X21.306 Y47.319
N6745 X21.264 Y47.321
N6750 X21.223 Y47.311
N6755 G2 X20.625 Y47.117 I-1.818 J4.59
N6760 X20 Y47.039 I-0.625 J2.451
N6765 G3 X19.198 Y45.098 I0 J-1.136
N6770 X21.139 Y45.9 I0.804 J0.804
N6775 G2 X21.217 Y46.525 I2.529 J0
N6780 X21.411 Y47.123 I4.784 J-1.219
N6785 G1 X21.421 Y47.164
N6790 X21.419 Y47.206
N6795 X21.404 Y47.245
N6800 X21.379 Y47.279
N6805 Z-10
N6810 X25.242 Y57.758
N6815 Z-15
N6820 X21.379 Y61.621
N6825 X21.404 Y61.655
N6830 X21.419 Y61.694
N6835 X21.421 Y61.736
N6840 X21.411 Y61.777
N6845 G2 X21.217 Y62.375 I4.59 J1.818
N6850 X21.139 Y63 I2.451 J0.625
N6855 G3 X19.198 Y63.802 I-1.136 J0
N6860 X20 Y61.861 I0.804 J-0.804
N6865 G2 X20.625 Y61.783 I0 J-2.529
N6870 X21.223 Y61.589 I-1.219 J-4.784
N6875 G1 X21.264 Y61.579
N6880 X21.306 Y61.581
N6885 X21.345 Y61.596
N6890 X21.379 Y61.621
N6895 G0 Z6
N6900 X82.065 Y45.044
N6905 G1 Z-10.5 F30000
N6910 S1000
N6915 X82.589 Y44.828 Z-10.6 F10000
N6920 X69.767 Y50.139 Z-13.047
N6925 X80 Y45.9 Z-15
N6930 X81.447 Y45.209
N6935 G2 X80.958 Y44.186 I-0.245 J-0.511
N6940 X80.802 Y45.098 I0.245 J0.511
N6945 S21000
N6950 G3 X80 Y47.039 I-0.804 J0.804 F30000
N6955 G2 X79.375 Y47.117 I0 J2.529
N6960 X78.777 Y47.311 I1.219 J4.784
N6965 G3 X78.589 Y47.123 I-0.053 J-0.135
N6970 G2 X78.783 Y46.525 I-4.59 J-1.818
N6975 X78.861 Y45.9 I-2.451 J-0.625
N6980 G3 X80.802 Y45.098 I1.136 J0
N6985 G2 X82.032 Y45.465 I0.952 J-0.949
N6990 G3 X82.967 Y46.345 I0.162 J0.764
N6995 X80 Y48.9 I-2.967 J-0.445
N7000 G2 X78.5 Y50.4 I0 J1.5
N7005 G1 Y58.5
N7010 G2 X80 Y60 I1.5 J0
N7015 G3 Y66 I0 J3
N7020 X77 Y63 I0 J-3
N7025 G2 X75.5 Y61.5 I-1.5 J0
N7030 G1 X24.5
N7035 G2 X23 Y63 I0 J1.5
N7040 G3 X17 I-3 J0
N7045 X20 Y60 I3 J0
N7050 G2 X21.5 Y58.5 I0 J-1.5
N7055 G1 Y50.4
N7060 G2 X20 Y48.9 I-1.5 J0
N7065 G3 Y42.9 I0 J-3
N7070 X23 Y45.9 I0 J3
N7075 G2 X24.5 Y47.4 I1.5 J0
N7080 G1 X75.5
N7085 G2 X77 Y45.9 I0 J-1.5
N7090 G3 X80.223 Y42.908 I3 J0
N7095 X82.967 Y46.345 I-0.223 J2.992
N7100 G1 X82.954 Y46.39
N7105 X82.932 Y46.431
N7110 X82.9 Y46.466
N7115 X82.861 Y46.493
N7120 X82.818 Y46.509
N7125 X74.623 Y48.558
N7130 G3 X74.498 Y48.179 I-0.049 J-0.194
N7135 S1000
N7140 G1 X80 Y45.9 Z-16.05 F10000
N7145 X81.447 Y45.209
N7150 G2 X80.958 Y44.186 I-0.245 J-0.511
N7155 X80.802 Y45.098 I0.245 J0.511
N7160 S21000
N7165 G3 X80 Y47.039 I-0.804 J0.804 F30000
N7170 G2 X79.375 Y47.117 I0 J2.529
N7175 X78.777 Y47.311 I1.219 J4.784
N7180 G3 X78.589 Y47.123 I-0.053 J-0.135
N7185 G2 X78.783 Y46.525 I-4.59 J-1.818
N7190 X78.861 Y45.9 I-2.451 J-0.625
N7195 G3 X80.802 Y45.098 I1.136 J0
N7200 G0 Z6
N7205 X22.393 Y54.45
N7210 G1 Z-12.5 F30000
N7215 S1000
N7220 X35.538 Z-14.818 F10000
N7225 X28.55 Z-16.05
N7230 G3 Y54.015 I0 J-0.217
N7235 X28.767 Y54.233 I0 J0.217
N7240 G1 Y54.667
N7245 G3 X28.55 Y54.885 I-0.217 J0
N7250 S21000
N7255 G1 X28.435 F30000
N7260 G3 X28.115 Y54.565 I0 J-0.319
N7265 G1 Y54.335
N7270 G3 X28.435 Y54.015 I0.319 J0
N7275 G1 X71.565
N7280 G3 X71.885 Y54.335 I0 J0.319
N7285 G1 Y54.565
N7290 G3 X71.565 Y54.885 I-0.319 J0
N7295 G1 X28.552
N7300 X28.55
N7305 G2 X27.196 Y55.62 I0 J1.615
N7310 G3 X25.719 Y55.182 I-0.674 J-0.438
N7315 G1 Y51.938
N7320 G3 X26.038 Y51.619 I0.319 J0
N7325 G1 X73.962
N7330 G3 X74.281 Y51.938 I0 J0.319
N7335 G1 Y56.962
N7340 G3 X73.962 Y57.281 I-0.319 J0
N7345 G1 X26.038
N7350 G3 X25.719 Y56.962 I0 J-0.319
N7355 G1 Y55.182
N7360 G2 X24.54 Y53.414 I-1.916 J0
N7365 G3 X23.361 Y51.645 I0.737 J-1.768
N7370 G1 Y50.4
N7375 G2 X23.283 Y49.775 I-2.529 J0
N7380 X23.089 Y49.177 I-4.784 J1.219
N7385 G3 X23.277 Y48.989 I0.135 J-0.053
N7390 G2 X23.875 Y49.183 I1.818 J-4.59
N7395 X24.5 Y49.261 I0.625 J-2.451
N7400 G1 X75.5
N7405 G2 X76.125 Y49.183 I0 J-2.529
N7410 X76.723 Y48.989 I-1.219 J-4.784
N7415 G3 X76.911 Y49.177 I0.053 J0.135
N7420 G2 X76.717 Y49.775 I4.59 J1.818
N7425 X76.639 Y50.4 I2.451 J0.625
N7430 G1 Y58.5
N7435 G2 X76.717 Y59.125 I2.529 J0
N7440 X76.911 Y59.723 I4.784 J-1.219
N7445 G3 X76.723 Y59.911 I-0.135 J0.053
N7450 G2 X76.125 Y59.717 I-1.818 J4.59
N7455 X75.5 Y59.639 I-0.625 J2.451
N7460 G1 X24.5
N7465 G2 X23.875 Y59.717 I0 J2.529
N7470 X23.277 Y59.911 I1.219 J4.784
N7475 G3 X23.089 Y59.723 I-0.053 J-0.135
N7480 G2 X23.283 Y59.125 I-4.59 J-1.818
N7485 X23.361 Y58.5 I-2.451 J-0.625
N7490 G1 Y51.645
N7495 Z-12
N7500 X25.242 Y51.142
N7505 Z-16.05
N7510 X21.379 Y47.279
N7515 X21.345 Y47.304
N7520 X21.306 Y47.319
N7525 X21.264 Y47.321
N7530 X21.223 Y47.311
N7535 G2 X20.625 Y47.117 I-1.818 J4.59
N7540 X20 Y47.039 I-0.625 J2.451
N7545 G3 X19.198 Y45.098 I0 J-1.136
N7550 X21.139 Y45.9 I0.804 J0.804
N7555 G2 X21.217 Y46.525 I2.529 J0
N7560 X21.411 Y47.123 I4.784 J-1.219
N7565 G1 X21.421 Y47.164
N7570 X21.419 Y47.206
N7575 X21.404 Y47.245
N7580 X21.379 Y47.279
N7585 Z-12
N7590 X25.242 Y57.758
N7595 Z-16.05
N7600 X21.379 Y61.621
N7605 X21.404 Y61.655
N7610 X21.419 Y61.694
N7615 X21.421 Y61.736
N7620 X21.411 Y61.777
N7625 G2 X21.217 Y62.375 I4.59 J1.818
N7630 X21.139 Y63 I2.451 J0.625
N7635 G3 X19.198 Y63.802 I-1.136 J0
N7640 X20 Y61.861 I0.804 J-0.804
N7645 G2 X20.625 Y61.783 I0 J-2.529
N7650 X21.223 Y61.589 I-1.219 J-4.784
N7655 G1 X21.264 Y61.579
N7660 X21.306 Y61.581
N7665 X21.345 Y61.596
N7670 X21.379 Y61.621
N7675 G0 Z6
N7680 X78.135 Y62.227
N7685 G1 Z-12.5 F30000
N7690 S1000
N7695 X69.767 Y58.761 Z-14.097 F10000
N7700 X80 Y63 Z-16.05
N7705 G3 X80.321 Y63.345 I-0.217 J0.524
N7710 G1 X80.665 Y64.381
N7715 G2 X81.741 Y64.024 I0.538 J-0.178
N7720 X80.802 Y63.802 I-0.538 J0.178
N7725 S21000
N7730 G3 X78.861 Y63 I-0.804 J-0.804 F30000
N7735 G2 X78.783 Y62.375 I-2.529 J0
N7740 X78.589 Y61.777 I-4.784 J1.219
N7745 G3 X78.777 Y61.589 I0.135 J-0.053
N7750 G2 X79.375 Y61.783 I1.818 J-4.59
N7755 X80 Y61.861 I0.625 J-2.451
N7760 G3 X80.802 Y63.802 I0 J1.136
N7765 G2 X80.435 Y65.032 I0.949 J0.952
N7770 G3 X79.555 Y65.967 I-0.764 J0.162
N7775 X77 Y63 I0.445 J-2.967
N7780 G2 X75.5 Y61.5 I-1.5 J0
N7785 G1 X24.5
N7790 G2 X23 Y63 I0 J1.5
N7795 G3 X17 I-3 J0
N7800 X20 Y60 I3 J0
N7805 G2 X21.5 Y58.5 I0 J-1.5
N7810 G1 Y50.4
N7815 G2 X20 Y48.9 I-1.5 J0
N7820 G3 Y42.9 I0 J-3
N7825 X23 Y45.9 I0 J3
N7830 G2 X24.5 Y47.4 I1.5 J0
N7835 G1 X75.5
N7840 G2 X77 Y45.9 I0 J-1.5
N7845 G3 X83 I3 J0
N7850 X80 Y48.9 I-3 J0
N7855 G2 X78.5 Y50.4 I0 J1.5
N7860 G1 Y58.5
N7865 G2 X80 Y60 I1.5 J0
N7870 G3 X82.992 Y63.223 I0 J3
N7875 X79.555 Y65.967 I-2.992 J-0.223
N7880 X78.714 Y65.126 I0.148 J-0.989
N7885 G1 X78.16 Y61.437
N7890 G2 X77.879 Y60.879 I-0.989 J0.149
N7895 G1 X77.836 Y60.844
N7900 X77.786 Y60.819
N7905 X77.732 Y60.805
N7910 X34.505 Y54.45
N7915 S1000
N7920 X28.55 Z-17.1 F10000
N7925 G3 Y54.015 I0 J-0.217
N7930 X28.767 Y54.233 I0 J0.217
N7935 G1 Y54.667
N7940 G3 X28.55 Y54.885 I-0.217 J0
N7945 S21000
N7950 G1 X28.435 F30000
N7955 G3 X28.115 Y54.565 I0 J-0.319
N7960 G1 Y54.335
N7965 G3 X28.435 Y54.015 I0.319 J0
N7970 G1 X71.565
N7975 G3 X71.885 Y54.335 I0 J0.319
N7980 G1 Y54.565
N7985 G3 X71.565 Y54.885 I-0.319 J0
N7990 G1 X28.55
N7995 G2 X27.196 Y55.62 I0 J1.615
N8000 G3 X25.719 Y55.182 I-0.674 J-0.438
N8005 G1 Y51.938
N8010 G3 X26.038 Y51.619 I0.319 J0
N8015 G1 X73.962
N8020 G3 X74.281 Y51.938 I0 J0.319
N8025 G1 Y56.962
N8030 G3 X73.962 Y57.281 I-0.319 J0
N8035 G1 X26.038
N8040 G3 X25.719 Y56.962 I0 J-0.319
N8045 G1 Y55.182
N8050 G2 X24.54 Y53.414 I-1.916 J0
N8055 G3 X23.361 Y51.645 I0.737 J-1.768
N8060 G1 Y50.4
N8065 G2 X23.283 Y49.775 I-2.529 J0
N8070 X23.089 Y49.177 I-4.784 J1.219
N8075 G3 X23.277 Y48.989 I0.135 J-0.053
N8080 G2 X23.875 Y49.183 I1.818 J-4.59
N8085 X24.5 Y49.261 I0.625 J-2.451
N8090 G1 X75.5
N8095 G2 X76.125 Y49.183 I0 J-2.529
N8100 X76.723 Y48.989 I-1.219 J-4.784
N8105 G3 X76.911 Y49.177 I0.053 J0.135
N8110 G2 X76.717 Y49.775 I4.59 J1.818
N8115 X76.639 Y50.4 I2.451 J0.625
N8120 G1 Y58.5
N8125 G2 X76.717 Y59.125 I2.529 J0
N8130 X76.911 Y59.723 I4.784 J-1.219
N8135 G3 X76.723 Y59.911 I-0.135 J0.053
N8140 G2 X76.125 Y59.717 I-1.818 J4.59
N8145 X75.5 Y59.639 I-0.625 J2.451
N8150 G1 X24.5
N8155 G2 X23.875 Y59.717 I0 J2.529
N8160 X23.277 Y59.911 I1.219 J4.784
N8165 G3 X23.089 Y59.723 I-0.053 J-0.135
N8170 G2 X23.283 Y59.125 I-4.59 J-1.818
N8175 X23.361 Y58.5 I-2.451 J-0.625
N8180 G1 Y51.645
N8185 Z-13.05
N8190 X25.242 Y51.142
N8195 Z-17.1
N8200 X21.379 Y47.279
N8205 X21.345 Y47.304
N8210 X21.306 Y47.319
N8215 X21.264 Y47.321
N8220 X21.223 Y47.311
N8225 G2 X20.625 Y47.117 I-1.818 J4.59
N8230 X20 Y47.039 I-0.625 J2.451
N8235 G3 X19.198 Y45.098 I0 J-1.136
N8240 X21.139 Y45.9 I0.804 J0.804
N8245 G2 X21.217 Y46.525 I2.529 J0
N8250 X21.411 Y47.123 I4.784 J-1.219
N8255 G1 X21.421 Y47.164
N8260 X21.419 Y47.206
N8265 X21.404 Y47.245
N8270 X21.379 Y47.279
N8275 Z-13.05
N8280 X25.242 Y57.758
N8285 Z-17.1
N8290 X21.379 Y61.621
N8295 X21.404 Y61.655
N8300 X21.419 Y61.694
N8305 X21.421 Y61.736
N8310 X21.411 Y61.777
N8315 G2 X21.217 Y62.375 I4.59 J1.818
N8320 X21.139 Y63 I2.451 J0.625
N8325 G3 X19.198 Y63.802 I-1.136 J0
N8330 X20 Y61.861 I0.804 J-0.804
N8335 G2 X20.625 Y61.783 I0 J-2.529
N8340 X21.223 Y61.589 I-1.219 J-4.784
N8345 G1 X21.264 Y61.579
N8350 X21.306 Y61.581
N8355 X21.345 Y61.596
N8360 X21.379 Y61.621
N8365 G0 Z6
N8370 X78.135 Y62.227
N8375 G1 Z-13.55 F30000
N8380 S1000
N8385 X69.767 Y58.761 Z-15.147 F10000
N8390 X80 Y63 Z-17.1
N8395 G3 X80.321 Y63.345 I-0.217 J0.524
N8400 G1 X80.665 Y64.381
N8405 G2 X81.741 Y64.024 I0.538 J-0.178
N8410 X80.802 Y63.802 I-0.538 J0.178
N8415 S21000
N8420 G3 X78.861 Y63 I-0.804 J-0.804 F30000
N8425 G2 X78.783 Y62.375 I-2.529 J0
N8430 X78.589 Y61.777 I-4.784 J1.219
N8435 G3 X78.777 Y61.589 I0.135 J-0.053
N8440 G2 X79.375 Y61.783 I1.818 J-4.59
N8445 X80 Y61.861 I0.625 J-2.451
N8450 G3 X80.802 Y63.802 I0 J1.136
N8455 G0 Z6
N8460 X78.135 Y46.673
N8465 G1 Z-13.55 F30000
N8470 S1000
N8475 X69.767 Y50.139 Z-15.147 F10000
N8480 X80 Y45.9 Z-17.1
N8485 X81.447 Y45.209
N8490 G2 X80.958 Y44.186 I-0.245 J-0.511
N8495 X80.802 Y45.098 I0.245 J0.511
N8500 S21000
N8505 G3 X80 Y47.039 I-0.804 J0.804 F30000
N8510 G2 X79.375 Y47.117 I0 J2.529
N8515 X78.777 Y47.311 I1.219 J4.784
N8520 G3 X78.589 Y47.123 I-0.053 J-0.135
N8525 G2 X78.783 Y46.525 I-4.59 J-1.818
N8530 X78.861 Y45.9 I-2.451 J-0.625
N8535 G3 X80.802 Y45.098 I1.136 J0
N8540 G2 X82.032 Y45.465 I0.952 J-0.949
N8545 G3 X82.967 Y46.345 I0.162 J0.764
N8550 X80 Y48.9 I-2.967 J-0.445
N8555 G2 X78.5 Y50.4 I0 J1.5
N8560 G1 Y58.5
N8565 G2 X80 Y60 I1.5 J0
N8570 G3 Y66 I0 J3
N8575 X77 Y63 I0 J-3
N8580 G2 X75.5 Y61.5 I-1.5 J0
N8585 G1 X24.5
N8590 G2 X23 Y63 I0 J1.5
N8595 G3 X17 I-3 J0
N8600 X20 Y60 I3 J0
N8605 G2 X21.5 Y58.5 I0 J-1.5
N8610 G1 Y50.4
N8615 G2 X20 Y48.9 I-1.5 J0
N8620 G3 Y42.9 I0 J-3
N8625 X23 Y45.9 I0 J3
N8630 G2 X24.5 Y47.4 I1.5 J0
N8635 G1 X75.5
N8640 G2 X77 Y45.9 I0 J-1.5
N8645 G3 X80.223 Y42.908 I3 J0
N8650 X82.967 Y46.345 I-0.223 J2.992
N8655 G0 Z6
N8660 X80.119 Y94.8
N8665 G1 Z3.5 F30000
N8670 S1000
N8675 X76.712 Z2.899 F10000
N8680 X83.225 Z1.751
N8685 X76.712 Z0.603
N8690 X83.225 Z-0.546
N8695 X80.65 Z-1
N8700 S21000
N8705 G3 X79.35 I-0.65 J0 F30000
N8710 X83.5 I2.075 J0
N8715 X76.5 I-3.5 J0
N8720 X83.5 I3.5 J0
N8725 X82.67 Y95.279 I-0.553 J0
N8730 G1 X80.404 Y93.97
N8735 G2 X79.648 Y94.173 I-0.277 J0.479
N8740 G1 X79.446 Y94.523
N8745 G3 X78.967 Y94.8 I-0.479 J-0.277
N8750 S1000
N8755 G1 X76.712 Z-1.397 F10000
N8760 X83.225 Z-2.546
N8765 X80.65 Z-3
N8770 S21000
N8775 G3 X79.35 I-0.65 J0 F30000
N8780 X83.5 I2.075 J0
N8785 X76.5 I-3.5 J0
N8790 X83.5 I3.5 J0
N8795 X82.67 Y95.279 I-0.553 J0
N8800 G1 X80.404 Y93.97
N8805 G2 X79.648 Y94.173 I-0.277 J0.479
N8810 G1 X79.446 Y94.523
N8815 G3 X78.967 Y94.8 I-0.479 J-0.277
N8820 S1000
N8825 G1 X76.712 Z-3.397 F10000
N8830 X83.225 Z-4.546
N8835 X80.65 Z-5
N8840 S21000
N8845 G3 X79.35 I-0.65 J0 F30000
N8850 X83.5 I2.075 J0
N8855 X76.5 I-3.5 J0
N8860 X83.5 I3.5 J0
N8865 X82.67 Y95.279 I-0.553 J0
N8870 G1 X80.404 Y93.97
N8875 G2 X79.648 Y94.173 I-0.277 J0.479
N8880 G1 X79.446 Y94.523
N8885 G3 X78.967 Y94.8 I-0.479 J-0.277
N8890 S1000
N8895 G1 X76.712 Z-5.397 F10000
N8900 X83.225 Z-6.546
N8905 X80.65 Z-7
N8910 S21000
N8915 G3 X79.35 I-0.65 J0 F30000
N8920 X83.5 I2.075 J0
N8925 X76.5 I-3.5 J0
N8930 X83.5 I3.5 J0
N8935 X82.67 Y95.279 I-0.553 J0
N8940 G1 X80.404 Y93.97
N8945 G2 X79.648 Y94.173 I-0.277 J0.479
N8950 G1 X79.446 Y94.523
N8955 G3 X78.967 Y94.8 I-0.479 J-0.277
N8960 S1000
N8965 G1 X76.712 Z-7.397 F10000
N8970 X83.225 Z-8.546
N8975 X80.65 Z-9
N8980 S21000
N8985 G3 X79.35 I-0.65 J0 F30000
N8990 X83.5 I2.075 J0
N8995 X76.5 I-3.5 J0
N9000 X83.5 I3.5 J0
N9005 X82.67 Y95.279 I-0.553 J0
N9010 G1 X80.404 Y93.97
N9015 G2 X79.648 Y94.173 I-0.277 J0.479
N9020 G1 X79.446 Y94.523
N9025 G3 X78.967 Y94.8 I-0.479 J-0.277
N9030 S1000
N9035 G1 X76.712 Z-9.397 F10000
N9040 X83.225 Z-10.546
N9045 X80.65 Z-11
N9050 S21000
N9055 G3 X79.35 I-0.65 J0 F30000
N9060 X83.5 I2.075 J0
N9065 X76.5 I-3.5 J0
N9070 X83.5 I3.5 J0
N9075 X82.67 Y95.279 I-0.553 J0
N9080 G1 X80.404 Y93.97
N9085 G2 X79.648 Y94.173 I-0.277 J0.479
N9090 G1 X79.446 Y94.523
N9095 G3 X78.967 Y94.8 I-0.479 J-0.277
N9100 S1000
N9105 G1 X76.712 Z-11.397 F10000
N9110 X83.225 Z-12.546
N9115 X80.65 Z-13
N9120 S21000
N9125 G3 X79.35 I-0.65 J0 F30000
N9130 X83.5 I2.075 J0
N9135 X76.5 I-3.5 J0
N9140 X83.5 I3.5 J0
N9145 X82.67 Y95.279 I-0.553 J0
N9150 G1 X80.404 Y93.97
N9155 G2 X79.648 Y94.173 I-0.277 J0.479
N9160 G1 X79.446 Y94.523
N9165 G3 X78.967 Y94.8 I-0.479 J-0.277
N9170 S1000
N9175 G1 X76.712 Z-13.397 F10000
N9180 X83.225 Z-14.546
N9185 X80.65 Z-15
N9190 S21000
N9195 G3 X79.35 I-0.65 J0 F30000
N9200 X83.5 I2.075 J0
N9205 X76.5 I-3.5 J0
N9210 X83.5 I3.5 J0
N9215 X83.093 Y95.244 I-0.446 J0
N9220 G1 X81.188 Y95.411
N9225 X81.124 Y95.421
N9230 X81.062 Y95.441
N9235 X81.004 Y95.469
N9240 X80.933 Y95.502
N9245 X80.858 Y95.522
N9250 X79.922 Y95.685
N9255 G3 X79.401 Y95.284 I-0.077 J-0.439
N9260 X79.846 Y94.8 I0.444 J-0.038
N9265 S1000
N9270 G1 X83.225 Z-15.596 F10000
N9275 X80.65 Z-16.05
N9280 S21000
N9285 G3 X79.35 I-0.65 J0 F30000
N9290 X83.5 I2.075 J0
N9295 X76.5 I-3.5 J0
N9300 X83.5 I3.5 J0
N9305 X83.093 Y95.244 I-0.446 J0
N9310 G1 X81.188 Y95.411
N9315 X81.124 Y95.421
N9320 X81.062 Y95.441
N9325 X81.004 Y95.469
N9330 X80.933 Y95.502
N9335 X80.858 Y95.522
N9340 X79.922 Y95.685
N9345 G3 X79.401 Y95.284 I-0.077 J-0.439
N9350 X79.846 Y94.8 I0.444 J-0.038
N9355 S1000
N9360 G1 X83.225 Z-16.646 F10000
N9365 X80.65 Z-17.1
N9370 S21000
N9375 G3 X79.35 I-0.65 J0 F30000
N9380 X83.5 I2.075 J0
N9385 X76.5 I-3.5 J0
N9390 X83.5 I3.5 J0
N9395 G0 Z6
N9400 X82.065 Y185.444
N9405 G1 Z3.5 F30000
N9410 S1000
N9415 X82.589 Y185.228 Z3.4 F10000
N9420 X69.767 Y190.539 Z0.953
N9425 X80 Y186.3 Z-1
N9430 X81.447 Y185.609
N9435 G2 X80.958 Y184.586 I-0.245 J-0.511
N9440 X80.802 Y185.498 I0.245 J0.511
N9445 S21000
N9450 G3 X80 Y187.439 I-0.804 J0.804 F30000
N9455 G2 X79.375 Y187.517 I0 J2.529
N9460 X78.777 Y187.711 I1.219 J4.784
N9465 G3 X78.589 Y187.523 I-0.053 J-0.135
N9470 G2 X78.783 Y186.925 I-4.59 J-1.818
N9475 X78.861 Y186.3 I-2.451 J-0.625
N9480 G3 X80.802 Y185.498 I1.136 J0
N9485 G0 Z6
N9490 X69.214 Y194.85
N9495 G1 Z3.5 F30000
N9500 S1000
N9505 X64.462 Z2.662 F10000
N9510 X78.34 Z0.215
N9515 X71.45 Z-1
N9520 G2 X71.233 Y195.067 I0 J0.217
N9525 G1 Y195.502
N9530 G2 X71.667 I0.217 J0
N9535 X71.45 Y195.285 I-0.217 J0
N9540 S21000
N9545 G1 X28.435 F30000
N9550 G3 X28.115 Y194.965 I0 J-0.319
N9555 G1 Y194.735
N9560 G3 X28.435 Y194.415 I0.319 J0
N9565 G1 X71.565
N9570 G3 X71.885 Y194.735 I0 J0.319
N9575 G1 Y194.965
N9580 G3 X71.565 Y195.285 I-0.319 J0
N9585 G1 X71.457
N9590 X71.45
N9595 G2 X69.653 Y196.483 I0 J1.947
N9600 G3 X67.855 Y197.681 I-1.797 J-0.749
N9605 G1 X26.038
N9610 G3 X25.719 Y197.362 I0 J-0.319
N9615 G1 Y192.338
N9620 G3 X26.038 Y192.019 I0.319 J0
N9625 G1 X73.962
N9630 G3 X74.281 Y192.338 I0 J0.319
N9635 G1 Y197.362
N9640 G3 X73.962 Y197.681 I-0.319 J0
N9645 G1 X67.855
N9650 G2 X66.087 Y198.86 I0 J1.916
N9655 G3 X64.318 Y200.039 I-1.768 J-0.737
N9660 G1 X24.5
N9665 G2 X23.875 Y200.117 I0 J2.529
N9670 X23.277 Y200.311 I1.219 J4.784
N9675 G3 X23.089 Y200.123 I-0.053 J-0.135
N9680 G2 X23.283 Y199.525 I-4.59 J-1.818
N9685 X23.361 Y198.9 I-2.451 J-0.625
N9690 G1 Y190.8
N9695 G2 X23.283 Y190.175 I-2.529 J0
N9700 X23.089 Y189.577 I-4.784 J1.219
N9705 G3 X23.277 Y189.389 I0.135 J-0.053
N9710 G2 X23.875 Y189.583 I1.818 J-4.59
N9715 X24.5 Y189.661 I0.625 J-2.451
N9720 G1 X75.5
N9725 G2 X76.125 Y189.583 I0 J-2.529
N9730 X76.723 Y189.389 I-1.219 J-4.784
N9735 G3 X76.911 Y189.577 I0.053 J0.135
N9740 G2 X76.717 Y190.175 I4.59 J1.818
N9745 X76.639 Y190.8 I2.451 J0.625
N9750 G1 Y198.9
N9755 G2 X76.717 Y199.525 I2.529 J0
N9760 X76.911 Y200.123 I4.784 J-1.219
N9765 G3 X76.723 Y200.311 I-0.135 J0.053
N9770 G2 X76.125 Y200.117 I-1.818 J4.59
N9775 X75.5 Y200.039 I-0.625 J2.451
N9780 G1 X64.318
N9785 G0 Z6
N9790 X82.065 Y204.256
N9795 G1 Z3.5 F30000
N9800 S1000
N9805 X82.589 Y204.472 Z3.4 F10000
N9810 X69.767 Y199.161 Z0.953
N9815 X80 Y203.4 Z-1
N9820 G3 X80.321 Y203.745 I-0.217 J0.524
N9825 G1 X80.665 Y204.781
N9830 G2 X81.741 Y204.424 I0.538 J-0.178
N9835 X80.802 Y204.202 I-0.538 J0.178
N9840 S21000
N9845 G3 X78.861 Y203.4 I-0.804 J-0.804 F30000
N9850 G2 X78.783 Y202.775 I-2.529 J0
N9855 X78.589 Y202.177 I-4.784 J1.219
N9860 G3 X78.777 Y201.989 I0.135 J-0.053
N9865 G2 X79.375 Y202.183 I1.818 J-4.59
N9870 X80 Y202.261 I0.625 J-2.451
N9875 G3 X80.802 Y204.202 I0 J1.136
N9880 G0 Z6
N9885 X25.242 Y198.158
N9890 G1 Z4 F30000
N9895 Z-1
N9900 X21.379 Y202.021
N9905 X21.404 Y202.055
N9910 X21.419 Y202.094
N9915 X21.421 Y202.136
N9920 X21.411 Y202.177
N9925 G2 X21.217 Y202.775 I4.59 J1.818
N9930 X21.139 Y203.4 I2.451 J0.625
N9935 G3 X19.198 Y204.202 I-1.136 J0
N9940 X20 Y202.261 I0.804 J-0.804
N9945 G2 X20.625 Y202.183 I0 J-2.529
N9950 X21.223 Y201.989 I-1.219 J-4.784
N9955 G1 X21.264 Y201.979
N9960 X21.306 Y201.981
N9965 X21.345 Y201.996
N9970 X21.379 Y202.021
N9975 Z4
N9980 X25.242 Y191.542
N9985 Z-1
N9990 X21.379 Y187.679
N9995 X21.345 Y187.704
N10000 X21.306 Y187.719
N10005 X21.264 Y187.721
N10010 X21.223 Y187.711
N10015 G2 X20.625 Y187.517 I-1.818 J4.59
N10020 X20 Y187.439 I-0.625 J2.451
N10025 G3 X19.198 Y185.498 I0 J-1.136
N10030 X21.139 Y186.3 I0.804 J0.804
N10035 G2 X21.217 Y186.925 I2.529 J0
N10040 X21.411 Y187.523 I4.784 J-1.219
N10045 G1 X21.421 Y187.564
N10050 X21.419 Y187.606
N10055 X21.404 Y187.645
N10060 X21.379 Y187.679
N10065 G2 X20.969 Y188.633 I0.991 J0.991
N10070 G3 X20.183 Y189.311 I-0.701 J-0.018
N10075 G1 X20.091 Y189.303
N10080 X20 Y189.3
N10085 G3 Y183.3 I0 J-3
N10090 X23 Y186.3 I0 J3
N10095 G2 X24.5 Y187.8 I1.5 J0
N10100 G1 X75.5
N10105 G2 X77 Y186.3 I0 J-1.5
N10110 G3 X83 I3 J0
N10115 X80 Y189.3 I-3 J0
N10120 G2 X78.5 Y190.8 I0 J1.5
N10125 G1 Y198.9
N10130 G2 X80 Y200.4 I1.5 J0
N10135 G3 Y206.4 I0 J3
N10140 X77 Y203.4 I0 J-3
N10145 G2 X75.5 Y201.9 I-1.5 J0
N10150 G1 X24.5
N10155 G2 X23 Y203.4 I0 J1.5
N10160 G3 X17 I-3 J0
N10165 X20 Y200.4 I3 J0
N10170 G2 X21.5 Y198.9 I0 J-1.5
N10175 G1 Y190.8
N10180 G2 X20.183 Y189.311 I-1.5 J0
N10185 G3 X20.009 Y189.085 I0.024 J-0.199
N10190 X20.238 Y188.915 I0.198 J0.028
N10195 G1 X29.986 Y190.437
N10200 S1000
N10205 X30.233 Y190.539 Z-1.047 F10000
N10210 X20 Y186.3 Z-3
N10215 G3 X19.679 Y185.955 I0.217 J-0.524
N10220 G1 X19.335 Y184.919
N10225 G2 X18.259 Y185.276 I-0.538 J0.178
N10230 X19.198 Y185.498 I0.538 J-0.178
N10235 S21000
N10240 G3 X21.139 Y186.3 I0.804 J0.804 F30000
N10245 G2 X21.217 Y186.925 I2.529 J0
N10250 X21.411 Y187.523 I4.784 J-1.219
N10255 G3 X21.223 Y187.711 I-0.135 J0.053
N10260 G2 X20.625 Y187.517 I-1.818 J4.59
N10265 X20 Y187.439 I-0.625 J2.451
N10270 G3 X19.198 Y185.498 I0 J-1.136
N10275 G0 Z6
N10280 X69.214 Y194.85
N10285 G1 Z1.5 F30000
N10290 S1000
N10295 X64.462 Z0.662 F10000
N10300 X78.34 Z-1.785
N10305 X71.45 Z-3
N10310 G2 X71.233 Y195.067 I0 J0.217
N10315 G1 Y195.502
N10320 G2 X71.667 I0.217 J0
N10325 X71.45 Y195.285 I-0.217 J0
N10330 S21000
N10335 G1 X28.435 F30000
N10340 G3 X28.115 Y194.965 I0 J-0.319
N10345 G1 Y194.735
N10350 G3 X28.435 Y194.415 I0.319 J0
N10355 G1 X71.452
N10360 X71.565
N10365 G3 X71.885 Y194.735 I0 J0.319
N10370 G1 Y194.965
N10375 G3 X71.565 Y195.285 I-0.319 J0
N10380 G1 X71.45
N10385 G2 X69.653 Y196.483 I0 J1.947
N10390 G3 X67.855 Y197.681 I-1.797 J-0.749
N10395 G1 X26.038
N10400 G3 X25.719 Y197.362 I0 J-0.319
N10405 G1 Y192.338
N10410 G3 X26.038 Y192.019 I0.319 J0
N10415 G1 X73.962
N10420 G3 X74.281 Y192.338 I0 J0.319
N10425 G1 Y197.362
N10430 G3 X73.962 Y197.681 I-0.319 J0
N10435 G1 X67.855
N10440 G2 X66.087 Y198.86 I0 J1.916
N10445 G3 X64.318 Y200.039 I-1.768 J-0.737
N10450 G1 X24.5
N10455 G2 X23.875 Y200.117 I0 J2.529
N10460 X23.277 Y200.311 I1.219 J4.784
N10465 G3 X23.089 Y200.123 I-0.053 J-0.135
N10470 G2 X23.283 Y199.525 I-4.59 J-1.818
N10475 X23.361 Y198.9 I-2.451 J-0.625
N10480 G1 Y190.8
N10485 G2 X23.283 Y190.175 I-2.529 J0
N10490 X23.089 Y189.577 I-4.784 J1.219
N10495 G3 X23.277 Y189.389 I0.135 J-0.053
N10500 G2 X23.875 Y189.583 I1.818 J-4.59
N10505 X24.5 Y189.661 I0.625 J-2.451
N10510 G1 X75.5
N10515 G2 X76.125 Y189.583 I0 J-2.529
N10520 X76.723 Y189.389 I-1.219 J-4.784
N10525 G3 X76.911 Y189.577 I0.053 J0.135
N10530 G2 X76.717 Y190.175 I4.59 J1.818
N10535 X76.639 Y190.8 I2.451 J0.625
N10540 G1 Y198.9
N10545 G2 X76.717 Y199.525 I2.529 J0
N10550 X76.911 Y200.123 I4.784 J-1.219
N10555 G3 X76.723 Y200.311 I-0.135 J0.053
N10560 G2 X76.125 Y200.117 I-1.818 J4.59
N10565 X75.5 Y200.039 I-0.625 J2.451
N10570 G1 X64.318
N10575 G0 Z6
N10580 X82.065 Y204.256
N10585 G1 Z1.5 F30000
N10590 S1000
N10595 X82.589 Y204.472 Z1.4 F10000
N10600 X69.767 Y199.161 Z-1.047
N10605 X80 Y203.4 Z-3
N10610 G3 X80.321 Y203.745 I-0.217 J0.524
N10615 G1 X80.665 Y204.781
N10620 G2 X81.741 Y204.424 I0.538 J-0.178
N10625 X80.802 Y204.202 I-0.538 J0.178
N10630 S21000
N10635 G3 X78.861 Y203.4 I-0.804 J-0.804 F30000
N10640 G2 X78.783 Y202.775 I-2.529 J0
N10645 X78.589 Y202.177 I-4.784 J1.219
N10650 G3 X78.777 Y201.989 I0.135 J-0.053
N10655 G2 X79.375 Y202.183 I1.818 J-4.59
N10660 X80 Y202.261 I0.625 J-2.451
N10665 G3 X80.802 Y204.202 I0 J1.136
N10670 G0 Z6
N10675 X82.065 Y185.444
N10680 G1 Z1.5 F30000
N10685 S1000
N10690 X82.589 Y185.228 Z1.4 F10000
N10695 X69.767 Y190.539 Z-1.047
N10700 X80 Y186.3 Z-3
N10705 X81.447 Y185.609
N10710 G2 X80.958 Y184.586 I-0.245 J-0.511
N10715 X80.802 Y185.498 I0.245 J0.511
N10720 S21000
N10725 G3 X80 Y187.439 I-0.804 J0.804 F30000
N10730 G2 X79.375 Y187.517 I0 J2.529
N10735 X78.777 Y187.711 I1.219 J4.784
N10740 G3 X78.589 Y187.523 I-0.053 J-0.135
N10745 G2 X78.783 Y186.925 I-4.59 J-1.818
N10750 X78.861 Y186.3 I-2.451 J-0.625
N10755 G3 X80.802 Y185.498 I1.136 J0
N10760 G0 Z6
N10765 X25.242 Y198.158
N10770 G1 Z2 F30000
N10775 Z-3
N10780 X21.379 Y202.021
N10785 X21.404 Y202.055
N10790 X21.419 Y202.094
N10795 X21.421 Y202.136
N10800 X21.411 Y202.177
N10805 G2 X21.217 Y202.775 I4.59 J1.818
N10810 X21.139 Y203.4 I2.451 J0.625
N10815 G3 X19.198 Y204.202 I-1.136 J0
N10820 X20 Y202.261 I0.804 J-0.804
N10825 G2 X20.625 Y202.183 I0 J-2.529
N10830 X21.223 Y201.989 I-1.219 J-4.784
N10835 G1 X21.264 Y201.979
N10840 X21.306 Y201.981
N10845 X21.345 Y201.996
N10850 X21.379 Y202.021
N10855 G3 X22.481 Y203.324 I-7.223 J7.223
N10860 X22.518 Y205.031 I-1.238 J0.88
N10865 X17.482 Y201.769 I-2.518 J-1.631
N10870 X20 Y200.4 I2.518 J1.631
N10875 G2 X21.5 Y198.9 I0 J-1.5
N10880 G1 Y190.8
N10885 G2 X20 Y189.3 I-1.5 J0
N10890 G3 Y183.3 I0 J-3
N10895 X23 Y186.3 I0 J3
N10900 G2 X24.5 Y187.8 I1.5 J0
N10905 G1 X75.5
N10910 G2 X77 Y186.3 I0 J-1.5
N10915 G3 X83 I3 J0
N10920 X80 Y189.3 I-3 J0
N10925 G2 X78.5 Y190.8 I0 J1.5
N10930 G1 Y198.9
N10935 G2 X80 Y200.4 I1.5 J0
N10940 G3 Y206.4 I0 J3
N10945 X77 Y203.4 I0 J-3
N10950 G2 X75.5 Y201.9 I-1.5 J0
N10955 G1 X24.5
N10960 G2 X23 Y203.4 I0 J1.5
N10965 G3 X22.518 Y205.031 I-3 J0
N10970 X22.087 Y204.852 I-0.199 J-0.129
N10975 G1 X22.251 Y204.096
N10980 X22.261 Y204.061
N10985 X22.277 Y204.028
N10990 X29.047 Y192.338
N10995 X29.068 Y192.296
N11000 X29.083 Y192.252
N11005 X29.509 Y190.672
N11010 G3 X29.986 Y190.437 I0.342 J0.092
N11015 S1000
N11020 G1 X30.233 Y190.539 Z-3.047 F10000
N11025 X20 Y186.3 Z-5
N11030 G3 X19.679 Y185.955 I0.217 J-0.524
N11035 G1 X19.335 Y184.919
N11040 G2 X18.259 Y185.276 I-0.538 J0.178
N11045 X19.198 Y185.498 I0.538 J-0.178
N11050 S21000
N11055 G3 X21.139 Y186.3 I0.804 J0.804 F30000
N11060 G2 X21.217 Y186.925 I2.529 J0
N11065 X21.411 Y187.523 I4.784 J-1.219
N11070 G3 X21.223 Y187.711 I-0.135 J0.053
N11075 G2 X20.625 Y187.517 I-1.818 J4.59
N11080 X20 Y187.439 I-0.625 J2.451
N11085 G3 X19.198 Y185.498 I0 J-1.136
N11090 G0 Z6
N11095 X69.214 Y194.85
N11100 G1 Z-0.5 F30000
N11105 S1000
N11110 X64.462 Z-1.338 F10000
N11115 X78.34 Z-3.785
N11120 X71.45 Z-5
N11125 G2 X71.233 Y195.067 I0 J0.217
N11130 G1 Y195.502
N11135 G2 X71.667 I0.217 J0
N11140 X71.45 Y195.285 I-0.217 J0
N11145 S21000
N11150 G1 X28.435 F30000
N11155 G3 X28.115 Y194.965 I0 J-0.319
N11160 G1 Y194.735
N11165 G3 X28.435 Y194.415 I0.319 J0
N11170 G1 X71.452
N11175 X71.565
N11180 G3 X71.885 Y194.735 I0 J0.319
N11185 G1 Y194.965
N11190 G3 X71.565 Y195.285 I-0.319 J0
N11195 G1 X71.45
N11200 G2 X69.653 Y196.483 I0 J1.947
N11205 G3 X67.855 Y197.681 I-1.797 J-0.749
N11210 G1 X26.038
N11215 G3 X25.719 Y197.362 I0 J-0.319
N11220 G1 Y192.338
N11225 G3 X26.038 Y192.019 I0.319 J0
N11230 G1 X73.962
N11235 G3 X74.281 Y192.338 I0 J0.319
N11240 G1 Y197.362
N11245 G3 X73.962 Y197.681 I-0.319 J0
N11250 G1 X67.855
N11255 G2 X66.087 Y198.86 I0 J1.916
N11260 G3 X64.318 Y200.039 I-1.768 J-0.737
N11265 G1 X24.5
N11270 G2 X23.875 Y200.117 I0 J2.529
N11275 X23.277 Y200.311 I1.219 J4.784
N11280 G3 X23.089 Y200.123 I-0.053 J-0.135
N11285 G2 X23.283 Y199.525 I-4.59 J-1.818
N11290 X23.361 Y198.9 I-2.451 J-0.625
N11295 G1 Y190.8
N11300 G2 X23.283 Y190.175 I-2.529 J0
N11305 X23.089 Y189.577 I-4.784 J1.219
N11310 G3 X23.277 Y189.389 I0.135 J-0.053
N11315 G2 X23.875 Y189.583 I1.818 J-4.59
N11320 X24.5 Y189.661 I0.625 J-2.451
N11325 G1 X75.5
N11330 G2 X76.125 Y189.583 I0 J-2.529
N11335 X76.723 Y189.389 I-1.219 J-4.784
N11340 G3 X76.911 Y189.577 I0.053 J0.135
N11345 G2 X76.717 Y190.175 I4.59 J1.818
N11350 X76.639 Y190.8 I2.451 J0.625
N11355 G1 Y198.9
N11360 G2 X76.717 Y199.525 I2.529 J0
N11365 X76.911 Y200.123 I4.784 J-1.219
N11370 G3 X76.723 Y200.311 I-0.135 J0.053
N11375 G2 X76.125 Y200.117 I-1.818 J4.59
N11380 X75.5 Y200.039 I-0.625 J2.451
N11385 G1 X64.318
N11390 G0 Z6
N11395 X82.065 Y204.256
N11400 G1 Z-0.5 F30000
N11405 S1000
N11410 X82.589 Y204.472 Z-0.6 F10000
N11415 X69.767 Y199.161 Z-3.047
N11420 X80 Y203.4 Z-5
N11425 G3 X80.321 Y203.745 I-0.217 J0.524
N11430 G1 X80.665 Y204.781
N11435 G2 X81.741 Y204.424 I0.538 J-0.178
N11440 X80.802 Y204.202 I-0.538 J0.178
N11445 S21000
N11450 G3 X78.861 Y203.4 I-0.804 J-0.804 F30000
N11455 G2 X78.783 Y202.775 I-2.529 J0
N11460 X78.589 Y202.177 I-4.784 J1.219
N11465 G3 X78.777 Y201.989 I0.135 J-0.053
N11470 G2 X79.375 Y202.183 I1.818 J-4.59
N11475 X80 Y202.261 I0.625 J-2.451
N11480 G3 X80.802 Y204.202 I0 J1.136
N11485 G0 Z6
N11490 X82.065 Y185.444
N11495 G1 Z-0.5 F30000
N11500 S1000
N11505 X82.589 Y185.228 Z-0.6 F10000
N11510 X69.767 Y190.539 Z-3.047
N11515 X80 Y186.3 Z-5
N11520 X81.447 Y185.609
N11525 G2 X80.958 Y184.586 I-0.245 J-0.511
N11530 X80.802 Y185.498 I0.245 J0.511
N11535 S21000
N11540 G3 X80 Y187.439 I-0.804 J0.804 F30000
N11545 G2 X79.375 Y187.517 I0 J2.529
N11550 X78.777 Y187.711 I1.219 J4.784
N11555 G3 X78.589 Y187.523 I-0.053 J-0.135
N11560 G2 X78.783 Y186.925 I-4.59 J-1.818
N11565 X78.861 Y186.3 I-2.451 J-0.625
N11570 G3 X80.802 Y185.498 I1.136 J0
N11575 G0 Z6
N11580 X25.242 Y198.158
N11585 G1 Z0 F30000
N11590 Z-5
N11595 X21.379 Y202.021
N11600 X21.404 Y202.055
N11605 X21.419 Y202.094
N11610 X21.421 Y202.136
N11615 X21.411 Y202.177
N11620 G2 X21.217 Y202.775 I4.59 J1.818
N11625 X21.139 Y203.4 I2.451 J0.625
N11630 G3 X19.198 Y204.202 I-1.136 J0
N11635 X20 Y202.261 I0.804 J-0.804
N11640 G2 X20.625 Y202.183 I0 J-2.529
N11645 X21.223 Y201.989 I-1.219 J-4.784
N11650 G1 X21.264 Y201.979
N11655 X21.306 Y201.981
N11660 X21.345 Y201.996
N11665 X21.379 Y202.021
N11670 G3 X22.481 Y203.324 I-7.223 J7.223
N11675 X22.518 Y205.031 I-1.238 J0.88
N11680 X17.482 Y201.769 I-2.518 J-1.631
N11685 X20 Y200.4 I2.518 J1.631
N11690 G2 X21.5 Y198.9 I0 J-1.5
N11695 G1 Y190.8
N11700 G2 X20 Y189.3 I-1.5 J0
N11705 G3 Y183.3 I0 J-3
N11710 X23 Y186.3 I0 J3
N11715 G2 X24.5 Y187.8 I1.5 J0
N11720 G1 X75.5
N11725 G2 X77 Y186.3 I0 J-1.5
N11730 G3 X83 I3 J0
N11735 X80 Y189.3 I-3 J0
N11740 G2 X78.5 Y190.8 I0 J1.5
N11745 G1 Y198.9
N11750 G2 X80 Y200.4 I1.5 J0
N11755 G3 Y206.4 I0 J3
N11760 X77 Y203.4 I0 J-3
N11765 G2 X75.5 Y201.9 I-1.5 J0
N11770 G1 X24.5
N11775 G2 X23 Y203.4 I0 J1.5
N11780 G3 X22.518 Y205.031 I-3 J0
N11785 X22.087 Y204.852 I-0.199 J-0.129
N11790 G1 X22.251 Y204.096
N11795 X22.261 Y204.061
N11800 X22.277 Y204.028
N11805 X29.047 Y192.338
N11810 X29.068 Y192.296
N11815 X29.083 Y192.252
N11820 X29.509 Y190.672
N11825 G3 X29.986 Y190.437 I0.342 J0.092
N11830 S1000
N11835 G1 X30.233 Y190.539 Z-5.047 F10000
N11840 X20 Y186.3 Z-7
N11845 G3 X19.679 Y185.955 I0.217 J-0.524
N11850 G1 X19.335 Y184.919
N11855 G2 X18.259 Y185.276 I-0.538 J0.178
N11860 X19.198 Y185.498 I0.538 J-0.178
N11865 S21000
N11870 G3 X21.139 Y186.3 I0.804 J0.804 F30000
N11875 G2 X21.217 Y186.925 I2.529 J0
N11880 X21.411 Y187.523 I4.784 J-1.219
N11885 G3 X21.223 Y187.711 I-0.135 J0.053
N11890 G2 X20.625 Y187.517 I-1.818 J4.59
N11895 X20 Y187.439 I-0.625 J2.451
N11900 G3 X19.198 Y185.498 I0 J-1.136
N11905 G0 Z6
N11910 X69.214 Y194.85
N11915 G1 Z-2.5 F30000
N11920 S1000
N11925 X64.462 Z-3.338 F10000
N11930 X78.34 Z-5.785
N11935 X71.45 Z-7
N11940 G2 X71.233 Y195.067 I0 J0.217
N11945 G1 Y195.502
N11950 G2 X71.667 I0.217 J0
N11955 X71.45 Y195.285 I-0.217 J0
N11960 S21000
N11965 G1 X28.435 F30000
N11970 G3 X28.115 Y194.965 I0 J-0.319
N11975 G1 Y194.735
N11980 G3 X28.435 Y194.415 I0.319 J0
N11985 G1 X71.452
N11990 X71.565
N11995 G3 X71.885 Y194.735 I0 J0.319
N12000 G1 Y194.965
N12005 G3 X71.565 Y195.285 I-0.319 J0
N12010 G1 X71.45
N12015 G2 X69.653 Y196.483 I0 J1.947
N12020 G3 X67.855 Y197.681 I-1.797 J-0.749
N12025 G1 X26.038
N12030 G3 X25.719 Y197.362 I0 J-0.319
N12035 G1 Y192.338
N12040 G3 X26.038 Y192.019 I0.319 J0
N12045 G1 X73.962
N12050 G3 X74.281 Y192.338 I0 J0.319
N12055 G1 Y197.362
N12060 G3 X73.962 Y197.681 I-0.319 J0
N12065 G1 X67.855
N12070 G2 X66.087 Y198.86 I0 J1.916
N12075 G3 X64.318 Y200.039 I-1.768 J-0.737
N12080 G1 X24.5
N12085 G2 X23.875 Y200.117 I0 J2.529
N12090 X23.277 Y200.311 I1.219 J4.784
N12095 G3 X23.089 Y200.123 I-0.053 J-0.135
N12100 G2 X23.283 Y199.525 I-4.59 J-1.818
N12105 X23.361 Y198.9 I-2.451 J-0.625
N12110 G1 Y190.8
N12115 G2 X23.283 Y190.175 I-2.529 J0
N12120 X23.089 Y189.577 I-4.784 J1.219
N12125 G3 X23.277 Y189.389 I0.135 J-0.053
N12130 G2 X23.875 Y189.583 I1.818 J-4.59
N12135 X24.5 Y189.661 I0.625 J-2.451
N12140 G1 X75.5
N12145 G2 X76.125 Y189.583 I0 J-2.529
N12150 X76.723 Y189.389 I-1.219 J-4.784
N12155 G3 X76.911 Y189.577 I0.053 J0.135
N12160 G2 X76.717 Y190.175 I4.59 J1.818
N12165 X76.639 Y190.8 I2.451 J0.625
N12170 G1 Y198.9
N12175 G2 X76.717 Y199.525 I2.529 J0
N12180 X76.911 Y200.123 I4.784 J-1.219
N12185 G3 X76.723 Y200.311 I-0.135 J0.053
N12190 G2 X76.125 Y200.117 I-1.818 J4.59
N12195 X75.5 Y200.039 I-0.625 J2.451
N12200 G1 X64.318
N12205 G0 Z6
N12210 X82.065 Y204.256
N12215 G1 Z-2.5 F30000
N12220 S1000
N12225 X82.589 Y204.472 Z-2.6 F10000
N12230 X69.767 Y199.161 Z-5.047
N12235 X80 Y203.4 Z-7
N12240 G3 X80.321 Y203.745 I-0.217 J0.524
N12245 G1 X80.665 Y204.781
N12250 G2 X81.741 Y204.424 I0.538 J-0.178
N12255 X80.802 Y204.202 I-0.538 J0.178
N12260 S21000
N12265 G3 X78.861 Y203.4 I-0.804 J-0.804 F30000
N12270 G2 X78.783 Y202.775 I-2.529 J0
N12275 X78.589 Y202.177 I-4.784 J1.219
N12280 G3 X78.777 Y201.989 I0.135 J-0.053
N12285 G2 X79.375 Y202.183 I1.818 J-4.59
N12290 X80 Y202.261 I0.625 J-2.451
N12295 G3 X80.802 Y204.202 I0 J1.136
N12300 G0 Z6
N12305 X82.065 Y185.444
N12310 G1 Z-2.5 F30000
N12315 S1000
N12320 X82.589 Y185.228 Z-2.6 F10000
N12325 X69.767 Y190.539 Z-5.047
N12330 X80 Y186.3 Z-7
N12335 X81.447 Y185.609
N12340 G2 X80.958 Y184.586 I-0.245 J-0.511
N12345 X80.802 Y185.498 I0.245 J0.511
N12350 S21000
N12355 G3 X80 Y187.439 I-0.804 J0.804 F30000
N12360 G2 X79.375 Y187.517 I0 J2.529
N12365 X78.777 Y187.711 I1.219 J4.784
N12370 G3 X78.589 Y187.523 I-0.053 J-0.135
N12375 G2 X78.783 Y186.925 I-4.59 J-1.818
N12380 X78.861 Y186.3 I-2.451 J-0.625
N12385 G3 X80.802 Y185.498 I1.136 J0
N12390 G0 Z6
N12395 X25.242 Y198.158
N12400 G1 Z-2 F30000
N12405 Z-7
N12410 X21.379 Y202.021
N12415 X21.404 Y202.055
N12420 X21.419 Y202.094
N12425 X21.421 Y202.136
N12430 X21.411 Y202.177
N12435 G2 X21.217 Y202.775 I4.59 J1.818
N12440 X21.139 Y203.4 I2.451 J0.625
N12445 G3 X19.198 Y204.202 I-1.136 J0
N12450 X20 Y202.261 I0.804 J-0.804
N12455 G2 X20.625 Y202.183 I0 J-2.529
N12460 X21.223 Y201.989 I-1.219 J-4.784
N12465 G1 X21.264 Y201.979
N12470 X21.306 Y201.981
N12475 X21.345 Y201.996
N12480 X21.379 Y202.021
N12485 G3 X22.481 Y203.324 I-7.223 J7.223
N12490 X22.518 Y205.031 I-1.238 J0.88
N12495 X17.482 Y201.769 I-2.518 J-1.631
N12500 X20 Y200.4 I2.518 J1.631
N12505 G2 X21.5 Y198.9 I0 J-1.5
N12510 G1 Y190.8
N12515 G2 X20 Y189.3 I-1.5 J0
N12520 G3 Y183.3 I0 J-3
N12525 X23 Y186.3 I0 J3
N12530 G2 X24.5 Y187.8 I1.5 J0
N12535 G1 X75.5
N12540 G2 X77 Y186.3 I0 J-1.5
N12545 G3 X83 I3 J0
N12550 X80 Y189.3 I-3 J0
N12555 G2 X78.5 Y190.8 I0 J1.5
N12560 G1 Y198.9
N12565 G2 X80 Y200.4 I1.5 J0
N12570 G3 Y206.4 I0 J3
N12575 X77 Y203.4 I0 J-3
N12580 G2 X75.5 Y201.9 I-1.5 J0
N12585 G1 X24.5
N12590 G2 X23 Y203.4 I0 J1.5
N12595 G3 X22.518 Y205.031 I-3 J0
N12600 X22.087 Y204.852 I-0.199 J-0.129
N12605 G1 X22.251 Y204.096
N12610 X22.261 Y204.061
N12615 X22.277 Y204.028
N12620 X29.047 Y192.338
N12625 X29.068 Y192.296
N12630 X29.083 Y192.252
N12635 X29.509 Y190.672
N12640 G3 X29.986 Y190.437 I0.342 J0.092
N12645 S1000
N12650 G1 X30.233 Y190.539 Z-7.047 F10000
N12655 X20 Y186.3 Z-9
N12660 G3 X19.679 Y185.955 I0.217 J-0.524
N12665 G1 X19.335 Y184.919
N12670 G2 X18.259 Y185.276 I-0.538 J0.178
N12675 X19.198 Y185.498 I0.538 J-0.178
N12680 S21000
N12685 G3 X21.139 Y186.3 I0.804 J0.804 F30000
N12690 G2 X21.217 Y186.925 I2.529 J0
N12695 X21.411 Y187.523 I4.784 J-1.219
N12700 G3 X21.223 Y187.711 I-0.135 J0.053
N12705 G2 X20.625 Y187.517 I-1.818 J4.59
N12710 X20 Y187.439 I-0.625 J2.451
N12715 G3 X19.198 Y185.498 I0 J-1.136
N12720 G0 Z6
N12725 X69.214 Y194.85
N12730 G1 Z-4.5 F30000
N12735 S1000
N12740 X64.462 Z-5.338 F10000
N12745 X78.34 Z-7.785
N12750 X71.45 Z-9
N12755 G2 X71.233 Y195.067 I0 J0.217
N12760 G1 Y195.502
N12765 G2 X71.667 I0.217 J0
N12770 X71.45 Y195.285 I-0.217 J0
N12775 S21000
N12780 G1 X28.435 F30000
N12785 G3 X28.115 Y194.965 I0 J-0.319
N12790 G1 Y194.735
N12795 G3 X28.435 Y194.415 I0.319 J0
N12800 G1 X71.452
N12805 X71.565
N12810 G3 X71.885 Y194.735 I0 J0.319
N12815 G1 Y194.965
N12820 G3 X71.565 Y195.285 I-0.319 J0
N12825 G1 X71.45
N12830 G2 X69.653 Y196.483 I0 J1.947
N12835 G3 X67.855 Y197.681 I-1.797 J-0.749
N12840 G1 X26.038
N12845 G3 X25.719 Y197.362 I0 J-0.319
N12850 G1 Y192.338
N12855 G3 X26.038 Y192.019 I0.319 J0
N12860 G1 X73.962
N12865 G3 X74.281 Y192.338 I0 J0.319
N12870 G1 Y197.362
N12875 G3 X73.962 Y197.681 I-0.319 J0
N12880 G1 X67.855
N12885 G2 X66.087 Y198.86 I0 J1.916
N12890 G3 X64.318 Y200.039 I-1.768 J-0.737
N12895 G1 X24.5
N12900 G2 X23.875 Y200.117 I0 J2.529
N12905 X23.277 Y200.311 I1.219 J4.784
N12910 G3 X23.089 Y200.123 I-0.053 J-0.135
N12915 G2 X23.283 Y199.525 I-4.59 J-1.818
N12920 X23.361 Y198.9 I-2.451 J-0.625
N12925 G1 Y190.8
N12930 G2 X23.283 Y190.175 I-2.529 J0
N12935 X23.089 Y189.577 I-4.784 J1.219
N12940 G3 X23.277 Y189.389 I0.135 J-0.053
N12945 G2 X23.875 Y189.583 I1.818 J-4.59
N12950 X24.5 Y189.661 I0.625 J-2.451
N12955 G1 X75.5
N12960 G2 X76.125 Y189.583 I0 J-2.529
N12965 X76.723 Y189.389 I-1.219 J-4.784
N12970 G3 X76.911 Y189.577 I0.053 J0.135
N12975 G2 X76.717 Y190.175 I4.59 J1.818
N12980 X76.639 Y190.8 I2.451 J0.625
N12985 G1 Y198.9
N12990 G2 X76.717 Y199.525 I2.529 J0
N12995 X76.911 Y200.123 I4.784 J-1.219
N13000 G3 X76.723 Y200.311 I-0.135 J0.053
N13005 G2 X76.125 Y200.117 I-1.818 J4.59
N13010 X75.5 Y200.039 I-0.625 J2.451
N13015 G1 X64.318
N13020 G0 Z6
N13025 X82.065 Y204.256
N13030 G1 Z-4.5 F30000
N13035 S1000
N13040 X82.589 Y204.472 Z-4.6 F10000
N13045 X69.767 Y199.161 Z-7.047
N13050 X80 Y203.4 Z-9
N13055 G3 X80.321 Y203.745 I-0.217 J0.524
N13060 G1 X80.665 Y204.781
N13065 G2 X81.741 Y204.424 I0.538 J-0.178
N13070 X80.802 Y204.202 I-0.538 J0.178
N13075 S21000
N13080 G3 X78.861 Y203.4 I-0.804 J-0.804 F30000
N13085 G2 X78.783 Y202.775 I-2.529 J0
N13090 X78.589 Y202.177 I-4.784 J1.219
N13095 G3 X78.777 Y201.989 I0.135 J-0.053
N13100 G2 X79.375 Y202.183 I1.818 J-4.59
N13105 X80 Y202.261 I0.625 J-2.451
N13110 G3 X80.802 Y204.202 I0 J1.136
N13115 G0 Z6
N13120 X82.065 Y185.444
N13125 G1 Z-4.5 F30000
N13130 S1000
N13135 X82.589 Y185.228 Z-4.6 F10000
N13140 X69.767 Y190.539 Z-7.047
N13145 X80 Y186.3 Z-9
N13150 X81.447 Y185.609
N13155 G2 X80.958 Y184.586 I-0.245 J-0.511
N13160 X80.802 Y185.498 I0.245 J0.511
N13165 S21000
N13170 G3 X80 Y187.439 I-0.804 J0.804 F30000
N13175 G2 X79.375 Y187.517 I0 J2.529
N13180 X78.777 Y187.711 I1.219 J4.784
N13185 G3 X78.589 Y187.523 I-0.053 J-0.135
N13190 G2 X78.783 Y186.925 I-4.59 J-1.818
N13195 X78.861 Y186.3 I-2.451 J-0.625
N13200 G3 X80.802 Y185.498 I1.136 J0
N13205 G0 Z6
N13210 X25.242 Y198.158
N13215 G1 Z-4 F30000
N13220 Z-9
N13225 X21.379 Y202.021
N13230 X21.404 Y202.055
N13235 X21.419 Y202.094
N13240 X21.421 Y202.136
N13245 X21.411 Y202.177
N13250 G2 X21.217 Y202.775 I4.59 J1.818
N13255 X21.139 Y203.4 I2.451 J0.625
N13260 G3 X19.198 Y204.202 I-1.136 J0
N13265 X20 Y202.261 I0.804 J-0.804
N13270 G2 X20.625 Y202.183 I0 J-2.529
N13275 X21.223 Y201.989 I-1.219 J-4.784
N13280 G1 X21.264 Y201.979
N13285 X21.306 Y201.981
N13290 X21.345 Y201.996
N13295 X21.379 Y202.021
N13300 G3 X22.481 Y203.324 I-7.223 J7.223
N13305 X22.518 Y205.031 I-1.238 J0.88
N13310 X17.482 Y201.769 I-2.518 J-1.631
N13315 X20 Y200.4 I2.518 J1.631
N13320 G2 X21.5 Y198.9 I0 J-1.5
N13325 G1 Y190.8
N13330 G2 X20 Y189.3 I-1.5 J0
N13335 G3 Y183.3 I0 J-3
N13340 X23 Y186.3 I0 J3
N13345 G2 X24.5 Y187.8 I1.5 J0
N13350 G1 X75.5
N13355 G2 X77 Y186.3 I0 J-1.5
N13360 G3 X83 I3 J0
N13365 X80 Y189.3 I-3 J0
N13370 G2 X78.5 Y190.8 I0 J1.5
N13375 G1 Y198.9
N13380 G2 X80 Y200.4 I1.5 J0
N13385 G3 Y206.4 I0 J3
N13390 X77 Y203.4 I0 J-3
N13395 G2 X75.5 Y201.9 I-1.5 J0
N13400 G1 X24.5
N13405 G2 X23 Y203.4 I0 J1.5
N13410 G3 X22.518 Y205.031 I-3 J0
N13415 X22.087 Y204.852 I-0.199 J-0.129
N13420 G1 X22.251 Y204.096
N13425 X22.261 Y204.061
N13430 X22.277 Y204.028
N13435 X29.047 Y192.338
N13440 X29.068 Y192.296
N13445 X29.083 Y192.252
N13450 X29.509 Y190.672
N13455 G3 X29.986 Y190.437 I0.342 J0.092
N13460 S1000
N13465 G1 X30.233 Y190.539 Z-9.047 F10000
N13470 X20 Y186.3 Z-11
N13475 G3 X19.679 Y185.955 I0.217 J-0.524
N13480 G1 X19.335 Y184.919
N13485 G2 X18.259 Y185.276 I-0.538 J0.178
N13490 X19.198 Y185.498 I0.538 J-0.178
N13495 S21000
N13500 G3 X21.139 Y186.3 I0.804 J0.804 F30000
N13505 G2 X21.217 Y186.925 I2.529 J0
N13510 X21.411 Y187.523 I4.784 J-1.219
N13515 G3 X21.223 Y187.711 I-0.135 J0.053
N13520 G2 X20.625 Y187.517 I-1.818 J4.59
N13525 X20 Y187.439 I-0.625 J2.451
N13530 G3 X19.198 Y185.498 I0 J-1.136
N13535 G0 Z6
N13540 X69.214 Y194.85
N13545 G1 Z-6.5 F30000
N13550 S1000
N13555 X64.462 Z-7.338 F10000
N13560 X78.34 Z-9.785
N13565 X71.45 Z-11
N13570 G2 X71.233 Y195.067 I0 J0.217
N13575 G1 Y195.502
N13580 G2 X71.667 I0.217 J0
N13585 X71.45 Y195.285 I-0.217 J0
N13590 S21000
N13595 G1 X28.435 F30000
N13600 G3 X28.115 Y194.965 I0 J-0.319
N13605 G1 Y194.735
N13610 G3 X28.435 Y194.415 I0.319 J0
N13615 G1 X71.452
N13620 X71.565
N13625 G3 X71.885 Y194.735 I0 J0.319
N13630 G1 Y194.965
N13635 G3 X71.565 Y195.285 I-0.319 J0
N13640 G1 X71.45
N13645 G2 X69.653 Y196.483 I0 J1.947
N13650 G3 X67.855 Y197.681 I-1.797 J-0.749
N13655 G1 X26.038
N13660 G3 X25.719 Y197.362 I0 J-0.319
N13665 G1 Y192.338
N13670 G3 X26.038 Y192.019 I0.319 J0
N13675 G1 X73.962
N13680 G3 X74.281 Y192.338 I0 J0.319
N13685 G1 Y197.362
N13690 G3 X73.962 Y197.681 I-0.319 J0
N13695 G1 X67.855
N13700 G2 X66.087 Y198.86 I0 J1.916
N13705 G3 X64.318 Y200.039 I-1.768 J-0.737
N13710 G1 X24.5
N13715 G2 X23.875 Y200.117 I0 J2.529
N13720 X23.277 Y200.311 I1.219 J4.784
N13725 G3 X23.089 Y200.123 I-0.053 J-0.135
N13730 G2 X23.283 Y199.525 I-4.59 J-1.818
N13735 X23.361 Y198.9 I-2.451 J-0.625
N13740 G1 Y190.8
N13745 G2 X23.283 Y190.175 I-2.529 J0
N13750 X23.089 Y189.577 I-4.784 J1.219
N13755 G3 X23.277 Y189.389 I0.135 J-0.053
N13760 G2 X23.875 Y189.583 I1.818 J-4.59
N13765 X24.5 Y189.661 I0.625 J-2.451
N13770 G1 X75.5
N13775 G2 X76.125 Y189.583 I0 J-2.529
N13780 X76.723 Y189.389 I-1.219 J-4.784
N13785 G3 X76.911 Y189.577 I0.053 J0.135
N13790 G2 X76.717 Y190.175 I4.59 J1.818
N13795 X76.639 Y190.8 I2.451 J0.625
N13800 G1 Y198.9
N13805 G2 X76.717 Y199.525 I2.529 J0
N13810 X76.911 Y200.123 I4.784 J-1.219
N13815 G3 X76.723 Y200.311 I-0.135 J0.053
N13820 G2 X76.125 Y200.117 I-1.818 J4.59
N13825 X75.5 Y200.039 I-0.625 J2.451
N13830 G1 X64.318
N13835 G0 Z6
N13840 X82.065 Y204.256
N13845 G1 Z-6.5 F30000
N13850 S1000
N13855 X82.589 Y204.472 Z-6.6 F10000
N13860 X69.767 Y199.161 Z-9.047
N13865 X80 Y203.4 Z-11
N13870 G3 X80.321 Y203.745 I-0.217 J0.524
N13875 G1 X80.665 Y204.781
N13880 G2 X81.741 Y204.424 I0.538 J-0.178
N13885 X80.802 Y204.202 I-0.538 J0.178
N13890 S21000
N13895 G3 X78.861 Y203.4 I-0.804 J-0.804 F30000
N13900 G2 X78.783 Y202.775 I-2.529 J0
N13905 X78.589 Y202.177 I-4.784 J1.219
N13910 G3 X78.777 Y201.989 I0.135 J-0.053
N13915 G2 X79.375 Y202.183 I1.818 J-4.59
N13920 X80 Y202.261 I0.625 J-2.451
N13925 G3 X80.802 Y204.202 I0 J1.136
N13930 G0 Z6
N13935 X82.065 Y185.444
N13940 G1 Z-6.5 F30000
N13945 S1000
N13950 X82.589 Y185.228 Z-6.6 F10000
N13955 X69.767 Y190.539 Z-9.047
N13960 X80 Y186.3 Z-11
N13965 X81.447 Y185.609
N13970 G2 X80.958 Y184.586 I-0.245 J-0.511
N13975 X80.802 Y185.498 I0.245 J0.511
N13980 S21000
N13985 G3 X80 Y187.439 I-0.804 J0.804 F30000
N13990 G2 X79.375 Y187.517 I0 J2.529
N13995 X78.777 Y187.711 I1.219 J4.784
N14000 G3 X78.589 Y187.523 I-0.053 J-0.135
N14005 G2 X78.783 Y186.925 I-4.59 J-1.818
N14010 X78.861 Y186.3 I-2.451 J-0.625
N14015 G3 X80.802 Y185.498 I1.136 J0
N14020 G0 Z6
N14025 X25.242 Y198.158
N14030 G1 Z-6 F30000
N14035 Z-11
N14040 X21.379 Y202.021
N14045 X21.404 Y202.055
N14050 X21.419 Y202.094
N14055 X21.421 Y202.136
N14060 X21.411 Y202.177
N14065 G2 X21.217 Y202.775 I4.59 J1.818
N14070 X21.139 Y203.4 I2.451 J0.625
N14075 G3 X19.198 Y204.202 I-1.136 J0
N14080 X20 Y202.261 I0.804 J-0.804
N14085 G2 X20.625 Y202.183 I0 J-2.529
N14090 X21.223 Y201.989 I-1.219 J-4.784
N14095 G1 X21.264 Y201.979
N14100 X21.306 Y201.981
N14105 X21.345 Y201.996
N14110 X21.379 Y202.021
N14115 G3 X22.481 Y203.324 I-7.223 J7.223
N14120 X22.518 Y205.031 I-1.238 J0.88
N14125 X17.482 Y201.769 I-2.518 J-1.631
N14130 X20 Y200.4 I2.518 J1.631
N14135 G2 X21.5 Y198.9 I0 J-1.5
N14140 G1 Y190.8
N14145 G2 X20 Y189.3 I-1.5 J0
N14150 G3 Y183.3 I0 J-3
N14155 X23 Y186.3 I0 J3
N14160 G2 X24.5 Y187.8 I1.5 J0
N14165 G1 X75.5
N14170 G2 X77 Y186.3 I0 J-1.5
N14175 G3 X83 I3 J0
N14180 X80 Y189.3 I-3 J0
N14185 G2 X78.5 Y190.8 I0 J1.5
N14190 G1 Y198.9
N14195 G2 X80 Y200.4 I1.5 J0
N14200 G3 Y206.4 I0 J3
N14205 X77 Y203.4 I0 J-3
N14210 G2 X75.5 Y201.9 I-1.5 J0
N14215 G1 X24.5
N14220 G2 X23 Y203.4 I0 J1.5
N14225 G3 X22.518 Y205.031 I-3 J0
N14230 X22.087 Y204.852 I-0.199 J-0.129
N14235 G1 X22.251 Y204.096
N14240 X22.261 Y204.061
N14245 X22.277 Y204.028
N14250 X29.047 Y192.338
N14255 X29.068 Y192.296
N14260 X29.083 Y192.252
N14265 X29.509 Y190.672
N14270 G3 X29.986 Y190.437 I0.342 J0.092
N14275 S1000
N14280 G1 X30.233 Y190.539 Z-11.047 F10000
N14285 X20 Y186.3 Z-13
N14290 G3 X19.679 Y185.955 I0.217 J-0.524
N14295 G1 X19.335 Y184.919
N14300 G2 X18.259 Y185.276 I-0.538 J0.178
N14305 X19.198 Y185.498 I0.538 J-0.178
N14310 S21000
N14315 G3 X21.139 Y186.3 I0.804 J0.804 F30000
N14320 G2 X21.217 Y186.925 I2.529 J0
N14325 X21.411 Y187.523 I4.784 J-1.219
N14330 G3 X21.223 Y187.711 I-0.135 J0.053
N14335 G2 X20.625 Y187.517 I-1.818 J4.59
N14340 X20 Y187.439 I-0.625 J2.451
N14345 G3 X19.198 Y185.498 I0 J-1.136
N14350 G0 Z6
N14355 X69.214 Y194.85
N14360 G1 Z-8.5 F30000
N14365 S1000
N14370 X64.462 Z-9.338 F10000
N14375 X78.34 Z-11.785
N14380 X71.45 Z-13
N14385 G2 X71.233 Y195.067 I0 J0.217
N14390 G1 Y195.502
N14395 G2 X71.667 I0.217 J0
N14400 X71.45 Y195.285 I-0.217 J0
N14405 S21000
N14410 G1 X28.435 F30000
N14415 G3 X28.115 Y194.965 I0 J-0.319
N14420 G1 Y194.735
N14425 G3 X28.435 Y194.415 I0.319 J0
N14430 G1 X71.452
N14435 X71.565
N14440 G3 X71.885 Y194.735 I0 J0.319
N14445 G1 Y194.965
N14450 G3 X71.565 Y195.285 I-0.319 J0
N14455 G1 X71.45
N14460 G2 X69.653 Y196.483 I0 J1.947
N14465 G3 X67.855 Y197.681 I-1.797 J-0.749
N14470 G1 X26.038
N14475 G3 X25.719 Y197.362 I0 J-0.319
N14480 G1 Y192.338
N14485 G3 X26.038 Y192.019 I0.319 J0
N14490 G1 X73.962
N14495 G3 X74.281 Y192.338 I0 J0.319
N14500 G1 Y197.362
N14505 G3 X73.962 Y197.681 I-0.319 J0
N14510 G1 X67.855
N14515 G2 X66.087 Y198.86 I0 J1.916
N14520 G3 X64.318 Y200.039 I-1.768 J-0.737
N14525 G1 X24.5
N14530 G2 X23.875 Y200.117 I0 J2.529
N14535 X23.277 Y200.311 I1.219 J4.784
N14540 G3 X23.089 Y200.123 I-0.053 J-0.135
N14545 G2 X23.283 Y199.525 I-4.59 J-1.818
N14550 X23.361 Y198.9 I-2.451 J-0.625
N14555 G1 Y190.8
N14560 G2 X23.283 Y190.175 I-2.529 J0
N14565 X23.089 Y189.577 I-4.784 J1.219
N14570 G3 X23.277 Y189.389 I0.135 J-0.053
N14575 G2 X23.875 Y189.583 I1.818 J-4.59
N14580 X24.5 Y189.661 I0.625 J-2.451
N14585 G1 X75.5
N14590 G2 X76.125 Y189.583 I0 J-2.529
N14595 X76.723 Y189.389 I-1.219 J-4.784
N14600 G3 X76.911 Y189.577 I0.053 J0.135
N14605 G2 X76.717 Y190.175 I4.59 J1.818
N14610 X76.639 Y190.8 I2.451 J0.625
N14615 G1 Y198.9
N14620 G2 X76.717 Y199.525 I2.529 J0
N14625 X76.911 Y200.123 I4.784 J-1.219
N14630 G3 X76.723 Y200.311 I-0.135 J0.053
N14635 G2 X76.125 Y200.117 I-1.818 J4.59
N14640 X75.5 Y200.039 I-0.625 J2.451
N14645 G1 X64.318
N14650 G0 Z6
N14655 X82.065 Y204.256
N14660 G1 Z-8.5 F30000
N14665 S1000
N14670 X82.589 Y204.472 Z-8.6 F10000
N14675 X69.767 Y199.161 Z-11.047
N14680 X80 Y203.4 Z-13
N14685 G3 X80.321 Y203.745 I-0.217 J0.524
N14690 G1 X80.665 Y204.781
N14695 G2 X81.741 Y204.424 I0.538 J-0.178
N14700 X80.802 Y204.202 I-0.538 J0.178
N14705 S21000
N14710 G3 X78.861 Y203.4 I-0.804 J-0.804 F30000
N14715 G2 X78.783 Y202.775 I-2.529 J0
N14720 X78.589 Y202.177 I-4.784 J1.219
N14725 G3 X78.777 Y201.989 I0.135 J-0.053
N14730 G2 X79.375 Y202.183 I1.818 J-4.59
N14735 X80 Y202.261 I0.625 J-2.451
N14740 G3 X80.802 Y204.202 I0 J1.136
N14745 G0 Z6
N14750 X82.065 Y185.444
N14755 G1 Z-8.5 F30000
N14760 S1000
N14765 X82.589 Y185.228 Z-8.6 F10000
N14770 X69.767 Y190.539 Z-11.047
N14775 X80 Y186.3 Z-13
N14780 X81.447 Y185.609
N14785 G2 X80.958 Y184.586 I-0.245 J-0.511
N14790 X80.802 Y185.498 I0.245 J0.511
N14795 S21000
N14800 G3 X80 Y187.439 I-0.804 J0.804 F30000
N14805 G2 X79.375 Y187.517 I0 J2.529
N14810 X78.777 Y187.711 I1.219 J4.784
N14815 G3 X78.589 Y187.523 I-0.053 J-0.135
N14820 G2 X78.783 Y186.925 I-4.59 J-1.818
N14825 X78.861 Y186.3 I-2.451 J-0.625
N14830 G3 X80.802 Y185.498 I1.136 J0
N14835 G0 Z6
N14840 X25.242 Y198.158
N14845 G1 Z-8 F30000
N14850 Z-13
N14855 X21.379 Y202.021
N14860 X21.404 Y202.055
N14865 X21.419 Y202.094
N14870 X21.421 Y202.136
N14875 X21.411 Y202.177
N14880 G2 X21.217 Y202.775 I4.59 J1.818
N14885 X21.139 Y203.4 I2.451 J0.625
N14890 G3 X19.198 Y204.202 I-1.136 J0
N14895 X20 Y202.261 I0.804 J-0.804
N14900 G2 X20.625 Y202.183 I0 J-2.529
N14905 X21.223 Y201.989 I-1.219 J-4.784
N14910 G1 X21.264 Y201.979
N14915 X21.306 Y201.981
N14920 X21.345 Y201.996
N14925 X21.379 Y202.021
N14930 G3 X22.481 Y203.324 I-7.223 J7.223
N14935 X22.518 Y205.031 I-1.238 J0.88
N14940 X17.482 Y201.769 I-2.518 J-1.631
N14945 X20 Y200.4 I2.518 J1.631
N14950 G2 X21.5 Y198.9 I0 J-1.5
N14955 G1 Y190.8
N14960 G2 X20 Y189.3 I-1.5 J0
N14965 G3 Y183.3 I0 J-3
N14970 X23 Y186.3 I0 J3
N14975 G2 X24.5 Y187.8 I1.5 J0
N14980 G1 X75.5
N14985 G2 X77 Y186.3 I0 J-1.5
N14990 G3 X83 I3 J0
N14995 X80 Y189.3 I-3 J0
N15000 G2 X78.5 Y190.8 I0 J1.5
N15005 G1 Y198.9
N15010 G2 X80 Y200.4 I1.5 J0
N15015 G3 Y206.4 I0 J3
N15020 X77 Y203.4 I0 J-3
N15025 G2 X75.5 Y201.9 I-1.5 J0
N15030 G1 X24.5
N15035 G2 X23 Y203.4 I0 J1.5
N15040 G3 X22.518 Y205.031 I-3 J0
N15045 X22.087 Y204.852 I-0.199 J-0.129
N15050 G1 X22.251 Y204.096
N15055 X22.261 Y204.061
N15060 X22.277 Y204.028
N15065 X29.047 Y192.338
N15070 X29.068 Y192.296
N15075 X29.083 Y192.252
N15080 X29.509 Y190.672
N15085 G3 X29.986 Y190.437 I0.342 J0.092
N15090 S1000
N15095 G1 X30.233 Y190.539 Z-13.047 F10000
N15100 X20 Y186.3 Z-15
N15105 G3 X19.679 Y185.955 I0.217 J-0.524
N15110 G1 X19.335 Y184.919
N15115 G2 X18.259 Y185.276 I-0.538 J0.178
N15120 X19.198 Y185.498 I0.538 J-0.178
N15125 S21000
N15130 G3 X21.139 Y186.3 I0.804 J0.804 F30000
N15135 G2 X21.217 Y186.925 I2.529 J0
N15140 X21.411 Y187.523 I4.784 J-1.219
N15145 G3 X21.223 Y187.711 I-0.135 J0.053
N15150 G2 X20.625 Y187.517 I-1.818 J4.59
N15155 X20 Y187.439 I-0.625 J2.451
N15160 G3 X19.198 Y185.498 I0 J-1.136
N15165 G0 Z6
N15170 X69.214 Y194.85
N15175 G1 Z-10.5 F30000
N15180 S1000
N15185 X64.462 Z-11.338 F10000
N15190 X78.34 Z-13.785
N15195 X71.45 Z-15
N15200 G2 X71.233 Y195.067 I0 J0.217
N15205 G1 Y195.502
N15210 G2 X71.667 I0.217 J0
N15215 X71.45 Y195.285 I-0.217 J0
N15220 S21000
N15225 G1 X28.435 F30000
N15230 G3 X28.115 Y194.965 I0 J-0.319
N15235 G1 Y194.735
N15240 G3 X28.435 Y194.415 I0.319 J0
N15245 G1 X71.452
N15250 X71.565
N15255 G3 X71.885 Y194.735 I0 J0.319
N15260 G1 Y194.965
N15265 G3 X71.565 Y195.285 I-0.319 J0
N15270 G1 X71.45
N15275 G2 X69.653 Y196.483 I0 J1.947
N15280 G3 X67.855 Y197.681 I-1.797 J-0.749
N15285 G1 X26.038
N15290 G3 X25.719 Y197.362 I0 J-0.319
N15295 G1 Y192.338
N15300 G3 X26.038 Y192.019 I0.319 J0
N15305 G1 X73.962
N15310 G3 X74.281 Y192.338 I0 J0.319
N15315 G1 Y197.362
N15320 G3 X73.962 Y197.681 I-0.319 J0
N15325 G1 X67.855
N15330 G2 X66.087 Y198.86 I0 J1.916
N15335 G3 X64.318 Y200.039 I-1.768 J-0.737
N15340 G1 X24.5
N15345 G2 X23.875 Y200.117 I0 J2.529
N15350 X23.277 Y200.311 I1.219 J4.784
N15355 G3 X23.089 Y200.123 I-0.053 J-0.135
N15360 G2 X23.283 Y199.525 I-4.59 J-1.818
N15365 X23.361 Y198.9 I-2.451 J-0.625
N15370 G1 Y190.8
N15375 G2 X23.283 Y190.175 I-2.529 J0
N15380 X23.089 Y189.577 I-4.784 J1.219
N15385 G3 X23.277 Y189.389 I0.135 J-0.053
N15390 G2 X23.875 Y189.583 I1.818 J-4.59
N15395 X24.5 Y189.661 I0.625 J-2.451
N15400 G1 X75.5
N15405 G2 X76.125 Y189.583 I0 J-2.529
N15410 X76.723 Y189.389 I-1.219 J-4.784
N15415 G3 X76.911 Y189.577 I0.053 J0.135
N15420 G2 X76.717 Y190.175 I4.59 J1.818
N15425 X76.639 Y190.8 I2.451 J0.625
N15430 G1 Y198.9
N15435 G2 X76.717 Y199.525 I2.529 J0
N15440 X76.911 Y200.123 I4.784 J-1.219
N15445 G3 X76.723 Y200.311 I-0.135 J0.053
N15450 G2 X76.125 Y200.117 I-1.818 J4.59
N15455 X75.5 Y200.039 I-0.625 J2.451
N15460 G1 X64.318
N15465 G0 Z6
N15470 X82.065 Y204.256
N15475 G1 Z-10.5 F30000
N15480 S1000
N15485 X82.589 Y204.472 Z-10.6 F10000
N15490 X69.767 Y199.161 Z-13.047
N15495 X80 Y203.4 Z-15
N15500 G3 X80.321 Y203.745 I-0.217 J0.524
N15505 G1 X80.665 Y204.781
N15510 G2 X81.741 Y204.424 I0.538 J-0.178
N15515 X80.802 Y204.202 I-0.538 J0.178
N15520 S21000
N15525 G3 X78.861 Y203.4 I-0.804 J-0.804 F30000
N15530 G2 X78.783 Y202.775 I-2.529 J0
N15535 X78.589 Y202.177 I-4.784 J1.219
N15540 G3 X78.777 Y201.989 I0.135 J-0.053
N15545 G2 X79.375 Y202.183 I1.818 J-4.59
N15550 X80 Y202.261 I0.625 J-2.451
N15555 G3 X80.802 Y204.202 I0 J1.136
N15560 G0 Z6
N15565 X82.065 Y185.444
N15570 G1 Z-10.5 F30000
N15575 S1000
N15580 X82.589 Y185.228 Z-10.6 F10000
N15585 X69.767 Y190.539 Z-13.047
N15590 X80 Y186.3 Z-15
N15595 X81.447 Y185.609
N15600 G2 X80.958 Y184.586 I-0.245 J-0.511
N15605 X80.802 Y185.498 I0.245 J0.511
N15610 S21000
N15615 G3 X80 Y187.439 I-0.804 J0.804 F30000
N15620 G2 X79.375 Y187.517 I0 J2.529
N15625 X78.777 Y187.711 I1.219 J4.784
N15630 G3 X78.589 Y187.523 I-0.053 J-0.135
N15635 G2 X78.783 Y186.925 I-4.59 J-1.818
N15640 X78.861 Y186.3 I-2.451 J-0.625
N15645 G3 X80.802 Y185.498 I1.136 J0
N15650 G0 Z6
N15655 X25.242 Y198.158
N15660 G1 Z-10 F30000
N15665 Z-15
N15670 X21.379 Y202.021
N15675 X21.404 Y202.055
N15680 X21.419 Y202.094
N15685 X21.421 Y202.136
N15690 X21.411 Y202.177
N15695 G2 X21.217 Y202.775 I4.59 J1.818
N15700 X21.139 Y203.4 I2.451 J0.625
N15705 G3 X19.198 Y204.202 I-1.136 J0
N15710 X20 Y202.261 I0.804 J-0.804
N15715 G2 X20.625 Y202.183 I0 J-2.529
N15720 X21.223 Y201.989 I-1.219 J-4.784
N15725 G1 X21.264 Y201.979
N15730 X21.306 Y201.981
N15735 X21.345 Y201.996
N15740 X21.379 Y202.021
N15745 G3 X22.481 Y203.324 I-7.223 J7.223
N15750 X22.518 Y205.031 I-1.238 J0.88
N15755 X17.482 Y201.769 I-2.518 J-1.631
N15760 X20 Y200.4 I2.518 J1.631
N15765 G2 X21.5 Y198.9 I0 J-1.5
N15770 G1 Y190.8
N15775 G2 X20 Y189.3 I-1.5 J0
N15780 G3 Y183.3 I0 J-3
N15785 X23 Y186.3 I0 J3
N15790 G2 X24.5 Y187.8 I1.5 J0
N15795 G1 X75.5
N15800 G2 X77 Y186.3 I0 J-1.5
N15805 G3 X83 I3 J0
N15810 X80 Y189.3 I-3 J0
N15815 G2 X78.5 Y190.8 I0 J1.5
N15820 G1 Y198.9
N15825 G2 X80 Y200.4 I1.5 J0
N15830 G3 Y206.4 I0 J3
N15835 X77 Y203.4 I0 J-3
N15840 G2 X75.5 Y201.9 I-1.5 J0
N15845 G1 X24.5
N15850 G2 X23 Y203.4 I0 J1.5
N15855 G3 X22.518 Y205.031 I-3 J0
N15860 X21.771 Y204.649 I-0.354 J-0.229
N15865 G1 X22.212 Y203.513
N15870 X22.245 Y203.448
N15875 X22.288 Y203.389
N15880 X24.419 Y200.944
N15885 X24.464 Y200.901
N15890 X24.516 Y200.867
N15895 X25.204 Y200.495
N15900 G3 X25.682 Y200.652 I0.165 J0.305
N15905 X25.502 Y201.121 I-0.313 J0.149
N15910 S1000
N15915 G1 X20 Y203.4 Z-16.05 F10000
N15920 X18.553 Y204.091
N15925 G2 X19.042 Y205.114 I0.245 J0.511
N15930 X19.198 Y204.202 I-0.245 J-0.511
N15935 S21000
N15940 G3 X20 Y202.261 I0.804 J-0.804 F30000
N15945 G2 X20.625 Y202.183 I0 J-2.529
N15950 X21.223 Y201.989 I-1.219 J-4.784
N15955 G3 X21.411 Y202.177 I0.053 J0.135
N15960 G2 X21.217 Y202.775 I4.59 J1.818
N15965 X21.139 Y203.4 I2.451 J0.625
N15970 G3 X19.198 Y204.202 I-1.136 J0
N15975 G0 Z6
N15980 X65.097 Y194.85
N15985 G1 Z-12.5 F30000
N15990 S1000
N15995 X78.34 Z-14.835 F10000
N16000 X71.45 Z-16.05
N16005 G2 X71.233 Y195.067 I0 J0.217
N16010 G1 Y195.502
N16015 G2 X71.667 I0.217 J0
N16020 X71.45 Y195.285 I-0.217 J0
N16025 S21000
N16030 G1 X28.435 F30000
N16035 G3 X28.115 Y194.965 I0 J-0.319
N16040 G1 Y194.735
N16045 G3 X28.435 Y194.415 I0.319 J0
N16050 G1 X71.448
N16055 X71.565
N16060 G3 X71.885 Y194.735 I0 J0.319
N16065 G1 Y194.965
N16070 G3 X71.565 Y195.285 I-0.319 J0
N16075 G1 X71.45
N16080 G2 X69.653 Y196.483 I0 J1.947
N16085 G3 X67.855 Y197.681 I-1.797 J-0.749
N16090 G1 X26.038
N16095 G3 X25.719 Y197.362 I0 J-0.319
N16100 G1 Y192.338
N16105 G3 X26.038 Y192.019 I0.319 J0
N16110 G1 X73.962
N16115 G3 X74.281 Y192.338 I0 J0.319
N16120 G1 Y197.362
N16125 G3 X73.962 Y197.681 I-0.319 J0
N16130 G1 X67.855
N16135 G2 X66.087 Y198.86 I0 J1.916
N16140 G3 X64.318 Y200.039 I-1.768 J-0.737
N16145 G1 X24.5
N16150 G2 X23.875 Y200.117 I0 J2.529
N16155 X23.277 Y200.311 I1.219 J4.784
N16160 G3 X23.089 Y200.123 I-0.053 J-0.135
N16165 G2 X23.283 Y199.525 I-4.59 J-1.818
N16170 X23.361 Y198.9 I-2.451 J-0.625
N16175 G1 Y190.8
N16180 G2 X23.283 Y190.175 I-2.529 J0
N16185 X23.089 Y189.577 I-4.784 J1.219
N16190 G3 X23.277 Y189.389 I0.135 J-0.053
N16195 G2 X23.875 Y189.583 I1.818 J-4.59
N16200 X24.5 Y189.661 I0.625 J-2.451
N16205 G1 X75.5
N16210 G2 X76.125 Y189.583 I0 J-2.529
N16215 X76.723 Y189.389 I-1.219 J-4.784
N16220 G3 X76.911 Y189.577 I0.053 J0.135
N16225 G2 X76.717 Y190.175 I4.59 J1.818
N16230 X76.639 Y190.8 I2.451 J0.625
N16235 G1 Y198.9
N16240 G2 X76.717 Y199.525 I2.529 J0
N16245 X76.911 Y200.123 I4.784 J-1.219
N16250 G3 X76.723 Y200.311 I-0.135 J0.053
N16255 G2 X76.125 Y200.117 I-1.818 J4.59
N16260 X75.5 Y200.039 I-0.625 J2.451
N16265 G1 X64.318
N16270 G0 Z6
N16275 X78.135 Y202.627
N16280 G1 Z-12.5 F30000
N16285 S1000
N16290 X69.767 Y199.161 Z-14.097 F10000
N16295 X80 Y203.4 Z-16.05
N16300 G3 X80.321 Y203.745 I-0.217 J0.524
N16305 G1 X80.665 Y204.781
N16310 G2 X81.741 Y204.424 I0.538 J-0.178
N16315 X80.802 Y204.202 I-0.538 J0.178
N16320 S21000
N16325 G3 X78.861 Y203.4 I-0.804 J-0.804 F30000
N16330 G2 X78.783 Y202.775 I-2.529 J0
N16335 X78.589 Y202.177 I-4.784 J1.219
N16340 G3 X78.777 Y201.989 I0.135 J-0.053
N16345 G2 X79.375 Y202.183 I1.818 J-4.59
N16350 X80 Y202.261 I0.625 J-2.451
N16355 G3 X80.802 Y204.202 I0 J1.136
N16360 G0 Z6
N16365 X78.135 Y187.073
N16370 G1 Z-12.5 F30000
N16375 S1000
N16380 X69.767 Y190.539 Z-14.097 F10000
N16385 X80 Y186.3 Z-16.05
N16390 X81.447 Y185.609
N16395 G2 X80.958 Y184.586 I-0.245 J-0.511
N16400 X80.802 Y185.498 I0.245 J0.511
N16405 S21000
N16410 G3 X80 Y187.439 I-0.804 J0.804 F30000
N16415 G2 X79.375 Y187.517 I0 J2.529
N16420 X78.777 Y187.711 I1.219 J4.784
N16425 G3 X78.589 Y187.523 I-0.053 J-0.135
N16430 G2 X78.783 Y186.925 I-4.59 J-1.818
N16435 X78.861 Y186.3 I-2.451 J-0.625
N16440 G3 X80.802 Y185.498 I1.136 J0
N16445 G0 Z6
N16450 X25.242 Y191.542
N16455 G1 Z-12 F30000
N16460 Z-16.05
N16465 X21.379 Y187.679
N16470 X21.345 Y187.704
N16475 X21.306 Y187.719
N16480 X21.264 Y187.721
N16485 X21.223 Y187.711
N16490 G2 X20.625 Y187.517 I-1.818 J4.59
N16495 X20 Y187.439 I-0.625 J2.451
N16500 G3 X19.198 Y185.498 I0 J-1.136
N16505 X21.139 Y186.3 I0.804 J0.804
N16510 G2 X21.217 Y186.925 I2.529 J0
N16515 X21.411 Y187.523 I4.784 J-1.219
N16520 G1 X21.421 Y187.564
N16525 X21.419 Y187.606
N16530 X21.404 Y187.645
N16535 X21.379 Y187.679
N16540 G2 X20.969 Y188.633 I0.991 J0.991
N16545 G3 X20.183 Y189.311 I-0.701 J-0.018
N16550 G1 X20.091 Y189.303
N16555 X20 Y189.3
N16560 G3 Y183.3 I0 J-3
N16565 X23 Y186.3 I0 J3
N16570 G2 X24.5 Y187.8 I1.5 J0
N16575 G1 X75.5
N16580 G2 X77 Y186.3 I0 J-1.5
N16585 G3 X83 I3 J0
N16590 X80 Y189.3 I-3 J0
N16595 G2 X78.5 Y190.8 I0 J1.5
N16600 G1 Y198.9
N16605 G2 X80 Y200.4 I1.5 J0
N16610 G3 Y206.4 I0 J3
N16615 X77 Y203.4 I0 J-3
N16620 G2 X75.5 Y201.9 I-1.5 J0
N16625 G1 X24.5
N16630 G2 X23 Y203.4 I0 J1.5
N16635 G3 X17 I-3 J0
N16640 X20 Y200.4 I3 J0
N16645 G2 X21.5 Y198.9 I0 J-1.5
N16650 G1 Y190.8
N16655 G2 X20.183 Y189.311 I-1.5 J0
N16660 G3 X20.209 Y188.913 I0.024 J-0.199
N16665 G1 X25.423 Y188.964
N16670 G2 X25.502 Y188.579 I0.002 J-0.2
N16675 S1000
N16680 G1 X20 Y186.3 Z-17.1 F10000
N16685 G3 X19.679 Y185.955 I0.217 J-0.524
N16690 G1 X19.335 Y184.919
N16695 G2 X18.259 Y185.276 I-0.538 J0.178
N16700 X19.198 Y185.498 I0.538 J-0.178
N16705 S21000
N16710 G3 X21.139 Y186.3 I0.804 J0.804 F30000
N16715 G2 X21.217 Y186.925 I2.529 J0
N16720 X21.411 Y187.523 I4.784 J-1.219
N16725 G3 X21.223 Y187.711 I-0.135 J0.053
N16730 G2 X20.625 Y187.517 I-1.818 J4.59
N16735 X20 Y187.439 I-0.625 J2.451
N16740 G3 X19.198 Y185.498 I0 J-1.136
N16745 G0 Z6
N16750 X65.097 Y194.85
N16755 G1 Z-13.55 F30000
N16760 S1000
N16765 X78.34 Z-15.885 F10000
N16770 X71.45 Z-17.1
N16775 G2 X71.233 Y195.067 I0 J0.217
N16780 G1 Y195.502
N16785 G2 X71.667 I0.217 J0
N16790 X71.45 Y195.285 I-0.217 J0
N16795 S21000
N16800 G1 X28.435 F30000
N16805 G3 X28.115 Y194.965 I0 J-0.319
N16810 G1 Y194.735
N16815 G3 X28.435 Y194.415 I0.319 J0
N16820 G1 X71.452
N16825 X71.565
N16830 G3 X71.885 Y194.735 I0 J0.319
N16835 G1 Y194.965
N16840 G3 X71.565 Y195.285 I-0.319 J0
N16845 G1 X71.45
N16850 G2 X69.653 Y196.483 I0 J1.947
N16855 G3 X67.855 Y197.681 I-1.797 J-0.749
N16860 G1 X26.038
N16865 G3 X25.719 Y197.362 I0 J-0.319
N16870 G1 Y192.338
N16875 G3 X26.038 Y192.019 I0.319 J0
N16880 G1 X73.962
N16885 G3 X74.281 Y192.338 I0 J0.319
N16890 G1 Y197.362
N16895 G3 X73.962 Y197.681 I-0.319 J0
N16900 G1 X67.855
N16905 G2 X66.087 Y198.86 I0 J1.916
N16910 G3 X64.318 Y200.039 I-1.768 J-0.737
N16915 G1 X24.5
N16920 G2 X23.875 Y200.117 I0 J2.529
N16925 X23.277 Y200.311 I1.219 J4.784
N16930 G3 X23.089 Y200.123 I-0.053 J-0.135
N16935 G2 X23.283 Y199.525 I-4.59 J-1.818
N16940 X23.361 Y198.9 I-2.451 J-0.625
N16945 G1 Y190.8
N16950 G2 X23.283 Y190.175 I-2.529 J0
N16955 X23.089 Y189.577 I-4.784 J1.219
N16960 G3 X23.277 Y189.389 I0.135 J-0.053
N16965 G2 X23.875 Y189.583 I1.818 J-4.59
N16970 X24.5 Y189.661 I0.625 J-2.451
N16975 G1 X75.5
N16980 G2 X76.125 Y189.583 I0 J-2.529
N16985 X76.723 Y189.389 I-1.219 J-4.784
N16990 G3 X76.911 Y189.577 I0.053 J0.135
N16995 G2 X76.717 Y190.175 I4.59 J1.818
N17000 X76.639 Y190.8 I2.451 J0.625
N17005 G1 Y198.9
N17010 G2 X76.717 Y199.525 I2.529 J0
N17015 X76.911 Y200.123 I4.784 J-1.219
N17020 G3 X76.723 Y200.311 I-0.135 J0.053
N17025 G2 X76.125 Y200.117 I-1.818 J4.59
N17030 X75.5 Y200.039 I-0.625 J2.451
N17035 G1 X64.318
N17040 G0 Z6
N17045 X78.135 Y202.627
N17050 G1 Z-13.55 F30000
N17055 S1000
N17060 X69.767 Y199.161 Z-15.147 F10000
N17065 X80 Y203.4 Z-17.1
N17070 G3 X80.321 Y203.745 I-0.217 J0.524
N17075 G1 X80.665 Y204.781
N17080 G2 X81.741 Y204.424 I0.538 J-0.178
N17085 X80.802 Y204.202 I-0.538 J0.178
N17090 S21000
N17095 G3 X78.861 Y203.4 I-0.804 J-0.804 F30000
N17100 G2 X78.783 Y202.775 I-2.529 J0
N17105 X78.589 Y202.177 I-4.784 J1.219
N17110 G3 X78.777 Y201.989 I0.135 J-0.053
N17115 G2 X79.375 Y202.183 I1.818 J-4.59
N17120 X80 Y202.261 I0.625 J-2.451
N17125 G3 X80.802 Y204.202 I0 J1.136
N17130 G0 Z6
N17135 X78.135 Y187.073
N17140 G1 Z-13.55 F30000
N17145 S1000
N17150 X69.767 Y190.539 Z-15.147 F10000
N17155 X80 Y186.3 Z-17.1
N17160 X81.447 Y185.609
N17165 G2 X80.958 Y184.586 I-0.245 J-0.511
N17170 X80.802 Y185.498 I0.245 J0.511
N17175 S21000
N17180 G3 X80 Y187.439 I-0.804 J0.804 F30000
N17185 G2 X79.375 Y187.517 I0 J2.529
N17190 X78.777 Y187.711 I1.219 J4.784
N17195 G3 X78.589 Y187.523 I-0.053 J-0.135
N17200 G2 X78.783 Y186.925 I-4.59 J-1.818
N17205 X78.861 Y186.3 I-2.451 J-0.625
N17210 G3 X80.802 Y185.498 I1.136 J0
N17215 G0 Z6
N17220 X25.242 Y198.158
N17225 G1 Z-13.05 F30000
N17230 Z-17.1
N17235 X21.379 Y202.021
N17240 X21.404 Y202.055
N17245 X21.419 Y202.094
N17250 X21.421 Y202.136
N17255 X21.411 Y202.177
N17260 G2 X21.217 Y202.775 I4.59 J1.818
N17265 X21.139 Y203.4 I2.451 J0.625
N17270 G3 X19.198 Y204.202 I-1.136 J0
N17275 X20 Y202.261 I0.804 J-0.804
N17280 G2 X20.625 Y202.183 I0 J-2.529
N17285 X21.223 Y201.989 I-1.219 J-4.784
N17290 G1 X21.264 Y201.979
N17295 X21.306 Y201.981
N17300 X21.345 Y201.996
N17305 X21.379 Y202.021
N17310 G3 X22.481 Y203.324 I-7.223 J7.223
N17315 X22.518 Y205.031 I-1.238 J0.88
N17320 X17.482 Y201.769 I-2.518 J-1.631
N17325 X20 Y200.4 I2.518 J1.631
N17330 G2 X21.5 Y198.9 I0 J-1.5
N17335 G1 Y190.8
N17340 G2 X20 Y189.3 I-1.5 J0
N17345 G3 Y183.3 I0 J-3
N17350 X23 Y186.3 I0 J3
N17355 G2 X24.5 Y187.8 I1.5 J0
N17360 G1 X75.5
N17365 G2 X77 Y186.3 I0 J-1.5
N17370 G3 X83 I3 J0
N17375 X80 Y189.3 I-3 J0
N17380 G2 X78.5 Y190.8 I0 J1.5
N17385 G1 Y198.9
N17390 G2 X80 Y200.4 I1.5 J0
N17395 G3 Y206.4 I0 J3
N17400 X77 Y203.4 I0 J-3
N17405 G2 X75.5 Y201.9 I-1.5 J0
N17410 G1 X24.5
N17415 G2 X23 Y203.4 I0 J1.5
N17420 G3 X22.518 Y205.031 I-3 J0
N17425 G0 Z6
N17430 X29.056 Y223.4
N17435 G1 Z3.5 F30000
N17440 S1000
N17445 X27.775 Z3.274 F10000
N17450 X32.244 Z2.486
N17455 X27.775 Z1.698
N17460 X32.244 Z0.91
N17465 X27.775 Z0.122
N17470 X32.244 Z-0.666
N17475 X30.35 Z-1
N17480 S21000
N17485 G3 X32.5 I1.075 J0 F30000
N17490 X27.5 I-2.5 J0
N17495 X32.5 I2.5 J0
N17500 G1 X32.494 Y223.447
N17505 X32.477 Y223.492
N17510 X32.449 Y223.531
N17515 X32.412 Y223.561
N17520 X32.369 Y223.582
N17525 X31.794 Y223.773
N17530 G3 X31.673 Y223.41 I-0.061 J-0.182
N17535 X31.733 Y223.4 I0.061 J0.182
N17540 S1000
N17545 G1 X32.244 Z-1.09 F10000
N17550 X27.775 Z-1.878
