(1001)
(T1  D=3 CR=0 - ZMIN=-17.1 - flat end mill)
N10 G90
N15 G17
N20 G21
(2D Contour4)
N25 T1 M6
N30 S21000 M3
N35 M8
N40 G0 X23 Y80
N45 Z15
N50 Z5
N55 G1 Z2.5 F1000
N60 Z-1.5
N65 G17 G2 X24.5 Y81.5 I1.5 J0 F30000
N70 G1 X26.1
N75 G2 X33.6 Y74 I0 J-7.5
N80 G1 Y26
N85 G2 X26.1 Y18.5 I-7.5 J0
N90 G1 X24.5
N95 G2 X23 Y20 I0 J1.5
N100 G3 X17 I-3 J0
N105 X20 Y17 I3 J0
N110 G2 X21.5 Y15.5 I0 J-1.5
N115 G1 Y0
N120 G2 X20 Y-1.5 I-1.5 J0
N125 G1 X6
N130 G2 X-1.5 Y6 I0 J7.5
N135 G1 Y94
N140 G2 X6 Y101.5 I7.5 J0
N145 G1 X20
N150 G2 X21.5 Y100 I0 J-1.5
N155 G1 Y84.5
N160 G2 X20 Y83 I-1.5 J0
N165 G3 Y77 I0 J-3
N170 X23 Y80 I0 J3
N175 G1 Z-3 F1000
N180 G2 X24.5 Y81.5 I1.5 J0 F30000
N185 G1 X26.1
N190 G2 X33.6 Y74 I0 J-7.5
N195 G1 Y26
N200 G2 X26.1 Y18.5 I-7.5 J0
N205 G1 X24.5
N210 G2 X23 Y20 I0 J1.5
N215 G3 X17 I-3 J0
N220 X20 Y17 I3 J0
N225 G2 X21.5 Y15.5 I0 J-1.5
N230 G1 Y0
N235 G2 X20 Y-1.5 I-1.5 J0
N240 G1 X6
N245 G2 X-1.5 Y6 I0 J7.5
N250 G1 Y94
N255 G2 X6 Y101.5 I7.5 J0
N260 G1 X20
N265 G2 X21.5 Y100 I0 J-1.5
N270 G1 Y84.5
N275 G2 X20 Y83 I-1.5 J0
N280 G3 Y77 I0 J-3
N285 X23 Y80 I0 J3
N290 G1 Z-4.5 F1000
N295 G2 X24.5 Y81.5 I1.5 J0 F30000
N300 G1 X26.1
N305 G2 X33.6 Y74 I0 J-7.5
N310 G1 Y26
N315 G2 X26.1 Y18.5 I-7.5 J0
N320 G1 X24.5
N325 G2 X23 Y20 I0 J1.5
N330 G3 X17 I-3 J0
N335 X20 Y17 I3 J0
N340 G2 X21.5 Y15.5 I0 J-1.5
N345 G1 Y0
N350 G2 X20 Y-1.5 I-1.5 J0
N355 G1 X6
N360 G2 X-1.5 Y6 I0 J7.5
N365 G1 Y94
N370 G2 X6 Y101.5 I7.5 J0
N375 G1 X20
N380 G2 X21.5 Y100 I0 J-1.5
N385 G1 Y84.5
N390 G2 X20 Y83 I-1.5 J0
N395 G3 Y77 I0 J-3
N400 X23 Y80 I0 J3
N405 G1 Z-6 F1000
N410 G2 X24.5 Y81.5 I1.5 J0 F30000
N415 G1 X26.1
N420 G2 X33.6 Y74 I0 J-7.5
N425 G1 Y26
N430 G2 X26.1 Y18.5 I-7.5 J0
N435 G1 X24.5
N440 G2 X23 Y20 I0 J1.5
N445 G3 X17 I-3 J0
N450 X20 Y17 I3 J0
N455 G2 X21.5 Y15.5 I0 J-1.5
N460 G1 Y0
N465 G2 X20 Y-1.5 I-1.5 J0
N470 G1 X6
N475 G2 X-1.5 Y6 I0 J7.5
N480 G1 Y94
N485 G2 X6 Y101.5 I7.5 J0
N490 G1 X20
N495 G2 X21.5 Y100 I0 J-1.5
N500 G1 Y84.5
N505 G2 X20 Y83 I-1.5 J0
N510 G3 Y77 I0 J-3
N515 X23 Y80 I0 J3
N520 G1 Z-7.5 F1000
N525 G2 X24.5 Y81.5 I1.5 J0 F30000
N530 G1 X26.1
N535 G2 X33.6 Y74 I0 J-7.5
N540 G1 Y26
N545 G2 X26.1 Y18.5 I-7.5 J0
N550 G1 X24.5
N555 G2 X23 Y20 I0 J1.5
N560 G3 X17 I-3 J0
N565 X20 Y17 I3 J0
N570 G2 X21.5 Y15.5 I0 J-1.5
N575 G1 Y0
N580 G2 X20 Y-1.5 I-1.5 J0
N585 G1 X6
N590 G2 X-1.5 Y6 I0 J7.5
N595 G1 Y94
N600 G2 X6 Y101.5 I7.5 J0
N605 G1 X20
N610 G2 X21.5 Y100 I0 J-1.5
N615 G1 Y84.5
N620 G2 X20 Y83 I-1.5 J0
N625 G3 Y77 I0 J-3
N630 X23 Y80 I0 J3
N635 G1 Z-9 F1000
N640 G2 X24.5 Y81.5 I1.5 J0 F30000
N645 G1 X26.1
N650 G2 X33.6 Y74 I0 J-7.5
N655 G1 Y26
N660 G2 X26.1 Y18.5 I-7.5 J0
N665 G1 X24.5
N670 G2 X23 Y20 I0 J1.5
N675 G3 X17 I-3 J0
N680 X20 Y17 I3 J0
N685 G2 X21.5 Y15.5 I0 J-1.5
N690 G1 Y0
N695 G2 X20 Y-1.5 I-1.5 J0
N700 G1 X6
N705 G2 X-1.5 Y6 I0 J7.5
N710 G1 Y94
N715 G2 X6 Y101.5 I7.5 J0
N720 G1 X20
N725 G2 X21.5 Y100 I0 J-1.5
N730 G1 Y84.5
N735 G2 X20 Y83 I-1.5 J0
N740 G3 Y77 I0 J-3
N745 X23 Y80 I0 J3
N750 G1 Z-10.5 F1000
N755 G2 X24.5 Y81.5 I1.5 J0 F30000
N760 G1 X26.1
N765 G2 X33.6 Y74 I0 J-7.5
N770 G1 Y26
N775 G2 X26.1 Y18.5 I-7.5 J0
N780 G1 X24.5
N785 G2 X23 Y20 I0 J1.5
N790 G3 X17 I-3 J0
N795 X20 Y17 I3 J0
N800 G2 X21.5 Y15.5 I0 J-1.5
N805 G1 Y0
N810 G2 X20 Y-1.5 I-1.5 J0
N815 G1 X6
N820 G2 X-1.5 Y6 I0 J7.5
N825 G1 Y94
N830 G2 X6 Y101.5 I7.5 J0
N835 G1 X20
N840 G2 X21.5 Y100 I0 J-1.5
N845 G1 Y84.5
N850 G2 X20 Y83 I-1.5 J0
N855 G3 Y77 I0 J-3
N860 X23 Y80 I0 J3
N865 G1 Z-12 F1000
N870 G2 X24.5 Y81.5 I1.5 J0 F30000
N875 G1 X26.1
N880 G2 X33.6 Y74 I0 J-7.5
N885 G1 Y26
N890 G2 X26.1 Y18.5 I-7.5 J0
N895 G1 X24.5
N900 G2 X23 Y20 I0 J1.5
N905 G3 X17 I-3 J0
N910 X20 Y17 I3 J0
N915 G2 X21.5 Y15.5 I0 J-1.5
N920 G1 Y0
N925 G2 X20 Y-1.5 I-1.5 J0
N930 G1 X6
N935 G2 X-1.5 Y6 I0 J7.5
N940 G1 Y94
N945 G2 X6 Y101.5 I7.5 J0
N950 G1 X20
N955 G2 X21.5 Y100 I0 J-1.5
N960 G1 Y84.5
N965 G2 X20 Y83 I-1.5 J0
N970 G3 Y77 I0 J-3
N975 X23 Y80 I0 J3
N980 G1 Z-13.5 F1000
N985 G2 X24.5 Y81.5 I1.5 J0 F30000
N990 G1 X26.1
N995 G2 X33.6 Y74 I0 J-7.5
N1000 G1 Y26
N1005 G2 X26.1 Y18.5 I-7.5 J0
N1010 G1 X24.5
N1015 G2 X23 Y20 I0 J1.5
N1020 G3 X17 I-3 J0
N1025 X20 Y17 I3 J0
N1030 G2 X21.5 Y15.5 I0 J-1.5
N1035 G1 Y0
N1040 G2 X20 Y-1.5 I-1.5 J0
N1045 G1 X6
N1050 G2 X-1.5 Y6 I0 J7.5
N1055 G1 Y94
N1060 G2 X6 Y101.5 I7.5 J0
N1065 G1 X20
N1070 G2 X21.5 Y100 I0 J-1.5
N1075 G1 Y84.5
N1080 G2 X20 Y83 I-1.5 J0
N1085 G3 Y77 I0 J-3
N1090 X23 Y80 I0 J3
N1095 G1 Z-15 F1000
N1100 G2 X24.5 Y81.5 I1.5 J0 F30000
N1105 G1 X26.1
N1110 G2 X33.6 Y74 I0 J-7.5
N1115 G1 Y26
N1120 G2 X26.1 Y18.5 I-7.5 J0
N1125 G1 X24.5
N1130 G2 X23 Y20 I0 J1.5
N1135 G3 X17 I-3 J0
N1140 X20 Y17 I3 J0
N1145 G2 X21.5 Y15.5 I0 J-1.5
N1150 G1 Y0
N1155 G2 X20 Y-1.5 I-1.5 J0
N1160 G1 X6
N1165 G2 X-1.5 Y6 I0 J7.5
N1170 G1 Y94
N1175 G2 X6 Y101.5 I7.5 J0
N1180 G1 X20
N1185 G2 X21.5 Y100 I0 J-1.5
N1190 G1 Y84.5
N1195 G2 X20 Y83 I-1.5 J0
N1200 G3 Y77 I0 J-3
N1205 X23 Y80 I0 J3
N1210 G1 Z-16.5 F1000
N1215 G2 X24.5 Y81.5 I1.5 J0 F30000
N1220 G1 X26.1
N1225 G2 X33.6 Y74 I0 J-7.5
N1230 G1 Y26
N1235 G2 X26.1 Y18.5 I-7.5 J0
N1240 G1 X24.5
N1245 G2 X23 Y20 I0 J1.5
N1250 G3 X17 I-3 J0
N1255 X20 Y17 I3 J0
N1260 G2 X21.5 Y15.5 I0 J-1.5
N1265 G1 Y0
N1270 G2 X20 Y-1.5 I-1.5 J0
N1275 G1 X6
N1280 G2 X-1.5 Y6 I0 J7.5
N1285 G1 Y94
N1290 G2 X6 Y101.5 I7.5 J0
N1295 G1 X20
N1300 G2 X21.5 Y100 I0 J-1.5
N1305 G1 Y84.5
N1310 G2 X20 Y83 I-1.5 J0
N1315 G3 Y77 I0 J-3
N1320 X23 Y80 I0 J3
N1325 G1 Z-17.1 F1000
N1330 G2 X24.5 Y81.5 I1.5 J0 F30000
N1335 G1 X26.1
N1340 G2 X33.6 Y74 I0 J-7.5
N1345 G1 Y53
N1350 Z-16.6
N1355 Y47
N1360 Z-17.1 F1000
N1365 Y26 F30000
N1370 G2 X26.1 Y18.5 I-7.5 J0
N1375 G1 X24.5
N1380 G2 X23 Y20 I0 J1.5
N1385 G3 X17 I-3 J0
N1390 X20 Y17 I3 J0
N1395 G2 X21.5 Y15.5 I0 J-1.5
N1400 G1 Y0
N1405 G2 X20 Y-1.5 I-1.5 J0
N1410 G1 X6
N1415 G2 X-1.5 Y6 I0 J7.5
N1420 G1 Y17.667
N1425 Z-16.6
N1430 Y23.667
N1435 Z-17.1 F1000
N1440 Y47 F30000
N1445 Z-16.6
N1450 Y53
N1455 Z-17.1 F1000
N1460 Y76.333 F30000
N1465 Z-16.6
N1470 Y82.333
N1475 Z-17.1 F1000
N1480 Y94 F30000
N1485 G2 X6 Y101.5 I7.5 J0
N1490 G1 X20
N1495 G2 X21.5 Y100 I0 J-1.5
N1500 G1 Y84.5
N1505 G2 X20 Y83 I-1.5 J0
N1510 G3 Y77 I0 J-3
N1515 X23 Y80 I0 J3
N1520 G0 Z15
N1525 M9
N1530 M2
