(1001)
(Machine)
(  vendor: Autodesk)
(  description: Generic 3-axis)
(T1  D=0.8 CR=0 - ZMIN=-2.9 - flat end mill)
G90 G94
G17
G21

(2D Pocket1 51)
T1
S1000 M3
G54
M8
G0 X0.5 Y0.7
Z15
Z3
G1 Z2.5 F25
S5000
Y0.476 Z2.461 F100
Y4.396 Z1.769
Y0.476 Z1.078
Y4.396 Z0.387
Y0.5 Z-0.3
X0.507 Y0.475
X0.525 Y0.457
X0.55 Y0.45
X0.575 Y0.457
X0.593 Y0.475
X0.6 Y0.5
S1000
Y9.6 F520
X0.4
Y0.4
X0.6
Y0.5
X0.596 Y0.516
X0.584 Y0.528
X0.516 Y0.572
X0.504 Y0.584
X0.5 Y0.6
Y2.201
S5000
Y0.5 Z-0.6 F100
X0.507 Y0.475
X0.525 Y0.457
X0.55 Y0.45
X0.575 Y0.457
X0.593 Y0.475
X0.6 Y0.5
S1000
Y9.6 F520
X0.4
Y0.4
X0.6
Y0.5
X0.596 Y0.516
X0.584 Y0.528
X0.516 Y0.572
X0.504 Y0.584
X0.5 Y0.6
Y2.201
S5000
Y0.5 Z-0.9 F100
X0.507 Y0.475
X0.525 Y0.457
X0.55 Y0.45
X0.575 Y0.457
X0.593 Y0.475
X0.6 Y0.5
S1000
Y9.6 F520
X0.4
Y0.4
X0.6
Y0.5
X0.596 Y0.516
X0.584 Y0.528
X0.516 Y0.572
X0.504 Y0.584
X0.5 Y0.6
Y2.201
S5000
Y0.5 Z-1.2 F100
X0.507 Y0.475
X0.525 Y0.457
X0.55 Y0.45
X0.575 Y0.457
X0.593 Y0.475
X0.6 Y0.5
S1000
Y9.6 F520
X0.4
Y0.4
X0.6
Y0.5
X0.596 Y0.516
X0.584 Y0.528
X0.516 Y0.572
X0.504 Y0.584
X0.5 Y0.6
Y2.201
S5000
Y0.5 Z-1.5 F100
X0.507 Y0.475
X0.525 Y0.457
X0.55 Y0.45
X0.575 Y0.457
X0.593 Y0.475
X0.6 Y0.5
S1000
Y9.6 F520
X0.4
Y0.4
X0.6
Y0.5
X0.596 Y0.516
X0.584 Y0.528
X0.516 Y0.572
X0.504 Y0.584
X0.5 Y0.6
Y2.201
S5000
Y0.5 Z-1.8 F100
X0.507 Y0.475
X0.525 Y0.457
X0.55 Y0.45
X0.575 Y0.457
X0.593 Y0.475
X0.6 Y0.5
S1000
Y9.6 F520
X0.4
Y0.4
X0.6
Y0.5
X0.596 Y0.516
X0.584 Y0.528
X0.516 Y0.572
X0.504 Y0.584
X0.5 Y0.6
Y2.201
S5000
Y0.5 Z-2.1 F100
X0.507 Y0.475
X0.525 Y0.457
X0.55 Y0.45
X0.575 Y0.457
X0.593 Y0.475
X0.6 Y0.5
S1000
Y9.6 F520
X0.4
Y0.4
X0.6
Y0.5
X0.596 Y0.516
X0.584 Y0.528
X0.516 Y0.572
X0.504 Y0.584
X0.5 Y0.6
Y2.201
S5000
Y0.5 Z-2.4 F100
X0.507 Y0.475
X0.525 Y0.457
X0.55 Y0.45
X0.575 Y0.457
X0.593 Y0.475
X0.6 Y0.5
S1000
Y9.6 F520
X0.4
Y0.4
X0.6
Y0.5
X0.596 Y0.516
X0.584 Y0.528
X0.516 Y0.572
X0.504 Y0.584
X0.5 Y0.6
Y2.201
S5000
Y0.5 Z-2.7 F100
X0.507 Y0.475
X0.525 Y0.457
X0.55 Y0.45
X0.575 Y0.457
X0.593 Y0.475
X0.6 Y0.5
S1000
Y9.6 F520
X0.4
Y0.4
X0.6
Y0.5
X0.596 Y0.516
X0.584 Y0.528
X0.516 Y0.572
X0.504 Y0.584
X0.5 Y0.6
Y1.634
S5000
Y0.5 Z-2.9 F100
X0.507 Y0.475
X0.525 Y0.457
X0.55 Y0.45
X0.575 Y0.457
X0.593 Y0.475
X0.6 Y0.5
S1000
Y9.6 F520
X0.4
Y0.4
X0.6
Y0.5
G0 Z15

(2D Pocket1 52)
X2.5 Y0.7
Z15
Z3
G1 Z2.5 F25
S5000
Y0.476 Z2.461 F100
Y4.396 Z1.769
Y0.476 Z1.078
Y4.396 Z0.387
Y0.5 Z-0.3
X2.477 Y0.434
X2.476 Y0.418
X2.485 Y0.405
X2.5 Y0.4
S1000
X2.6 F540
Y9.6
X2.4
Y0.4
X2.5
X2.519 Y0.406
X2.531 Y0.421
X2.533 Y0.44
X2.5 Y0.6
Y2.201
S5000
Y0.5 Z-0.6 F100
X2.477 Y0.434
X2.476 Y0.418
X2.485 Y0.405
X2.5 Y0.4
S1000
X2.6 F540
Y9.6
X2.4
Y0.4
X2.5
X2.519 Y0.406
X2.531 Y0.421
X2.533 Y0.44
X2.5 Y0.6
Y2.201
S5000
Y0.5 Z-0.9 F100
X2.477 Y0.434
X2.476 Y0.418
X2.485 Y0.405
X2.5 Y0.4
S1000
X2.6 F540
Y9.6
X2.4
Y0.4
X2.5
X2.519 Y0.406
X2.531 Y0.421
X2.533 Y0.44
X2.5 Y0.6
Y2.201
S5000
Y0.5 Z-1.2 F100
X2.477 Y0.434
X2.476 Y0.418
X2.485 Y0.405
X2.5 Y0.4
S1000
X2.6 F540
Y9.6
X2.4
Y0.4
X2.5
X2.519 Y0.406
X2.531 Y0.421
X2.533 Y0.44
X2.5 Y0.6
Y2.201
S5000
Y0.5 Z-1.5 F100
X2.477 Y0.434
X2.476 Y0.418
X2.485 Y0.405
X2.5 Y0.4
S1000
X2.6 F540
Y9.6
X2.4
Y0.4
X2.5
X2.519 Y0.406
X2.531 Y0.421
X2.533 Y0.44
X2.5 Y0.6
Y2.201
S5000
Y0.5 Z-1.8 F100
X2.477 Y0.434
X2.476 Y0.418
X2.485 Y0.405
X2.5 Y0.4
S1000
X2.6 F540
Y9.6
X2.4
Y0.4
X2.5
X2.519 Y0.406
X2.531 Y0.421
X2.533 Y0.44
X2.5 Y0.6
Y2.201
S5000
Y0.5 Z-2.1 F100
X2.477 Y0.434
X2.476 Y0.418
X2.485 Y0.405
X2.5 Y0.4
S1000
X2.6 F540
Y9.6
X2.4
Y0.4
X2.5
X2.519 Y0.406
X2.531 Y0.421
X2.533 Y0.44
X2.5 Y0.6
Y2.201
S5000
Y0.5 Z-2.4 F100
X2.477 Y0.434
X2.476 Y0.418
X2.485 Y0.405
X2.5 Y0.4
S1000
X2.6 F540
Y9.6
X2.4
Y0.4
X2.5
X2.519 Y0.406
X2.531 Y0.421
X2.533 Y0.44
X2.5 Y0.6
Y2.201
S5000
Y0.5 Z-2.7 F100
X2.477 Y0.434
X2.476 Y0.418
X2.485 Y0.405
X2.5 Y0.4
S1000
X2.6 F540
Y9.6
X2.4
Y0.4
X2.5
X2.519 Y0.406
X2.531 Y0.421
X2.533 Y0.44
X2.5 Y0.6
Y1.634
S5000
Y0.5 Z-2.9 F100
X2.477 Y0.434
X2.476 Y0.418
X2.485 Y0.405
X2.5 Y0.4
S1000
X2.6 F540
Y9.6
X2.4
Y0.4
X2.5
G0 Z15

(2D Pocket1 53)
X4.5 Y0.7
Z15
Z3
G1 Z2.5 F25
S5000
Y0.476 Z2.461 F100
Y4.396 Z1.769
Y0.476 Z1.078
Y4.396 Z0.387
Y0.5 Z-0.3
X4.507 Y0.475
X4.525 Y0.457
X4.55 Y0.45
X4.575 Y0.457
X4.593 Y0.475
X4.6 Y0.5
S1000
Y9.6 F560
X4.4
Y0.4
X4.6
Y0.5
X4.596 Y0.516
X4.584 Y0.528
X4.516 Y0.572
X4.504 Y0.584
X4.5 Y0.6
Y2.201
S5000
Y0.5 Z-0.6 F100
X4.507 Y0.475
X4.525 Y0.457
X4.55 Y0.45
X4.575 Y0.457
X4.593 Y0.475
X4.6 Y0.5
S1000
Y9.6 F560
X4.4
Y0.4
X4.6
Y0.5
X4.596 Y0.516
X4.584 Y0.528
X4.516 Y0.572
X4.504 Y0.584
X4.5 Y0.6
Y2.201
S5000
Y0.5 Z-0.9 F100
X4.507 Y0.475
X4.525 Y0.457
X4.55 Y0.45
X4.575 Y0.457
X4.593 Y0.475
X4.6 Y0.5
S1000
Y9.6 F560
X4.4
Y0.4
X4.6
Y0.5
X4.596 Y0.516
X4.584 Y0.528
X4.516 Y0.572
X4.504 Y0.584
X4.5 Y0.6
Y2.201
S5000
Y0.5 Z-1.2 F100
X4.507 Y0.475
X4.525 Y0.457
X4.55 Y0.45
X4.575 Y0.457
X4.593 Y0.475
X4.6 Y0.5
S1000
Y9.6 F560
X4.4
Y0.4
X4.6
Y0.5
X4.596 Y0.516
X4.584 Y0.528
X4.516 Y0.572
X4.504 Y0.584
X4.5 Y0.6
Y2.201
S5000
Y0.5 Z-1.5 F100
X4.507 Y0.475
X4.525 Y0.457
X4.55 Y0.45
X4.575 Y0.457
X4.593 Y0.475
X4.6 Y0.5
S1000
Y9.6 F560
X4.4
Y0.4
X4.6
Y0.5
X4.596 Y0.516
X4.584 Y0.528
X4.516 Y0.572
X4.504 Y0.584
X4.5 Y0.6
Y2.201
S5000
Y0.5 Z-1.8 F100
X4.507 Y0.475
X4.525 Y0.457
X4.55 Y0.45
X4.575 Y0.457
X4.593 Y0.475
X4.6 Y0.5
S1000
Y9.6 F560
X4.4
Y0.4
X4.6
Y0.5
X4.596 Y0.516
X4.584 Y0.528
X4.516 Y0.572
X4.504 Y0.584
X4.5 Y0.6
Y2.201
S5000
Y0.5 Z-2.1 F100
X4.507 Y0.475
X4.525 Y0.457
X4.55 Y0.45
X4.575 Y0.457
X4.593 Y0.475
X4.6 Y0.5
S1000
Y9.6 F560
X4.4
Y0.4
X4.6
Y0.5
X4.596 Y0.516
X4.584 Y0.528
X4.516 Y0.572
X4.504 Y0.584
X4.5 Y0.6
Y2.201
S5000
Y0.5 Z-2.4 F100
X4.507 Y0.475
X4.525 Y0.457
X4.55 Y0.45
X4.575 Y0.457
X4.593 Y0.475
X4.6 Y0.5
S1000
Y9.6 F560
X4.4
Y0.4
X4.6
Y0.5
X4.596 Y0.516
X4.584 Y0.528
X4.516 Y0.572
X4.504 Y0.584
X4.5 Y0.6
Y2.201
S5000
Y0.5 Z-2.7 F100
X4.507 Y0.475
X4.525 Y0.457
X4.55 Y0.45
X4.575 Y0.457
X4.593 Y0.475
X4.6 Y0.5
S1000
Y9.6 F560
X4.4
Y0.4
X4.6
Y0.5
X4.596 Y0.516
X4.584 Y0.528
X4.516 Y0.572
X4.504 Y0.584
X4.5 Y0.6
Y1.634
S5000
Y0.5 Z-2.9 F100
X4.507 Y0.475
X4.525 Y0.457
X4.55 Y0.45
X4.575 Y0.457
X4.593 Y0.475
X4.6 Y0.5
S1000
Y9.6 F560
X4.4
Y0.4
X4.6
Y0.5
G0 Z15

(2D Pocket1 54)
X6.5 Y0.7
Z15
Z3
G1 Z2.5 F25
S5000
Y0.476 Z2.461 F100
Y4.396 Z1.769
Y0.476 Z1.078
Y4.396 Z0.387
Y0.5 Z-0.3
X6.507 Y0.475
X6.525 Y0.457
X6.55 Y0.45
X6.575 Y0.457
X6.593 Y0.475
X6.6 Y0.5
S1000
Y9.6 F580
X6.4
Y0.4
X6.6
Y0.5
X6.596 Y0.516
X6.584 Y0.528
X6.516 Y0.572
X6.504 Y0.584
X6.5 Y0.6
Y2.201
S5000
Y0.5 Z-0.6 F100
X6.507 Y0.475
X6.525 Y0.457
X6.55 Y0.45
X6.575 Y0.457
X6.593 Y0.475
X6.6 Y0.5
S1000
Y9.6 F580
X6.4
Y0.4
X6.6
Y0.5
X6.596 Y0.516
X6.584 Y0.528
X6.516 Y0.572
X6.504 Y0.584
X6.5 Y0.6
Y2.201
S5000
Y0.5 Z-0.9 F100
X6.507 Y0.475
X6.525 Y0.457
X6.55 Y0.45
X6.575 Y0.457
X6.593 Y0.475
X6.6 Y0.5
S1000
Y9.6 F580
X6.4
Y0.4
X6.6
Y0.5
X6.596 Y0.516
X6.584 Y0.528
X6.516 Y0.572
X6.504 Y0.584
X6.5 Y0.6
Y2.201
S5000
Y0.5 Z-1.2 F100
X6.507 Y0.475
X6.525 Y0.457
X6.55 Y0.45
X6.575 Y0.457
X6.593 Y0.475
X6.6 Y0.5
S1000
Y9.6 F580
X6.4
Y0.4
X6.6
Y0.5
X6.596 Y0.516
X6.584 Y0.528
X6.516 Y0.572
X6.504 Y0.584
X6.5 Y0.6
Y2.201
S5000
Y0.5 Z-1.5 F100
X6.507 Y0.475
X6.525 Y0.457
X6.55 Y0.45
X6.575 Y0.457
X6.593 Y0.475
X6.6 Y0.5
S1000
Y9.6 F580
X6.4
Y0.4
X6.6
Y0.5
X6.596 Y0.516
X6.584 Y0.528
X6.516 Y0.572
X6.504 Y0.584
X6.5 Y0.6
Y2.201
S5000
Y0.5 Z-1.8 F100
X6.507 Y0.475
X6.525 Y0.457
X6.55 Y0.45
X6.575 Y0.457
X6.593 Y0.475
X6.6 Y0.5
S1000
Y9.6 F580
X6.4
Y0.4
X6.6
Y0.5
X6.596 Y0.516
X6.584 Y0.528
X6.516 Y0.572
X6.504 Y0.584
X6.5 Y0.6
Y2.201
S5000
Y0.5 Z-2.1 F100
X6.507 Y0.475
X6.525 Y0.457
X6.55 Y0.45
X6.575 Y0.457
X6.593 Y0.475
X6.6 Y0.5
S1000
Y9.6 F580
X6.4
Y0.4
X6.6
Y0.5
X6.596 Y0.516
X6.584 Y0.528
X6.516 Y0.572
X6.504 Y0.584
X6.5 Y0.6
Y2.201
S5000
Y0.5 Z-2.4 F100
X6.507 Y0.475
X6.525 Y0.457
X6.55 Y0.45
X6.575 Y0.457
X6.593 Y0.475
X6.6 Y0.5
S1000
Y9.6 F580
X6.4
Y0.4
X6.6
Y0.5
X6.596 Y0.516
X6.584 Y0.528
X6.516 Y0.572
X6.504 Y0.584
X6.5 Y0.6
Y2.201
S5000
Y0.5 Z-2.7 F100
X6.507 Y0.475
X6.525 Y0.457
X6.55 Y0.45
X6.575 Y0.457
X6.593 Y0.475
X6.6 Y0.5
S1000
Y9.6 F580
X6.4
Y0.4
X6.6
Y0.5
X6.596 Y0.516
X6.584 Y0.528
X6.516 Y0.572
X6.504 Y0.584
X6.5 Y0.6
Y1.634
S5000
Y0.5 Z-2.9 F100
X6.507 Y0.475
X6.525 Y0.457
X6.55 Y0.45
X6.575 Y0.457
X6.593 Y0.475
X6.6 Y0.5
S1000
Y9.6 F580
X6.4
Y0.4
X6.6
Y0.5
G0 Z15

(2D Pocket1 55)
X8.5 Y0.7
Z15
Z3
G1 Z2.5 F25
S5000
Y0.476 Z2.461 F100
Y4.396 Z1.769
Y0.476 Z1.078
Y4.396 Z0.387
Y0.5 Z-0.3
X8.507 Y0.475
X8.525 Y0.457
X8.55 Y0.45
X8.575 Y0.457
X8.593 Y0.475
X8.6 Y0.5
S1000
Y9.6 F600
X8.4
Y0.4
X8.6
Y0.5
X8.596 Y0.516
X8.584 Y0.528
X8.516 Y0.572
X8.504 Y0.584
X8.5 Y0.6
Y2.201
S5000
Y0.5 Z-0.6 F100
X8.507 Y0.475
X8.525 Y0.457
X8.55 Y0.45
X8.575 Y0.457
X8.593 Y0.475
X8.6 Y0.5
S1000
Y9.6 F600
X8.4
Y0.4
X8.6
Y0.5
X8.596 Y0.516
X8.584 Y0.528
X8.516 Y0.572
X8.504 Y0.584
X8.5 Y0.6
Y2.201
S5000
Y0.5 Z-0.9 F100
X8.507 Y0.475
X8.525 Y0.457
X8.55 Y0.45
X8.575 Y0.457
X8.593 Y0.475
X8.6 Y0.5
S1000
Y9.6 F600
X8.4
Y0.4
X8.6
Y0.5
X8.596 Y0.516
X8.584 Y0.528
X8.516 Y0.572
X8.504 Y0.584
X8.5 Y0.6
Y2.201
S5000
Y0.5 Z-1.2 F100
X8.507 Y0.475
X8.525 Y0.457
X8.55 Y0.45
X8.575 Y0.457
X8.593 Y0.475
X8.6 Y0.5
S1000
Y9.6 F600
X8.4
Y0.4
X8.6
Y0.5
X8.596 Y0.516
X8.584 Y0.528
X8.516 Y0.572
X8.504 Y0.584
X8.5 Y0.6
Y2.201
S5000
Y0.5 Z-1.5 F100
X8.507 Y0.475
X8.525 Y0.457
X8.55 Y0.45
X8.575 Y0.457
X8.593 Y0.475
X8.6 Y0.5
S1000
Y9.6 F600
X8.4
Y0.4
X8.6
Y0.5
X8.596 Y0.516
X8.584 Y0.528
X8.516 Y0.572
X8.504 Y0.584
X8.5 Y0.6
Y2.201
S5000
Y0.5 Z-1.8 F100
X8.507 Y0.475
X8.525 Y0.457
X8.55 Y0.45
X8.575 Y0.457
X8.593 Y0.475
X8.6 Y0.5
S1000
Y9.6 F600
X8.4
Y0.4
X8.6
Y0.5
X8.596 Y0.516
X8.584 Y0.528
X8.516 Y0.572
X8.504 Y0.584
X8.5 Y0.6
Y2.201
S5000
Y0.5 Z-2.1 F100
X8.507 Y0.475
X8.525 Y0.457
X8.55 Y0.45
X8.575 Y0.457
X8.593 Y0.475
X8.6 Y0.5
S1000
Y9.6 F600
X8.4
Y0.4
X8.6
Y0.5
X8.596 Y0.516
X8.584 Y0.528
X8.516 Y0.572
X8.504 Y0.584
X8.5 Y0.6
Y2.201
S5000
Y0.5 Z-2.4 F100
X8.507 Y0.475
X8.525 Y0.457
X8.55 Y0.45
X8.575 Y0.457
X8.593 Y0.475
X8.6 Y0.5
S1000
Y9.6 F600
X8.4
Y0.4
X8.6
Y0.5
X8.596 Y0.516
X8.584 Y0.528
X8.516 Y0.572
X8.504 Y0.584
X8.5 Y0.6
Y2.201
S5000
Y0.5 Z-2.7 F100
X8.507 Y0.475
X8.525 Y0.457
X8.55 Y0.45
X8.575 Y0.457
X8.593 Y0.475
X8.6 Y0.5
S1000
Y9.6 F600
X8.4
Y0.4
X8.6
Y0.5
X8.596 Y0.516
X8.584 Y0.528
X8.516 Y0.572
X8.504 Y0.584
X8.5 Y0.6
Y1.634
S5000
Y0.5 Z-2.9 F100
X8.507 Y0.475
X8.525 Y0.457
X8.55 Y0.45
X8.575 Y0.457
X8.593 Y0.475
X8.6 Y0.5
S1000
Y9.6 F600
X8.4
Y0.4
X8.6
Y0.5
G0 Z15

(2D Pocket1 56)
X10.5 Y0.7
Z15
Z3
G1 Z2.5 F25
S5000
Y0.476 Z2.461 F100
Y4.396 Z1.769
Y0.476 Z1.078
Y4.396 Z0.387
Y0.5 Z-0.3
X10.507 Y0.475
X10.525 Y0.457
X10.55 Y0.45
X10.575 Y0.457
X10.593 Y0.475
X10.6 Y0.5
S1000
Y9.6 F620
X10.4
Y0.4
X10.6
Y0.5
X10.596 Y0.516
X10.584 Y0.528
X10.516 Y0.572
X10.504 Y0.584
X10.5 Y0.6
Y2.201
S5000
Y0.5 Z-0.6 F100
X10.507 Y0.475
X10.525 Y0.457
X10.55 Y0.45
X10.575 Y0.457
X10.593 Y0.475
X10.6 Y0.5
S1000
Y9.6 F620
X10.4
Y0.4
X10.6
Y0.5
X10.596 Y0.516
X10.584 Y0.528
X10.516 Y0.572
X10.504 Y0.584
X10.5 Y0.6
Y2.201
S5000
Y0.5 Z-0.9 F100
X10.507 Y0.475
X10.525 Y0.457
X10.55 Y0.45
X10.575 Y0.457
X10.593 Y0.475
X10.6 Y0.5
S1000
Y9.6 F620
X10.4
Y0.4
X10.6
Y0.5
X10.596 Y0.516
X10.584 Y0.528
X10.516 Y0.572
X10.504 Y0.584
X10.5 Y0.6
Y2.201
S5000
Y0.5 Z-1.2 F100
X10.507 Y0.475
X10.525 Y0.457
X10.55 Y0.45
X10.575 Y0.457
X10.593 Y0.475
X10.6 Y0.5
S1000
Y9.6 F620
X10.4
Y0.4
X10.6
Y0.5
X10.596 Y0.516
X10.584 Y0.528
X10.516 Y0.572
X10.504 Y0.584
X10.5 Y0.6
Y2.201
S5000
Y0.5 Z-1.5 F100
X10.507 Y0.475
X10.525 Y0.457
X10.55 Y0.45
X10.575 Y0.457
X10.593 Y0.475
X10.6 Y0.5
S1000
Y9.6 F620
X10.4
Y0.4
X10.6
Y0.5
X10.596 Y0.516
X10.584 Y0.528
X10.516 Y0.572
X10.504 Y0.584
X10.5 Y0.6
Y2.201
S5000
Y0.5 Z-1.8 F100
X10.507 Y0.475
X10.525 Y0.457
X10.55 Y0.45
X10.575 Y0.457
X10.593 Y0.475
X10.6 Y0.5
S1000
Y9.6 F620
X10.4
Y0.4
X10.6
Y0.5
X10.596 Y0.516
X10.584 Y0.528
X10.516 Y0.572
X10.504 Y0.584
X10.5 Y0.6
Y2.201
S5000
Y0.5 Z-2.1 F100
X10.507 Y0.475
X10.525 Y0.457
X10.55 Y0.45
X10.575 Y0.457
X10.593 Y0.475
X10.6 Y0.5
S1000
Y9.6 F620
X10.4
Y0.4
X10.6
Y0.5
X10.596 Y0.516
X10.584 Y0.528
X10.516 Y0.572
X10.504 Y0.584
X10.5 Y0.6
Y2.201
S5000
Y0.5 Z-2.4 F100
X10.507 Y0.475
X10.525 Y0.457
X10.55 Y0.45
X10.575 Y0.457
X10.593 Y0.475
X10.6 Y0.5
S1000
Y9.6 F620
X10.4
Y0.4
X10.6
Y0.5
X10.596 Y0.516
X10.584 Y0.528
X10.516 Y0.572
X10.504 Y0.584
X10.5 Y0.6
Y2.201
S5000
Y0.5 Z-2.7 F100
X10.507 Y0.475
X10.525 Y0.457
X10.55 Y0.45
X10.575 Y0.457
X10.593 Y0.475
X10.6 Y0.5
S1000
Y9.6 F620
X10.4
Y0.4
X10.6
Y0.5
X10.596 Y0.516
X10.584 Y0.528
X10.516 Y0.572
X10.504 Y0.584
X10.5 Y0.6
Y1.634
S5000
Y0.5 Z-2.9 F100
X10.507 Y0.475
X10.525 Y0.457
X10.55 Y0.45
X10.575 Y0.457
X10.593 Y0.475
X10.6 Y0.5
S1000
Y9.6 F620
X10.4
Y0.4
X10.6
Y0.5
G0 Z15

(2D Pocket1 57)
X12.5 Y0.7
Z15
Z3
G1 Z2.5 F25
S5000
Y0.476 Z2.461 F100
Y4.396 Z1.769
Y0.476 Z1.078
Y4.396 Z0.387
Y0.5 Z-0.3
X12.507 Y0.475
X12.525 Y0.457
X12.55 Y0.45
X12.575 Y0.457
X12.593 Y0.475
X12.6 Y0.5
S1000
Y9.6 F640
X12.4
Y0.4
X12.6
Y0.5
X12.596 Y0.516
X12.584 Y0.528
X12.516 Y0.572
X12.504 Y0.584
X12.5 Y0.6
Y2.201
S5000
Y0.5 Z-0.6 F100
X12.507 Y0.475
X12.525 Y0.457
X12.55 Y0.45
X12.575 Y0.457
X12.593 Y0.475
X12.6 Y0.5
S1000
Y9.6 F640
X12.4
Y0.4
X12.6
Y0.5
X12.596 Y0.516
X12.584 Y0.528
X12.516 Y0.572
X12.504 Y0.584
X12.5 Y0.6
Y2.201
S5000
Y0.5 Z-0.9 F100
X12.507 Y0.475
X12.525 Y0.457
X12.55 Y0.45
X12.575 Y0.457
X12.593 Y0.475
X12.6 Y0.5
S1000
Y9.6 F640
X12.4
Y0.4
X12.6
Y0.5
X12.596 Y0.516
X12.584 Y0.528
X12.516 Y0.572
X12.504 Y0.584
X12.5 Y0.6
Y2.201
S5000
Y0.5 Z-1.2 F100
X12.507 Y0.475
X12.525 Y0.457
X12.55 Y0.45
X12.575 Y0.457
X12.593 Y0.475
X12.6 Y0.5
S1000
Y9.6 F640
X12.4
Y0.4
X12.6
Y0.5
X12.596 Y0.516
X12.584 Y0.528
X12.516 Y0.572
X12.504 Y0.584
X12.5 Y0.6
Y2.201
S5000
Y0.5 Z-1.5 F100
X12.507 Y0.475
X12.525 Y0.457
X12.55 Y0.45
X12.575 Y0.457
X12.593 Y0.475
X12.6 Y0.5
S1000
Y9.6 F640
X12.4
Y0.4
X12.6
Y0.5
X12.596 Y0.516
X12.584 Y0.528
X12.516 Y0.572
X12.504 Y0.584
X12.5 Y0.6
Y2.201
S5000
Y0.5 Z-1.8 F100
X12.507 Y0.475
X12.525 Y0.457
X12.55 Y0.45
X12.575 Y0.457
X12.593 Y0.475
X12.6 Y0.5
S1000
Y9.6 F640
X12.4
Y0.4
X12.6
Y0.5
X12.596 Y0.516
X12.584 Y0.528
X12.516 Y0.572
X12.504 Y0.584
X12.5 Y0.6
Y2.201
S5000
Y0.5 Z-2.1 F100
X12.507 Y0.475
X12.525 Y0.457
X12.55 Y0.45
X12.575 Y0.457
X12.593 Y0.475
X12.6 Y0.5
S1000
Y9.6 F640
X12.4
Y0.4
X12.6
Y0.5
X12.596 Y0.516
X12.584 Y0.528
X12.516 Y0.572
X12.504 Y0.584
X12.5 Y0.6
Y2.201
S5000
Y0.5 Z-2.4 F100
X12.507 Y0.475
X12.525 Y0.457
X12.55 Y0.45
X12.575 Y0.457
X12.593 Y0.475
X12.6 Y0.5
S1000
Y9.6 F640
X12.4
Y0.4
X12.6
Y0.5
X12.596 Y0.516
X12.584 Y0.528
X12.516 Y0.572
X12.504 Y0.584
X12.5 Y0.6
Y2.201
S5000
Y0.5 Z-2.7 F100
X12.507 Y0.475
X12.525 Y0.457
X12.55 Y0.45
X12.575 Y0.457
X12.593 Y0.475
X12.6 Y0.5
S1000
Y9.6 F640
X12.4
Y0.4
X12.6
Y0.5
X12.596 Y0.516
X12.584 Y0.528
X12.516 Y0.572
X12.504 Y0.584
X12.5 Y0.6
Y1.634
S5000
Y0.5 Z-2.9 F100
X12.507 Y0.475
X12.525 Y0.457
X12.55 Y0.45
X12.575 Y0.457
X12.593 Y0.475
X12.6 Y0.5
S1000
Y9.6 F640
X12.4
Y0.4
X12.6
Y0.5
G0 Z15

(2D Pocket1 58)
X14.5 Y0.7
Z15
Z3
G1 Z2.5 F25
S5000
Y0.476 Z2.461 F100
Y4.396 Z1.769
Y0.476 Z1.078
Y4.396 Z0.387
Y0.5 Z-0.3
X14.507 Y0.475
X14.525 Y0.457
X14.55 Y0.45
X14.575 Y0.457
X14.593 Y0.475
X14.6 Y0.5
S1000
Y9.6 F660
X14.4
Y0.4
X14.6
Y0.5
X14.596 Y0.516
X14.584 Y0.528
X14.516 Y0.572
X14.504 Y0.584
X14.5 Y0.6
Y2.201
S5000
Y0.5 Z-0.6 F100
X14.507 Y0.475
X14.525 Y0.457
X14.55 Y0.45
X14.575 Y0.457
X14.593 Y0.475
X14.6 Y0.5
S1000
Y9.6 F660
X14.4
Y0.4
X14.6
Y0.5
X14.596 Y0.516
X14.584 Y0.528
X14.516 Y0.572
X14.504 Y0.584
X14.5 Y0.6
Y2.201
S5000
Y0.5 Z-0.9 F100
X14.507 Y0.475
X14.525 Y0.457
X14.55 Y0.45
X14.575 Y0.457
X14.593 Y0.475
X14.6 Y0.5
S1000
Y9.6 F660
X14.4
Y0.4
X14.6
Y0.5
X14.596 Y0.516
X14.584 Y0.528
X14.516 Y0.572
X14.504 Y0.584
X14.5 Y0.6
Y2.201
S5000
Y0.5 Z-1.2 F100
X14.507 Y0.475
X14.525 Y0.457
X14.55 Y0.45
X14.575 Y0.457
X14.593 Y0.475
X14.6 Y0.5
S1000
Y9.6 F660
X14.4
Y0.4
X14.6
Y0.5
X14.596 Y0.516
X14.584 Y0.528
X14.516 Y0.572
X14.504 Y0.584
X14.5 Y0.6
Y2.201
S5000
Y0.5 Z-1.5 F100
X14.507 Y0.475
X14.525 Y0.457
X14.55 Y0.45
X14.575 Y0.457
X14.593 Y0.475
X14.6 Y0.5
S1000
Y9.6 F660
X14.4
Y0.4
X14.6
Y0.5
X14.596 Y0.516
X14.584 Y0.528
X14.516 Y0.572
X14.504 Y0.584
X14.5 Y0.6
Y2.201
S5000
Y0.5 Z-1.8 F100
X14.507 Y0.475
X14.525 Y0.457
X14.55 Y0.45
X14.575 Y0.457
X14.593 Y0.475
X14.6 Y0.5
S1000
Y9.6 F660
X14.4
Y0.4
X14.6
Y0.5
X14.596 Y0.516
X14.584 Y0.528
X14.516 Y0.572
X14.504 Y0.584
X14.5 Y0.6
Y2.201
S5000
Y0.5 Z-2.1 F100
X14.507 Y0.475
X14.525 Y0.457
X14.55 Y0.45
X14.575 Y0.457
X14.593 Y0.475
X14.6 Y0.5
S1000
Y9.6 F660
X14.4
Y0.4
X14.6
Y0.5
X14.596 Y0.516
X14.584 Y0.528
X14.516 Y0.572
X14.504 Y0.584
X14.5 Y0.6
Y2.201
S5000
Y0.5 Z-2.4 F100
X14.507 Y0.475
X14.525 Y0.457
X14.55 Y0.45
X14.575 Y0.457
X14.593 Y0.475
X14.6 Y0.5
S1000
Y9.6 F660
X14.4
Y0.4
X14.6
Y0.5
X14.596 Y0.516
X14.584 Y0.528
X14.516 Y0.572
X14.504 Y0.584
X14.5 Y0.6
Y2.201
S5000
Y0.5 Z-2.7 F100
X14.507 Y0.475
X14.525 Y0.457
X14.55 Y0.45
X14.575 Y0.457
X14.593 Y0.475
X14.6 Y0.5
S1000
Y9.6 F660
X14.4
Y0.4
X14.6
Y0.5
X14.596 Y0.516
X14.584 Y0.528
X14.516 Y0.572
X14.504 Y0.584
X14.5 Y0.6
Y1.634
S5000
Y0.5 Z-2.9 F100
X14.507 Y0.475
X14.525 Y0.457
X14.55 Y0.45
X14.575 Y0.457
X14.593 Y0.475
X14.6 Y0.5
S1000
Y9.6 F660
X14.4
Y0.4
X14.6
Y0.5
G0 Z15

(2D Pocket1 59)
X16.5 Y0.7
Z15
Z3
G1 Z2.5 F25
S5000
Y0.476 Z2.461 F100
Y4.396 Z1.769
Y0.476 Z1.078
Y4.396 Z0.387
Y0.5 Z-0.3
X16.477 Y0.434
X16.476 Y0.418
X16.485 Y0.405
X16.5 Y0.4
S1000
X16.6 F680
Y9.6
X16.4
Y0.4
X16.5
X16.519 Y0.406
X16.531 Y0.421
X16.533 Y0.44
X16.5 Y0.6
Y2.201
S5000
Y0.5 Z-0.6 F100
X16.477 Y0.434
X16.476 Y0.418
X16.485 Y0.405
X16.5 Y0.4
S1000
X16.6 F680
Y9.6
X16.4
Y0.4
X16.5
X16.519 Y0.406
X16.531 Y0.421
X16.533 Y0.44
X16.5 Y0.6
Y2.201
S5000
Y0.5 Z-0.9 F100
X16.477 Y0.434
X16.476 Y0.418
X16.485 Y0.405
X16.5 Y0.4
S1000
X16.6 F680
Y9.6
X16.4
Y0.4
X16.5
X16.519 Y0.406
X16.531 Y0.421
X16.533 Y0.44
X16.5 Y0.6
Y2.201
S5000
Y0.5 Z-1.2 F100
X16.477 Y0.434
X16.476 Y0.418
X16.485 Y0.405
X16.5 Y0.4
S1000
X16.6 F680
Y9.6
X16.4
Y0.4
X16.5
X16.519 Y0.406
X16.531 Y0.421
X16.533 Y0.44
X16.5 Y0.6
Y2.201
S5000
Y0.5 Z-1.5 F100
X16.477 Y0.434
X16.476 Y0.418
X16.485 Y0.405
X16.5 Y0.4
S1000
X16.6 F680
Y9.6
X16.4
Y0.4
X16.5
X16.519 Y0.406
X16.531 Y0.421
X16.533 Y0.44
X16.5 Y0.6
Y2.201
S5000
Y0.5 Z-1.8 F100
X16.477 Y0.434
X16.476 Y0.418
X16.485 Y0.405
X16.5 Y0.4
S1000
X16.6 F680
Y9.6
X16.4
Y0.4
X16.5
X16.519 Y0.406
X16.531 Y0.421
X16.533 Y0.44
X16.5 Y0.6
Y2.201
S5000
Y0.5 Z-2.1 F100
X16.477 Y0.434
X16.476 Y0.418
X16.485 Y0.405
X16.5 Y0.4
S1000
X16.6 F680
Y9.6
X16.4
Y0.4
X16.5
X16.519 Y0.406
X16.531 Y0.421
X16.533 Y0.44
X16.5 Y0.6
Y2.201
S5000
Y0.5 Z-2.4 F100
X16.477 Y0.434
X16.476 Y0.418
X16.485 Y0.405
X16.5 Y0.4
S1000
X16.6 F680
Y9.6
X16.4
Y0.4
X16.5
X16.519 Y0.406
X16.531 Y0.421
X16.533 Y0.44
X16.5 Y0.6
Y2.201
S5000
Y0.5 Z-2.7 F100
X16.477 Y0.434
X16.476 Y0.418
X16.485 Y0.405
X16.5 Y0.4
S1000
X16.6 F680
Y9.6
X16.4
Y0.4
X16.5
X16.519 Y0.406
X16.531 Y0.421
X16.533 Y0.44
X16.5 Y0.6
Y1.634
S5000
Y0.5 Z-2.9 F100
X16.477 Y0.434
X16.476 Y0.418
X16.485 Y0.405
X16.5 Y0.4
S1000
X16.6 F680
Y9.6
X16.4
Y0.4
X16.5
G0 Z15

(2D Pocket1 60)
X18.5 Y0.7
Z15
Z3
G1 Z2.5 F25
S5000
Y0.476 Z2.461 F100
Y4.396 Z1.769
Y0.476 Z1.078
Y4.396 Z0.387
Y0.5 Z-0.3
X18.477 Y0.434
X18.476 Y0.418
X18.485 Y0.405
X18.5 Y0.4
S1000
X18.6 F700
Y9.6
X18.4
Y0.4
X18.5
X18.519 Y0.406
X18.531 Y0.421
X18.533 Y0.44
X18.5 Y0.6
Y2.201
S5000
Y0.5 Z-0.6 F100
X18.477 Y0.434
X18.476 Y0.418
X18.485 Y0.405
X18.5 Y0.4
S1000
X18.6 F700
Y9.6
X18.4
Y0.4
X18.5
X18.519 Y0.406
X18.531 Y0.421
X18.533 Y0.44
X18.5 Y0.6
Y2.201
S5000
Y0.5 Z-0.9 F100
X18.477 Y0.434
X18.476 Y0.418
X18.485 Y0.405
X18.5 Y0.4
S1000
X18.6 F700
Y9.6
X18.4
Y0.4
X18.5
X18.519 Y0.406
X18.531 Y0.421
X18.533 Y0.44
X18.5 Y0.6
Y2.201
S5000
Y0.5 Z-1.2 F100
X18.477 Y0.434
X18.476 Y0.418
X18.485 Y0.405
X18.5 Y0.4
S1000
X18.6 F700
Y9.6
X18.4
Y0.4
X18.5
X18.519 Y0.406
X18.531 Y0.421
X18.533 Y0.44
X18.5 Y0.6
Y2.201
S5000
Y0.5 Z-1.5 F100
X18.477 Y0.434
X18.476 Y0.418
X18.485 Y0.405
X18.5 Y0.4
S1000
X18.6 F700
Y9.6
X18.4
Y0.4
X18.5
X18.519 Y0.406
X18.531 Y0.421
X18.533 Y0.44
X18.5 Y0.6
Y2.201
S5000
Y0.5 Z-1.8 F100
X18.477 Y0.434
X18.476 Y0.418
X18.485 Y0.405
X18.5 Y0.4
S1000
X18.6 F700
Y9.6
X18.4
Y0.4
X18.5
X18.519 Y0.406
X18.531 Y0.421
X18.533 Y0.44
X18.5 Y0.6
Y2.201
S5000
Y0.5 Z-2.1 F100
X18.477 Y0.434
X18.476 Y0.418
X18.485 Y0.405
X18.5 Y0.4
S1000
X18.6 F700
Y9.6
X18.4
Y0.4
X18.5
X18.519 Y0.406
X18.531 Y0.421
X18.533 Y0.44
X18.5 Y0.6
Y2.201
S5000
Y0.5 Z-2.4 F100
X18.477 Y0.434
X18.476 Y0.418
X18.485 Y0.405
X18.5 Y0.4
S1000
X18.6 F700
Y9.6
X18.4
Y0.4
X18.5
X18.519 Y0.406
X18.531 Y0.421
X18.533 Y0.44
X18.5 Y0.6
Y2.201
S5000
Y0.5 Z-2.7 F100
X18.477 Y0.434
X18.476 Y0.418
X18.485 Y0.405
X18.5 Y0.4
S1000
X18.6 F700
Y9.6
X18.4
Y0.4
X18.5
X18.519 Y0.406
X18.531 Y0.421
X18.533 Y0.44
X18.5 Y0.6
Y1.634
S5000
Y0.5 Z-2.9 F100
X18.477 Y0.434
X18.476 Y0.418
X18.485 Y0.405
X18.5 Y0.4
S1000
X18.6 F700
Y9.6
X18.4
Y0.4
X18.5
G0 Z15

(2D Pocket1 61)
X20.5 Y0.7
Z15
Z3
G1 Z2.5 F25
S5000
Y0.476 Z2.461 F100
Y4.396 Z1.769
Y0.476 Z1.078
Y4.396 Z0.387
Y0.5 Z-0.3
X20.477 Y0.434
X20.476 Y0.418
X20.485 Y0.405
X20.5 Y0.4
S1000
X20.6 F720
Y9.6
X20.4
Y0.4
X20.5
X20.519 Y0.406
X20.531 Y0.421
X20.533 Y0.44
X20.5 Y0.6
Y2.201
S5000
Y0.5 Z-0.6 F100
X20.477 Y0.434
X20.476 Y0.418
X20.485 Y0.405
X20.5 Y0.4
S1000
X20.6 F720
Y9.6
X20.4
Y0.4
X20.5
X20.519 Y0.406
X20.531 Y0.421
X20.533 Y0.44
X20.5 Y0.6
Y2.201
S5000
Y0.5 Z-0.9 F100
X20.477 Y0.434
X20.476 Y0.418
X20.485 Y0.405
X20.5 Y0.4
S1000
X20.6 F720
Y9.6
X20.4
Y0.4
X20.5
X20.519 Y0.406
X20.531 Y0.421
X20.533 Y0.44
X20.5 Y0.6
Y2.201
S5000
Y0.5 Z-1.2 F100
X20.477 Y0.434
X20.476 Y0.418
X20.485 Y0.405
X20.5 Y0.4
S1000
X20.6 F720
Y9.6
X20.4
Y0.4
X20.5
X20.519 Y0.406
X20.531 Y0.421
X20.533 Y0.44
X20.5 Y0.6
Y2.201
S5000
Y0.5 Z-1.5 F100
X20.477 Y0.434
X20.476 Y0.418
X20.485 Y0.405
X20.5 Y0.4
S1000
X20.6 F720
Y9.6
X20.4
Y0.4
X20.5
X20.519 Y0.406
X20.531 Y0.421
X20.533 Y0.44
X20.5 Y0.6
Y2.201
S5000
Y0.5 Z-1.8 F100
X20.477 Y0.434
X20.476 Y0.418
X20.485 Y0.405
X20.5 Y0.4
S1000
X20.6 F720
Y9.6
X20.4
Y0.4
X20.5
X20.519 Y0.406
X20.531 Y0.421
X20.533 Y0.44
X20.5 Y0.6
Y2.201
S5000
Y0.5 Z-2.1 F100
X20.477 Y0.434
X20.476 Y0.418
X20.485 Y0.405
X20.5 Y0.4
S1000
X20.6 F720
Y9.6
X20.4
Y0.4
X20.5
X20.519 Y0.406
X20.531 Y0.421
X20.533 Y0.44
X20.5 Y0.6
Y2.201
S5000
Y0.5 Z-2.4 F100
X20.477 Y0.434
X20.476 Y0.418
X20.485 Y0.405
X20.5 Y0.4
S1000
X20.6 F720
Y9.6
X20.4
Y0.4
X20.5
X20.519 Y0.406
X20.531 Y0.421
X20.533 Y0.44
X20.5 Y0.6
Y2.201
S5000
Y0.5 Z-2.7 F100
X20.477 Y0.434
X20.476 Y0.418
X20.485 Y0.405
X20.5 Y0.4
S1000
X20.6 F720
Y9.6
X20.4
Y0.4
X20.5
X20.519 Y0.406
X20.531 Y0.421
X20.533 Y0.44
X20.5 Y0.6
Y1.634
S5000
Y0.5 Z-2.9 F100
X20.477 Y0.434
X20.476 Y0.418
X20.485 Y0.405
X20.5 Y0.4
S1000
X20.6 F720
Y9.6
X20.4
Y0.4
X20.5
G0 Z15

(2D Pocket1 62)
X22.5 Y0.7
Z15
Z3
G1 Z2.5 F25
S5000
Y0.476 Z2.461 F100
Y4.396 Z1.769
Y0.476 Z1.078
Y4.396 Z0.387
Y0.5 Z-0.3
X22.477 Y0.434
X22.476 Y0.418
X22.485 Y0.405
X22.5 Y0.4
S1000
X22.6 F740
Y9.6
X22.4
Y0.4
X22.5
X22.519 Y0.406
X22.531 Y0.421
X22.533 Y0.44
X22.5 Y0.6
Y2.201
S5000
Y0.5 Z-0.6 F100
X22.477 Y0.434
X22.476 Y0.418
X22.485 Y0.405
X22.5 Y0.4
S1000
X22.6 F740
Y9.6
X22.4
Y0.4
X22.5
X22.519 Y0.406
X22.531 Y0.421
X22.533 Y0.44
X22.5 Y0.6
Y2.201
S5000
Y0.5 Z-0.9 F100
X22.477 Y0.434
X22.476 Y0.418
X22.485 Y0.405
X22.5 Y0.4
S1000
X22.6 F740
Y9.6
X22.4
Y0.4
X22.5
X22.519 Y0.406
X22.531 Y0.421
X22.533 Y0.44
X22.5 Y0.6
Y2.201
S5000
Y0.5 Z-1.2 F100
X22.477 Y0.434
X22.476 Y0.418
X22.485 Y0.405
X22.5 Y0.4
S1000
X22.6 F740
Y9.6
X22.4
Y0.4
X22.5
X22.519 Y0.406
X22.531 Y0.421
X22.533 Y0.44
X22.5 Y0.6
Y2.201
S5000
Y0.5 Z-1.5 F100
X22.477 Y0.434
X22.476 Y0.418
X22.485 Y0.405
X22.5 Y0.4
S1000
X22.6 F740
Y9.6
X22.4
Y0.4
X22.5
X22.519 Y0.406
X22.531 Y0.421
X22.533 Y0.44
X22.5 Y0.6
Y2.201
S5000
Y0.5 Z-1.8 F100
X22.477 Y0.434
X22.476 Y0.418
X22.485 Y0.405
X22.5 Y0.4
S1000
X22.6 F740
Y9.6
X22.4
Y0.4
X22.5
X22.519 Y0.406
X22.531 Y0.421
X22.533 Y0.44
X22.5 Y0.6
Y2.201
S5000
Y0.5 Z-2.1 F100
X22.477 Y0.434
X22.476 Y0.418
X22.485 Y0.405
X22.5 Y0.4
S1000
X22.6 F740
Y9.6
X22.4
Y0.4
X22.5
X22.519 Y0.406
X22.531 Y0.421
X22.533 Y0.44
X22.5 Y0.6
Y2.201
S5000
Y0.5 Z-2.4 F100
X22.477 Y0.434
X22.476 Y0.418
X22.485 Y0.405
X22.5 Y0.4
S1000
X22.6 F740
Y9.6
X22.4
Y0.4
X22.5
X22.519 Y0.406
X22.531 Y0.421
X22.533 Y0.44
X22.5 Y0.6
Y2.201
S5000
Y0.5 Z-2.7 F100
X22.477 Y0.434
X22.476 Y0.418
X22.485 Y0.405
X22.5 Y0.4
S1000
X22.6 F740
Y9.6
X22.4
Y0.4
X22.5
X22.519 Y0.406
X22.531 Y0.421
X22.533 Y0.44
X22.5 Y0.6
Y1.634
S5000
Y0.5 Z-2.9 F100
X22.477 Y0.434
X22.476 Y0.418
X22.485 Y0.405
X22.5 Y0.4
S1000
X22.6 F740
Y9.6
X22.4
Y0.4
X22.5
G0 Z15

(2D Pocket1 63)
X24.5 Y0.7
Z15
Z3
G1 Z2.5 F25
S5000
Y0.476 Z2.461 F100
Y4.396 Z1.769
Y0.476 Z1.078
Y4.396 Z0.387
Y0.5 Z-0.3
X24.477 Y0.434
X24.476 Y0.418
X24.485 Y0.405
X24.5 Y0.4
S1000
X24.6 F760
Y9.6
X24.4
Y0.4
X24.5
X24.519 Y0.406
X24.531 Y0.421
X24.533 Y0.44
X24.5 Y0.6
Y2.201
S5000
Y0.5 Z-0.6 F100
X24.477 Y0.434
X24.476 Y0.418
X24.485 Y0.405
X24.5 Y0.4
S1000
X24.6 F760
Y9.6
X24.4
Y0.4
X24.5
X24.519 Y0.406
X24.531 Y0.421
X24.533 Y0.44
X24.5 Y0.6
Y2.201
S5000
Y0.5 Z-0.9 F100
X24.477 Y0.434
X24.476 Y0.418
X24.485 Y0.405
X24.5 Y0.4
S1000
X24.6 F760
Y9.6
X24.4
Y0.4
X24.5
X24.519 Y0.406
X24.531 Y0.421
X24.533 Y0.44
X24.5 Y0.6
Y2.201
S5000
Y0.5 Z-1.2 F100
X24.477 Y0.434
X24.476 Y0.418
X24.485 Y0.405
X24.5 Y0.4
S1000
X24.6 F760
Y9.6
X24.4
Y0.4
X24.5
X24.519 Y0.406
X24.531 Y0.421
X24.533 Y0.44
X24.5 Y0.6
Y2.201
S5000
Y0.5 Z-1.5 F100
X24.477 Y0.434
X24.476 Y0.418
X24.485 Y0.405
X24.5 Y0.4
S1000
X24.6 F760
Y9.6
X24.4
Y0.4
X24.5
X24.519 Y0.406
X24.531 Y0.421
X24.533 Y0.44
X24.5 Y0.6
Y2.201
S5000
Y0.5 Z-1.8 F100
X24.477 Y0.434
X24.476 Y0.418
X24.485 Y0.405
X24.5 Y0.4
S1000
X24.6 F760
Y9.6
X24.4
Y0.4
X24.5
X24.519 Y0.406
X24.531 Y0.421
X24.533 Y0.44
X24.5 Y0.6
Y2.201
S5000
Y0.5 Z-2.1 F100
X24.477 Y0.434
X24.476 Y0.418
X24.485 Y0.405
X24.5 Y0.4
S1000
X24.6 F760
Y9.6
X24.4
Y0.4
X24.5
X24.519 Y0.406
X24.531 Y0.421
X24.533 Y0.44
X24.5 Y0.6
Y2.201
S5000
Y0.5 Z-2.4 F100
X24.477 Y0.434
X24.476 Y0.418
X24.485 Y0.405
X24.5 Y0.4
S1000
X24.6 F760
Y9.6
X24.4
Y0.4
X24.5
X24.519 Y0.406
X24.531 Y0.421
X24.533 Y0.44
X24.5 Y0.6
Y2.201
S5000
Y0.5 Z-2.7 F100
X24.477 Y0.434
X24.476 Y0.418
X24.485 Y0.405
X24.5 Y0.4
S1000
X24.6 F760
Y9.6
X24.4
Y0.4
X24.5
X24.519 Y0.406
X24.531 Y0.421
X24.533 Y0.44
X24.5 Y0.6
Y1.634
S5000
Y0.5 Z-2.9 F100
X24.477 Y0.434
X24.476 Y0.418
X24.485 Y0.405
X24.5 Y0.4
S1000
X24.6 F760
Y9.6
X24.4
Y0.4
X24.5
G0 Z15

(2D Pocket1 64)
X26.5 Y0.7
Z15
Z3
G1 Z2.5 F25
S5000
Y0.476 Z2.461 F100
Y4.396 Z1.769
Y0.476 Z1.078
Y4.396 Z0.387
Y0.5 Z-0.3
X26.477 Y0.434
X26.476 Y0.418
X26.485 Y0.405
X26.5 Y0.4
S1000
X26.6 F780
Y9.6
X26.4
Y0.4
X26.5
X26.519 Y0.406
X26.531 Y0.421
X26.533 Y0.44
X26.5 Y0.6
Y2.201
S5000
Y0.5 Z-0.6 F100
X26.477 Y0.434
X26.476 Y0.418
X26.485 Y0.405
X26.5 Y0.4
S1000
X26.6 F780
Y9.6
X26.4
Y0.4
X26.5
X26.519 Y0.406
X26.531 Y0.421
X26.533 Y0.44
X26.5 Y0.6
Y2.201
S5000
Y0.5 Z-0.9 F100
X26.477 Y0.434
X26.476 Y0.418
X26.485 Y0.405
X26.5 Y0.4
S1000
X26.6 F780
Y9.6
X26.4
Y0.4
X26.5
X26.519 Y0.406
X26.531 Y0.421
X26.533 Y0.44
X26.5 Y0.6
Y2.201
S5000
Y0.5 Z-1.2 F100
X26.477 Y0.434
X26.476 Y0.418
X26.485 Y0.405
X26.5 Y0.4
S1000
X26.6 F780
Y9.6
X26.4
Y0.4
X26.5
X26.519 Y0.406
X26.531 Y0.421
X26.533 Y0.44
X26.5 Y0.6
Y2.201
S5000
Y0.5 Z-1.5 F100
X26.477 Y0.434
X26.476 Y0.418
X26.485 Y0.405
X26.5 Y0.4
S1000
X26.6 F780
Y9.6
X26.4
Y0.4
X26.5
X26.519 Y0.406
X26.531 Y0.421
X26.533 Y0.44
X26.5 Y0.6
Y2.201
S5000
Y0.5 Z-1.8 F100
X26.477 Y0.434
X26.476 Y0.418
X26.485 Y0.405
X26.5 Y0.4
S1000
X26.6 F780
Y9.6
X26.4
Y0.4
X26.5
X26.519 Y0.406
X26.531 Y0.421
X26.533 Y0.44
X26.5 Y0.6
Y2.201
S5000
Y0.5 Z-2.1 F100
X26.477 Y0.434
X26.476 Y0.418
X26.485 Y0.405
X26.5 Y0.4
S1000
X26.6 F780
Y9.6
X26.4
Y0.4
X26.5
X26.519 Y0.406
X26.531 Y0.421
X26.533 Y0.44
X26.5 Y0.6
Y2.201
S5000
Y0.5 Z-2.4 F100
X26.477 Y0.434
X26.476 Y0.418
X26.485 Y0.405
X26.5 Y0.4
S1000
X26.6 F780
Y9.6
X26.4
Y0.4
X26.5
X26.519 Y0.406
X26.531 Y0.421
X26.533 Y0.44
X26.5 Y0.6
Y2.201
S5000
Y0.5 Z-2.7 F100
X26.477 Y0.434
X26.476 Y0.418
X26.485 Y0.405
X26.5 Y0.4
S1000
X26.6 F780
Y9.6
X26.4
Y0.4
X26.5
X26.519 Y0.406
X26.531 Y0.421
X26.533 Y0.44
X26.5 Y0.6
Y1.634
S5000
Y0.5 Z-2.9 F100
X26.477 Y0.434
X26.476 Y0.418
X26.485 Y0.405
X26.5 Y0.4
S1000
X26.6 F780
Y9.6
X26.4
Y0.4
X26.5
G0 Z15

(2D Pocket1 65)
X28.5 Y0.7
Z15
Z3
G1 Z2.5 F25
S5000
Y0.476 Z2.461 F100
Y4.396 Z1.769
Y0.476 Z1.078
Y4.396 Z0.387
Y0.5 Z-0.3
X28.477 Y0.434
X28.476 Y0.418
X28.485 Y0.405
X28.5 Y0.4
S1000
X28.6 F800
Y9.6
X28.4
Y0.4
X28.5
X28.519 Y0.406
X28.531 Y0.421
X28.533 Y0.44
X28.5 Y0.6
Y2.201
S5000
Y0.5 Z-0.6 F100
X28.477 Y0.434
X28.476 Y0.418
X28.485 Y0.405
X28.5 Y0.4
S1000
X28.6 F800
Y9.6
X28.4
Y0.4
X28.5
X28.519 Y0.406
X28.531 Y0.421
X28.533 Y0.44
X28.5 Y0.6
Y2.201
S5000
Y0.5 Z-0.9 F100
X28.477 Y0.434
X28.476 Y0.418
X28.485 Y0.405
X28.5 Y0.4
S1000
X28.6 F800
Y9.6
X28.4
Y0.4
X28.5
X28.519 Y0.406
X28.531 Y0.421
X28.533 Y0.44
X28.5 Y0.6
Y2.201
S5000
Y0.5 Z-1.2 F100
X28.477 Y0.434
X28.476 Y0.418
X28.485 Y0.405
X28.5 Y0.4
S1000
X28.6 F800
Y9.6
X28.4
Y0.4
X28.5
X28.519 Y0.406
X28.531 Y0.421
X28.533 Y0.44
X28.5 Y0.6
Y2.201
S5000
Y0.5 Z-1.5 F100
X28.477 Y0.434
X28.476 Y0.418
X28.485 Y0.405
X28.5 Y0.4
S1000
X28.6 F800
Y9.6
X28.4
Y0.4
X28.5
X28.519 Y0.406
X28.531 Y0.421
X28.533 Y0.44
X28.5 Y0.6
Y2.201
S5000
Y0.5 Z-1.8 F100
X28.477 Y0.434
X28.476 Y0.418
X28.485 Y0.405
X28.5 Y0.4
S1000
X28.6 F800
Y9.6
X28.4
Y0.4
X28.5
X28.519 Y0.406
X28.531 Y0.421
X28.533 Y0.44
X28.5 Y0.6
Y2.201
S5000
Y0.5 Z-2.1 F100
X28.477 Y0.434
X28.476 Y0.418
X28.485 Y0.405
X28.5 Y0.4
S1000
X28.6 F800
Y9.6
X28.4
Y0.4
X28.5
X28.519 Y0.406
X28.531 Y0.421
X28.533 Y0.44
X28.5 Y0.6
Y2.201
S5000
Y0.5 Z-2.4 F100
X28.477 Y0.434
X28.476 Y0.418
X28.485 Y0.405
X28.5 Y0.4
S1000
X28.6 F800
Y9.6
X28.4
Y0.4
X28.5
X28.519 Y0.406
X28.531 Y0.421
X28.533 Y0.44
X28.5 Y0.6
Y2.201
S5000
Y0.5 Z-2.7 F100
X28.477 Y0.434
X28.476 Y0.418
X28.485 Y0.405
X28.5 Y0.4
S1000
X28.6 F800
Y9.6
X28.4
Y0.4
X28.5
X28.519 Y0.406
X28.531 Y0.421
X28.533 Y0.44
X28.5 Y0.6
Y1.634
S5000
Y0.5 Z-2.9 F100
X28.477 Y0.434
X28.476 Y0.418
X28.485 Y0.405
X28.5 Y0.4
S1000
X28.6 F800
Y9.6
X28.4
Y0.4
X28.5
G0 Z15

(2D Pocket1 66)
X30.5 Y0.7
Z15
Z3
G1 Z2.5 F25
S5000
Y0.476 Z2.461 F100
Y4.396 Z1.769
Y0.476 Z1.078
Y4.396 Z0.387
Y0.5 Z-0.3
X30.477 Y0.434
X30.476 Y0.418
X30.485 Y0.405
X30.5 Y0.4
S1000
X30.6 F820
Y9.6
X30.4
Y0.4
X30.5
X30.519 Y0.406
X30.531 Y0.421
X30.533 Y0.44
X30.5 Y0.6
Y2.201
S5000
Y0.5 Z-0.6 F100
X30.477 Y0.434
X30.476 Y0.418
X30.485 Y0.405
X30.5 Y0.4
S1000
X30.6 F820
Y9.6
X30.4
Y0.4
X30.5
X30.519 Y0.406
X30.531 Y0.421
X30.533 Y0.44
X30.5 Y0.6
Y2.201
S5000
Y0.5 Z-0.9 F100
X30.477 Y0.434
X30.476 Y0.418
X30.485 Y0.405
X30.5 Y0.4
S1000
X30.6 F820
Y9.6
X30.4
Y0.4
X30.5
X30.519 Y0.406
X30.531 Y0.421
X30.533 Y0.44
X30.5 Y0.6
Y2.201
S5000
Y0.5 Z-1.2 F100
X30.477 Y0.434
X30.476 Y0.418
X30.485 Y0.405
X30.5 Y0.4
S1000
X30.6 F820
Y9.6
X30.4
Y0.4
X30.5
X30.519 Y0.406
X30.531 Y0.421
X30.533 Y0.44
X30.5 Y0.6
Y2.201
S5000
Y0.5 Z-1.5 F100
X30.477 Y0.434
X30.476 Y0.418
X30.485 Y0.405
X30.5 Y0.4
S1000
X30.6 F820
Y9.6
X30.4
Y0.4
X30.5
X30.519 Y0.406
X30.531 Y0.421
X30.533 Y0.44
X30.5 Y0.6
Y2.201
S5000
Y0.5 Z-1.8 F100
X30.477 Y0.434
X30.476 Y0.418
X30.485 Y0.405
X30.5 Y0.4
S1000
X30.6 F820
Y9.6
X30.4
Y0.4
X30.5
X30.519 Y0.406
X30.531 Y0.421
X30.533 Y0.44
X30.5 Y0.6
Y2.201
S5000
Y0.5 Z-2.1 F100
X30.477 Y0.434
X30.476 Y0.418
X30.485 Y0.405
X30.5 Y0.4
S1000
X30.6 F820
Y9.6
X30.4
Y0.4
X30.5
X30.519 Y0.406
X30.531 Y0.421
X30.533 Y0.44
X30.5 Y0.6
Y2.201
S5000
Y0.5 Z-2.4 F100
X30.477 Y0.434
X30.476 Y0.418
X30.485 Y0.405
X30.5 Y0.4
S1000
X30.6 F820
Y9.6
X30.4
Y0.4
X30.5
X30.519 Y0.406
X30.531 Y0.421
X30.533 Y0.44
X30.5 Y0.6
Y2.201
S5000
Y0.5 Z-2.7 F100
X30.477 Y0.434
X30.476 Y0.418
X30.485 Y0.405
X30.5 Y0.4
S1000
X30.6 F820
Y9.6
X30.4
Y0.4
X30.5
X30.519 Y0.406
X30.531 Y0.421
X30.533 Y0.44
X30.5 Y0.6
Y1.634
S5000
Y0.5 Z-2.9 F100
X30.477 Y0.434
X30.476 Y0.418
X30.485 Y0.405
X30.5 Y0.4
S1000
X30.6 F820
Y9.6
X30.4
Y0.4
X30.5
G0 Z15

(2D Pocket1 67)
X32.5 Y0.7
Z15
Z3
G1 Z2.5 F25
S5000
Y0.476 Z2.461 F100
Y4.396 Z1.769
Y0.476 Z1.078
Y4.396 Z0.387
Y0.5 Z-0.3
X32.477 Y0.434
X32.476 Y0.418
X32.485 Y0.405
X32.5 Y0.4
S1000
X32.6 F840
Y9.6
X32.4
Y0.4
X32.5
X32.519 Y0.406
X32.531 Y0.421
X32.533 Y0.44
X32.5 Y0.6
Y2.201
S5000
Y0.5 Z-0.6 F100
X32.477 Y0.434
X32.476 Y0.418
X32.485 Y0.405
X32.5 Y0.4
S1000
X32.6 F840
Y9.6
X32.4
Y0.4
X32.5
X32.519 Y0.406
X32.531 Y0.421
X32.533 Y0.44
X32.5 Y0.6
Y2.201
S5000
Y0.5 Z-0.9 F100
X32.477 Y0.434
X32.476 Y0.418
X32.485 Y0.405
X32.5 Y0.4
S1000
X32.6 F840
Y9.6
X32.4
Y0.4
X32.5
X32.519 Y0.406
X32.531 Y0.421
X32.533 Y0.44
X32.5 Y0.6
Y2.201
S5000
Y0.5 Z-1.2 F100
X32.477 Y0.434
X32.476 Y0.418
X32.485 Y0.405
X32.5 Y0.4
S1000
X32.6 F840
Y9.6
X32.4
Y0.4
X32.5
X32.519 Y0.406
X32.531 Y0.421
X32.533 Y0.44
X32.5 Y0.6
Y2.201
S5000
Y0.5 Z-1.5 F100
X32.477 Y0.434
X32.476 Y0.418
X32.485 Y0.405
X32.5 Y0.4
S1000
X32.6 F840
Y9.6
X32.4
Y0.4
X32.5
X32.519 Y0.406
X32.531 Y0.421
X32.533 Y0.44
X32.5 Y0.6
Y2.201
S5000
Y0.5 Z-1.8 F100
X32.477 Y0.434
X32.476 Y0.418
X32.485 Y0.405
X32.5 Y0.4
S1000
X32.6 F840
Y9.6
X32.4
Y0.4
X32.5
X32.519 Y0.406
X32.531 Y0.421
X32.533 Y0.44
X32.5 Y0.6
Y2.201
S5000
Y0.5 Z-2.1 F100
X32.477 Y0.434
X32.476 Y0.418
X32.485 Y0.405
X32.5 Y0.4
S1000
X32.6 F840
Y9.6
X32.4
Y0.4
X32.5
X32.519 Y0.406
X32.531 Y0.421
X32.533 Y0.44
X32.5 Y0.6
Y2.201
S5000
Y0.5 Z-2.4 F100
X32.477 Y0.434
X32.476 Y0.418
X32.485 Y0.405
X32.5 Y0.4
S1000
X32.6 F840
Y9.6
X32.4
Y0.4
X32.5
X32.519 Y0.406
X32.531 Y0.421
X32.533 Y0.44
X32.5 Y0.6
Y2.201
S5000
Y0.5 Z-2.7 F100
X32.477 Y0.434
X32.476 Y0.418
X32.485 Y0.405
X32.5 Y0.4
S1000
X32.6 F840
Y9.6
X32.4
Y0.4
X32.5
X32.519 Y0.406
X32.531 Y0.421
X32.533 Y0.44
X32.5 Y0.6
Y1.634
S5000
Y0.5 Z-2.9 F100
X32.477 Y0.434
X32.476 Y0.418
X32.485 Y0.405
X32.5 Y0.4
S1000
X32.6 F840
Y9.6
X32.4
Y0.4
X32.5
G0 Z15

(2D Pocket1 68)
X34.5 Y0.7
Z15
Z3
G1 Z2.5 F25
S5000
Y0.476 Z2.461 F100
Y4.396 Z1.769
Y0.476 Z1.078
Y4.396 Z0.387
Y0.5 Z-0.3
X34.477 Y0.434
X34.476 Y0.418
X34.485 Y0.405
X34.5 Y0.4
S1000
X34.6 F860
Y9.6
X34.4
Y0.4
X34.5
X34.519 Y0.406
X34.531 Y0.421
X34.533 Y0.44
X34.5 Y0.6
Y2.201
S5000
Y0.5 Z-0.6 F100
X34.477 Y0.434
X34.476 Y0.418
X34.485 Y0.405
X34.5 Y0.4
S1000
X34.6 F860
Y9.6
X34.4
Y0.4
X34.5
X34.519 Y0.406
X34.531 Y0.421
X34.533 Y0.44
X34.5 Y0.6
Y2.201
S5000
Y0.5 Z-0.9 F100
X34.477 Y0.434
X34.476 Y0.418
X34.485 Y0.405
X34.5 Y0.4
S1000
X34.6 F860
Y9.6
X34.4
Y0.4
X34.5
X34.519 Y0.406
X34.531 Y0.421
X34.533 Y0.44
X34.5 Y0.6
Y2.201
S5000
Y0.5 Z-1.2 F100
X34.477 Y0.434
X34.476 Y0.418
X34.485 Y0.405
X34.5 Y0.4
S1000
X34.6 F860
Y9.6
X34.4
Y0.4
X34.5
X34.519 Y0.406
X34.531 Y0.421
X34.533 Y0.44
X34.5 Y0.6
Y2.201
S5000
Y0.5 Z-1.5 F100
X34.477 Y0.434
X34.476 Y0.418
X34.485 Y0.405
X34.5 Y0.4
S1000
X34.6 F860
Y9.6
X34.4
Y0.4
X34.5
X34.519 Y0.406
X34.531 Y0.421
X34.533 Y0.44
X34.5 Y0.6
Y2.201
S5000
Y0.5 Z-1.8 F100
X34.477 Y0.434
X34.476 Y0.418
X34.485 Y0.405
X34.5 Y0.4
S1000
X34.6 F860
Y9.6
X34.4
Y0.4
X34.5
X34.519 Y0.406
X34.531 Y0.421
X34.533 Y0.44
X34.5 Y0.6
Y2.201
S5000
Y0.5 Z-2.1 F100
X34.477 Y0.434
X34.476 Y0.418
X34.485 Y0.405
X34.5 Y0.4
S1000
X34.6 F860
Y9.6
X34.4
Y0.4
X34.5
X34.519 Y0.406
X34.531 Y0.421
X34.533 Y0.44
X34.5 Y0.6
Y2.201
S5000
Y0.5 Z-2.4 F100
X34.477 Y0.434
X34.476 Y0.418
X34.485 Y0.405
X34.5 Y0.4
S1000
X34.6 F860
Y9.6
X34.4
Y0.4
X34.5
X34.519 Y0.406
X34.531 Y0.421
X34.533 Y0.44
X34.5 Y0.6
Y2.201
S5000
Y0.5 Z-2.7 F100
X34.477 Y0.434
X34.476 Y0.418
X34.485 Y0.405
X34.5 Y0.4
S1000
X34.6 F860
Y9.6
X34.4
Y0.4
X34.5
X34.519 Y0.406
X34.531 Y0.421
X34.533 Y0.44
X34.5 Y0.6
Y1.634
S5000
Y0.5 Z-2.9 F100
X34.477 Y0.434
X34.476 Y0.418
X34.485 Y0.405
X34.5 Y0.4
S1000
X34.6 F860
Y9.6
X34.4
Y0.4
X34.5
G0 Z15

(2D Pocket1 69)
X36.5 Y0.7
Z15
Z3
G1 Z2.5 F25
S5000
Y0.476 Z2.461 F100
Y4.396 Z1.769
Y0.476 Z1.078
Y4.396 Z0.387
Y0.5 Z-0.3
X36.477 Y0.434
X36.476 Y0.418
X36.485 Y0.405
X36.5 Y0.4
S1000
X36.6 F880
Y9.6
X36.4
Y0.4
X36.5
X36.519 Y0.406
X36.531 Y0.421
X36.533 Y0.44
X36.5 Y0.6
Y2.201
S5000
Y0.5 Z-0.6 F100
X36.477 Y0.434
X36.476 Y0.418
X36.485 Y0.405
X36.5 Y0.4
S1000
X36.6 F880
Y9.6
X36.4
Y0.4
X36.5
X36.519 Y0.406
X36.531 Y0.421
X36.533 Y0.44
X36.5 Y0.6
Y2.201
S5000
Y0.5 Z-0.9 F100
X36.477 Y0.434
X36.476 Y0.418
X36.485 Y0.405
X36.5 Y0.4
S1000
X36.6 F880
Y9.6
X36.4
Y0.4
X36.5
X36.519 Y0.406
X36.531 Y0.421
X36.533 Y0.44
X36.5 Y0.6
Y2.201
S5000
Y0.5 Z-1.2 F100
X36.477 Y0.434
X36.476 Y0.418
X36.485 Y0.405
X36.5 Y0.4
S1000
X36.6 F880
Y9.6
X36.4
Y0.4
X36.5
X36.519 Y0.406
X36.531 Y0.421
X36.533 Y0.44
X36.5 Y0.6
Y2.201
S5000
Y0.5 Z-1.5 F100
X36.477 Y0.434
X36.476 Y0.418
X36.485 Y0.405
X36.5 Y0.4
S1000
X36.6 F880
Y9.6
X36.4
Y0.4
X36.5
X36.519 Y0.406
X36.531 Y0.421
X36.533 Y0.44
X36.5 Y0.6
Y2.201
S5000
Y0.5 Z-1.8 F100
X36.477 Y0.434
X36.476 Y0.418
X36.485 Y0.405
X36.5 Y0.4
S1000
X36.6 F880
Y9.6
X36.4
Y0.4
X36.5
X36.519 Y0.406
X36.531 Y0.421
X36.533 Y0.44
X36.5 Y0.6
Y2.201
S5000
Y0.5 Z-2.1 F100
X36.477 Y0.434
X36.476 Y0.418
X36.485 Y0.405
X36.5 Y0.4
S1000
X36.6 F880
Y9.6
X36.4
Y0.4
X36.5
X36.519 Y0.406
X36.531 Y0.421
X36.533 Y0.44
X36.5 Y0.6
Y2.201
S5000
Y0.5 Z-2.4 F100
X36.477 Y0.434
X36.476 Y0.418
X36.485 Y0.405
X36.5 Y0.4
S1000
X36.6 F880
Y9.6
X36.4
Y0.4
X36.5
X36.519 Y0.406
X36.531 Y0.421
X36.533 Y0.44
X36.5 Y0.6
Y2.201
S5000
Y0.5 Z-2.7 F100
X36.477 Y0.434
X36.476 Y0.418
X36.485 Y0.405
X36.5 Y0.4
S1000
X36.6 F880
Y9.6
X36.4
Y0.4
X36.5
X36.519 Y0.406
X36.531 Y0.421
X36.533 Y0.44
X36.5 Y0.6
Y1.634
S5000
Y0.5 Z-2.9 F100
X36.477 Y0.434
X36.476 Y0.418
X36.485 Y0.405
X36.5 Y0.4
S1000
X36.6 F880
Y9.6
X36.4
Y0.4
X36.5
G0 Z15

(2D Pocket1 70)
X38.5 Y0.7
Z15
Z3
G1 Z2.5 F25
S5000
Y0.476 Z2.461 F100
Y4.396 Z1.769
Y0.476 Z1.078
Y4.396 Z0.387
Y0.5 Z-0.3
X38.477 Y0.434
X38.476 Y0.418
X38.485 Y0.405
X38.5 Y0.4
S1000
X38.6 F900
Y9.6
X38.4
Y0.4
X38.5
X38.519 Y0.406
X38.531 Y0.421
X38.533 Y0.44
X38.5 Y0.6
Y2.201
S5000
Y0.5 Z-0.6 F100
X38.477 Y0.434
X38.476 Y0.418
X38.485 Y0.405
X38.5 Y0.4
S1000
X38.6 F900
Y9.6
X38.4
Y0.4
X38.5
X38.519 Y0.406
X38.531 Y0.421
X38.533 Y0.44
X38.5 Y0.6
Y2.201
S5000
Y0.5 Z-0.9 F100
X38.477 Y0.434
X38.476 Y0.418
X38.485 Y0.405
X38.5 Y0.4
S1000
X38.6 F900
Y9.6
X38.4
Y0.4
X38.5
X38.519 Y0.406
X38.531 Y0.421
X38.533 Y0.44
X38.5 Y0.6
Y2.201
S5000
Y0.5 Z-1.2 F100
X38.477 Y0.434
X38.476 Y0.418
X38.485 Y0.405
X38.5 Y0.4
S1000
X38.6 F900
Y9.6
X38.4
Y0.4
X38.5
X38.519 Y0.406
X38.531 Y0.421
X38.533 Y0.44
X38.5 Y0.6
Y2.201
S5000
Y0.5 Z-1.5 F100
X38.477 Y0.434
X38.476 Y0.418
X38.485 Y0.405
X38.5 Y0.4
S1000
X38.6 F900
Y9.6
X38.4
Y0.4
X38.5
X38.519 Y0.406
X38.531 Y0.421
X38.533 Y0.44
X38.5 Y0.6
Y2.201
S5000
Y0.5 Z-1.8 F100
X38.477 Y0.434
X38.476 Y0.418
X38.485 Y0.405
X38.5 Y0.4
S1000
X38.6 F900
Y9.6
X38.4
Y0.4
X38.5
X38.519 Y0.406
X38.531 Y0.421
X38.533 Y0.44
X38.5 Y0.6
Y2.201
S5000
Y0.5 Z-2.1 F100
X38.477 Y0.434
X38.476 Y0.418
X38.485 Y0.405
X38.5 Y0.4
S1000
X38.6 F900
Y9.6
X38.4
Y0.4
X38.5
X38.519 Y0.406
X38.531 Y0.421
X38.533 Y0.44
X38.5 Y0.6
Y2.201
S5000
Y0.5 Z-2.4 F100
X38.477 Y0.434
X38.476 Y0.418
X38.485 Y0.405
X38.5 Y0.4
S1000
X38.6 F900
Y9.6
X38.4
Y0.4
X38.5
X38.519 Y0.406
X38.531 Y0.421
X38.533 Y0.44
X38.5 Y0.6
Y2.201
S5000
Y0.5 Z-2.7 F100
X38.477 Y0.434
X38.476 Y0.418
X38.485 Y0.405
X38.5 Y0.4
S1000
X38.6 F900
Y9.6
X38.4
Y0.4
X38.5
X38.519 Y0.406
X38.531 Y0.421
X38.533 Y0.44
X38.5 Y0.6
Y1.634
S5000
Y0.5 Z-2.9 F100
X38.477 Y0.434
X38.476 Y0.418
X38.485 Y0.405
X38.5 Y0.4
S1000
X38.6 F900
Y9.6
X38.4
Y0.4
X38.5
G0 Z15

(2D Pocket1 71)
X40.5 Y0.7
Z15
Z3
G1 Z2.5 F25
S5000
Y0.476 Z2.461 F100
Y4.396 Z1.769
Y0.476 Z1.078
Y4.396 Z0.387
Y0.5 Z-0.3
X40.477 Y0.434
X40.476 Y0.418
X40.485 Y0.405
X40.5 Y0.4
S1000
X40.6 F920
Y9.6
X40.4
Y0.4
X40.5
X40.519 Y0.406
X40.531 Y0.421
X40.533 Y0.44
X40.5 Y0.6
Y2.201
S5000
Y0.5 Z-0.6 F100
X40.477 Y0.434
X40.476 Y0.418
X40.485 Y0.405
X40.5 Y0.4
S1000
X40.6 F920
Y9.6
X40.4
Y0.4
X40.5
X40.519 Y0.406
X40.531 Y0.421
X40.533 Y0.44
X40.5 Y0.6
Y2.201
S5000
Y0.5 Z-0.9 F100
X40.477 Y0.434
X40.476 Y0.418
X40.485 Y0.405
X40.5 Y0.4
S1000
X40.6 F920
Y9.6
X40.4
Y0.4
X40.5
X40.519 Y0.406
X40.531 Y0.421
X40.533 Y0.44
X40.5 Y0.6
Y2.201
S5000
Y0.5 Z-1.2 F100
X40.477 Y0.434
X40.476 Y0.418
X40.485 Y0.405
X40.5 Y0.4
S1000
X40.6 F920
Y9.6
X40.4
Y0.4
X40.5
X40.519 Y0.406
X40.531 Y0.421
X40.533 Y0.44
X40.5 Y0.6
Y2.201
S5000
Y0.5 Z-1.5 F100
X40.477 Y0.434
X40.476 Y0.418
X40.485 Y0.405
X40.5 Y0.4
S1000
X40.6 F920
Y9.6
X40.4
Y0.4
X40.5
X40.519 Y0.406
X40.531 Y0.421
X40.533 Y0.44
X40.5 Y0.6
Y2.201
S5000
Y0.5 Z-1.8 F100
X40.477 Y0.434
X40.476 Y0.418
X40.485 Y0.405
X40.5 Y0.4
S1000
X40.6 F920
Y9.6
X40.4
Y0.4
X40.5
X40.519 Y0.406
X40.531 Y0.421
X40.533 Y0.44
X40.5 Y0.6
Y2.201
S5000
Y0.5 Z-2.1 F100
X40.477 Y0.434
X40.476 Y0.418
X40.485 Y0.405
X40.5 Y0.4
S1000
X40.6 F920
Y9.6
X40.4
Y0.4
X40.5
X40.519 Y0.406
X40.531 Y0.421
X40.533 Y0.44
X40.5 Y0.6
Y2.201
S5000
Y0.5 Z-2.4 F100
X40.477 Y0.434
X40.476 Y0.418
X40.485 Y0.405
X40.5 Y0.4
S1000
X40.6 F920
Y9.6
X40.4
Y0.4
X40.5
X40.519 Y0.406
X40.531 Y0.421
X40.533 Y0.44
X40.5 Y0.6
Y2.201
S5000
Y0.5 Z-2.7 F100
X40.477 Y0.434
X40.476 Y0.418
X40.485 Y0.405
X40.5 Y0.4
S1000
X40.6 F920
Y9.6
X40.4
Y0.4
X40.5
X40.519 Y0.406
X40.531 Y0.421
X40.533 Y0.44
X40.5 Y0.6
Y1.634
S5000
Y0.5 Z-2.9 F100
X40.477 Y0.434
X40.476 Y0.418
X40.485 Y0.405
X40.5 Y0.4
S1000
X40.6 F920
Y9.6
X40.4
Y0.4
X40.5
G0 Z15

(2D Pocket1 72)
X42.5 Y0.7
Z15
Z3
G1 Z2.5 F25
S5000
Y0.476 Z2.461 F100
Y4.396 Z1.769
Y0.476 Z1.078
Y4.396 Z0.387
Y0.5 Z-0.3
X42.477 Y0.434
X42.476 Y0.418
X42.485 Y0.405
X42.5 Y0.4
S1000
X42.6 F940
Y9.6
X42.4
Y0.4
X42.5
X42.519 Y0.406
X42.531 Y0.421
X42.533 Y0.44
X42.5 Y0.6
Y2.201
S5000
Y0.5 Z-0.6 F100
X42.477 Y0.434
X42.476 Y0.418
X42.485 Y0.405
X42.5 Y0.4
S1000
X42.6 F940
Y9.6
X42.4
Y0.4
X42.5
X42.519 Y0.406
X42.531 Y0.421
X42.533 Y0.44
X42.5 Y0.6
Y2.201
S5000
Y0.5 Z-0.9 F100
X42.477 Y0.434
X42.476 Y0.418
X42.485 Y0.405
X42.5 Y0.4
S1000
X42.6 F940
Y9.6
X42.4
Y0.4
X42.5
X42.519 Y0.406
X42.531 Y0.421
X42.533 Y0.44
X42.5 Y0.6
Y2.201
S5000
Y0.5 Z-1.2 F100
X42.477 Y0.434
X42.476 Y0.418
X42.485 Y0.405
X42.5 Y0.4
S1000
X42.6 F940
Y9.6
X42.4
Y0.4
X42.5
X42.519 Y0.406
X42.531 Y0.421
X42.533 Y0.44
X42.5 Y0.6
Y2.201
S5000
Y0.5 Z-1.5 F100
X42.477 Y0.434
X42.476 Y0.418
X42.485 Y0.405
X42.5 Y0.4
S1000
X42.6 F940
Y9.6
X42.4
Y0.4
X42.5
X42.519 Y0.406
X42.531 Y0.421
X42.533 Y0.44
X42.5 Y0.6
Y2.201
S5000
Y0.5 Z-1.8 F100
X42.477 Y0.434
X42.476 Y0.418
X42.485 Y0.405
X42.5 Y0.4
S1000
X42.6 F940
Y9.6
X42.4
Y0.4
X42.5
X42.519 Y0.406
X42.531 Y0.421
X42.533 Y0.44
X42.5 Y0.6
Y2.201
S5000
Y0.5 Z-2.1 F100
X42.477 Y0.434
X42.476 Y0.418
X42.485 Y0.405
X42.5 Y0.4
S1000
X42.6 F940
Y9.6
X42.4
Y0.4
X42.5
X42.519 Y0.406
X42.531 Y0.421
X42.533 Y0.44
X42.5 Y0.6
Y2.201
S5000
Y0.5 Z-2.4 F100
X42.477 Y0.434
X42.476 Y0.418
X42.485 Y0.405
X42.5 Y0.4
S1000
X42.6 F940
Y9.6
X42.4
Y0.4
X42.5
X42.519 Y0.406
X42.531 Y0.421
X42.533 Y0.44
X42.5 Y0.6
Y2.201
S5000
Y0.5 Z-2.7 F100
X42.477 Y0.434
X42.476 Y0.418
X42.485 Y0.405
X42.5 Y0.4
S1000
X42.6 F940
Y9.6
X42.4
Y0.4
X42.5
X42.519 Y0.406
X42.531 Y0.421
X42.533 Y0.44
X42.5 Y0.6
Y1.634
S5000
Y0.5 Z-2.9 F100
X42.477 Y0.434
X42.476 Y0.418
X42.485 Y0.405
X42.5 Y0.4
S1000
X42.6 F940
Y9.6
X42.4
Y0.4
X42.5
G0 Z15

(2D Pocket1 73)
X44.5 Y0.7
Z15
Z3
G1 Z2.5 F25
S5000
Y0.476 Z2.461 F100
Y4.396 Z1.769
Y0.476 Z1.078
Y4.396 Z0.387
Y0.5 Z-0.3
X44.477 Y0.434
X44.476 Y0.418
X44.485 Y0.405
X44.5 Y0.4
S1000
X44.6 F960
Y9.6
X44.4
Y0.4
X44.5
X44.519 Y0.406
X44.531 Y0.421
X44.533 Y0.44
X44.5 Y0.6
Y2.201
S5000
Y0.5 Z-0.6 F100
X44.477 Y0.434
X44.476 Y0.418
X44.485 Y0.405
X44.5 Y0.4
S1000
X44.6 F960
Y9.6
X44.4
Y0.4
X44.5
X44.519 Y0.406
X44.531 Y0.421
X44.533 Y0.44
X44.5 Y0.6
Y2.201
S5000
Y0.5 Z-0.9 F100
X44.477 Y0.434
X44.476 Y0.418
X44.485 Y0.405
X44.5 Y0.4
S1000
X44.6 F960
Y9.6
X44.4
Y0.4
X44.5
X44.519 Y0.406
X44.531 Y0.421
X44.533 Y0.44
X44.5 Y0.6
Y2.201
S5000
Y0.5 Z-1.2 F100
X44.477 Y0.434
X44.476 Y0.418
X44.485 Y0.405
X44.5 Y0.4
S1000
X44.6 F960
Y9.6
X44.4
Y0.4
X44.5
X44.519 Y0.406
X44.531 Y0.421
X44.533 Y0.44
X44.5 Y0.6
Y2.201
S5000
Y0.5 Z-1.5 F100
X44.477 Y0.434
X44.476 Y0.418
X44.485 Y0.405
X44.5 Y0.4
S1000
X44.6 F960
Y9.6
X44.4
Y0.4
X44.5
X44.519 Y0.406
X44.531 Y0.421
X44.533 Y0.44
X44.5 Y0.6
Y2.201
S5000
Y0.5 Z-1.8 F100
X44.477 Y0.434
X44.476 Y0.418
X44.485 Y0.405
X44.5 Y0.4
S1000
X44.6 F960
Y9.6
X44.4
Y0.4
X44.5
X44.519 Y0.406
X44.531 Y0.421
X44.533 Y0.44
X44.5 Y0.6
Y2.201
S5000
Y0.5 Z-2.1 F100
X44.477 Y0.434
X44.476 Y0.418
X44.485 Y0.405
X44.5 Y0.4
S1000
X44.6 F960
Y9.6
X44.4
Y0.4
X44.5
X44.519 Y0.406
X44.531 Y0.421
X44.533 Y0.44
X44.5 Y0.6
Y2.201
S5000
Y0.5 Z-2.4 F100
X44.477 Y0.434
X44.476 Y0.418
X44.485 Y0.405
X44.5 Y0.4
S1000
X44.6 F960
Y9.6
X44.4
Y0.4
X44.5
X44.519 Y0.406
X44.531 Y0.421
X44.533 Y0.44
X44.5 Y0.6
Y2.201
S5000
Y0.5 Z-2.7 F100
X44.477 Y0.434
X44.476 Y0.418
X44.485 Y0.405
X44.5 Y0.4
S1000
X44.6 F960
Y9.6
X44.4
Y0.4
X44.5
X44.519 Y0.406
X44.531 Y0.421
X44.533 Y0.44
X44.5 Y0.6
Y1.634
S5000
Y0.5 Z-2.9 F100
X44.477 Y0.434
X44.476 Y0.418
X44.485 Y0.405
X44.5 Y0.4
S1000
X44.6 F960
Y9.6
X44.4
Y0.4
X44.5
G0 Z15

(2D Pocket1 74)
X46.5 Y0.7
Z15
Z3
G1 Z2.5 F25
S5000
Y0.476 Z2.461 F100
Y4.396 Z1.769
Y0.476 Z1.078
Y4.396 Z0.387
Y0.5 Z-0.3
X46.477 Y0.434
X46.476 Y0.418
X46.485 Y0.405
X46.5 Y0.4
S1000
X46.6 F980
Y9.6
X46.4
Y0.4
X46.5
X46.519 Y0.406
X46.531 Y0.421
X46.533 Y0.44
X46.5 Y0.6
Y2.201
S5000
Y0.5 Z-0.6 F100
X46.477 Y0.434
X46.476 Y0.418
X46.485 Y0.405
X46.5 Y0.4
S1000
X46.6 F980
Y9.6
X46.4
Y0.4
X46.5
X46.519 Y0.406
X46.531 Y0.421
X46.533 Y0.44
X46.5 Y0.6
Y2.201
S5000
Y0.5 Z-0.9 F100
X46.477 Y0.434
X46.476 Y0.418
X46.485 Y0.405
X46.5 Y0.4
S1000
X46.6 F980
Y9.6
X46.4
Y0.4
X46.5
X46.519 Y0.406
X46.531 Y0.421
X46.533 Y0.44
X46.5 Y0.6
Y2.201
S5000
Y0.5 Z-1.2 F100
X46.477 Y0.434
X46.476 Y0.418
X46.485 Y0.405
X46.5 Y0.4
S1000
X46.6 F980
Y9.6
X46.4
Y0.4
X46.5
X46.519 Y0.406
X46.531 Y0.421
X46.533 Y0.44
X46.5 Y0.6
Y2.201
S5000
Y0.5 Z-1.5 F100
X46.477 Y0.434
X46.476 Y0.418
X46.485 Y0.405
X46.5 Y0.4
S1000
X46.6 F980
Y9.6
X46.4
Y0.4
X46.5
X46.519 Y0.406
X46.531 Y0.421
X46.533 Y0.44
X46.5 Y0.6
Y2.201
S5000
Y0.5 Z-1.8 F100
X46.477 Y0.434
X46.476 Y0.418
X46.485 Y0.405
X46.5 Y0.4
S1000
X46.6 F980
Y9.6
X46.4
Y0.4
X46.5
X46.519 Y0.406
X46.531 Y0.421
X46.533 Y0.44
X46.5 Y0.6
Y2.201
S5000
Y0.5 Z-2.1 F100
X46.477 Y0.434
X46.476 Y0.418
X46.485 Y0.405
X46.5 Y0.4
S1000
X46.6 F980
Y9.6
X46.4
Y0.4
X46.5
X46.519 Y0.406
X46.531 Y0.421
X46.533 Y0.44
X46.5 Y0.6
Y2.201
S5000
Y0.5 Z-2.4 F100
X46.477 Y0.434
X46.476 Y0.418
X46.485 Y0.405
X46.5 Y0.4
S1000
X46.6 F980
Y9.6
X46.4
Y0.4
X46.5
X46.519 Y0.406
X46.531 Y0.421
X46.533 Y0.44
X46.5 Y0.6
Y2.201
S5000
Y0.5 Z-2.7 F100
X46.477 Y0.434
X46.476 Y0.418
X46.485 Y0.405
X46.5 Y0.4
S1000
X46.6 F980
Y9.6
X46.4
Y0.4
X46.5
X46.519 Y0.406
X46.531 Y0.421
X46.533 Y0.44
X46.5 Y0.6
Y1.634
S5000
Y0.5 Z-2.9 F100
X46.477 Y0.434
X46.476 Y0.418
X46.485 Y0.405
X46.5 Y0.4
S1000
X46.6 F980
Y9.6
X46.4
Y0.4
X46.5
G0 Z15

(2D Pocket1 75)
X48.5 Y0.7
Z15
Z3
G1 Z2.5 F25
S5000
Y0.476 Z2.461 F100
Y4.396 Z1.769
Y0.476 Z1.078
Y4.396 Z0.387
Y0.5 Z-0.3
X48.477 Y0.434
X48.476 Y0.418
X48.485 Y0.405
X48.5 Y0.4
S1000
X48.6 F1000
Y9.6
X48.4
Y0.4
X48.5
X48.519 Y0.406
X48.531 Y0.421
X48.533 Y0.44
X48.5 Y0.6
Y2.201
S5000
Y0.5 Z-0.6 F100
X48.477 Y0.434
X48.476 Y0.418
X48.485 Y0.405
X48.5 Y0.4
S1000
X48.6 F1000
Y9.6
X48.4
Y0.4
X48.5
X48.519 Y0.406
X48.531 Y0.421
X48.533 Y0.44
X48.5 Y0.6
Y2.201
S5000
Y0.5 Z-0.9 F100
X48.477 Y0.434
X48.476 Y0.418
X48.485 Y0.405
X48.5 Y0.4
S1000
X48.6 F1000
Y9.6
X48.4
Y0.4
X48.5
X48.519 Y0.406
X48.531 Y0.421
X48.533 Y0.44
X48.5 Y0.6
Y2.201
S5000
Y0.5 Z-1.2 F100
X48.477 Y0.434
X48.476 Y0.418
X48.485 Y0.405
X48.5 Y0.4
S1000
X48.6 F1000
Y9.6
X48.4
Y0.4
X48.5
X48.519 Y0.406
X48.531 Y0.421
X48.533 Y0.44
X48.5 Y0.6
Y2.201
S5000
Y0.5 Z-1.5 F100
X48.477 Y0.434
X48.476 Y0.418
X48.485 Y0.405
X48.5 Y0.4
S1000
X48.6 F1000
Y9.6
X48.4
Y0.4
X48.5
X48.519 Y0.406
X48.531 Y0.421
X48.533 Y0.44
X48.5 Y0.6
Y2.201
S5000
Y0.5 Z-1.8 F100
X48.477 Y0.434
X48.476 Y0.418
X48.485 Y0.405
X48.5 Y0.4
S1000
X48.6 F1000
Y9.6
X48.4
Y0.4
X48.5
X48.519 Y0.406
X48.531 Y0.421
X48.533 Y0.44
X48.5 Y0.6
Y2.201
S5000
Y0.5 Z-2.1 F100
X48.477 Y0.434
X48.476 Y0.418
X48.485 Y0.405
X48.5 Y0.4
S1000
X48.6 F1000
Y9.6
X48.4
Y0.4
X48.5
X48.519 Y0.406
X48.531 Y0.421
X48.533 Y0.44
X48.5 Y0.6
Y2.201
S5000
Y0.5 Z-2.4 F100
X48.477 Y0.434
X48.476 Y0.418
X48.485 Y0.405
X48.5 Y0.4
S1000
X48.6 F1000
Y9.6
X48.4
Y0.4
X48.5
X48.519 Y0.406
X48.531 Y0.421
X48.533 Y0.44
X48.5 Y0.6
Y2.201
S5000
Y0.5 Z-2.7 F100
X48.477 Y0.434
X48.476 Y0.418
X48.485 Y0.405
X48.5 Y0.4
S1000
X48.6 F1000
Y9.6
X48.4
Y0.4
X48.5
X48.519 Y0.406
X48.531 Y0.421
X48.533 Y0.44
X48.5 Y0.6
Y1.634
S5000
Y0.5 Z-2.9 F100
X48.477 Y0.434
X48.476 Y0.418
X48.485 Y0.405
X48.5 Y0.4
S1000
X48.6 F1000
Y9.6
X48.4
Y0.4
X48.5
G0 Z15

(2D Pocket1 76)
X50.5 Y9.3
Z15
Z3
G1 Z2.5 F25
S5000
Y9.524 Z2.461 F100
Y5.604 Z1.769
Y9.524 Z1.078
Y5.604 Z0.387
Y9.5 Z-0.3
X50.523 Y9.566
X50.524 Y9.582
X50.515 Y9.595
X50.5 Y9.6
S1000
X50.4 F1020
Y0.4
X50.6
Y9.6
X50.5
X50.481 Y9.594
X50.469 Y9.579
X50.467 Y9.56
X50.5 Y9.4
Y7.799
S5000
Y9.5 Z-0.6 F100
X50.523 Y9.566
X50.524 Y9.582
X50.515 Y9.595
X50.5 Y9.6
S1000
X50.4 F1020
Y0.4
X50.6
Y9.6
X50.5
X50.481 Y9.594
X50.469 Y9.579
X50.467 Y9.56
X50.5 Y9.4
Y7.799
S5000
Y9.5 Z-0.9 F100
X50.523 Y9.566
X50.524 Y9.582
X50.515 Y9.595
X50.5 Y9.6
S1000
X50.4 F1020
Y0.4
X50.6
Y9.6
X50.5
X50.481 Y9.594
X50.469 Y9.579
X50.467 Y9.56
X50.5 Y9.4
Y7.799
S5000
Y9.5 Z-1.2 F100
X50.523 Y9.566
X50.524 Y9.582
X50.515 Y9.595
X50.5 Y9.6
S1000
X50.4 F1020
Y0.4
X50.6
Y9.6
X50.5
X50.481 Y9.594
X50.469 Y9.579
X50.467 Y9.56
X50.5 Y9.4
Y7.799
S5000
Y9.5 Z-1.5 F100
X50.523 Y9.566
X50.524 Y9.582
X50.515 Y9.595
X50.5 Y9.6
S1000
X50.4 F1020
Y0.4
X50.6
Y9.6
X50.5
X50.481 Y9.594
X50.469 Y9.579
X50.467 Y9.56
X50.5 Y9.4
Y7.799
S5000
Y9.5 Z-1.8 F100
X50.523 Y9.566
X50.524 Y9.582
X50.515 Y9.595
X50.5 Y9.6
S1000
X50.4 F1020
Y0.4
X50.6
Y9.6
X50.5
X50.481 Y9.594
X50.469 Y9.579
X50.467 Y9.56
X50.5 Y9.4
Y7.799
S5000
Y9.5 Z-2.1 F100
X50.523 Y9.566
X50.524 Y9.582
X50.515 Y9.595
X50.5 Y9.6
S1000
X50.4 F1020
Y0.4
X50.6
Y9.6
X50.5
X50.481 Y9.594
X50.469 Y9.579
X50.467 Y9.56
X50.5 Y9.4
Y7.799
S5000
Y9.5 Z-2.4 F100
X50.523 Y9.566
X50.524 Y9.582
X50.515 Y9.595
X50.5 Y9.6
S1000
X50.4 F1020
Y0.4
X50.6
Y9.6
X50.5
X50.481 Y9.594
X50.469 Y9.579
X50.467 Y9.56
X50.5 Y9.4
Y7.799
S5000
Y9.5 Z-2.7 F100
X50.523 Y9.566
X50.524 Y9.582
X50.515 Y9.595
X50.5 Y9.6
S1000
X50.4 F1020
Y0.4
X50.6
Y9.6
X50.5
X50.481 Y9.594
X50.469 Y9.579
X50.467 Y9.56
X50.5 Y9.4
Y8.366
S5000
Y9.5 Z-2.9 F100
X50.523 Y9.566
X50.524 Y9.582
X50.515 Y9.595
X50.5 Y9.6
S1000
X50.4 F1020
Y0.4
X50.6
Y9.6
X50.5
G0 Z15

(2D Pocket1 77)
X52.5 Y0.7
Z15
Z3
G1 Z2.5 F25
S5000
Y0.476 Z2.461 F100
Y4.396 Z1.769
Y0.476 Z1.078
Y4.396 Z0.387
Y0.5 Z-0.3
X52.477 Y0.434
X52.476 Y0.418
X52.485 Y0.405
X52.5 Y0.4
S1000
X52.6 F1040
Y9.6
X52.4
Y0.4
X52.5
X52.519 Y0.406
X52.531 Y0.421
X52.533 Y0.44
X52.5 Y0.6
Y2.201
S5000
Y0.5 Z-0.6 F100
X52.477 Y0.434
X52.476 Y0.418
X52.485 Y0.405
X52.5 Y0.4
S1000
X52.6 F1040
Y9.6
X52.4
Y0.4
X52.5
X52.519 Y0.406
X52.531 Y0.421
X52.533 Y0.44
X52.5 Y0.6
Y2.201
S5000
Y0.5 Z-0.9 F100
X52.477 Y0.434
X52.476 Y0.418
X52.485 Y0.405
X52.5 Y0.4
S1000
X52.6 F1040
Y9.6
X52.4
Y0.4
X52.5
X52.519 Y0.406
X52.531 Y0.421
X52.533 Y0.44
X52.5 Y0.6
Y2.201
S5000
Y0.5 Z-1.2 F100
X52.477 Y0.434
X52.476 Y0.418
X52.485 Y0.405
X52.5 Y0.4
S1000
X52.6 F1040
Y9.6
X52.4
Y0.4
X52.5
X52.519 Y0.406
X52.531 Y0.421
X52.533 Y0.44
X52.5 Y0.6
Y2.201
S5000
Y0.5 Z-1.5 F100
X52.477 Y0.434
X52.476 Y0.418
X52.485 Y0.405
X52.5 Y0.4
S1000
X52.6 F1040
Y9.6
X52.4
Y0.4
X52.5
X52.519 Y0.406
X52.531 Y0.421
X52.533 Y0.44
X52.5 Y0.6
Y2.201
S5000
Y0.5 Z-1.8 F100
X52.477 Y0.434
X52.476 Y0.418
X52.485 Y0.405
X52.5 Y0.4
S1000
X52.6 F1040
Y9.6
X52.4
Y0.4
X52.5
X52.519 Y0.406
X52.531 Y0.421
X52.533 Y0.44
X52.5 Y0.6
Y2.201
S5000
Y0.5 Z-2.1 F100
X52.477 Y0.434
X52.476 Y0.418
X52.485 Y0.405
X52.5 Y0.4
S1000
X52.6 F1040
Y9.6
X52.4
Y0.4
X52.5
X52.519 Y0.406
X52.531 Y0.421
X52.533 Y0.44
X52.5 Y0.6
Y2.201
S5000
Y0.5 Z-2.4 F100
X52.477 Y0.434
X52.476 Y0.418
X52.485 Y0.405
X52.5 Y0.4
S1000
X52.6 F1040
Y9.6
X52.4
Y0.4
X52.5
X52.519 Y0.406
X52.531 Y0.421
X52.533 Y0.44
X52.5 Y0.6
Y2.201
S5000
Y0.5 Z-2.7 F100
X52.477 Y0.434
X52.476 Y0.418
X52.485 Y0.405
X52.5 Y0.4
S1000
X52.6 F1040
Y9.6
X52.4
Y0.4
X52.5
X52.519 Y0.406
X52.531 Y0.421
X52.533 Y0.44
X52.5 Y0.6
Y1.634
S5000
Y0.5 Z-2.9 F100
X52.477 Y0.434
X52.476 Y0.418
X52.485 Y0.405
X52.5 Y0.4
S1000
X52.6 F1040
Y9.6
X52.4
Y0.4
X52.5
G0 Z15

(2D Pocket1 78)
X54.5 Y9.3
Z15
Z3
G1 Z2.5 F25
S5000
Y9.524 Z2.461 F100
Y5.604 Z1.769
Y9.524 Z1.078
Y5.604 Z0.387
Y9.5 Z-0.3
X54.523 Y9.566
X54.524 Y9.582
X54.515 Y9.595
X54.5 Y9.6
S1000
X54.4 F1060
Y0.4
X54.6
Y9.6
X54.5
X54.481 Y9.594
X54.469 Y9.579
X54.467 Y9.56
X54.5 Y9.4
Y7.799
S5000
Y9.5 Z-0.6 F100
X54.523 Y9.566
X54.524 Y9.582
X54.515 Y9.595
X54.5 Y9.6
S1000
X54.4 F1060
Y0.4
X54.6
Y9.6
X54.5
X54.481 Y9.594
X54.469 Y9.579
X54.467 Y9.56
X54.5 Y9.4
Y7.799
S5000
Y9.5 Z-0.9 F100
X54.523 Y9.566
X54.524 Y9.582
X54.515 Y9.595
X54.5 Y9.6
S1000
X54.4 F1060
Y0.4
X54.6
Y9.6
X54.5
X54.481 Y9.594
X54.469 Y9.579
X54.467 Y9.56
X54.5 Y9.4
Y7.799
S5000
Y9.5 Z-1.2 F100
X54.523 Y9.566
X54.524 Y9.582
X54.515 Y9.595
X54.5 Y9.6
S1000
X54.4 F1060
Y0.4
X54.6
Y9.6
X54.5
X54.481 Y9.594
X54.469 Y9.579
X54.467 Y9.56
X54.5 Y9.4
Y7.799
S5000
Y9.5 Z-1.5 F100
X54.523 Y9.566
X54.524 Y9.582
X54.515 Y9.595
X54.5 Y9.6
S1000
X54.4 F1060
Y0.4
X54.6
Y9.6
X54.5
X54.481 Y9.594
X54.469 Y9.579
X54.467 Y9.56
X54.5 Y9.4
Y7.799
S5000
Y9.5 Z-1.8 F100
X54.523 Y9.566
X54.524 Y9.582
X54.515 Y9.595
X54.5 Y9.6
S1000
X54.4 F1060
Y0.4
X54.6
Y9.6
X54.5
X54.481 Y9.594
X54.469 Y9.579
X54.467 Y9.56
X54.5 Y9.4
Y7.799
S5000
Y9.5 Z-2.1 F100
X54.523 Y9.566
X54.524 Y9.582
X54.515 Y9.595
X54.5 Y9.6
S1000
X54.4 F1060
Y0.4
X54.6
Y9.6
X54.5
X54.481 Y9.594
X54.469 Y9.579
X54.467 Y9.56
X54.5 Y9.4
Y7.799
S5000
Y9.5 Z-2.4 F100
X54.523 Y9.566
X54.524 Y9.582
X54.515 Y9.595
X54.5 Y9.6
S1000
X54.4 F1060
Y0.4
X54.6
Y9.6
X54.5
X54.481 Y9.594
X54.469 Y9.579
X54.467 Y9.56
X54.5 Y9.4
Y7.799
S5000
Y9.5 Z-2.7 F100
X54.523 Y9.566
X54.524 Y9.582
X54.515 Y9.595
X54.5 Y9.6
S1000
X54.4 F1060
Y0.4
X54.6
Y9.6
X54.5
X54.481 Y9.594
X54.469 Y9.579
X54.467 Y9.56
X54.5 Y9.4
Y8.366
S5000
Y9.5 Z-2.9 F100
X54.523 Y9.566
X54.524 Y9.582
X54.515 Y9.595
X54.5 Y9.6
S1000
X54.4 F1060
Y0.4
X54.6
Y9.6
X54.5
G0 Z15

(2D Pocket1 79)
X56.5 Y0.7
Z15
Z3
G1 Z2.5 F25
S5000
Y0.476 Z2.461 F100
Y4.396 Z1.769
Y0.476 Z1.078
Y4.396 Z0.387
Y0.5 Z-0.3
X56.477 Y0.434
X56.476 Y0.418
X56.485 Y0.405
X56.5 Y0.4
S1000
X56.6 F1080
Y9.6
X56.4
Y0.4
X56.5
X56.519 Y0.406
X56.531 Y0.421
X56.533 Y0.44
X56.5 Y0.6
Y2.201
S5000
Y0.5 Z-0.6 F100
X56.477 Y0.434
X56.476 Y0.418
X56.485 Y0.405
X56.5 Y0.4
S1000
X56.6 F1080
Y9.6
X56.4
Y0.4
X56.5
X56.519 Y0.406
X56.531 Y0.421
X56.533 Y0.44
X56.5 Y0.6
Y2.201
S5000
Y0.5 Z-0.9 F100
X56.477 Y0.434
X56.476 Y0.418
X56.485 Y0.405
X56.5 Y0.4
S1000
X56.6 F1080
Y9.6
X56.4
Y0.4
X56.5
X56.519 Y0.406
X56.531 Y0.421
X56.533 Y0.44
X56.5 Y0.6
Y2.201
S5000
Y0.5 Z-1.2 F100
X56.477 Y0.434
X56.476 Y0.418
X56.485 Y0.405
X56.5 Y0.4
S1000
X56.6 F1080
Y9.6
X56.4
Y0.4
X56.5
X56.519 Y0.406
X56.531 Y0.421
X56.533 Y0.44
X56.5 Y0.6
Y2.201
S5000
Y0.5 Z-1.5 F100
X56.477 Y0.434
X56.476 Y0.418
X56.485 Y0.405
X56.5 Y0.4
S1000
X56.6 F1080
Y9.6
X56.4
Y0.4
X56.5
X56.519 Y0.406
X56.531 Y0.421
X56.533 Y0.44
X56.5 Y0.6
Y2.201
S5000
Y0.5 Z-1.8 F100
X56.477 Y0.434
X56.476 Y0.418
X56.485 Y0.405
X56.5 Y0.4
S1000
X56.6 F1080
Y9.6
X56.4
Y0.4
X56.5
X56.519 Y0.406
X56.531 Y0.421
X56.533 Y0.44
X56.5 Y0.6
Y2.201
S5000
Y0.5 Z-2.1 F100
X56.477 Y0.434
X56.476 Y0.418
X56.485 Y0.405
X56.5 Y0.4
S1000
X56.6 F1080
Y9.6
X56.4
Y0.4
X56.5
X56.519 Y0.406
X56.531 Y0.421
X56.533 Y0.44
X56.5 Y0.6
Y2.201
S5000
Y0.5 Z-2.4 F100
X56.477 Y0.434
X56.476 Y0.418
X56.485 Y0.405
X56.5 Y0.4
S1000
X56.6 F1080
Y9.6
X56.4
Y0.4
X56.5
X56.519 Y0.406
X56.531 Y0.421
X56.533 Y0.44
X56.5 Y0.6
Y2.201
S5000
Y0.5 Z-2.7 F100
X56.477 Y0.434
X56.476 Y0.418
X56.485 Y0.405
X56.5 Y0.4
S1000
X56.6 F1080
Y9.6
X56.4
Y0.4
X56.5
X56.519 Y0.406
X56.531 Y0.421
X56.533 Y0.44
X56.5 Y0.6
Y1.634
S5000
Y0.5 Z-2.9 F100
X56.477 Y0.434
X56.476 Y0.418
X56.485 Y0.405
X56.5 Y0.4
S1000
X56.6 F1080
Y9.6
X56.4
Y0.4
X56.5
G0 Z15

(2D Pocket1 80)
X58.5 Y9.3
Z15
Z3
G1 Z2.5 F25
S5000
Y9.524 Z2.461 F100
Y5.604 Z1.769
Y9.524 Z1.078
Y5.604 Z0.387
Y9.5 Z-0.3
X58.523 Y9.566
X58.524 Y9.582
X58.515 Y9.595
X58.5 Y9.6
S1000
X58.4 F1100
Y0.4
X58.6
Y9.6
X58.5
X58.481 Y9.594
X58.469 Y9.579
X58.467 Y9.56
X58.5 Y9.4
Y7.799
S5000
Y9.5 Z-0.6 F100
X58.523 Y9.566
X58.524 Y9.582
X58.515 Y9.595
X58.5 Y9.6
S1000
X58.4 F1100
Y0.4
X58.6
Y9.6
X58.5
X58.481 Y9.594
X58.469 Y9.579
X58.467 Y9.56
X58.5 Y9.4
Y7.799
S5000
Y9.5 Z-0.9 F100
X58.523 Y9.566
X58.524 Y9.582
X58.515 Y9.595
X58.5 Y9.6
S1000
X58.4 F1100
Y0.4
X58.6
Y9.6
X58.5
X58.481 Y9.594
X58.469 Y9.579
X58.467 Y9.56
X58.5 Y9.4
Y7.799
S5000
Y9.5 Z-1.2 F100
X58.523 Y9.566
X58.524 Y9.582
X58.515 Y9.595
X58.5 Y9.6
S1000
X58.4 F1100
Y0.4
X58.6
Y9.6
X58.5
X58.481 Y9.594
X58.469 Y9.579
X58.467 Y9.56
X58.5 Y9.4
Y7.799
S5000
Y9.5 Z-1.5 F100
X58.523 Y9.566
X58.524 Y9.582
X58.515 Y9.595
X58.5 Y9.6
S1000
X58.4 F1100
Y0.4
X58.6
Y9.6
X58.5
X58.481 Y9.594
X58.469 Y9.579
X58.467 Y9.56
X58.5 Y9.4
Y7.799
S5000
Y9.5 Z-1.8 F100
X58.523 Y9.566
X58.524 Y9.582
X58.515 Y9.595
X58.5 Y9.6
S1000
X58.4 F1100
Y0.4
X58.6
Y9.6
X58.5
X58.481 Y9.594
X58.469 Y9.579
X58.467 Y9.56
X58.5 Y9.4
Y7.799
S5000
Y9.5 Z-2.1 F100
X58.523 Y9.566
X58.524 Y9.582
X58.515 Y9.595
X58.5 Y9.6
S1000
X58.4 F1100
Y0.4
X58.6
Y9.6
X58.5
X58.481 Y9.594
X58.469 Y9.579
X58.467 Y9.56
X58.5 Y9.4
Y7.799
S5000
Y9.5 Z-2.4 F100
X58.523 Y9.566
X58.524 Y9.582
X58.515 Y9.595
X58.5 Y9.6
S1000
X58.4 F1100
Y0.4
X58.6
Y9.6
X58.5
X58.481 Y9.594
X58.469 Y9.579
X58.467 Y9.56
X58.5 Y9.4
Y7.799
S5000
Y9.5 Z-2.7 F100
X58.523 Y9.566
X58.524 Y9.582
X58.515 Y9.595
X58.5 Y9.6
S1000
X58.4 F1100
Y0.4
X58.6
Y9.6
X58.5
X58.481 Y9.594
X58.469 Y9.579
X58.467 Y9.56
X58.5 Y9.4
Y8.366
S5000
Y9.5 Z-2.9 F100
X58.523 Y9.566
X58.524 Y9.582
X58.515 Y9.595
X58.5 Y9.6
S1000
X58.4 F1100
Y0.4
X58.6
Y9.6
X58.5
G0 Z15

(2D Pocket1 81)
X60.5 Y0.7
Z15
Z3
G1 Z2.5 F25
S5000
Y0.476 Z2.461 F100
Y4.396 Z1.769
Y0.476 Z1.078
Y4.396 Z0.387
Y0.5 Z-0.3
X60.477 Y0.434
X60.476 Y0.418
X60.485 Y0.405
X60.5 Y0.4
S1000
X60.6 F1120
Y9.6
X60.4
Y0.4
X60.5
X60.519 Y0.406
X60.531 Y0.421
X60.533 Y0.44
X60.5 Y0.6
Y2.201
S5000
Y0.5 Z-0.6 F100
X60.477 Y0.434
X60.476 Y0.418
X60.485 Y0.405
X60.5 Y0.4
S1000
X60.6 F1120
Y9.6
X60.4
Y0.4
X60.5
X60.519 Y0.406
X60.531 Y0.421
X60.533 Y0.44
X60.5 Y0.6
Y2.201
S5000
Y0.5 Z-0.9 F100
X60.477 Y0.434
X60.476 Y0.418
X60.485 Y0.405
X60.5 Y0.4
S1000
X60.6 F1120
Y9.6
X60.4
Y0.4
X60.5
X60.519 Y0.406
X60.531 Y0.421
X60.533 Y0.44
X60.5 Y0.6
Y2.201
S5000
Y0.5 Z-1.2 F100
X60.477 Y0.434
X60.476 Y0.418
X60.485 Y0.405
X60.5 Y0.4
S1000
X60.6 F1120
Y9.6
X60.4
Y0.4
X60.5
X60.519 Y0.406
X60.531 Y0.421
X60.533 Y0.44
X60.5 Y0.6
Y2.201
S5000
Y0.5 Z-1.5 F100
X60.477 Y0.434
X60.476 Y0.418
X60.485 Y0.405
X60.5 Y0.4
S1000
X60.6 F1120
Y9.6
X60.4
Y0.4
X60.5
X60.519 Y0.406
X60.531 Y0.421
X60.533 Y0.44
X60.5 Y0.6
Y2.201
S5000
Y0.5 Z-1.8 F100
X60.477 Y0.434
X60.476 Y0.418
X60.485 Y0.405
X60.5 Y0.4
S1000
X60.6 F1120
Y9.6
X60.4
Y0.4
X60.5
X60.519 Y0.406
X60.531 Y0.421
X60.533 Y0.44
X60.5 Y0.6
Y2.201
S5000
Y0.5 Z-2.1 F100
X60.477 Y0.434
X60.476 Y0.418
X60.485 Y0.405
X60.5 Y0.4
S1000
X60.6 F1120
Y9.6
X60.4
Y0.4
X60.5
X60.519 Y0.406
X60.531 Y0.421
X60.533 Y0.44
X60.5 Y0.6
Y2.201
S5000
Y0.5 Z-2.4 F100
X60.477 Y0.434
X60.476 Y0.418
X60.485 Y0.405
X60.5 Y0.4
S1000
X60.6 F1120
Y9.6
X60.4
Y0.4
X60.5
X60.519 Y0.406
X60.531 Y0.421
X60.533 Y0.44
X60.5 Y0.6
Y2.201
S5000
Y0.5 Z-2.7 F100
X60.477 Y0.434
X60.476 Y0.418
X60.485 Y0.405
X60.5 Y0.4
S1000
X60.6 F1120
Y9.6
X60.4
Y0.4
X60.5
X60.519 Y0.406
X60.531 Y0.421
X60.533 Y0.44
X60.5 Y0.6
Y1.634
S5000
Y0.5 Z-2.9 F100
X60.477 Y0.434
X60.476 Y0.418
X60.485 Y0.405
X60.5 Y0.4
S1000
X60.6 F1120
Y9.6
X60.4
Y0.4
X60.5
G0 Z15

(2D Pocket1 82)
X62.5 Y9.3
Z15
Z3
G1 Z2.5 F25
S5000
Y9.524 Z2.461 F100
Y5.604 Z1.769
Y9.524 Z1.078
Y5.604 Z0.387
Y9.5 Z-0.3
X62.523 Y9.566
X62.524 Y9.582
X62.515 Y9.595
X62.5 Y9.6
S1000
X62.4 F1140
Y0.4
X62.6
Y9.6
X62.5
X62.481 Y9.594
X62.469 Y9.579
X62.467 Y9.56
X62.5 Y9.4
Y7.799
S5000
Y9.5 Z-0.6 F100
X62.523 Y9.566
X62.524 Y9.582
X62.515 Y9.595
X62.5 Y9.6
S1000
X62.4 F1140
Y0.4
X62.6
Y9.6
X62.5
X62.481 Y9.594
X62.469 Y9.579
X62.467 Y9.56
X62.5 Y9.4
Y7.799
S5000
Y9.5 Z-0.9 F100
X62.523 Y9.566
X62.524 Y9.582
X62.515 Y9.595
X62.5 Y9.6
S1000
X62.4 F1140
Y0.4
X62.6
Y9.6
X62.5
X62.481 Y9.594
X62.469 Y9.579
X62.467 Y9.56
X62.5 Y9.4
Y7.799
S5000
Y9.5 Z-1.2 F100
X62.523 Y9.566
X62.524 Y9.582
X62.515 Y9.595
X62.5 Y9.6
S1000
X62.4 F1140
Y0.4
X62.6
Y9.6
X62.5
X62.481 Y9.594
X62.469 Y9.579
X62.467 Y9.56
X62.5 Y9.4
Y7.799
S5000
Y9.5 Z-1.5 F100
X62.523 Y9.566
X62.524 Y9.582
X62.515 Y9.595
X62.5 Y9.6
S1000
X62.4 F1140
Y0.4
X62.6
Y9.6
X62.5
X62.481 Y9.594
X62.469 Y9.579
X62.467 Y9.56
X62.5 Y9.4
Y7.799
S5000
Y9.5 Z-1.8 F100
X62.523 Y9.566
X62.524 Y9.582
X62.515 Y9.595
X62.5 Y9.6
S1000
X62.4 F1140
Y0.4
X62.6
Y9.6
X62.5
X62.481 Y9.594
X62.469 Y9.579
X62.467 Y9.56
X62.5 Y9.4
Y7.799
S5000
Y9.5 Z-2.1 F100
X62.523 Y9.566
X62.524 Y9.582
X62.515 Y9.595
X62.5 Y9.6
S1000
X62.4 F1140
Y0.4
X62.6
Y9.6
X62.5
X62.481 Y9.594
X62.469 Y9.579
X62.467 Y9.56
X62.5 Y9.4
Y7.799
S5000
Y9.5 Z-2.4 F100
X62.523 Y9.566
X62.524 Y9.582
X62.515 Y9.595
X62.5 Y9.6
S1000
X62.4 F1140
Y0.4
X62.6
Y9.6
X62.5
X62.481 Y9.594
X62.469 Y9.579
X62.467 Y9.56
X62.5 Y9.4
Y7.799
S5000
Y9.5 Z-2.7 F100
X62.523 Y9.566
X62.524 Y9.582
X62.515 Y9.595
X62.5 Y9.6
S1000
X62.4 F1140
Y0.4
X62.6
Y9.6
X62.5
X62.481 Y9.594
X62.469 Y9.579
X62.467 Y9.56
X62.5 Y9.4
Y8.366
S5000
Y9.5 Z-2.9 F100
X62.523 Y9.566
X62.524 Y9.582
X62.515 Y9.595
X62.5 Y9.6
S1000
X62.4 F1140
Y0.4
X62.6
Y9.6
X62.5
G0 Z15

(2D Pocket1 83)
X64.5 Y0.7
Z15
Z3
G1 Z2.5 F25
S5000
Y0.476 Z2.461 F100
Y4.396 Z1.769
Y0.476 Z1.078
Y4.396 Z0.387
Y0.5 Z-0.3
X64.507 Y0.475
X64.525 Y0.457
X64.55 Y0.45
X64.575 Y0.457
X64.593 Y0.475
X64.6 Y0.5
S1000
Y9.6 F1160
X64.4
Y0.4
X64.6
Y0.5
X64.596 Y0.516
X64.584 Y0.528
X64.516 Y0.572
X64.504 Y0.584
X64.5 Y0.6
Y2.201
S5000
Y0.5 Z-0.6 F100
X64.507 Y0.475
X64.525 Y0.457
X64.55 Y0.45
X64.575 Y0.457
X64.593 Y0.475
X64.6 Y0.5
S1000
Y9.6 F1160
X64.4
Y0.4
X64.6
Y0.5
X64.596 Y0.516
X64.584 Y0.528
X64.516 Y0.572
X64.504 Y0.584
X64.5 Y0.6
Y2.201
S5000
Y0.5 Z-0.9 F100
X64.507 Y0.475
X64.525 Y0.457
X64.55 Y0.45
X64.575 Y0.457
X64.593 Y0.475
X64.6 Y0.5
S1000
Y9.6 F1160
X64.4
Y0.4
X64.6
Y0.5
X64.596 Y0.516
X64.584 Y0.528
X64.516 Y0.572
X64.504 Y0.584
X64.5 Y0.6
Y2.201
S5000
Y0.5 Z-1.2 F100
X64.507 Y0.475
X64.525 Y0.457
X64.55 Y0.45
X64.575 Y0.457
X64.593 Y0.475
X64.6 Y0.5
S1000
Y9.6 F1160
X64.4
Y0.4
X64.6
Y0.5
X64.596 Y0.516
X64.584 Y0.528
X64.516 Y0.572
X64.504 Y0.584
X64.5 Y0.6
Y2.201
S5000
Y0.5 Z-1.5 F100
X64.507 Y0.475
X64.525 Y0.457
X64.55 Y0.45
X64.575 Y0.457
X64.593 Y0.475
X64.6 Y0.5
S1000
Y9.6 F1160
X64.4
Y0.4
X64.6
Y0.5
X64.596 Y0.516
X64.584 Y0.528
X64.516 Y0.572
X64.504 Y0.584
X64.5 Y0.6
Y2.201
S5000
Y0.5 Z-1.8 F100
X64.507 Y0.475
X64.525 Y0.457
X64.55 Y0.45
X64.575 Y0.457
X64.593 Y0.475
X64.6 Y0.5
S1000
Y9.6 F1160
X64.4
Y0.4
X64.6
Y0.5
X64.596 Y0.516
X64.584 Y0.528
X64.516 Y0.572
X64.504 Y0.584
X64.5 Y0.6
Y2.201
S5000
Y0.5 Z-2.1 F100
X64.507 Y0.475
X64.525 Y0.457
X64.55 Y0.45
X64.575 Y0.457
X64.593 Y0.475
X64.6 Y0.5
S1000
Y9.6 F1160
X64.4
Y0.4
X64.6
Y0.5
X64.596 Y0.516
X64.584 Y0.528
X64.516 Y0.572
X64.504 Y0.584
X64.5 Y0.6
Y2.201
S5000
Y0.5 Z-2.4 F100
X64.507 Y0.475
X64.525 Y0.457
X64.55 Y0.45
X64.575 Y0.457
X64.593 Y0.475
X64.6 Y0.5
S1000
Y9.6 F1160
X64.4
Y0.4
X64.6
Y0.5
X64.596 Y0.516
X64.584 Y0.528
X64.516 Y0.572
X64.504 Y0.584
X64.5 Y0.6
Y2.201
S5000
Y0.5 Z-2.7 F100
X64.507 Y0.475
X64.525 Y0.457
X64.55 Y0.45
X64.575 Y0.457
X64.593 Y0.475
X64.6 Y0.5
S1000
Y9.6 F1160
X64.4
Y0.4
X64.6
Y0.5
X64.596 Y0.516
X64.584 Y0.528
X64.516 Y0.572
X64.504 Y0.584
X64.5 Y0.6
Y1.634
S5000
Y0.5 Z-2.9 F100
X64.507 Y0.475
X64.525 Y0.457
X64.55 Y0.45
X64.575 Y0.457
X64.593 Y0.475
X64.6 Y0.5
S1000
Y9.6 F1160
X64.4
Y0.4
X64.6
Y0.5
G0 Z15

(2D Pocket1 84)
X66.5 Y0.7
Z15
Z3
G1 Z2.5 F25
S5000
Y0.476 Z2.461 F100
Y4.396 Z1.769
Y0.476 Z1.078
Y4.396 Z0.387
Y0.5 Z-0.3
X66.507 Y0.475
X66.525 Y0.457
X66.55 Y0.45
X66.575 Y0.457
X66.593 Y0.475
X66.6 Y0.5
S1000
Y9.6 F1180
X66.4
Y0.4
X66.6
Y0.5
X66.596 Y0.516
X66.584 Y0.528
X66.516 Y0.572
X66.504 Y0.584
X66.5 Y0.6
Y2.201
S5000
Y0.5 Z-0.6 F100
X66.507 Y0.475
X66.525 Y0.457
X66.55 Y0.45
X66.575 Y0.457
X66.593 Y0.475
X66.6 Y0.5
S1000
Y9.6 F1180
X66.4
Y0.4
X66.6
Y0.5
X66.596 Y0.516
X66.584 Y0.528
X66.516 Y0.572
X66.504 Y0.584
X66.5 Y0.6
Y2.201
S5000
Y0.5 Z-0.9 F100
X66.507 Y0.475
X66.525 Y0.457
X66.55 Y0.45
X66.575 Y0.457
X66.593 Y0.475
X66.6 Y0.5
S1000
Y9.6 F1180
X66.4
Y0.4
X66.6
Y0.5
X66.596 Y0.516
X66.584 Y0.528
X66.516 Y0.572
X66.504 Y0.584
X66.5 Y0.6
Y2.201
S5000
Y0.5 Z-1.2 F100
X66.507 Y0.475
X66.525 Y0.457
X66.55 Y0.45
X66.575 Y0.457
X66.593 Y0.475
X66.6 Y0.5
S1000
Y9.6 F1180
X66.4
Y0.4
X66.6
Y0.5
X66.596 Y0.516
X66.584 Y0.528
X66.516 Y0.572
X66.504 Y0.584
X66.5 Y0.6
Y2.201
S5000
Y0.5 Z-1.5 F100
X66.507 Y0.475
X66.525 Y0.457
X66.55 Y0.45
X66.575 Y0.457
X66.593 Y0.475
X66.6 Y0.5
S1000
Y9.6 F1180
X66.4
Y0.4
X66.6
Y0.5
X66.596 Y0.516
X66.584 Y0.528
X66.516 Y0.572
X66.504 Y0.584
X66.5 Y0.6
Y2.201
S5000
Y0.5 Z-1.8 F100
X66.507 Y0.475
X66.525 Y0.457
X66.55 Y0.45
X66.575 Y0.457
X66.593 Y0.475
X66.6 Y0.5
S1000
Y9.6 F1180
X66.4
Y0.4
X66.6
Y0.5
X66.596 Y0.516
X66.584 Y0.528
X66.516 Y0.572
X66.504 Y0.584
X66.5 Y0.6
Y2.201
S5000
Y0.5 Z-2.1 F100
X66.507 Y0.475
X66.525 Y0.457
X66.55 Y0.45
X66.575 Y0.457
X66.593 Y0.475
X66.6 Y0.5
S1000
Y9.6 F1180
X66.4
Y0.4
X66.6
Y0.5
X66.596 Y0.516
X66.584 Y0.528
X66.516 Y0.572
X66.504 Y0.584
X66.5 Y0.6
Y2.201
S5000
Y0.5 Z-2.4 F100
X66.507 Y0.475
X66.525 Y0.457
X66.55 Y0.45
X66.575 Y0.457
X66.593 Y0.475
X66.6 Y0.5
S1000
Y9.6 F1180
X66.4
Y0.4
X66.6
Y0.5
X66.596 Y0.516
X66.584 Y0.528
X66.516 Y0.572
X66.504 Y0.584
X66.5 Y0.6
Y2.201
S5000
Y0.5 Z-2.7 F100
X66.507 Y0.475
X66.525 Y0.457
X66.55 Y0.45
X66.575 Y0.457
X66.593 Y0.475
X66.6 Y0.5
S1000
Y9.6 F1180
X66.4
Y0.4
X66.6
Y0.5
X66.596 Y0.516
X66.584 Y0.528
X66.516 Y0.572
X66.504 Y0.584
X66.5 Y0.6
Y1.634
S5000
Y0.5 Z-2.9 F100
X66.507 Y0.475
X66.525 Y0.457
X66.55 Y0.45
X66.575 Y0.457
X66.593 Y0.475
X66.6 Y0.5
S1000
Y9.6 F1180
X66.4
Y0.4
X66.6
Y0.5
G0 Z15

(2D Pocket1 85)
X68.5 Y0.7
Z15
Z3
G1 Z2.5 F25
S5000
Y0.476 Z2.461 F100
Y4.396 Z1.769
Y0.476 Z1.078
Y4.396 Z0.387
Y0.5 Z-0.3
X68.507 Y0.475
X68.525 Y0.457
X68.55 Y0.45
X68.575 Y0.457
X68.593 Y0.475
X68.6 Y0.5
S1000
Y9.6 F1200
X68.4
Y0.4
X68.6
Y0.5
X68.596 Y0.516
X68.584 Y0.528
X68.516 Y0.572
X68.504 Y0.584
X68.5 Y0.6
Y2.201
S5000
Y0.5 Z-0.6 F100
X68.507 Y0.475
X68.525 Y0.457
X68.55 Y0.45
X68.575 Y0.457
X68.593 Y0.475
X68.6 Y0.5
S1000
Y9.6 F1200
X68.4
Y0.4
X68.6
Y0.5
X68.596 Y0.516
X68.584 Y0.528
X68.516 Y0.572
X68.504 Y0.584
X68.5 Y0.6
Y2.201
S5000
Y0.5 Z-0.9 F100
X68.507 Y0.475
X68.525 Y0.457
X68.55 Y0.45
X68.575 Y0.457
X68.593 Y0.475
X68.6 Y0.5
S1000
Y9.6 F1200
X68.4
Y0.4
X68.6
Y0.5
X68.596 Y0.516
X68.584 Y0.528
X68.516 Y0.572
X68.504 Y0.584
X68.5 Y0.6
Y2.201
S5000
Y0.5 Z-1.2 F100
X68.507 Y0.475
X68.525 Y0.457
X68.55 Y0.45
X68.575 Y0.457
X68.593 Y0.475
X68.6 Y0.5
S1000
Y9.6 F1200
X68.4
Y0.4
X68.6
Y0.5
X68.596 Y0.516
X68.584 Y0.528
X68.516 Y0.572
X68.504 Y0.584
X68.5 Y0.6
Y2.201
S5000
Y0.5 Z-1.5 F100
X68.507 Y0.475
X68.525 Y0.457
X68.55 Y0.45
X68.575 Y0.457
X68.593 Y0.475
X68.6 Y0.5
S1000
Y9.6 F1200
X68.4
Y0.4
X68.6
Y0.5
X68.596 Y0.516
X68.584 Y0.528
X68.516 Y0.572
X68.504 Y0.584
X68.5 Y0.6
Y2.201
S5000
Y0.5 Z-1.8 F100
X68.507 Y0.475
X68.525 Y0.457
X68.55 Y0.45
X68.575 Y0.457
X68.593 Y0.475
X68.6 Y0.5
S1000
Y9.6 F1200
X68.4
Y0.4
X68.6
Y0.5
X68.596 Y0.516
X68.584 Y0.528
X68.516 Y0.572
X68.504 Y0.584
X68.5 Y0.6
Y2.201
S5000
Y0.5 Z-2.1 F100
X68.507 Y0.475
X68.525 Y0.457
X68.55 Y0.45
X68.575 Y0.457
X68.593 Y0.475
X68.6 Y0.5
S1000
Y9.6 F1200
X68.4
Y0.4
X68.6
Y0.5
X68.596 Y0.516
X68.584 Y0.528
X68.516 Y0.572
X68.504 Y0.584
X68.5 Y0.6
Y2.201
S5000
Y0.5 Z-2.4 F100
X68.507 Y0.475
X68.525 Y0.457
X68.55 Y0.45
X68.575 Y0.457
X68.593 Y0.475
X68.6 Y0.5
S1000
Y9.6 F1200
X68.4
Y0.4
X68.6
Y0.5
X68.596 Y0.516
X68.584 Y0.528
X68.516 Y0.572
X68.504 Y0.584
X68.5 Y0.6
Y2.201
S5000
Y0.5 Z-2.7 F100
X68.507 Y0.475
X68.525 Y0.457
X68.55 Y0.45
X68.575 Y0.457
X68.593 Y0.475
X68.6 Y0.5
S1000
Y9.6 F1200
X68.4
Y0.4
X68.6
Y0.5
X68.596 Y0.516
X68.584 Y0.528
X68.516 Y0.572
X68.504 Y0.584
X68.5 Y0.6
Y1.634
S5000
Y0.5 Z-2.9 F100
X68.507 Y0.475
X68.525 Y0.457
X68.55 Y0.45
X68.575 Y0.457
X68.593 Y0.475
X68.6 Y0.5
S1000
Y9.6 F1200
X68.4
Y0.4
X68.6
Y0.5
G0 Z15

(2D Pocket1 86)
X70.5 Y0.7
Z15
Z3
G1 Z2.5 F25
S5000
Y0.476 Z2.461 F100
Y4.396 Z1.769
Y0.476 Z1.078
Y4.396 Z0.387
Y0.5 Z-0.3
X70.507 Y0.475
X70.525 Y0.457
X70.55 Y0.45
X70.575 Y0.457
X70.593 Y0.475
X70.6 Y0.5
S1000
Y9.6 F1220
X70.4
Y0.4
X70.6
Y0.5
X70.596 Y0.516
X70.584 Y0.528
X70.516 Y0.572
X70.504 Y0.584
X70.5 Y0.6
Y2.201
S5000
Y0.5 Z-0.6 F100
X70.507 Y0.475
X70.525 Y0.457
X70.55 Y0.45
X70.575 Y0.457
X70.593 Y0.475
X70.6 Y0.5
S1000
Y9.6 F1220
X70.4
Y0.4
X70.6
Y0.5
X70.596 Y0.516
X70.584 Y0.528
X70.516 Y0.572
X70.504 Y0.584
X70.5 Y0.6
Y2.201
S5000
Y0.5 Z-0.9 F100
X70.507 Y0.475
X70.525 Y0.457
X70.55 Y0.45
X70.575 Y0.457
X70.593 Y0.475
X70.6 Y0.5
S1000
Y9.6 F1220
X70.4
Y0.4
X70.6
Y0.5
X70.596 Y0.516
X70.584 Y0.528
X70.516 Y0.572
X70.504 Y0.584
X70.5 Y0.6
Y2.201
S5000
Y0.5 Z-1.2 F100
X70.507 Y0.475
X70.525 Y0.457
X70.55 Y0.45
X70.575 Y0.457
X70.593 Y0.475
X70.6 Y0.5
S1000
Y9.6 F1220
X70.4
Y0.4
X70.6
Y0.5
X70.596 Y0.516
X70.584 Y0.528
X70.516 Y0.572
X70.504 Y0.584
X70.5 Y0.6
Y2.201
S5000
Y0.5 Z-1.5 F100
X70.507 Y0.475
X70.525 Y0.457
X70.55 Y0.45
X70.575 Y0.457
X70.593 Y0.475
X70.6 Y0.5
S1000
Y9.6 F1220
X70.4
Y0.4
X70.6
Y0.5
X70.596 Y0.516
X70.584 Y0.528
X70.516 Y0.572
X70.504 Y0.584
X70.5 Y0.6
Y2.201
S5000
Y0.5 Z-1.8 F100
X70.507 Y0.475
X70.525 Y0.457
X70.55 Y0.45
X70.575 Y0.457
X70.593 Y0.475
X70.6 Y0.5
S1000
Y9.6 F1220
X70.4
Y0.4
X70.6
Y0.5
X70.596 Y0.516
X70.584 Y0.528
X70.516 Y0.572
X70.504 Y0.584
X70.5 Y0.6
Y2.201
S5000
Y0.5 Z-2.1 F100
X70.507 Y0.475
X70.525 Y0.457
X70.55 Y0.45
X70.575 Y0.457
X70.593 Y0.475
X70.6 Y0.5
S1000
Y9.6 F1220
X70.4
Y0.4
X70.6
Y0.5
X70.596 Y0.516
X70.584 Y0.528
X70.516 Y0.572
X70.504 Y0.584
X70.5 Y0.6
Y2.201
S5000
Y0.5 Z-2.4 F100
X70.507 Y0.475
X70.525 Y0.457
X70.55 Y0.45
X70.575 Y0.457
X70.593 Y0.475
X70.6 Y0.5
S1000
Y9.6 F1220
X70.4
Y0.4
X70.6
Y0.5
X70.596 Y0.516
X70.584 Y0.528
X70.516 Y0.572
X70.504 Y0.584
X70.5 Y0.6
Y2.201
S5000
Y0.5 Z-2.7 F100
X70.507 Y0.475
X70.525 Y0.457
X70.55 Y0.45
X70.575 Y0.457
X70.593 Y0.475
X70.6 Y0.5
S1000
Y9.6 F1220
X70.4
Y0.4
X70.6
Y0.5
X70.596 Y0.516
X70.584 Y0.528
X70.516 Y0.572
X70.504 Y0.584
X70.5 Y0.6
Y1.634
S5000
Y0.5 Z-2.9 F100
X70.507 Y0.475
X70.525 Y0.457
X70.55 Y0.45
X70.575 Y0.457
X70.593 Y0.475
X70.6 Y0.5
S1000
Y9.6 F1220
X70.4
Y0.4
X70.6
Y0.5
G0 Z15

(2D Pocket1 87)
X72.5 Y9.348
Z15
Z3
G1 Z2.5 F25
S5000
Y9.524 Z2.469 F100
Y5.604 Z1.778
Y9.524 Z1.087
Y5.604 Z0.395
Y9.524 Z-0.296
Y9.5 Z-0.3
X72.506 Y9.479
X72.523 Y9.465
X72.545 Y9.463
X72.564 Y9.473
X72.574 Y9.493
X72.572 Y9.514
X72.558 Y9.531
X72.537 Y9.538
X72.438
X72.419 Y9.532
X72.405 Y9.519
X72.4 Y9.5
S1000
Y0.4 F1240
X72.6
Y9.6
X72.4
Y9.5
X72.404 Y9.484
X72.416 Y9.472
X72.484 Y9.428
X72.496 Y9.416
X72.5 Y9.4
Y7.847
S5000
Y9.524 Z-0.596 F100
Y9.5 Z-0.6
X72.506 Y9.479
X72.523 Y9.465
X72.545 Y9.463
X72.564 Y9.473
X72.574 Y9.493
X72.572 Y9.514
X72.558 Y9.531
X72.537 Y9.538
X72.438
X72.419 Y9.532
X72.405 Y9.519
X72.4 Y9.5
S1000
Y0.4 F1240
X72.6
Y9.6
X72.4
Y9.5
X72.404 Y9.484
X72.416 Y9.472
X72.484 Y9.428
X72.496 Y9.416
X72.5 Y9.4
Y7.847
S5000
Y9.524 Z-0.896 F100
Y9.5 Z-0.9
X72.506 Y9.479
X72.523 Y9.465
X72.545 Y9.463
X72.564 Y9.473
X72.574 Y9.493
X72.572 Y9.514
X72.558 Y9.531
X72.537 Y9.538
X72.438
X72.419 Y9.532
X72.405 Y9.519
X72.4 Y9.5
S1000
Y0.4 F1240
X72.6
Y9.6
X72.4
Y9.5
X72.404 Y9.484
X72.416 Y9.472
X72.484 Y9.428
X72.496 Y9.416
X72.5 Y9.4
Y7.847
S5000
Y9.524 Z-1.196 F100
Y9.5 Z-1.2
X72.506 Y9.479
X72.523 Y9.465
X72.545 Y9.463
X72.564 Y9.473
X72.574 Y9.493
X72.572 Y9.514
X72.558 Y9.531
X72.537 Y9.538
X72.438
X72.419 Y9.532
X72.405 Y9.519
X72.4 Y9.5
S1000
Y0.4 F1240
X72.6
Y9.6
X72.4
Y9.5
X72.404 Y9.484
X72.416 Y9.472
X72.484 Y9.428
X72.496 Y9.416
X72.5 Y9.4
Y7.847
S5000
Y9.524 Z-1.496 F100
Y9.5 Z-1.5
X72.506 Y9.479
X72.523 Y9.465
X72.545 Y9.463
X72.564 Y9.473
X72.574 Y9.493
X72.572 Y9.514
X72.558 Y9.531
X72.537 Y9.538
X72.438
X72.419 Y9.532
X72.405 Y9.519
X72.4 Y9.5
S1000
Y0.4 F1240
X72.6
Y9.6
X72.4
Y9.5
X72.404 Y9.484
X72.416 Y9.472
X72.484 Y9.428
X72.496 Y9.416
X72.5 Y9.4
Y7.847
S5000
Y9.524 Z-1.796 F100
Y9.5 Z-1.8
X72.506 Y9.479
X72.523 Y9.465
X72.545 Y9.463
X72.564 Y9.473
X72.574 Y9.493
X72.572 Y9.514
X72.558 Y9.531
X72.537 Y9.538
X72.438
X72.419 Y9.532
X72.405 Y9.519
X72.4 Y9.5
S1000
Y0.4 F1240
X72.6
Y9.6
X72.4
Y9.5
X72.404 Y9.484
X72.416 Y9.472
X72.484 Y9.428
X72.496 Y9.416
X72.5 Y9.4
Y7.847
S5000
Y9.524 Z-2.096 F100
Y9.5 Z-2.1
X72.506 Y9.479
X72.523 Y9.465
X72.545 Y9.463
X72.564 Y9.473
X72.574 Y9.493
X72.572 Y9.514
X72.558 Y9.531
X72.537 Y9.538
X72.438
X72.419 Y9.532
X72.405 Y9.519
X72.4 Y9.5
S1000
Y0.4 F1240
X72.6
Y9.6
X72.4
Y9.5
X72.404 Y9.484
X72.416 Y9.472
X72.484 Y9.428
X72.496 Y9.416
X72.5 Y9.4
Y7.847
S5000
Y9.524 Z-2.396 F100
Y9.5 Z-2.4
X72.506 Y9.479
X72.523 Y9.465
X72.545 Y9.463
X72.564 Y9.473
X72.574 Y9.493
X72.572 Y9.514
X72.558 Y9.531
X72.537 Y9.538
X72.438
X72.419 Y9.532
X72.405 Y9.519
X72.4 Y9.5
S1000
Y0.4 F1240
X72.6
Y9.6
X72.4
Y9.5
X72.404 Y9.484
X72.416 Y9.472
X72.484 Y9.428
X72.496 Y9.416
X72.5 Y9.4
Y7.847
S5000
Y9.524 Z-2.696 F100
Y9.5 Z-2.7
X72.506 Y9.479
X72.523 Y9.465
X72.545 Y9.463
X72.564 Y9.473
X72.574 Y9.493
X72.572 Y9.514
X72.558 Y9.531
X72.537 Y9.538
X72.438
X72.419 Y9.532
X72.405 Y9.519
X72.4 Y9.5
S1000
Y0.4 F1240
X72.6
Y9.6
X72.4
Y9.5
X72.404 Y9.484
X72.416 Y9.472
X72.484 Y9.428
X72.496 Y9.416
X72.5 Y9.4
Y8.414
S5000
Y9.524 Z-2.896 F100
Y9.5 Z-2.9
X72.506 Y9.479
X72.523 Y9.465
X72.545 Y9.463
X72.564 Y9.473
X72.574 Y9.493
X72.572 Y9.514
X72.558 Y9.531
X72.537 Y9.538
X72.438
X72.419 Y9.532
X72.405 Y9.519
X72.4 Y9.5
S1000
Y0.4 F1240
X72.6
Y9.6
X72.4
Y9.5
G0 Z15

(2D Pocket1 88)
X74.5 Y9.348
Z15
Z3
G1 Z2.5 F25
S5000
Y9.524 Z2.469 F100
Y5.604 Z1.778
Y9.524 Z1.087
Y5.604 Z0.395
Y9.524 Z-0.296
Y9.5 Z-0.3
X74.506 Y9.479
X74.523 Y9.465
X74.545 Y9.463
X74.564 Y9.473
X74.574 Y9.493
X74.572 Y9.514
X74.558 Y9.531
X74.537 Y9.538
X74.438
X74.419 Y9.532
X74.405 Y9.519
X74.4 Y9.5
S1000
Y0.4 F1260
X74.6
Y9.6
X74.4
Y9.5
X74.404 Y9.484
X74.416 Y9.472
X74.484 Y9.428
X74.496 Y9.416
X74.5 Y9.4
Y7.847
S5000
Y9.524 Z-0.596 F100
Y9.5 Z-0.6
X74.506 Y9.479
X74.523 Y9.465
X74.545 Y9.463
X74.564 Y9.473
X74.574 Y9.493
X74.572 Y9.514
X74.558 Y9.531
X74.537 Y9.538
X74.438
X74.419 Y9.532
X74.405 Y9.519
X74.4 Y9.5
S1000
Y0.4 F1260
X74.6
Y9.6
X74.4
Y9.5
X74.404 Y9.484
X74.416 Y9.472
X74.484 Y9.428
X74.496 Y9.416
X74.5 Y9.4
Y7.847
S5000
Y9.524 Z-0.896 F100
Y9.5 Z-0.9
X74.506 Y9.479
X74.523 Y9.465
X74.545 Y9.463
X74.564 Y9.473
X74.574 Y9.493
X74.572 Y9.514
X74.558 Y9.531
X74.537 Y9.538
X74.438
X74.419 Y9.532
X74.405 Y9.519
X74.4 Y9.5
S1000
Y0.4 F1260
X74.6
Y9.6
X74.4
Y9.5
X74.404 Y9.484
X74.416 Y9.472
X74.484 Y9.428
X74.496 Y9.416
X74.5 Y9.4
Y7.847
S5000
Y9.524 Z-1.196 F100
Y9.5 Z-1.2
X74.506 Y9.479
X74.523 Y9.465
X74.545 Y9.463
X74.564 Y9.473
X74.574 Y9.493
X74.572 Y9.514
X74.558 Y9.531
X74.537 Y9.538
X74.438
X74.419 Y9.532
X74.405 Y9.519
X74.4 Y9.5
S1000
Y0.4 F1260
X74.6
Y9.6
X74.4
Y9.5
X74.404 Y9.484
X74.416 Y9.472
X74.484 Y9.428
X74.496 Y9.416
X74.5 Y9.4
Y7.847
S5000
Y9.524 Z-1.496 F100
Y9.5 Z-1.5
X74.506 Y9.479
X74.523 Y9.465
X74.545 Y9.463
X74.564 Y9.473
X74.574 Y9.493
X74.572 Y9.514
X74.558 Y9.531
X74.537 Y9.538
X74.438
X74.419 Y9.532
X74.405 Y9.519
X74.4 Y9.5
S1000
Y0.4 F1260
X74.6
Y9.6
X74.4
Y9.5
X74.404 Y9.484
X74.416 Y9.472
X74.484 Y9.428
X74.496 Y9.416
X74.5 Y9.4
Y7.847
S5000
Y9.524 Z-1.796 F100
Y9.5 Z-1.8
X74.506 Y9.479
X74.523 Y9.465
X74.545 Y9.463
X74.564 Y9.473
X74.574 Y9.493
X74.572 Y9.514
X74.558 Y9.531
X74.537 Y9.538
X74.438
X74.419 Y9.532
X74.405 Y9.519
X74.4 Y9.5
S1000
Y0.4 F1260
X74.6
Y9.6
X74.4
Y9.5
X74.404 Y9.484
X74.416 Y9.472
X74.484 Y9.428
X74.496 Y9.416
X74.5 Y9.4
Y7.847
S5000
Y9.524 Z-2.096 F100
Y9.5 Z-2.1
X74.506 Y9.479
X74.523 Y9.465
X74.545 Y9.463
X74.564 Y9.473
X74.574 Y9.493
X74.572 Y9.514
X74.558 Y9.531
X74.537 Y9.538
X74.438
X74.419 Y9.532
X74.405 Y9.519
X74.4 Y9.5
S1000
Y0.4 F1260
X74.6
Y9.6
X74.4
Y9.5
X74.404 Y9.484
X74.416 Y9.472
X74.484 Y9.428
X74.496 Y9.416
X74.5 Y9.4
Y7.847
S5000
Y9.524 Z-2.396 F100
Y9.5 Z-2.4
X74.506 Y9.479
X74.523 Y9.465
X74.545 Y9.463
X74.564 Y9.473
X74.574 Y9.493
X74.572 Y9.514
X74.558 Y9.531
X74.537 Y9.538
X74.438
X74.419 Y9.532
X74.405 Y9.519
X74.4 Y9.5
S1000
Y0.4 F1260
X74.6
Y9.6
X74.4
Y9.5
X74.404 Y9.484
X74.416 Y9.472
X74.484 Y9.428
X74.496 Y9.416
X74.5 Y9.4
Y7.847
S5000
Y9.524 Z-2.696 F100
Y9.5 Z-2.7
X74.506 Y9.479
X74.523 Y9.465
X74.545 Y9.463
X74.564 Y9.473
X74.574 Y9.493
X74.572 Y9.514
X74.558 Y9.531
X74.537 Y9.538
X74.438
X74.419 Y9.532
X74.405 Y9.519
X74.4 Y9.5
S1000
Y0.4 F1260
X74.6
Y9.6
X74.4
Y9.5
X74.404 Y9.484
X74.416 Y9.472
X74.484 Y9.428
X74.496 Y9.416
X74.5 Y9.4
Y8.414
S5000
Y9.524 Z-2.896 F100
Y9.5 Z-2.9
X74.506 Y9.479
X74.523 Y9.465
X74.545 Y9.463
X74.564 Y9.473
X74.574 Y9.493
X74.572 Y9.514
X74.558 Y9.531
X74.537 Y9.538
X74.438
X74.419 Y9.532
X74.405 Y9.519
X74.4 Y9.5
S1000
Y0.4 F1260
X74.6
Y9.6
X74.4
Y9.5
G0 Z15

(2D Pocket1 89)
X76.5 Y0.7
Z15
Z3
G1 Z2.5 F25
S5000
Y0.476 Z2.461 F100
Y4.396 Z1.769
Y0.476 Z1.078
Y4.396 Z0.387
Y0.5 Z-0.3
X76.507 Y0.475
X76.525 Y0.457
X76.55 Y0.45
X76.575 Y0.457
X76.593 Y0.475
X76.6 Y0.5
S1000
Y9.6 F1280
X76.4
Y0.4
X76.6
Y0.5
X76.596 Y0.516
X76.584 Y0.528
X76.516 Y0.572
X76.504 Y0.584
X76.5 Y0.6
Y2.201
S5000
Y0.5 Z-0.6 F100
X76.507 Y0.475
X76.525 Y0.457
X76.55 Y0.45
X76.575 Y0.457
X76.593 Y0.475
X76.6 Y0.5
S1000
Y9.6 F1280
X76.4
Y0.4
X76.6
Y0.5
X76.596 Y0.516
X76.584 Y0.528
X76.516 Y0.572
X76.504 Y0.584
X76.5 Y0.6
Y2.201
S5000
Y0.5 Z-0.9 F100
X76.507 Y0.475
X76.525 Y0.457
X76.55 Y0.45
X76.575 Y0.457
X76.593 Y0.475
X76.6 Y0.5
S1000
Y9.6 F1280
X76.4
Y0.4
X76.6
Y0.5
X76.596 Y0.516
X76.584 Y0.528
X76.516 Y0.572
X76.504 Y0.584
X76.5 Y0.6
Y2.201
S5000
Y0.5 Z-1.2 F100
X76.507 Y0.475
X76.525 Y0.457
X76.55 Y0.45
X76.575 Y0.457
X76.593 Y0.475
X76.6 Y0.5
S1000
Y9.6 F1280
X76.4
Y0.4
X76.6
Y0.5
X76.596 Y0.516
X76.584 Y0.528
X76.516 Y0.572
X76.504 Y0.584
X76.5 Y0.6
Y2.201
S5000
Y0.5 Z-1.5 F100
X76.507 Y0.475
X76.525 Y0.457
X76.55 Y0.45
X76.575 Y0.457
X76.593 Y0.475
X76.6 Y0.5
S1000
Y9.6 F1280
X76.4
Y0.4
X76.6
Y0.5
X76.596 Y0.516
X76.584 Y0.528
X76.516 Y0.572
X76.504 Y0.584
X76.5 Y0.6
Y2.201
S5000
Y0.5 Z-1.8 F100
X76.507 Y0.475
X76.525 Y0.457
X76.55 Y0.45
X76.575 Y0.457
X76.593 Y0.475
X76.6 Y0.5
S1000
Y9.6 F1280
X76.4
Y0.4
X76.6
Y0.5
X76.596 Y0.516
X76.584 Y0.528
X76.516 Y0.572
X76.504 Y0.584
X76.5 Y0.6
Y2.201
S5000
Y0.5 Z-2.1 F100
X76.507 Y0.475
X76.525 Y0.457
X76.55 Y0.45
X76.575 Y0.457
X76.593 Y0.475
X76.6 Y0.5
S1000
Y9.6 F1280
X76.4
Y0.4
X76.6
Y0.5
X76.596 Y0.516
X76.584 Y0.528
X76.516 Y0.572
X76.504 Y0.584
X76.5 Y0.6
Y2.201
S5000
Y0.5 Z-2.4 F100
X76.507 Y0.475
X76.525 Y0.457
X76.55 Y0.45
X76.575 Y0.457
X76.593 Y0.475
X76.6 Y0.5
S1000
Y9.6 F1280
X76.4
Y0.4
X76.6
Y0.5
X76.596 Y0.516
X76.584 Y0.528
X76.516 Y0.572
X76.504 Y0.584
X76.5 Y0.6
Y2.201
S5000
Y0.5 Z-2.7 F100
X76.507 Y0.475
X76.525 Y0.457
X76.55 Y0.45
X76.575 Y0.457
X76.593 Y0.475
X76.6 Y0.5
S1000
Y9.6 F1280
X76.4
Y0.4
X76.6
Y0.5
X76.596 Y0.516
X76.584 Y0.528
X76.516 Y0.572
X76.504 Y0.584
X76.5 Y0.6
Y1.634
S5000
Y0.5 Z-2.9 F100
X76.507 Y0.475
X76.525 Y0.457
X76.55 Y0.45
X76.575 Y0.457
X76.593 Y0.475
X76.6 Y0.5
S1000
Y9.6 F1280
X76.4
Y0.4
X76.6
Y0.5
G0 Z15

(2D Pocket1 90)
X78.5 Y9.348
Z15
Z3
G1 Z2.5 F25
S5000
Y9.524 Z2.469 F100
Y5.604 Z1.778
Y9.524 Z1.087
Y5.604 Z0.395
Y9.524 Z-0.296
Y9.5 Z-0.3
X78.506 Y9.479
X78.523 Y9.465
X78.545 Y9.463
X78.564 Y9.473
X78.574 Y9.493
X78.572 Y9.514
X78.558 Y9.531
X78.537 Y9.538
X78.438
X78.419 Y9.532
X78.405 Y9.519
X78.4 Y9.5
S1000
Y0.4 F1300
X78.6
Y9.6
X78.4
Y9.5
X78.404 Y9.484
X78.416 Y9.472
X78.484 Y9.428
X78.496 Y9.416
X78.5 Y9.4
Y7.847
S5000
Y9.524 Z-0.596 F100
Y9.5 Z-0.6
X78.506 Y9.479
X78.523 Y9.465
X78.545 Y9.463
X78.564 Y9.473
X78.574 Y9.493
X78.572 Y9.514
X78.558 Y9.531
X78.537 Y9.538
X78.438
X78.419 Y9.532
X78.405 Y9.519
X78.4 Y9.5
S1000
Y0.4 F1300
X78.6
Y9.6
X78.4
Y9.5
X78.404 Y9.484
X78.416 Y9.472
X78.484 Y9.428
X78.496 Y9.416
X78.5 Y9.4
Y7.847
S5000
Y9.524 Z-0.896 F100
Y9.5 Z-0.9
X78.506 Y9.479
X78.523 Y9.465
X78.545 Y9.463
X78.564 Y9.473
X78.574 Y9.493
X78.572 Y9.514
X78.558 Y9.531
X78.537 Y9.538
X78.438
X78.419 Y9.532
X78.405 Y9.519
X78.4 Y9.5
S1000
Y0.4 F1300
X78.6
Y9.6
X78.4
Y9.5
X78.404 Y9.484
X78.416 Y9.472
X78.484 Y9.428
X78.496 Y9.416
X78.5 Y9.4
Y7.847
S5000
Y9.524 Z-1.196 F100
Y9.5 Z-1.2
X78.506 Y9.479
X78.523 Y9.465
X78.545 Y9.463
X78.564 Y9.473
X78.574 Y9.493
X78.572 Y9.514
X78.558 Y9.531
X78.537 Y9.538
X78.438
X78.419 Y9.532
X78.405 Y9.519
X78.4 Y9.5
S1000
Y0.4 F1300
X78.6
Y9.6
X78.4
Y9.5
X78.404 Y9.484
X78.416 Y9.472
X78.484 Y9.428
X78.496 Y9.416
X78.5 Y9.4
Y7.847
S5000
Y9.524 Z-1.496 F100
Y9.5 Z-1.5
X78.506 Y9.479
X78.523 Y9.465
X78.545 Y9.463
X78.564 Y9.473
X78.574 Y9.493
X78.572 Y9.514
X78.558 Y9.531
X78.537 Y9.538
X78.438
X78.419 Y9.532
X78.405 Y9.519
X78.4 Y9.5
S1000
Y0.4 F1300
X78.6
Y9.6
X78.4
Y9.5
X78.404 Y9.484
X78.416 Y9.472
X78.484 Y9.428
X78.496 Y9.416
X78.5 Y9.4
Y7.847
S5000
Y9.524 Z-1.796 F100
Y9.5 Z-1.8
X78.506 Y9.479
X78.523 Y9.465
X78.545 Y9.463
X78.564 Y9.473
X78.574 Y9.493
X78.572 Y9.514
X78.558 Y9.531
X78.537 Y9.538
X78.438
X78.419 Y9.532
X78.405 Y9.519
X78.4 Y9.5
S1000
Y0.4 F1300
X78.6
Y9.6
X78.4
Y9.5
X78.404 Y9.484
X78.416 Y9.472
X78.484 Y9.428
X78.496 Y9.416
X78.5 Y9.4
Y7.847
S5000
Y9.524 Z-2.096 F100
Y9.5 Z-2.1
X78.506 Y9.479
X78.523 Y9.465
X78.545 Y9.463
X78.564 Y9.473
X78.574 Y9.493
X78.572 Y9.514
X78.558 Y9.531
X78.537 Y9.538
X78.438
X78.419 Y9.532
X78.405 Y9.519
X78.4 Y9.5
S1000
Y0.4 F1300
X78.6
Y9.6
X78.4
Y9.5
X78.404 Y9.484
X78.416 Y9.472
X78.484 Y9.428
X78.496 Y9.416
X78.5 Y9.4
Y7.847
S5000
Y9.524 Z-2.396 F100
Y9.5 Z-2.4
X78.506 Y9.479
X78.523 Y9.465
X78.545 Y9.463
X78.564 Y9.473
X78.574 Y9.493
X78.572 Y9.514
X78.558 Y9.531
X78.537 Y9.538
X78.438
X78.419 Y9.532
X78.405 Y9.519
X78.4 Y9.5
S1000
Y0.4 F1300
X78.6
Y9.6
X78.4
Y9.5
X78.404 Y9.484
X78.416 Y9.472
X78.484 Y9.428
X78.496 Y9.416
X78.5 Y9.4
Y7.847
S5000
Y9.524 Z-2.696 F100
Y9.5 Z-2.7
X78.506 Y9.479
X78.523 Y9.465
X78.545 Y9.463
X78.564 Y9.473
X78.574 Y9.493
X78.572 Y9.514
X78.558 Y9.531
X78.537 Y9.538
X78.438
X78.419 Y9.532
X78.405 Y9.519
X78.4 Y9.5
S1000
Y0.4 F1300
X78.6
Y9.6
X78.4
Y9.5
X78.404 Y9.484
X78.416 Y9.472
X78.484 Y9.428
X78.496 Y9.416
X78.5 Y9.4
Y8.414
S5000
Y9.524 Z-2.896 F100
Y9.5 Z-2.9
X78.506 Y9.479
X78.523 Y9.465
X78.545 Y9.463
X78.564 Y9.473
X78.574 Y9.493
X78.572 Y9.514
X78.558 Y9.531
X78.537 Y9.538
X78.438
X78.419 Y9.532
X78.405 Y9.519
X78.4 Y9.5
S1000
Y0.4 F1300
X78.6
Y9.6
X78.4
Y9.5
G0 Z15

(2D Pocket1 91)
X80.5 Y9.348
Z15
Z3
G1 Z2.5 F25
S5000
Y9.524 Z2.469 F100
Y5.604 Z1.778
Y9.524 Z1.087
Y5.604 Z0.395
Y9.524 Z-0.296
Y9.5 Z-0.3
X80.506 Y9.479
X80.523 Y9.465
X80.545 Y9.463
X80.564 Y9.473
X80.574 Y9.493
X80.572 Y9.514
X80.558 Y9.531
X80.537 Y9.538
X80.438
X80.419 Y9.532
X80.405 Y9.519
X80.4 Y9.5
S1000
Y0.4 F1320
X80.6
Y9.6
X80.4
Y9.5
X80.404 Y9.484
X80.416 Y9.472
X80.484 Y9.428
X80.496 Y9.416
X80.5 Y9.4
Y7.847
S5000
Y9.524 Z-0.596 F100
Y9.5 Z-0.6
X80.506 Y9.479
X80.523 Y9.465
X80.545 Y9.463
X80.564 Y9.473
X80.574 Y9.493
X80.572 Y9.514
X80.558 Y9.531
X80.537 Y9.538
X80.438
X80.419 Y9.532
X80.405 Y9.519
X80.4 Y9.5
S1000
Y0.4 F1320
X80.6
Y9.6
X80.4
Y9.5
X80.404 Y9.484
X80.416 Y9.472
X80.484 Y9.428
X80.496 Y9.416
X80.5 Y9.4
Y7.847
S5000
Y9.524 Z-0.896 F100
Y9.5 Z-0.9
X80.506 Y9.479
X80.523 Y9.465
X80.545 Y9.463
X80.564 Y9.473
X80.574 Y9.493
X80.572 Y9.514
X80.558 Y9.531
X80.537 Y9.538
X80.438
X80.419 Y9.532
X80.405 Y9.519
X80.4 Y9.5
S1000
Y0.4 F1320
X80.6
Y9.6
X80.4
Y9.5
X80.404 Y9.484
X80.416 Y9.472
X80.484 Y9.428
X80.496 Y9.416
X80.5 Y9.4
Y7.847
S5000
Y9.524 Z-1.196 F100
Y9.5 Z-1.2
X80.506 Y9.479
X80.523 Y9.465
X80.545 Y9.463
X80.564 Y9.473
X80.574 Y9.493
X80.572 Y9.514
X80.558 Y9.531
X80.537 Y9.538
X80.438
X80.419 Y9.532
X80.405 Y9.519
X80.4 Y9.5
S1000
Y0.4 F1320
X80.6
Y9.6
X80.4
Y9.5
X80.404 Y9.484
X80.416 Y9.472
X80.484 Y9.428
X80.496 Y9.416
X80.5 Y9.4
Y7.847
S5000
Y9.524 Z-1.496 F100
Y9.5 Z-1.5
X80.506 Y9.479
X80.523 Y9.465
X80.545 Y9.463
X80.564 Y9.473
X80.574 Y9.493
X80.572 Y9.514
X80.558 Y9.531
X80.537 Y9.538
X80.438
X80.419 Y9.532
X80.405 Y9.519
X80.4 Y9.5
S1000
Y0.4 F1320
X80.6
Y9.6
X80.4
Y9.5
X80.404 Y9.484
X80.416 Y9.472
X80.484 Y9.428
X80.496 Y9.416
X80.5 Y9.4
Y7.847
S5000
Y9.524 Z-1.796 F100
Y9.5 Z-1.8
X80.506 Y9.479
X80.523 Y9.465
X80.545 Y9.463
X80.564 Y9.473
X80.574 Y9.493
X80.572 Y9.514
X80.558 Y9.531
X80.537 Y9.538
X80.438
X80.419 Y9.532
X80.405 Y9.519
X80.4 Y9.5
S1000
Y0.4 F1320
X80.6
Y9.6
X80.4
Y9.5
X80.404 Y9.484
X80.416 Y9.472
X80.484 Y9.428
X80.496 Y9.416
X80.5 Y9.4
Y7.847
S5000
Y9.524 Z-2.096 F100
Y9.5 Z-2.1
X80.506 Y9.479
X80.523 Y9.465
X80.545 Y9.463
X80.564 Y9.473
X80.574 Y9.493
X80.572 Y9.514
X80.558 Y9.531
X80.537 Y9.538
X80.438
X80.419 Y9.532
X80.405 Y9.519
X80.4 Y9.5
S1000
Y0.4 F1320
X80.6
Y9.6
X80.4
Y9.5
X80.404 Y9.484
X80.416 Y9.472
X80.484 Y9.428
X80.496 Y9.416
X80.5 Y9.4
Y7.847
S5000
Y9.524 Z-2.396 F100
Y9.5 Z-2.4
X80.506 Y9.479
X80.523 Y9.465
X80.545 Y9.463
X80.564 Y9.473
X80.574 Y9.493
X80.572 Y9.514
X80.558 Y9.531
X80.537 Y9.538
X80.438
X80.419 Y9.532
X80.405 Y9.519
X80.4 Y9.5
S1000
Y0.4 F1320
X80.6
Y9.6
X80.4
Y9.5
X80.404 Y9.484
X80.416 Y9.472
X80.484 Y9.428
X80.496 Y9.416
X80.5 Y9.4
Y7.847
S5000
Y9.524 Z-2.696 F100
Y9.5 Z-2.7
X80.506 Y9.479
X80.523 Y9.465
X80.545 Y9.463
X80.564 Y9.473
X80.574 Y9.493
X80.572 Y9.514
X80.558 Y9.531
X80.537 Y9.538
X80.438
X80.419 Y9.532
X80.405 Y9.519
X80.4 Y9.5
S1000
Y0.4 F1320
X80.6
Y9.6
X80.4
Y9.5
X80.404 Y9.484
X80.416 Y9.472
X80.484 Y9.428
X80.496 Y9.416
X80.5 Y9.4
Y8.414
S5000
Y9.524 Z-2.896 F100
Y9.5 Z-2.9
X80.506 Y9.479
X80.523 Y9.465
X80.545 Y9.463
X80.564 Y9.473
X80.574 Y9.493
X80.572 Y9.514
X80.558 Y9.531
X80.537 Y9.538
X80.438
X80.419 Y9.532
X80.405 Y9.519
X80.4 Y9.5
S1000
Y0.4 F1320
X80.6
Y9.6
X80.4
Y9.5
G0 Z15

(2D Pocket1 92)
X82.5 Y9.348
Z15
Z3
G1 Z2.5 F25
S5000
Y9.524 Z2.469 F100
Y5.604 Z1.778
Y9.524 Z1.087
Y5.604 Z0.395
Y9.524 Z-0.296
Y9.5 Z-0.3
X82.506 Y9.479
X82.523 Y9.465
X82.545 Y9.463
X82.564 Y9.473
X82.574 Y9.493
X82.572 Y9.514
X82.558 Y9.531
X82.537 Y9.538
X82.438
X82.419 Y9.532
X82.405 Y9.519
X82.4 Y9.5
S1000
Y0.4 F1340
X82.6
Y9.6
X82.4
Y9.5
X82.404 Y9.484
X82.416 Y9.472
X82.484 Y9.428
X82.496 Y9.416
X82.5 Y9.4
Y7.847
S5000
Y9.524 Z-0.596 F100
Y9.5 Z-0.6
X82.506 Y9.479
X82.523 Y9.465
X82.545 Y9.463
X82.564 Y9.473
X82.574 Y9.493
X82.572 Y9.514
X82.558 Y9.531
X82.537 Y9.538
X82.438
X82.419 Y9.532
X82.405 Y9.519
X82.4 Y9.5
S1000
Y0.4 F1340
X82.6
Y9.6
X82.4
Y9.5
X82.404 Y9.484
X82.416 Y9.472
X82.484 Y9.428
X82.496 Y9.416
X82.5 Y9.4
Y7.847
S5000
Y9.524 Z-0.896 F100
Y9.5 Z-0.9
X82.506 Y9.479
X82.523 Y9.465
X82.545 Y9.463
X82.564 Y9.473
X82.574 Y9.493
X82.572 Y9.514
X82.558 Y9.531
X82.537 Y9.538
X82.438
X82.419 Y9.532
X82.405 Y9.519
X82.4 Y9.5
S1000
Y0.4 F1340
X82.6
Y9.6
X82.4
Y9.5
X82.404 Y9.484
X82.416 Y9.472
X82.484 Y9.428
X82.496 Y9.416
X82.5 Y9.4
Y7.847
S5000
Y9.524 Z-1.196 F100
Y9.5 Z-1.2
X82.506 Y9.479
X82.523 Y9.465
X82.545 Y9.463
X82.564 Y9.473
X82.574 Y9.493
X82.572 Y9.514
X82.558 Y9.531
X82.537 Y9.538
X82.438
X82.419 Y9.532
X82.405 Y9.519
X82.4 Y9.5
S1000
Y0.4 F1340
X82.6
Y9.6
X82.4
Y9.5
X82.404 Y9.484
X82.416 Y9.472
X82.484 Y9.428
X82.496 Y9.416
X82.5 Y9.4
Y7.847
S5000
Y9.524 Z-1.496 F100
Y9.5 Z-1.5
X82.506 Y9.479
X82.523 Y9.465
X82.545 Y9.463
X82.564 Y9.473
X82.574 Y9.493
X82.572 Y9.514
X82.558 Y9.531
X82.537 Y9.538
X82.438
X82.419 Y9.532
X82.405 Y9.519
X82.4 Y9.5
S1000
Y0.4 F1340
X82.6
Y9.6
X82.4
Y9.5
X82.404 Y9.484
X82.416 Y9.472
X82.484 Y9.428
X82.496 Y9.416
X82.5 Y9.4
Y7.847
S5000
Y9.524 Z-1.796 F100
Y9.5 Z-1.8
X82.506 Y9.479
X82.523 Y9.465
X82.545 Y9.463
X82.564 Y9.473
X82.574 Y9.493
X82.572 Y9.514
X82.558 Y9.531
X82.537 Y9.538
X82.438
X82.419 Y9.532
X82.405 Y9.519
X82.4 Y9.5
S1000
Y0.4 F1340
X82.6
Y9.6
X82.4
Y9.5
X82.404 Y9.484
X82.416 Y9.472
X82.484 Y9.428
X82.496 Y9.416
X82.5 Y9.4
Y7.847
S5000
Y9.524 Z-2.096 F100
Y9.5 Z-2.1
X82.506 Y9.479
X82.523 Y9.465
X82.545 Y9.463
X82.564 Y9.473
X82.574 Y9.493
X82.572 Y9.514
X82.558 Y9.531
X82.537 Y9.538
X82.438
X82.419 Y9.532
X82.405 Y9.519
X82.4 Y9.5
S1000
Y0.4 F1340
X82.6
Y9.6
X82.4
Y9.5
X82.404 Y9.484
X82.416 Y9.472
X82.484 Y9.428
X82.496 Y9.416
X82.5 Y9.4
Y7.847
S5000
Y9.524 Z-2.396 F100
Y9.5 Z-2.4
X82.506 Y9.479
X82.523 Y9.465
X82.545 Y9.463
X82.564 Y9.473
X82.574 Y9.493
X82.572 Y9.514
X82.558 Y9.531
X82.537 Y9.538
X82.438
X82.419 Y9.532
X82.405 Y9.519
X82.4 Y9.5
S1000
Y0.4 F1340
X82.6
Y9.6
X82.4
Y9.5
X82.404 Y9.484
X82.416 Y9.472
X82.484 Y9.428
X82.496 Y9.416
X82.5 Y9.4
Y7.847
S5000
Y9.524 Z-2.696 F100
Y9.5 Z-2.7
X82.506 Y9.479
X82.523 Y9.465
X82.545 Y9.463
X82.564 Y9.473
X82.574 Y9.493
X82.572 Y9.514
X82.558 Y9.531
X82.537 Y9.538
X82.438
X82.419 Y9.532
X82.405 Y9.519
X82.4 Y9.5
S1000
Y0.4 F1340
X82.6
Y9.6
X82.4
Y9.5
X82.404 Y9.484
X82.416 Y9.472
X82.484 Y9.428
X82.496 Y9.416
X82.5 Y9.4
Y8.414
S5000
Y9.524 Z-2.896 F100
Y9.5 Z-2.9
X82.506 Y9.479
X82.523 Y9.465
X82.545 Y9.463
X82.564 Y9.473
X82.574 Y9.493
X82.572 Y9.514
X82.558 Y9.531
X82.537 Y9.538
X82.438
X82.419 Y9.532
X82.405 Y9.519
X82.4 Y9.5
S1000
Y0.4 F1340
X82.6
Y9.6
X82.4
Y9.5
G0 Z15

(2D Pocket1 93)
X84.5 Y9.348
Z15
Z3
G1 Z2.5 F25
S5000
Y9.524 Z2.469 F100
Y5.604 Z1.778
Y9.524 Z1.087
Y5.604 Z0.395
Y9.524 Z-0.296
Y9.5 Z-0.3
X84.506 Y9.479
X84.523 Y9.465
X84.545 Y9.463
X84.564 Y9.473
X84.574 Y9.493
X84.572 Y9.514
X84.558 Y9.531
X84.537 Y9.538
X84.438
X84.419 Y9.532
X84.405 Y9.519
X84.4 Y9.5
S1000
Y0.4 F1360
X84.6
Y9.6
X84.4
Y9.5
X84.404 Y9.484
X84.416 Y9.472
X84.484 Y9.428
X84.496 Y9.416
X84.5 Y9.4
Y7.847
S5000
Y9.524 Z-0.596 F100
Y9.5 Z-0.6
X84.506 Y9.479
X84.523 Y9.465
X84.545 Y9.463
X84.564 Y9.473
X84.574 Y9.493
X84.572 Y9.514
X84.558 Y9.531
X84.537 Y9.538
X84.438
X84.419 Y9.532
X84.405 Y9.519
X84.4 Y9.5
S1000
Y0.4 F1360
X84.6
Y9.6
X84.4
Y9.5
X84.404 Y9.484
X84.416 Y9.472
X84.484 Y9.428
X84.496 Y9.416
X84.5 Y9.4
Y7.847
S5000
Y9.524 Z-0.896 F100
Y9.5 Z-0.9
X84.506 Y9.479
X84.523 Y9.465
X84.545 Y9.463
X84.564 Y9.473
X84.574 Y9.493
X84.572 Y9.514
X84.558 Y9.531
X84.537 Y9.538
X84.438
X84.419 Y9.532
X84.405 Y9.519
X84.4 Y9.5
S1000
Y0.4 F1360
X84.6
Y9.6
X84.4
Y9.5
X84.404 Y9.484
X84.416 Y9.472
X84.484 Y9.428
X84.496 Y9.416
X84.5 Y9.4
Y7.847
S5000
Y9.524 Z-1.196 F100
Y9.5 Z-1.2
X84.506 Y9.479
X84.523 Y9.465
X84.545 Y9.463
X84.564 Y9.473
X84.574 Y9.493
X84.572 Y9.514
X84.558 Y9.531
X84.537 Y9.538
X84.438
X84.419 Y9.532
X84.405 Y9.519
X84.4 Y9.5
S1000
Y0.4 F1360
X84.6
Y9.6
X84.4
Y9.5
X84.404 Y9.484
X84.416 Y9.472
X84.484 Y9.428
X84.496 Y9.416
X84.5 Y9.4
Y7.847
S5000
Y9.524 Z-1.496 F100
Y9.5 Z-1.5
X84.506 Y9.479
X84.523 Y9.465
X84.545 Y9.463
X84.564 Y9.473
X84.574 Y9.493
X84.572 Y9.514
X84.558 Y9.531
X84.537 Y9.538
X84.438
X84.419 Y9.532
X84.405 Y9.519
X84.4 Y9.5
S1000
Y0.4 F1360
X84.6
Y9.6
X84.4
Y9.5
X84.404 Y9.484
X84.416 Y9.472
X84.484 Y9.428
X84.496 Y9.416
X84.5 Y9.4
Y7.847
S5000
Y9.524 Z-1.796 F100
Y9.5 Z-1.8
X84.506 Y9.479
X84.523 Y9.465
X84.545 Y9.463
X84.564 Y9.473
X84.574 Y9.493
X84.572 Y9.514
X84.558 Y9.531
X84.537 Y9.538
X84.438
X84.419 Y9.532
X84.405 Y9.519
X84.4 Y9.5
S1000
Y0.4 F1360
X84.6
Y9.6
X84.4
Y9.5
X84.404 Y9.484
X84.416 Y9.472
X84.484 Y9.428
X84.496 Y9.416
X84.5 Y9.4
Y7.847
S5000
Y9.524 Z-2.096 F100
Y9.5 Z-2.1
X84.506 Y9.479
X84.523 Y9.465
X84.545 Y9.463
X84.564 Y9.473
X84.574 Y9.493
X84.572 Y9.514
X84.558 Y9.531
X84.537 Y9.538
X84.438
X84.419 Y9.532
X84.405 Y9.519
X84.4 Y9.5
S1000
Y0.4 F1360
X84.6
Y9.6
X84.4
Y9.5
X84.404 Y9.484
X84.416 Y9.472
X84.484 Y9.428
X84.496 Y9.416
X84.5 Y9.4
Y7.847
S5000
Y9.524 Z-2.396 F100
Y9.5 Z-2.4
X84.506 Y9.479
X84.523 Y9.465
X84.545 Y9.463
X84.564 Y9.473
X84.574 Y9.493
X84.572 Y9.514
X84.558 Y9.531
X84.537 Y9.538
X84.438
X84.419 Y9.532
X84.405 Y9.519
X84.4 Y9.5
S1000
Y0.4 F1360
X84.6
Y9.6
X84.4
Y9.5
X84.404 Y9.484
X84.416 Y9.472
X84.484 Y9.428
X84.496 Y9.416
X84.5 Y9.4
Y7.847
S5000
Y9.524 Z-2.696 F100
Y9.5 Z-2.7
X84.506 Y9.479
X84.523 Y9.465
X84.545 Y9.463
X84.564 Y9.473
X84.574 Y9.493
X84.572 Y9.514
X84.558 Y9.531
X84.537 Y9.538
X84.438
X84.419 Y9.532
X84.405 Y9.519
X84.4 Y9.5
S1000
Y0.4 F1360
X84.6
Y9.6
X84.4
Y9.5
X84.404 Y9.484
X84.416 Y9.472
X84.484 Y9.428
X84.496 Y9.416
X84.5 Y9.4
Y8.414
S5000
Y9.524 Z-2.896 F100
Y9.5 Z-2.9
X84.506 Y9.479
X84.523 Y9.465
X84.545 Y9.463
X84.564 Y9.473
X84.574 Y9.493
X84.572 Y9.514
X84.558 Y9.531
X84.537 Y9.538
X84.438
X84.419 Y9.532
X84.405 Y9.519
X84.4 Y9.5
S1000
Y0.4 F1360
X84.6
Y9.6
X84.4
Y9.5
G0 Z15

(2D Pocket1 94)
X86.5 Y9.348
Z15
Z3
G1 Z2.5 F25
S5000
Y9.524 Z2.469 F100
Y5.604 Z1.778
Y9.524 Z1.087
Y5.604 Z0.395
Y9.524 Z-0.296
Y9.5 Z-0.3
X86.506 Y9.479
X86.523 Y9.465
X86.545 Y9.463
X86.564 Y9.473
X86.574 Y9.493
X86.572 Y9.514
X86.558 Y9.531
X86.537 Y9.538
X86.438
X86.419 Y9.532
X86.405 Y9.519
X86.4 Y9.5
S1000
Y0.4 F1380
X86.6
Y9.6
X86.4
Y9.5
X86.404 Y9.484
X86.416 Y9.472
X86.484 Y9.428
X86.496 Y9.416
X86.5 Y9.4
Y7.847
S5000
Y9.524 Z-0.596 F100
Y9.5 Z-0.6
X86.506 Y9.479
X86.523 Y9.465
X86.545 Y9.463
X86.564 Y9.473
X86.574 Y9.493
X86.572 Y9.514
X86.558 Y9.531
X86.537 Y9.538
X86.438
X86.419 Y9.532
X86.405 Y9.519
X86.4 Y9.5
S1000
Y0.4 F1380
X86.6
Y9.6
X86.4
Y9.5
X86.404 Y9.484
X86.416 Y9.472
X86.484 Y9.428
X86.496 Y9.416
X86.5 Y9.4
Y7.847
S5000
Y9.524 Z-0.896 F100
Y9.5 Z-0.9
X86.506 Y9.479
X86.523 Y9.465
X86.545 Y9.463
X86.564 Y9.473
X86.574 Y9.493
X86.572 Y9.514
X86.558 Y9.531
X86.537 Y9.538
X86.438
X86.419 Y9.532
X86.405 Y9.519
X86.4 Y9.5
S1000
Y0.4 F1380
X86.6
Y9.6
X86.4
Y9.5
X86.404 Y9.484
X86.416 Y9.472
X86.484 Y9.428
X86.496 Y9.416
X86.5 Y9.4
Y7.847
S5000
Y9.524 Z-1.196 F100
Y9.5 Z-1.2
X86.506 Y9.479
X86.523 Y9.465
X86.545 Y9.463
X86.564 Y9.473
X86.574 Y9.493
X86.572 Y9.514
X86.558 Y9.531
X86.537 Y9.538
X86.438
X86.419 Y9.532
X86.405 Y9.519
X86.4 Y9.5
S1000
Y0.4 F1380
X86.6
Y9.6
X86.4
Y9.5
X86.404 Y9.484
X86.416 Y9.472
X86.484 Y9.428
X86.496 Y9.416
X86.5 Y9.4
Y7.847
S5000
Y9.524 Z-1.496 F100
Y9.5 Z-1.5
X86.506 Y9.479
X86.523 Y9.465
X86.545 Y9.463
X86.564 Y9.473
X86.574 Y9.493
X86.572 Y9.514
X86.558 Y9.531
X86.537 Y9.538
X86.438
X86.419 Y9.532
X86.405 Y9.519
X86.4 Y9.5
S1000
Y0.4 F1380
X86.6
Y9.6
X86.4
Y9.5
X86.404 Y9.484
X86.416 Y9.472
X86.484 Y9.428
X86.496 Y9.416
X86.5 Y9.4
Y7.847
S5000
Y9.524 Z-1.796 F100
Y9.5 Z-1.8
X86.506 Y9.479
X86.523 Y9.465
X86.545 Y9.463
X86.564 Y9.473
X86.574 Y9.493
X86.572 Y9.514
X86.558 Y9.531
X86.537 Y9.538
X86.438
X86.419 Y9.532
X86.405 Y9.519
X86.4 Y9.5
S1000
Y0.4 F1380
X86.6
Y9.6
X86.4
Y9.5
X86.404 Y9.484
X86.416 Y9.472
X86.484 Y9.428
X86.496 Y9.416
X86.5 Y9.4
Y7.847
S5000
Y9.524 Z-2.096 F100
Y9.5 Z-2.1
X86.506 Y9.479
X86.523 Y9.465
X86.545 Y9.463
X86.564 Y9.473
X86.574 Y9.493
X86.572 Y9.514
X86.558 Y9.531
X86.537 Y9.538
X86.438
X86.419 Y9.532
X86.405 Y9.519
X86.4 Y9.5
S1000
Y0.4 F1380
X86.6
Y9.6
X86.4
Y9.5
X86.404 Y9.484
X86.416 Y9.472
X86.484 Y9.428
X86.496 Y9.416
X86.5 Y9.4
Y7.847
S5000
Y9.524 Z-2.396 F100
Y9.5 Z-2.4
X86.506 Y9.479
X86.523 Y9.465
X86.545 Y9.463
X86.564 Y9.473
X86.574 Y9.493
X86.572 Y9.514
X86.558 Y9.531
X86.537 Y9.538
X86.438
X86.419 Y9.532
X86.405 Y9.519
X86.4 Y9.5
S1000
Y0.4 F1380
X86.6
Y9.6
X86.4
Y9.5
X86.404 Y9.484
X86.416 Y9.472
X86.484 Y9.428
X86.496 Y9.416
X86.5 Y9.4
Y7.847
S5000
Y9.524 Z-2.696 F100
Y9.5 Z-2.7
X86.506 Y9.479
X86.523 Y9.465
X86.545 Y9.463
X86.564 Y9.473
X86.574 Y9.493
X86.572 Y9.514
X86.558 Y9.531
X86.537 Y9.538
X86.438
X86.419 Y9.532
X86.405 Y9.519
X86.4 Y9.5
S1000
Y0.4 F1380
X86.6
Y9.6
X86.4
Y9.5
X86.404 Y9.484
X86.416 Y9.472
X86.484 Y9.428
X86.496 Y9.416
X86.5 Y9.4
Y8.414
S5000
Y9.524 Z-2.896 F100
Y9.5 Z-2.9
X86.506 Y9.479
X86.523 Y9.465
X86.545 Y9.463
X86.564 Y9.473
X86.574 Y9.493
X86.572 Y9.514
X86.558 Y9.531
X86.537 Y9.538
X86.438
X86.419 Y9.532
X86.405 Y9.519
X86.4 Y9.5
S1000
Y0.4 F1380
X86.6
Y9.6
X86.4
Y9.5
G0 Z15

(2D Pocket1 95)
X88.5 Y9.348
Z15
Z3
G1 Z2.5 F25
S5000
Y9.524 Z2.469 F100
Y5.604 Z1.778
Y9.524 Z1.087
Y5.604 Z0.395
Y9.524 Z-0.296
Y9.5 Z-0.3
X88.506 Y9.479
X88.523 Y9.465
X88.545 Y9.463
X88.564 Y9.473
X88.574 Y9.493
X88.572 Y9.514
X88.558 Y9.531
X88.537 Y9.538
X88.438
X88.419 Y9.532
X88.405 Y9.519
X88.4 Y9.5
S1000
Y0.4 F1400
X88.6
Y9.6
X88.4
Y9.5
X88.404 Y9.484
X88.416 Y9.472
X88.484 Y9.428
X88.496 Y9.416
X88.5 Y9.4
Y7.847
S5000
Y9.524 Z-0.596 F100
Y9.5 Z-0.6
X88.506 Y9.479
X88.523 Y9.465
X88.545 Y9.463
X88.564 Y9.473
X88.574 Y9.493
X88.572 Y9.514
X88.558 Y9.531
X88.537 Y9.538
X88.438
X88.419 Y9.532
X88.405 Y9.519
X88.4 Y9.5
S1000
Y0.4 F1400
X88.6
Y9.6
X88.4
Y9.5
X88.404 Y9.484
X88.416 Y9.472
X88.484 Y9.428
X88.496 Y9.416
X88.5 Y9.4
Y7.847
S5000
Y9.524 Z-0.896 F100
Y9.5 Z-0.9
X88.506 Y9.479
X88.523 Y9.465
X88.545 Y9.463
X88.564 Y9.473
X88.574 Y9.493
X88.572 Y9.514
X88.558 Y9.531
X88.537 Y9.538
X88.438
X88.419 Y9.532
X88.405 Y9.519
X88.4 Y9.5
S1000
Y0.4 F1400
X88.6
Y9.6
X88.4
Y9.5
X88.404 Y9.484
X88.416 Y9.472
X88.484 Y9.428
X88.496 Y9.416
X88.5 Y9.4
Y7.847
S5000
Y9.524 Z-1.196 F100
Y9.5 Z-1.2
X88.506 Y9.479
X88.523 Y9.465
X88.545 Y9.463
X88.564 Y9.473
X88.574 Y9.493
X88.572 Y9.514
X88.558 Y9.531
X88.537 Y9.538
X88.438
X88.419 Y9.532
X88.405 Y9.519
X88.4 Y9.5
S1000
Y0.4 F1400
X88.6
Y9.6
X88.4
Y9.5
X88.404 Y9.484
X88.416 Y9.472
X88.484 Y9.428
X88.496 Y9.416
X88.5 Y9.4
Y7.847
S5000
Y9.524 Z-1.496 F100
Y9.5 Z-1.5
X88.506 Y9.479
X88.523 Y9.465
X88.545 Y9.463
X88.564 Y9.473
X88.574 Y9.493
X88.572 Y9.514
X88.558 Y9.531
X88.537 Y9.538
X88.438
X88.419 Y9.532
X88.405 Y9.519
X88.4 Y9.5
S1000
Y0.4 F1400
X88.6
Y9.6
X88.4
Y9.5
X88.404 Y9.484
X88.416 Y9.472
X88.484 Y9.428
X88.496 Y9.416
X88.5 Y9.4
Y7.847
S5000
Y9.524 Z-1.796 F100
Y9.5 Z-1.8
X88.506 Y9.479
X88.523 Y9.465
X88.545 Y9.463
X88.564 Y9.473
X88.574 Y9.493
X88.572 Y9.514
X88.558 Y9.531
X88.537 Y9.538
X88.438
X88.419 Y9.532
X88.405 Y9.519
X88.4 Y9.5
S1000
Y0.4 F1400
X88.6
Y9.6
X88.4
Y9.5
X88.404 Y9.484
X88.416 Y9.472
X88.484 Y9.428
X88.496 Y9.416
X88.5 Y9.4
Y7.847
S5000
Y9.524 Z-2.096 F100
Y9.5 Z-2.1
X88.506 Y9.479
X88.523 Y9.465
X88.545 Y9.463
X88.564 Y9.473
X88.574 Y9.493
X88.572 Y9.514
X88.558 Y9.531
X88.537 Y9.538
X88.438
X88.419 Y9.532
X88.405 Y9.519
X88.4 Y9.5
S1000
Y0.4 F1400
X88.6
Y9.6
X88.4
Y9.5
X88.404 Y9.484
X88.416 Y9.472
X88.484 Y9.428
X88.496 Y9.416
X88.5 Y9.4
Y7.847
S5000
Y9.524 Z-2.396 F100
Y9.5 Z-2.4
X88.506 Y9.479
X88.523 Y9.465
X88.545 Y9.463
X88.564 Y9.473
X88.574 Y9.493
X88.572 Y9.514
X88.558 Y9.531
X88.537 Y9.538
X88.438
X88.419 Y9.532
X88.405 Y9.519
X88.4 Y9.5
S1000
Y0.4 F1400
X88.6
Y9.6
X88.4
Y9.5
X88.404 Y9.484
X88.416 Y9.472
X88.484 Y9.428
X88.496 Y9.416
X88.5 Y9.4
Y7.847
S5000
Y9.524 Z-2.696 F100
Y9.5 Z-2.7
X88.506 Y9.479
X88.523 Y9.465
X88.545 Y9.463
X88.564 Y9.473
X88.574 Y9.493
X88.572 Y9.514
X88.558 Y9.531
X88.537 Y9.538
X88.438
X88.419 Y9.532
X88.405 Y9.519
X88.4 Y9.5
S1000
Y0.4 F1400
X88.6
Y9.6
X88.4
Y9.5
X88.404 Y9.484
X88.416 Y9.472
X88.484 Y9.428
X88.496 Y9.416
X88.5 Y9.4
Y8.414
S5000
Y9.524 Z-2.896 F100
Y9.5 Z-2.9
X88.506 Y9.479
X88.523 Y9.465
X88.545 Y9.463
X88.564 Y9.473
X88.574 Y9.493
X88.572 Y9.514
X88.558 Y9.531
X88.537 Y9.538
X88.438
X88.419 Y9.532
X88.405 Y9.519
X88.4 Y9.5
S1000
Y0.4 F1400
X88.6
Y9.6
X88.4
Y9.5
G0 Z15

(2D Pocket1 96)
X90.5 Y9.348
Z15
Z3
G1 Z2.5 F25
S5000
Y9.524 Z2.469 F100
Y5.604 Z1.778
Y9.524 Z1.087
Y5.604 Z0.395
Y9.524 Z-0.296
Y9.5 Z-0.3
X90.506 Y9.479
X90.523 Y9.465
X90.545 Y9.463
X90.564 Y9.473
X90.574 Y9.493
X90.572 Y9.514
X90.558 Y9.531
X90.537 Y9.538
X90.438
X90.419 Y9.532
X90.405 Y9.519
X90.4 Y9.5
S1000
Y0.4 F1420
X90.6
Y9.6
X90.4
Y9.5
X90.404 Y9.484
X90.416 Y9.472
X90.484 Y9.428
X90.496 Y9.416
X90.5 Y9.4
Y7.847
S5000
Y9.524 Z-0.596 F100
Y9.5 Z-0.6
X90.506 Y9.479
X90.523 Y9.465
X90.545 Y9.463
X90.564 Y9.473
X90.574 Y9.493
X90.572 Y9.514
X90.558 Y9.531
X90.537 Y9.538
X90.438
X90.419 Y9.532
X90.405 Y9.519
X90.4 Y9.5
S1000
Y0.4 F1420
X90.6
Y9.6
X90.4
Y9.5
X90.404 Y9.484
X90.416 Y9.472
X90.484 Y9.428
X90.496 Y9.416
X90.5 Y9.4
Y7.847
S5000
Y9.524 Z-0.896 F100
Y9.5 Z-0.9
X90.506 Y9.479
X90.523 Y9.465
X90.545 Y9.463
X90.564 Y9.473
X90.574 Y9.493
X90.572 Y9.514
X90.558 Y9.531
X90.537 Y9.538
X90.438
X90.419 Y9.532
X90.405 Y9.519
X90.4 Y9.5
S1000
Y0.4 F1420
X90.6
Y9.6
X90.4
Y9.5
X90.404 Y9.484
X90.416 Y9.472
X90.484 Y9.428
X90.496 Y9.416
X90.5 Y9.4
Y7.847
S5000
Y9.524 Z-1.196 F100
Y9.5 Z-1.2
X90.506 Y9.479
X90.523 Y9.465
X90.545 Y9.463
X90.564 Y9.473
X90.574 Y9.493
X90.572 Y9.514
X90.558 Y9.531
X90.537 Y9.538
X90.438
