(1001)
(Machine)
(  vendor: Autodesk)
(  description: Generic 3-axis)
(T3  D=3 CR=0 - ZMIN=-2 - flat end mill)
G90 G94
G17
G21

(Drill4)
T3
S1000 M3
G54
M8
G0 X75 Y50
Z16
Z6
Z5
G1 Z0 F200
G0 Z6
Y-50
Z5
G1 Z0 F200
G0 Z6
X-75
Z5
G1 Z0 F200
G0 Z6
X0 Y0
Z5
G1 Z0 F200
G0 Z6
X-75 Y50
Z5
G1 Z0 F200
G0 Z6
Z16

(2D Adaptive3)
X16.177 Y20.772
Z16
Z6
Z3.5
G3 X18.4 Y22.555 Z3.344 I1.112 J0.891 F333.3
X16.177 Y20.772 Z3.187 I-1.112 J-0.891
X18.4 Y22.555 Z3.031 I1.112 J0.891
X16.177 Y20.772 Z2.875 I-1.112 J-0.891
X18.4 Y22.555 Z2.718 I1.112 J0.891
X16.177 Y20.772 Z2.562 I-1.112 J-0.891
X18.4 Y22.555 Z2.406 I1.112 J0.891
X16.177 Y20.772 Z2.249 I-1.112 J-0.891
X18.4 Y22.555 Z2.093 I1.112 J0.891
X16.177 Y20.772 Z1.937 I-1.112 J-0.891
X18.4 Y22.555 Z1.78 I1.112 J0.891
X16.177 Y20.772 Z1.624 I-1.112 J-0.891
X18.4 Y22.555 Z1.468 I1.112 J0.891
X16.177 Y20.772 Z1.311 I-1.112 J-0.891
X18.4 Y22.555 Z1.155 I1.112 J0.891
X16.177 Y20.772 Z0.999 I-1.112 J-0.891
X18.4 Y22.555 Z0.842 I1.112 J0.891
X16.177 Y20.772 Z0.686 I-1.112 J-0.891
X18.4 Y22.555 Z0.53 I1.112 J0.891
X16.177 Y20.772 Z0.373 I-1.112 J-0.891
X18.4 Y22.555 Z0.217 I1.112 J0.891
X16.177 Y20.772 Z0.061 I-1.112 J-0.891
X18.4 Y22.555 Z-0.096 I1.112 J0.891
X16.177 Y20.772 Z-0.252 I-1.112 J-0.891
X18.4 Y22.555 Z-0.408 I1.112 J0.891
X16.177 Y20.772 Z-0.565 I-1.112 J-0.891
X18.4 Y22.555 Z-0.721 I1.112 J0.891
X16.177 Y20.772 Z-0.877 I-1.112 J-0.891
X18.713 Y21.663 Z-1 I1.112 J0.891
X15.863 Y21.663 I-1.425 J0
X18.713 Y21.663 I1.425 J0
G1 X18.744 Y22.286 F450
X18.768 Y22.36
X18.797 Y22.508
X18.794 Y22.658
X18.766 Y22.805
X18.717 Y22.947
X18.65 Y23.081
X18.568 Y23.206
X18.473 Y23.322
X18.366 Y23.427
X18.249 Y23.522
X18.124 Y23.605
X17.993 Y23.677
X17.855 Y23.737
X17.713 Y23.785
X17.566 Y23.823
X17.413 Y23.849
X17.255 Y23.863
X17.094 Y23.864
X16.931 Y23.852
X16.768 Y23.827
X16.605 Y23.788
X16.443 Y23.736
X16.286 Y23.67
X16.132 Y23.591
X15.985 Y23.5
X15.844 Y23.396
X15.711 Y23.28
X15.587 Y23.154
X15.474 Y23.018
X15.371 Y22.872
X15.28 Y22.718
X15.201 Y22.557
X15.136 Y22.389
X15.084 Y22.216
X15.046 Y22.04
X15.022 Y21.86
X15.013 Y21.679
X15.018 Y21.498
X15.037 Y21.317
X15.072 Y21.138
X15.12 Y20.963
X15.183 Y20.792
X15.259 Y20.626
X15.348 Y20.467
X15.45 Y20.315
X15.563 Y20.172
X15.688 Y20.038
X15.823 Y19.915
X15.968 Y19.803
X16.121 Y19.703
X16.282 Y19.616
X16.449 Y19.542
X16.622 Y19.481
X16.799 Y19.435
X16.98 Y19.403
X17.162 Y19.385
X17.345 Y19.382
X17.528 Y19.394
X17.709 Y19.421
X17.888 Y19.461
X18.062 Y19.517
X18.232 Y19.586
X18.396 Y19.668
X18.552 Y19.763
X18.701 Y19.871
X18.84 Y19.99
X18.969 Y20.12
X19.088 Y20.26
X19.194 Y20.409
X19.297 Y20.578
X19.414 Y20.813
X19.574 Y21.214
X19.664 Y21.504
X19.72 Y21.752
X19.751 Y21.976
X19.764 Y22.191
X19.76 Y22.402
X19.74 Y22.604
X19.704 Y22.798
X19.654 Y22.986
X19.588 Y23.17
X19.508 Y23.35
X19.412 Y23.524
X19.303 Y23.69
X19.179 Y23.847
X19.043 Y23.996
X18.892 Y24.135
X18.73 Y24.263
X18.554 Y24.38
X18.367 Y24.484
X18.169 Y24.573
X17.962 Y24.648
X17.746 Y24.706
X17.524 Y24.748
X17.296 Y24.772
X17.064 Y24.777
X16.83 Y24.764
X16.596 Y24.732
X16.362 Y24.68
X16.132 Y24.61
X15.907 Y24.52
X15.688 Y24.412
X15.477 Y24.286
X15.276 Y24.143
X15.086 Y23.983
X14.908 Y23.807
X14.744 Y23.617
X14.596 Y23.414
X14.464 Y23.198
X14.349 Y22.972
X14.252 Y22.737
X14.175 Y22.494
X14.117 Y22.245
X14.079 Y21.992
X14.061 Y21.736
X14.064 Y21.478
X14.088 Y21.222
X14.133 Y20.968
X14.197 Y20.718
X14.282 Y20.474
X14.386 Y20.237
X14.509 Y20.01
X14.649 Y19.792
X14.807 Y19.587
X14.981 Y19.395
X15.17 Y19.217
X15.372 Y19.055
X15.587 Y18.909
X15.813 Y18.782
X16.049 Y18.673
X16.293 Y18.583
X16.543 Y18.513
X16.798 Y18.463
X17.056 Y18.434
X17.316 Y18.425
X17.575 Y18.438
X17.833 Y18.471
X18.087 Y18.525
X18.337 Y18.599
X18.579 Y18.693
X18.813 Y18.806
X19.038 Y18.938
X19.251 Y19.087
X19.453 Y19.255
X19.653 Y19.448
X19.862 Y19.688
X20.057 Y19.95
X20.237 Y20.238
X20.392 Y20.538
X20.52 Y20.842
X20.62 Y21.146
X20.693 Y21.449
X20.74 Y21.749
X20.763 Y22.045
X20.762 Y22.338
X20.738 Y22.627
X20.691 Y22.91
X20.621 Y23.187
X20.531 Y23.456
X20.419 Y23.717
X20.286 Y23.967
X20.134 Y24.207
X19.962 Y24.434
X19.772 Y24.648
X19.564 Y24.847
X19.339 Y25.03
X19.098 Y25.196
X18.842 Y25.344
X18.572 Y25.471
X18.291 Y25.578
X18 Y25.662
X17.7 Y25.723
X17.394 Y25.76
X17.084 Y25.772
X16.772 Y25.76
X16.459 Y25.722
X16.148 Y25.659
X15.842 Y25.57
X15.541 Y25.457
X15.249 Y25.319
X14.968 Y25.157
X14.699 Y24.972
X14.445 Y24.765
X14.207 Y24.538
X13.987 Y24.291
X13.787 Y24.026
X13.608 Y23.745
X13.452 Y23.45
X13.32 Y23.142
X13.212 Y22.824
X13.131 Y22.498
X13.075 Y22.165
X13.047 Y21.829
X13.045 Y21.49
X13.071 Y21.153
X13.124 Y20.818
X13.203 Y20.488
X13.309 Y20.165
X13.441 Y19.851
X13.598 Y19.549
X13.778 Y19.26
X13.981 Y18.987
X14.205 Y18.73
X14.45 Y18.492
X14.713 Y18.275
X14.992 Y18.079
X15.287 Y17.906
X15.594 Y17.758
X15.912 Y17.634
X16.24 Y17.537
X16.574 Y17.466
X16.913 Y17.422
X17.104 Y17.413
X17.115
X17.229
X17.71 Y17.437
X18.04 Y17.48
X18.368 Y17.55
X18.69 Y17.647
X19.005 Y17.77
X19.312 Y17.918
X19.61 Y18.094
X19.903 Y18.299
X20.188 Y18.536
X20.463 Y18.804
X20.722 Y19.101
X20.959 Y19.422
X21.17 Y19.761
X21.353 Y20.116
X21.484 Y20.429
X21.514 Y20.517
X21.532 Y20.607
X21.538 Y20.699
Y22.743
X21.518 Y23.149
X21.485 Y23.399
X21.428 Y23.666
X21.345 Y23.943
X21.237 Y24.222
X21.103 Y24.498
X20.941 Y24.773
X20.75 Y25.045
X20.532 Y25.307
X20.288 Y25.557
X20.078 Y25.74
X19.94 Y25.834
X19.784 Y25.893
X19.618 Y25.913
X15.244
X15.094 Y25.905
X14.927 Y25.883
X14.756 Y25.846
X14.562 Y25.788
X14.362 Y25.71
X14.149 Y25.606
X13.921 Y25.472
X13.699 Y25.315
X13.471 Y25.125
X13.242 Y24.901
X13.208 Y24.862
X13.112 Y24.72
X13.054 Y24.559
X13.036 Y24.389
X13.038 Y24.302
Y19.484
X13.046 Y19.334
X13.074 Y19.169
X13.117 Y19
X13.183 Y18.807
X13.268 Y18.61
X13.38 Y18.399
X13.524 Y18.174
X13.69 Y17.956
X13.891 Y17.731
X14.022 Y17.606
X14.165 Y17.501
X14.329 Y17.435
X14.505 Y17.413
X17.115
G3 X17.219 Y17.994 I0 J0.3
G1 X16.732 Y18.174
G3 X16.475 Y17.634 I-0.104 J-0.281
X17.229 Y17.413 I0.809 J1.36
G1 X19.356
X19.572 Y17.424
X19.732 Y17.445
X19.897 Y17.48
X20.091 Y17.538
X20.286 Y17.614
X20.509 Y17.722
X20.734 Y17.855
X20.973 Y18.023
X21.227 Y18.233
X21.33 Y18.334
X21.445 Y18.482
X21.518 Y18.655
X21.541 Y18.842
X21.539 Y19.059
X21.538 Y20.699
G3 X20.985 Y20.849 I-0.3 J-0.01
G1 X20.973 Y20.83
X19.196 Y18.005
X19.112 Y17.872
G3 X19.356 Y17.413 I0.254 J-0.16
G1 X20.065
X20.207 Y17.412
X20.349 Y17.402
X20.49 Y17.386
X20.521 Y17.377
X20.668 Y17.346
X20.818
X20.967 Y17.361
X21.114 Y17.39
X21.153 Y17.402
X21.351 Y17.499
X21.51 Y17.653
X21.612 Y17.849
X21.648 Y18.067
X21.615 Y18.286
G3 X21.158 Y18.428 I-0.282 J-0.102
G1 X20.97 Y18.293
X20.528 Y17.977
X20.433 Y17.908
G3 X20.521 Y17.377 I0.175 J-0.244
G1 X20.632 Y17.347
X20.774 Y17.299
X20.949 Y17.217
X21.003 Y17.185
X21.133 Y17.109
X21.319 Y17.105
X21.498 Y17.159
X21.65 Y17.266
X21.761 Y17.416
X21.82 Y17.593
Y17.779
X21.762 Y17.957
X21.717 Y18.022
X21.66 Y18.077
X21.594 Y18.12
G3 X21.003 Y17.185 I-0.26 J-0.49
G1 X21.058 Y17.148
X21.199 Y17.037
X21.233 Y17.006
X21.347 Y16.909
X21.488 Y16.858
X21.493
X21.672 Y16.88
X21.833 Y16.96
X21.959 Y17.089
X22.034 Y17.253
X22.051 Y17.432
X22.008 Y17.607
X21.908 Y17.758
X21.88 Y17.785
X21.847 Y17.807
G3 X21.233 Y17.006 I-0.253 J-0.442
G1 X21.31 Y16.934
X21.483 Y16.761
X21.594 Y16.661
X21.735 Y16.61
X21.885 Y16.602
X22.062 Y16.672
X22.203 Y16.801
X22.29 Y16.971
X22.311 Y17.16
X22.265 Y17.345
X22.156 Y17.502
X22.05 Y17.608
X22 Y17.645
X21.942 Y17.668
X21.881 Y17.675
X21.88
G3 X21.483 Y16.761 I0 J-0.543
G1 X21.767 Y16.478
X21.878 Y16.377
X22.022 Y16.336
X22.2 Y16.366
X22.358 Y16.453
X22.479 Y16.587
X22.548 Y16.754
X22.558 Y16.934
X22.509 Y17.107
X22.404 Y17.254
X22.156 Y17.502
G3 X21.83 Y17.511 I-0.168 J-0.18
X21.767 Y16.478 I0.458 J-0.547
G1 X21.997 Y16.248
X22.108 Y16.147
X22.249 Y16.095
X22.399 Y16.087
X22.576 Y16.159
X22.716 Y16.288
X22.802 Y16.459
X22.823 Y16.649
X22.777 Y16.834
X22.668 Y16.991
X22.404 Y17.254
G3 X22.089 Y17.272 I-0.168 J-0.18
X21.997 Y16.248 I0.413 J-0.553
G1 X22.253 Y15.991
X22.364 Y15.891
X22.505 Y15.839
X22.654 Y15.828
X22.833 Y15.897
X22.975 Y16.025
X23.063 Y16.194
X23.086 Y16.384
X23.04 Y16.57
X22.931 Y16.727
X22.668 Y16.991
G3 X22.357 Y17.012 I-0.168 J-0.18
X22.253 Y15.991 I0.394 J-0.556
G1 X22.532 Y15.712
X22.644 Y15.611
X22.787 Y15.567
X22.966 Y15.594
X23.126 Y15.678
X23.249 Y15.811
X23.32 Y15.978
X23.332 Y16.158
X23.282 Y16.333
X23.178 Y16.481
X22.931 Y16.727
G3 X22.61 Y16.741 I-0.168 J-0.18
X22.532 Y15.712 I0.435 J-0.55
G1 X22.793 Y15.452
X22.904 Y15.351
X23.049 Y15.312
X23.226 Y15.342
X23.384 Y15.429
X23.504 Y15.564
X23.573 Y15.73
X23.583 Y15.91
X23.533 Y16.083
X23.429 Y16.23
X23.178 Y16.481
G3 X22.85 Y16.487 I-0.168 J-0.18
X22.599 Y15.943 I0.469 J-0.545
G1 Y15.942
G3 X22.793 Y15.452 I0.719 J0
G1 X23.043 Y15.202
X23.062 Y15.182
X23.078 Y15.166
X23.206 Y15.087
X23.354 Y15.062
X23.547 Y15.117
X23.707 Y15.239
X23.81 Y15.412
X23.842 Y15.61
X23.799 Y15.806
X23.686 Y15.973
X23.429 Y16.23
G3 X23.083 Y16.219 I-0.168 J-0.18
X23.078 Y15.166 I0.557 J-0.529
G1 X23.189 Y15.091
X23.326 Y14.999
X23.362 Y14.979
X23.38 Y14.974
X23.52 Y14.946
X23.538 Y14.945
X23.557 Y14.946
X23.699 Y14.974
X23.716 Y14.979
X23.752 Y15
X23.846 Y15.063
X23.862 Y15.075
X23.877 Y15.091
X23.894 Y15.114
X23.963 Y15.218
X23.972 Y15.233
X23.977 Y15.251
X24.002 Y15.375
X24.008 Y15.41
X24.006 Y15.428
X23.974 Y15.587
X23.965 Y15.605
X23.799 Y15.853
X23.778 Y15.88
X23.686 Y15.973
G3 X23.194 Y15.666 I-0.205 J-0.219
G1 X23.214 Y15.602 Z-0.992
X23.232 Y15.541 Z-0.97
X23.249 Y15.487 Z-0.935
X23.263 Y15.441 Z-0.887
X23.273 Y15.407 Z-0.83
X23.28 Y15.386 Z-0.767
X23.282 Y15.379 Z-0.7
G0 Z6
X21.164 Y21.732
Z-0.4
G1 Z-0.7 F450
X21.168 Y21.738 Z-0.767
X21.179 Y21.758 Z-0.83
X21.197 Y21.788 Z-0.887
X21.222 Y21.829 Z-0.935
X21.251 Y21.878 Z-0.97
X21.283 Y21.932 Z-0.992
X21.317 Y21.99 Z-1
G3 X21.538 Y22.743 I-1.36 J0.809
G1 X21.539 Y24.302
X21.544 Y24.586
X21.538 Y24.787
X21.521 Y24.936
X21.489 Y25.097
X21.441 Y25.266
X21.371 Y25.452
X21.318 Y25.565
X21.211 Y25.728
X21.064 Y25.855
X20.888 Y25.937
X20.696 Y25.967
X20.502 Y25.944
X20.49 Y25.94
X20.349 Y25.923
X20.207 Y25.914
X19.923 Y25.913
X19.618
G3 X19.469 Y25.359 I0.01 J-0.3
G1 X19.487 Y25.348
X20.948 Y24.434
X21.086 Y24.347
G3 X21.544 Y24.586 I0.159 J0.254
G1 X21.547 Y24.727
X21.57 Y24.869
X21.603 Y25.011
X21.654 Y25.152
X21.692 Y25.23
X21.75 Y25.368
X21.753 Y25.568
X21.695 Y25.758
X21.581 Y25.922
X21.422 Y26.043
X21.235 Y26.109
X21.035 Y26.115
X20.844 Y26.059
G3 X20.774 Y25.574 I0.137 J-0.267
G1 X20.928 Y25.429
X21.051 Y25.313
X21.221 Y25.153
G3 X21.692 Y25.23 I0.206 J0.218
G1 X21.723 Y25.294
X21.767 Y25.373
X21.805 Y25.436
X21.887 Y25.541
X21.974 Y25.664
X22.007 Y25.81
X21.962 Y26.01
X21.848 Y26.179
X21.68 Y26.295
X21.482 Y26.342
X21.28 Y26.314
X21.101 Y26.214
X21.076 Y26.189
X21.054 Y26.16
G3 X21.887 Y25.541 I0.435 J-0.284
G1 X21.908 Y25.568
X22.052 Y25.719
X22.124 Y25.791
X22.224 Y25.902
X22.265 Y26.047
X22.233 Y26.223
X22.146 Y26.38
X22.012 Y26.5
X21.846 Y26.569
X21.667 Y26.581
X21.494 Y26.534
X21.345 Y26.432
X21.187 Y26.286
X21.058 Y26.178
X21.006 Y26.144
X20.916 Y26.093
X20.844 Y26.059
G3 X21.048 Y25.5 I0.137 J-0.267
G1 X21.375 Y25.576
X21.987 Y25.718
X22.037 Y25.735
X22.083 Y25.759
X22.124 Y25.791
X22.359 Y26.026
X22.459 Y26.137
X22.507 Y26.279
X22.512 Y26.429
X22.439 Y26.604
X22.308 Y26.743
X22.138 Y26.827
X21.949 Y26.847
X21.765 Y26.799
X21.609 Y26.691
X21.483 Y26.564
X21.345 Y26.432
G3 X21.327 Y26.108 I0.177 J-0.172
X22.359 Y26.026 I0.553 J0.431
G1 X22.617 Y26.285
X22.718 Y26.396
X22.766 Y26.538
X22.774 Y26.688
X22.703 Y26.864
X22.574 Y27.004
X22.405 Y27.09
X22.216 Y27.111
X22.031 Y27.065
X21.875 Y26.956
X21.609 Y26.691
G3 X21.593 Y26.375 I0.18 J-0.168
X22.617 Y26.285 I0.553 J0.416
G1 X22.873 Y26.54
X22.973 Y26.651
X23.025 Y26.792
X23.036 Y26.941
X22.967 Y27.12
X22.84 Y27.262
X22.67 Y27.351
X22.48 Y27.373
X22.294 Y27.327
X22.137 Y27.218
X21.875 Y26.956
G3 X21.853 Y26.647 I0.18 J-0.168
X22.873 Y26.54 I0.556 J0.39
G1 X23.156 Y26.823
X23.257 Y26.935
X23.299 Y27.079
X23.271 Y27.257
X23.185 Y27.416
X23.052 Y27.538
X22.885 Y27.608
X22.705 Y27.619
X22.531 Y27.569
X22.384 Y27.465
X22.137 Y27.218
G3 X22.126 Y26.895 I0.18 J-0.168
X23.156 Y26.823 I0.549 J0.445
G1 X23.4 Y27.067
X23.5 Y27.178
X23.547 Y27.321
X23.551 Y27.471
X23.477 Y27.645
X23.346 Y27.783
X23.176 Y27.866
X22.988 Y27.886
X22.804 Y27.838
X22.649 Y27.73
X22.384 Y27.465
G3 X22.371 Y27.144 I0.18 J-0.168
X23.4 Y27.067 I0.55 J0.437
G1 X23.653 Y27.321
X23.754 Y27.432
X23.804 Y27.573
X23.813 Y27.723
X23.742 Y27.9
X23.614 Y28.041
X23.444 Y28.128
X23.255 Y28.15
X23.07 Y28.103
X22.913 Y27.995
X22.649 Y27.73
G3 X22.63 Y27.416 I0.18 J-0.168
X23.653 Y27.321 I0.554 J0.408
G1 X23.752 Y27.42
X23.786 Y27.455
X23.811 Y27.491
X23.953 Y27.703
X23.965 Y27.721
X23.973 Y27.739
X23.981 Y27.774
X23.996 Y27.845
X24.005 Y27.933
G3 X23.775 Y28.156 I-0.258 J-0.035
X23.72 Y27.65 I-0.027 J-0.253
X23.996 Y27.845 I0.027 J0.253
G1 X24.007 Y27.916
X24.005 Y27.933
X23.98 Y28.057
X23.977 Y28.075
X23.972 Y28.093
X23.962 Y28.11
X23.882 Y28.23
X23.864 Y28.248
X23.835 Y28.27
X23.752 Y28.325
X23.716 Y28.346
X23.699 Y28.352
X23.557 Y28.38
X23.539 Y28.381
X23.521 Y28.38
X23.38 Y28.352
X23.362 Y28.347
X23.326 Y28.326
X23.116 Y28.185
X23.081 Y28.162
X22.972 Y28.053
X22.913 Y27.995
G3 X23.22 Y27.503 I0.219 J-0.205
G1 X23.284 Y27.523 Z-0.992
X23.345 Y27.541 Z-0.97
X23.399 Y27.558 Z-0.935
X23.445 Y27.572 Z-0.887
X23.479 Y27.582 Z-0.83
X23.5 Y27.589 Z-0.767
X23.507 Y27.591 Z-0.7
G0 Z6
X16.255 Y25.538
Z-0.4
G1 Z-0.7 F450
X16.249 Y25.542 Z-0.767
X16.23 Y25.553 Z-0.83
X16.199 Y25.572 Z-0.887
X16.158 Y25.596 Z-0.935
X16.109 Y25.625 Z-0.97
X16.055 Y25.657 Z-0.992
X15.997 Y25.692 Z-1
G3 X15.244 Y25.913 I-0.809 J-1.36
G1 X14.393
X14.251 Y25.922
X14.109 Y25.938
X14.066 Y25.948
X13.919 Y25.973
X13.769 Y25.967
X13.62 Y25.945
X13.474 Y25.911
X13.416 Y25.891
X13.222 Y25.79
X13.068 Y25.634
X12.971 Y25.438
X12.938 Y25.222
X12.975 Y25.006
X13.007 Y24.869
X13.03 Y24.727
X13.036 Y24.389
G3 X13.602 Y24.267 I0.3 J0.016
G1 X13.604 Y24.27
X14.142 Y25.3
X14.256 Y25.519
G3 X14.066 Y25.948 I-0.266 J0.139
G1 X13.967 Y25.97
X13.867 Y26.003
X13.826 Y26.019
X13.684 Y26.078
X13.62 Y26.115
X13.486 Y26.182
X13.294 Y26.196
X13.108 Y26.146
X12.948 Y26.038
X12.832 Y25.884
X12.772 Y25.7
X12.775 Y25.508
X12.841 Y25.326
G3 X13.032 Y25.138 I0.47 J0.287
X13.62 Y26.115 I0.288 J0.492
G1 X13.568 Y26.144
X13.542 Y26.162
X13.4 Y26.274
X13.365 Y26.305
X13.249 Y26.4
X13.108 Y26.45
X12.928 Y26.427
X12.767 Y26.346
X12.641 Y26.217
X12.565 Y26.053
X12.548 Y25.873
X12.591 Y25.698
X12.689 Y25.546
X12.731 Y25.512
G3 X13.365 Y26.305 I0.279 J0.427
G1 X13.231 Y26.428
X13.117 Y26.542
X13.005 Y26.642
X12.864 Y26.694
X12.715 Y26.703
X12.537 Y26.632
X12.396 Y26.503
X12.309 Y26.333
X12.288 Y26.144
X12.334 Y25.958
X12.443 Y25.801
X12.549 Y25.695
X12.611 Y25.63
G3 X12.858 Y25.57 I0.174 J0.177
X13.117 Y26.542 I-0.175 J0.567
G1 X12.856 Y26.802
X12.745 Y26.903
X12.604 Y26.954
X12.454 Y26.963
X12.276 Y26.894
X12.135 Y26.766
X12.047 Y26.597
X12.025 Y26.407
X12.071 Y26.222
X12.18 Y26.065
X12.443 Y25.801
G3 X12.755 Y25.781 I0.168 J0.18
X12.856 Y26.802 I-0.398 J0.555
G1 X12.601 Y27.058
X12.49 Y27.158
X12.35 Y27.212
X12.2 Y27.225
X12.021 Y27.157
X11.877 Y27.03
X11.788 Y26.86
X11.764 Y26.67
X11.81 Y26.483
X11.919 Y26.325
X12.18 Y26.065
G3 X12.486 Y26.041 I0.168 J0.18
X12.601 Y27.058 I-0.377 J0.557
G1 X12.322 Y27.337
X12.21 Y27.437
X12.067 Y27.483
X11.888 Y27.458
X11.727 Y27.374
X11.603 Y27.242
X11.531 Y27.075
X11.519 Y26.894
X11.568 Y26.72
X11.673 Y26.572
X11.919 Y26.325
G3 X12.237 Y26.31 I0.168 J0.18
X12.322 Y27.337 I-0.425 J0.552
G1 X12.062 Y27.596
X11.951 Y27.697
X11.807 Y27.737
X11.629 Y27.709
X11.47 Y27.622
X11.349 Y27.488
X11.28 Y27.322
X11.269 Y27.142
X11.319 Y26.969
X11.423 Y26.821
X11.673 Y26.572
G3 X11.999 Y26.563 I0.168 J0.18
X12.062 Y27.596 I-0.458 J0.547
G1 X11.814 Y27.845
X11.702 Y27.945
X11.559 Y27.988
X11.409 Y27.99
X11.236 Y27.914
X11.1 Y27.783
X11.018 Y27.613
X11 Y27.426
X11.048 Y27.243
X11.156 Y27.088
X11.423 Y26.821
G3 X11.748 Y26.812 I0.168 J0.18
X11.814 Y27.845 I-0.455 J0.547
G1 X11.557 Y28.102
X11.53 Y28.128
X11.501 Y28.157
X11.436 Y28.202
X11.41 Y28.196
G3 X11.185 Y27.841 I0.069 J-0.292
G1 X11.246 Y27.554
X11.294 Y27.331
G3 X11.655 Y27.102 I0.293 J0.062
X11.878 Y27.468 I-0.068 J0.292
X11.501 Y28.157 I-1.534 J-0.39
G1 X11.487 Y28.168
X11.415 Y28.216
X11.351 Y28.255
X11.202 Y28.271
X11.014 Y28.205
X10.862 Y28.075
X10.767 Y27.9
X10.741 Y27.702
X10.787 Y27.509
X10.9 Y27.344
X10.941 Y27.313
X10.987 Y27.291
X11.036 Y27.279
G3 X11.415 Y28.216 I0.075 J0.515
G1 X11.238 Y28.335
X11.22 Y28.345
X11.202 Y28.351
X11.043 Y28.382
X11.025 Y28.38
X10.866 Y28.349
X10.848 Y28.341
X10.742 Y28.27
X10.706 Y28.243
X10.694 Y28.229
X10.615 Y28.11
X10.606 Y28.093
X10.6 Y28.075
X10.572 Y27.933
X10.57 Y27.916
X10.581 Y27.845
X10.603 Y27.739
X10.612 Y27.721
X10.766 Y27.491
X10.79 Y27.455
X10.848 Y27.396
X11.156 Y27.088
G3 X11.647 Y27.396 I0.205 J0.219
G1 X11.628 Y27.459 Z-0.992
X11.609 Y27.52 Z-0.97
X11.593 Y27.574 Z-0.935
X11.579 Y27.62 Z-0.887
X11.568 Y27.654 Z-0.83
X11.562 Y27.675 Z-0.767
X11.56 Y27.682 Z-0.7
G0 Z6
X13.413 Y20.496
Z-0.4
G1 Z-0.7 F450
X13.409 Y20.489 Z-0.767
X13.398 Y20.47 Z-0.83
X13.38 Y20.439 Z-0.887
X13.355 Y20.399 Z-0.935
X13.326 Y20.35 Z-0.97
X13.294 Y20.295 Z-0.992
X13.26 Y20.238 Z-1
G3 X13.038 Y19.484 I1.36 J-0.809
G1 Y19.059
X13.034 Y18.634
X13.013 Y18.492
X13.004 Y18.449
X12.981 Y18.301
Y18.151
X12.997 Y18.002
X13.028 Y17.855
X13.045 Y17.8
X13.144 Y17.601
X13.301 Y17.444
X13.498 Y17.343
X13.718 Y17.309
X13.937 Y17.345
G3 X14.075 Y17.8 I-0.106 J0.281
G1 X13.938 Y17.993
X13.599 Y18.469
X13.54 Y18.552
G3 X13.004 Y18.449 I-0.244 J-0.174
G1 X12.983 Y18.351
X12.938 Y18.209
X12.873 Y18.067
X12.833 Y17.992
X12.813 Y17.955
X12.747 Y17.82
X12.745 Y17.632
X12.803 Y17.452
X12.914 Y17.3
X13.068 Y17.191
X13.248 Y17.136
X13.436 Y17.141
X13.613 Y17.205
G3 X13.803 Y17.409 I-0.262 J0.433
X12.813 Y17.955 I-0.504 J0.256
G1 X12.797 Y17.926
X12.691 Y17.784
X12.624 Y17.711
X12.528 Y17.596
X12.485 Y17.452
X12.514 Y17.273
X12.6 Y17.114
X12.733 Y16.992
X12.899 Y16.92
X13.08 Y16.906
X13.255 Y16.953
X13.405 Y17.054
X13.431 Y17.084
X13.452 Y17.119
G3 X12.624 Y17.711 I-0.462 J0.23
G1 X12.549 Y17.631
X12.386 Y17.467
X12.285 Y17.356
X12.238 Y17.214
X12.232 Y17.064
X12.304 Y16.89
X12.432 Y16.752
X12.6 Y16.666
X12.787 Y16.643
X12.97 Y16.686
X13.127 Y16.79
X13.346 Y16.997
G3 X13.392 Y17.282 I-0.178 J0.175
X12.386 Y17.467 I-0.572 J-0.28
G1 X12.136 Y17.217
X12.035 Y17.106
X11.982 Y16.965
X11.971 Y16.816
X12.039 Y16.637
X12.166 Y16.494
X12.336 Y16.405
X12.526 Y16.382
X12.712 Y16.428
X12.87 Y16.537
X12.983 Y16.65
X13.127 Y16.79
G3 X13.156 Y17.102 I-0.176 J0.173
X12.136 Y17.217 I-0.559 J-0.379
G1 X11.852 Y16.934
X11.751 Y16.822
X11.708 Y16.679
X11.736 Y16.5
X11.821 Y16.341
X11.955 Y16.219
X12.121 Y16.148
X12.302 Y16.137
X12.476 Y16.186
X12.623 Y16.291
X12.87 Y16.537
G3 X12.882 Y16.859 I-0.18 J0.168
X11.852 Y16.934 I-0.549 J-0.441
G1 X11.595 Y16.677
X11.494 Y16.565
X11.455 Y16.421
X11.484 Y16.243
X11.571 Y16.085
X11.706 Y15.965
X11.872 Y15.896
X12.052 Y15.885
X12.225 Y15.935
X12.372 Y16.04
X12.623 Y16.291
G3 X12.63 Y16.619 I-0.18 J0.168
X11.595 Y16.677 I-0.545 J-0.468
G1 X11.348 Y16.43
X11.248 Y16.319
X11.205 Y16.175
X11.203 Y16.025
X11.279 Y15.852
X11.41 Y15.717
X11.58 Y15.635
X11.768 Y15.616
X11.95 Y15.664
X12.105 Y15.772
X12.372 Y16.04
G3 X12.381 Y16.365 I-0.18 J0.168
X11.348 Y16.43 I-0.547 J-0.456
G1 X11.092 Y16.174
X10.992 Y16.063
X10.945 Y15.92
X10.939 Y15.77
X11.011 Y15.595
X11.141 Y15.456
X11.31 Y15.371
X11.499 Y15.351
X11.682 Y15.397
X11.838 Y15.506
X12.105 Y15.772
G3 X12.119 Y16.091 I-0.18 J0.168
X11.092 Y16.174 I-0.551 J-0.428
G1 X10.848 Y15.929
X10.814 Y15.894
X10.786 Y15.865
X10.708 Y15.736
X10.678 Y15.59
X10.732 Y15.396
X10.853 Y15.235
X11.026 Y15.131
X11.224 Y15.099
X11.421 Y15.142
X11.588 Y15.255
X11.838 Y15.506
G3 X11.836 Y15.846 I-0.181 J0.169
X10.786 Y15.865 I-0.534 J-0.511
G1 X10.612 Y15.605
X10.603 Y15.587
X10.571 Y15.428
X10.569 Y15.41
X10.575 Y15.375
X10.605 Y15.233
X10.615 Y15.215
X10.698 Y15.091
X10.706 Y15.083
X10.777 Y15.033
X10.848 Y14.985
X10.866 Y14.978
X10.883 Y14.973
X11.02 Y14.946
X11.038 Y14.943
X11.057 Y14.946
X11.202 Y14.975
X11.22 Y14.98
X11.273 Y15.015
X11.486 Y15.157
X11.504 Y15.171
X11.588 Y15.255
G3 X11.562 Y15.688 I-0.219 J0.205
G1 X11.515 Y15.711 Z-0.995
X11.468 Y15.733 Z-0.981
X11.425 Y15.754 Z-0.958
X11.395 Y15.757 Z-0.937
X11.368 Y15.76 Z-0.913
X11.331 Y15.754 Z-0.868
X11.303 Y15.75 Z-0.816
X11.286 Y15.747 Z-0.759
X11.281 Y15.746 Z-0.7
G0 Z6
X17.779 Y20.325
Z1.5
G3 X16.798 Y23.001 Z1.344 I-0.49 J1.338 F333.3
X17.779 Y20.325 Z1.187 I0.49 J-1.338
X16.798 Y23.001 Z1.031 I-0.49 J1.338
X17.779 Y20.325 Z0.875 I0.49 J-1.338
X16.798 Y23.001 Z0.718 I-0.49 J1.338
X17.779 Y20.325 Z0.562 I0.49 J-1.338
X16.798 Y23.001 Z0.406 I-0.49 J1.338
X17.779 Y20.325 Z0.249 I0.49 J-1.338
X16.798 Y23.001 Z0.093 I-0.49 J1.338
X17.779 Y20.325 Z-0.063 I0.49 J-1.338
X16.798 Y23.001 Z-0.22 I-0.49 J1.338
X17.779 Y20.325 Z-0.376 I0.49 J-1.338
X16.798 Y23.001 Z-0.532 I-0.49 J1.338
X17.779 Y20.325 Z-0.689 I0.49 J-1.338
X16.798 Y23.001 Z-0.845 I-0.49 J1.338
X17.779 Y20.325 Z-1.001 I0.49 J-1.338
X16.798 Y23.001 Z-1.158 I-0.49 J1.338
X17.779 Y20.325 Z-1.314 I0.49 J-1.338
X16.798 Y23.001 Z-1.47 I-0.49 J1.338
X17.779 Y20.325 Z-1.627 I0.49 J-1.338
X16.798 Y23.001 Z-1.783 I-0.49 J1.338
X17.779 Y20.325 Z-1.939 I0.49 J-1.338
X18.713 Y21.663 Z-2 I-0.49 J1.338
X15.863 Y21.663 I-1.425 J0
X18.713 Y21.663 I1.425 J0
G1 X18.744 Y22.286 F450
X18.768 Y22.36
X18.797 Y22.508
X18.794 Y22.658
X18.766 Y22.805
X18.717 Y22.947
X18.65 Y23.081
X18.568 Y23.206
X18.473 Y23.322
X18.366 Y23.427
X18.249 Y23.522
X18.124 Y23.605
X17.993 Y23.677
X17.855 Y23.737
X17.713 Y23.785
X17.566 Y23.823
X17.413 Y23.849
X17.255 Y23.863
X17.094 Y23.864
X16.931 Y23.852
X16.768 Y23.827
X16.605 Y23.788
X16.443 Y23.736
X16.286 Y23.67
X16.132 Y23.591
X15.985 Y23.5
X15.844 Y23.396
X15.711 Y23.28
X15.587 Y23.154
X15.474 Y23.018
X15.371 Y22.872
X15.28 Y22.718
X15.201 Y22.557
X15.136 Y22.389
X15.084 Y22.216
X15.046 Y22.04
X15.022 Y21.86
X15.013 Y21.679
X15.018 Y21.498
X15.037 Y21.317
X15.072 Y21.138
X15.12 Y20.963
X15.183 Y20.792
X15.259 Y20.626
X15.348 Y20.467
X15.45 Y20.315
X15.563 Y20.172
X15.688 Y20.038
X15.823 Y19.915
X15.968 Y19.803
X16.121 Y19.703
X16.282 Y19.616
X16.449 Y19.542
X16.622 Y19.481
X16.799 Y19.435
X16.98 Y19.403
X17.162 Y19.385
X17.345 Y19.382
X17.528 Y19.394
X17.709 Y19.421
X17.888 Y19.461
X18.062 Y19.517
X18.232 Y19.586
X18.396 Y19.668
X18.552 Y19.763
X18.701 Y19.871
X18.84 Y19.99
X18.969 Y20.12
X19.088 Y20.26
X19.194 Y20.409
X19.297 Y20.578
X19.414 Y20.813
X19.574 Y21.214
X19.664 Y21.504
X19.72 Y21.752
X19.751 Y21.976
X19.764 Y22.191
X19.76 Y22.402
X19.74 Y22.604
X19.704 Y22.798
X19.654 Y22.986
X19.588 Y23.17
X19.508 Y23.35
X19.412 Y23.524
X19.303 Y23.69
X19.179 Y23.847
X19.043 Y23.996
X18.892 Y24.135
X18.73 Y24.263
X18.554 Y24.38
X18.367 Y24.484
X18.169 Y24.573
X17.962 Y24.648
X17.746 Y24.706
X17.524 Y24.748
X17.296 Y24.772
X17.064 Y24.777
X16.83 Y24.764
X16.596 Y24.732
X16.362 Y24.68
X16.132 Y24.61
X15.907 Y24.52
X15.688 Y24.412
X15.477 Y24.286
X15.276 Y24.143
X15.086 Y23.983
X14.908 Y23.807
X14.744 Y23.617
X14.596 Y23.414
X14.464 Y23.198
X14.349 Y22.972
X14.252 Y22.737
X14.175 Y22.494
X14.117 Y22.245
X14.079 Y21.992
X14.061 Y21.736
X14.064 Y21.478
X14.088 Y21.222
X14.133 Y20.968
X14.197 Y20.718
X14.282 Y20.474
X14.386 Y20.237
X14.509 Y20.01
X14.649 Y19.792
X14.807 Y19.587
X14.981 Y19.395
X15.17 Y19.217
X15.372 Y19.055
X15.587 Y18.909
X15.813 Y18.782
X16.049 Y18.673
X16.293 Y18.583
X16.543 Y18.513
X16.798 Y18.463
X17.056 Y18.434
X17.316 Y18.425
X17.575 Y18.438
X17.833 Y18.471
X18.087 Y18.525
X18.337 Y18.599
X18.579 Y18.693
X18.813 Y18.806
X19.038 Y18.938
X19.251 Y19.087
X19.453 Y19.255
X19.653 Y19.448
X19.862 Y19.688
X20.057 Y19.95
X20.237 Y20.238
X20.392 Y20.538
X20.52 Y20.842
X20.62 Y21.146
X20.693 Y21.449
X20.74 Y21.749
X20.763 Y22.045
X20.762 Y22.338
X20.738 Y22.627
X20.691 Y22.91
X20.621 Y23.187
X20.531 Y23.456
X20.419 Y23.717
X20.286 Y23.967
X20.134 Y24.207
X19.962 Y24.434
X19.772 Y24.648
X19.564 Y24.847
X19.339 Y25.03
X19.098 Y25.196
X18.842 Y25.344
X18.572 Y25.471
X18.291 Y25.578
X18 Y25.662
X17.7 Y25.723
X17.394 Y25.76
X17.084 Y25.772
X16.772 Y25.76
X16.459 Y25.722
X16.148 Y25.659
X15.842 Y25.57
X15.541 Y25.457
X15.249 Y25.319
X14.968 Y25.157
X14.699 Y24.972
X14.445 Y24.765
X14.207 Y24.538
X13.987 Y24.291
X13.787 Y24.026
X13.608 Y23.745
X13.452 Y23.45
X13.32 Y23.142
X13.212 Y22.824
X13.131 Y22.498
X13.075 Y22.165
X13.047 Y21.829
X13.045 Y21.49
X13.071 Y21.153
X13.124 Y20.818
X13.203 Y20.488
X13.309 Y20.165
X13.441 Y19.851
X13.598 Y19.549
X13.778 Y19.26
X13.981 Y18.987
X14.205 Y18.73
X14.45 Y18.492
X14.713 Y18.275
X14.992 Y18.079
X15.287 Y17.906
X15.594 Y17.758
X15.912 Y17.634
X16.24 Y17.537
X16.574 Y17.466
X16.913 Y17.422
X17.104 Y17.413
X17.115
X17.229
X17.71 Y17.437
X18.04 Y17.48
X18.368 Y17.55
X18.69 Y17.647
X19.005 Y17.77
X19.312 Y17.918
X19.61 Y18.094
X19.903 Y18.299
X20.188 Y18.536
X20.463 Y18.804
X20.722 Y19.101
X20.959 Y19.422
X21.17 Y19.761
X21.353 Y20.116
X21.484 Y20.429
X21.514 Y20.517
X21.532 Y20.607
X21.538 Y20.699
Y22.743
X21.518 Y23.149
X21.485 Y23.399
X21.428 Y23.666
X21.345 Y23.943
X21.237 Y24.222
X21.103 Y24.498
X20.941 Y24.773
X20.75 Y25.045
X20.532 Y25.307
X20.288 Y25.557
X20.078 Y25.74
X19.94 Y25.834
X19.784 Y25.893
X19.618 Y25.913
X15.244
X15.094 Y25.905
X14.927 Y25.883
X14.756 Y25.846
X14.562 Y25.788
X14.362 Y25.71
X14.149 Y25.606
X13.921 Y25.472
X13.699 Y25.315
X13.471 Y25.125
X13.242 Y24.901
X13.208 Y24.862
X13.112 Y24.72
X13.054 Y24.559
X13.036 Y24.389
X13.038 Y24.302
Y19.484
X13.046 Y19.334
X13.074 Y19.169
X13.117 Y19
X13.183 Y18.807
X13.268 Y18.61
X13.38 Y18.399
X13.524 Y18.174
X13.69 Y17.956
X13.891 Y17.731
X14.022 Y17.606
X14.165 Y17.501
X14.329 Y17.435
X14.505 Y17.413
X17.115
G3 X17.219 Y17.994 I0 J0.3
G1 X16.732 Y18.174
G3 X16.475 Y17.634 I-0.104 J-0.281
X17.229 Y17.413 I0.809 J1.36
G1 X19.356
X19.572 Y17.424
X19.732 Y17.445
X19.897 Y17.48
X20.091 Y17.538
X20.286 Y17.614
X20.509 Y17.722
X20.734 Y17.855
X20.973 Y18.023
X21.227 Y18.233
X21.33 Y18.334
X21.445 Y18.482
X21.518 Y18.655
X21.541 Y18.842
X21.539 Y19.059
X21.538 Y20.699
G3 X20.985 Y20.849 I-0.3 J-0.01
G1 X20.973 Y20.83
X19.196 Y18.005
X19.112 Y17.872
G3 X19.356 Y17.413 I0.254 J-0.16
G1 X20.065
X20.207 Y17.412
X20.349 Y17.402
X20.49 Y17.386
X20.521 Y17.377
X20.668 Y17.346
X20.818
X20.967 Y17.361
X21.114 Y17.39
X21.153 Y17.402
X21.351 Y17.499
X21.51 Y17.653
X21.612 Y17.849
X21.648 Y18.067
X21.615 Y18.286
G3 X21.158 Y18.428 I-0.282 J-0.102
G1 X20.97 Y18.293
X20.528 Y17.977
X20.433 Y17.908
G3 X20.521 Y17.377 I0.175 J-0.244
G1 X20.632 Y17.347
X20.774 Y17.299
X20.949 Y17.217
X21.003 Y17.185
X21.133 Y17.109
X21.319 Y17.105
X21.498 Y17.159
X21.65 Y17.266
X21.761 Y17.416
X21.82 Y17.593
Y17.779
X21.762 Y17.957
X21.717 Y18.022
X21.66 Y18.077
X21.594 Y18.12
G3 X21.003 Y17.185 I-0.26 J-0.49
G1 X21.058 Y17.148
X21.199 Y17.037
X21.233 Y17.006
X21.347 Y16.909
X21.488 Y16.858
X21.493
X21.672 Y16.88
X21.833 Y16.96
X21.959 Y17.089
X22.034 Y17.253
X22.051 Y17.432
X22.008 Y17.607
X21.908 Y17.758
X21.88 Y17.785
X21.847 Y17.807
G3 X21.233 Y17.006 I-0.253 J-0.442
G1 X21.31 Y16.934
X21.483 Y16.761
X21.594 Y16.661
X21.735 Y16.61
X21.885 Y16.602
X22.062 Y16.672
X22.203 Y16.801
X22.29 Y16.971
X22.311 Y17.16
X22.265 Y17.345
X22.156 Y17.502
X22.05 Y17.608
X22 Y17.645
X21.942 Y17.668
X21.881 Y17.675
X21.88
G3 X21.483 Y16.761 I0 J-0.543
G1 X21.767 Y16.478
X21.878 Y16.377
X22.022 Y16.336
X22.2 Y16.366
X22.358 Y16.453
X22.479 Y16.587
X22.548 Y16.754
X22.558 Y16.934
X22.509 Y17.107
X22.404 Y17.254
X22.156 Y17.502
G3 X21.83 Y17.511 I-0.168 J-0.18
X21.767 Y16.478 I0.458 J-0.547
G1 X21.997 Y16.248
X22.108 Y16.147
X22.249 Y16.095
X22.399 Y16.087
X22.576 Y16.159
X22.716 Y16.288
X22.802 Y16.459
X22.823 Y16.649
X22.777 Y16.834
X22.668 Y16.991
X22.404 Y17.254
G3 X22.089 Y17.272 I-0.168 J-0.18
X21.997 Y16.248 I0.413 J-0.553
G1 X22.253 Y15.991
X22.364 Y15.891
X22.505 Y15.839
X22.654 Y15.828
X22.833 Y15.897
X22.975 Y16.025
X23.063 Y16.194
X23.086 Y16.384
X23.04 Y16.57
X22.931 Y16.727
X22.668 Y16.991
G3 X22.357 Y17.012 I-0.168 J-0.18
X22.253 Y15.991 I0.394 J-0.556
G1 X22.532 Y15.712
X22.644 Y15.611
X22.787 Y15.567
X22.966 Y15.594
X23.126 Y15.678
X23.249 Y15.811
X23.32 Y15.978
X23.332 Y16.158
X23.282 Y16.333
X23.178 Y16.481
X22.931 Y16.727
G3 X22.61 Y16.741 I-0.168 J-0.18
X22.532 Y15.712 I0.435 J-0.55
G1 X22.793 Y15.452
X22.904 Y15.351
X23.049 Y15.312
X23.226 Y15.342
X23.384 Y15.429
X23.504 Y15.564
X23.573 Y15.73
X23.583 Y15.91
X23.533 Y16.083
X23.429 Y16.23
X23.178 Y16.481
G3 X22.85 Y16.487 I-0.168 J-0.18
X22.599 Y15.943 I0.469 J-0.545
G1 Y15.942
G3 X22.793 Y15.452 I0.719 J0
G1 X23.043 Y15.202
X23.062 Y15.182
X23.078 Y15.166
X23.206 Y15.087
X23.354 Y15.062
X23.547 Y15.117
X23.707 Y15.239
X23.81 Y15.412
X23.842 Y15.61
X23.799 Y15.806
X23.686 Y15.973
X23.429 Y16.23
G3 X23.083 Y16.219 I-0.168 J-0.18
X23.078 Y15.166 I0.557 J-0.529
G1 X23.189 Y15.091
X23.326 Y14.999
X23.362 Y14.979
X23.38 Y14.974
X23.52 Y14.946
X23.538 Y14.945
X23.557 Y14.946
X23.699 Y14.974
X23.716 Y14.979
X23.752 Y15
X23.846 Y15.063
X23.862 Y15.075
X23.877 Y15.091
X23.894 Y15.114
X23.963 Y15.218
X23.972 Y15.233
X23.977 Y15.251
X24.002 Y15.375
X24.008 Y15.41
X24.006 Y15.428
X23.974 Y15.587
X23.965 Y15.605
X23.799 Y15.853
X23.778 Y15.88
X23.686 Y15.973
G3 X23.194 Y15.666 I-0.205 J-0.219
G1 X23.214 Y15.602 Z-1.992
X23.232 Y15.541 Z-1.97
X23.249 Y15.487 Z-1.935
X23.263 Y15.441 Z-1.887
X23.273 Y15.407 Z-1.83
X23.28 Y15.386 Z-1.767
X23.282 Y15.379 Z-1.7
G0 Z6
X21.164 Y21.732
Z-1.4
G1 Z-1.7 F450
X21.168 Y21.738 Z-1.767
X21.179 Y21.758 Z-1.83
X21.197 Y21.788 Z-1.887
X21.222 Y21.829 Z-1.935
X21.251 Y21.878 Z-1.97
X21.283 Y21.932 Z-1.992
X21.317 Y21.99 Z-2
G3 X21.538 Y22.743 I-1.36 J0.809
G1 X21.539 Y24.302
X21.544 Y24.586
X21.538 Y24.787
X21.521 Y24.936
X21.489 Y25.097
X21.441 Y25.266
X21.371 Y25.452
X21.318 Y25.565
X21.211 Y25.728
X21.064 Y25.855
X20.888 Y25.937
X20.696 Y25.967
X20.502 Y25.944
X20.49 Y25.94
X20.349 Y25.923
X20.207 Y25.914
X19.923 Y25.913
X19.618
G3 X19.469 Y25.359 I0.01 J-0.3
G1 X19.487 Y25.348
X20.948 Y24.434
X21.086 Y24.347
G3 X21.544 Y24.586 I0.159 J0.254
G1 X21.547 Y24.727
X21.57 Y24.869
X21.603 Y25.011
X21.654 Y25.152
X21.692 Y25.23
X21.75 Y25.368
X21.753 Y25.568
X21.695 Y25.758
X21.581 Y25.922
X21.422 Y26.043
X21.235 Y26.109
X21.035 Y26.115
X20.844 Y26.059
G3 X20.774 Y25.574 I0.137 J-0.267
G1 X20.928 Y25.429
X21.051 Y25.313
X21.221 Y25.153
G3 X21.692 Y25.23 I0.206 J0.218
G1 X21.723 Y25.294
X21.767 Y25.373
X21.805 Y25.436
X21.887 Y25.541
X21.974 Y25.664
X22.007 Y25.81
X21.962 Y26.01
X21.848 Y26.179
X21.68 Y26.295
X21.482 Y26.342
X21.28 Y26.314
X21.101 Y26.214
X21.076 Y26.189
X21.054 Y26.16
G3 X21.887 Y25.541 I0.435 J-0.284
G1 X21.908 Y25.568
X22.052 Y25.719
X22.124 Y25.791
X22.224 Y25.902
X22.265 Y26.047
X22.233 Y26.223
X22.146 Y26.38
X22.012 Y26.5
X21.846 Y26.569
X21.667 Y26.581
X21.494 Y26.534
X21.345 Y26.432
X21.187 Y26.286
X21.058 Y26.178
X21.006 Y26.144
X20.916 Y26.093
X20.844 Y26.059
G3 X21.048 Y25.5 I0.137 J-0.267
G1 X21.375 Y25.576
X21.987 Y25.718
X22.037 Y25.735
X22.083 Y25.759
X22.124 Y25.791
X22.359 Y26.026
X22.459 Y26.137
X22.507 Y26.279
X22.512 Y26.429
X22.439 Y26.604
X22.308 Y26.743
X22.138 Y26.827
X21.949 Y26.847
X21.765 Y26.799
X21.609 Y26.691
X21.483 Y26.564
X21.345 Y26.432
G3 X21.327 Y26.108 I0.177 J-0.172
X22.359 Y26.026 I0.553 J0.431
G1 X22.617 Y26.285
X22.718 Y26.396
X22.766 Y26.538
X22.774 Y26.688
X22.703 Y26.864
X22.574 Y27.004
X22.405 Y27.09
X22.216 Y27.111
X22.031 Y27.065
X21.875 Y26.956
X21.609 Y26.691
G3 X21.593 Y26.375 I0.18 J-0.168
X22.617 Y26.285 I0.553 J0.416
G1 X22.873 Y26.54
X22.973 Y26.651
X23.025 Y26.792
X23.036 Y26.941
X22.967 Y27.12
X22.84 Y27.262
X22.67 Y27.351
X22.48 Y27.373
X22.294 Y27.327
X22.137 Y27.218
X21.875 Y26.956
G3 X21.853 Y26.647 I0.18 J-0.168
X22.873 Y26.54 I0.556 J0.39
G1 X23.156 Y26.823
X23.257 Y26.935
X23.299 Y27.079
X23.271 Y27.257
X23.185 Y27.416
X23.052 Y27.538
X22.885 Y27.608
X22.705 Y27.619
X22.531 Y27.569
X22.384 Y27.465
X22.137 Y27.218
G3 X22.126 Y26.895 I0.18 J-0.168
X23.156 Y26.823 I0.549 J0.445
G1 X23.4 Y27.067
X23.5 Y27.178
X23.547 Y27.321
X23.551 Y27.471
X23.477 Y27.645
X23.346 Y27.783
X23.176 Y27.866
X22.988 Y27.886
X22.804 Y27.838
X22.649 Y27.73
X22.384 Y27.465
G3 X22.371 Y27.144 I0.18 J-0.168
X23.4 Y27.067 I0.55 J0.437
G1 X23.653 Y27.321
X23.754 Y27.432
X23.804 Y27.573
X23.813 Y27.723
X23.742 Y27.9
X23.614 Y28.041
X23.444 Y28.128
X23.255 Y28.15
X23.07 Y28.103
X22.913 Y27.995
X22.649 Y27.73
G3 X22.63 Y27.416 I0.18 J-0.168
X23.653 Y27.321 I0.554 J0.408
G1 X23.752 Y27.42
X23.786 Y27.455
X23.811 Y27.491
X23.953 Y27.703
X23.965 Y27.721
X23.973 Y27.739
X23.981 Y27.774
X23.996 Y27.845
X24.005 Y27.933
G3 X23.775 Y28.156 I-0.258 J-0.035
X23.72 Y27.65 I-0.027 J-0.253
X23.996 Y27.845 I0.027 J0.253
G1 X24.007 Y27.916
X24.005 Y27.933
X23.98 Y28.057
X23.977 Y28.075
X23.972 Y28.093
X23.962 Y28.11
X23.882 Y28.23
X23.864 Y28.248
X23.835 Y28.27
X23.752 Y28.325
X23.716 Y28.346
X23.699 Y28.352
X23.557 Y28.38
X23.539 Y28.381
X23.521 Y28.38
X23.38 Y28.352
X23.362 Y28.347
X23.326 Y28.326
X23.116 Y28.185
X23.081 Y28.162
X22.972 Y28.053
X22.913 Y27.995
G3 X23.22 Y27.503 I0.219 J-0.205
G1 X23.284 Y27.523 Z-1.992
X23.345 Y27.541 Z-1.97
X23.399 Y27.558 Z-1.935
X23.445 Y27.572 Z-1.887
X23.479 Y27.582 Z-1.83
X23.5 Y27.589 Z-1.767
X23.507 Y27.591 Z-1.7
G0 Z6
X16.255 Y25.538
Z-1.4
G1 Z-1.7 F450
X16.249 Y25.542 Z-1.767
X16.23 Y25.553 Z-1.83
X16.199 Y25.572 Z-1.887
X16.158 Y25.596 Z-1.935
X16.109 Y25.625 Z-1.97
X16.055 Y25.657 Z-1.992
X15.997 Y25.692 Z-2
G3 X15.244 Y25.913 I-0.809 J-1.36
G1 X14.393
X14.251 Y25.922
X14.109 Y25.938
X14.066 Y25.948
X13.919 Y25.973
X13.769 Y25.967
X13.62 Y25.945
X13.474 Y25.911
X13.416 Y25.891
X13.222 Y25.79
X13.068 Y25.634
X12.971 Y25.438
X12.938 Y25.222
X12.975 Y25.006
X13.007 Y24.869
X13.03 Y24.727
X13.036 Y24.389
G3 X13.602 Y24.267 I0.3 J0.016
G1 X13.604 Y24.27
X14.142 Y25.3
X14.256 Y25.519
G3 X14.066 Y25.948 I-0.266 J0.139
G1 X13.967 Y25.97
X13.867 Y26.003
X13.826 Y26.019
X13.684 Y26.078
X13.62 Y26.115
X13.486 Y26.182
X13.294 Y26.196
X13.108 Y26.146
X12.948 Y26.038
X12.832 Y25.884
X12.772 Y25.7
X12.775 Y25.508
X12.841 Y25.326
G3 X13.032 Y25.138 I0.47 J0.287
X13.62 Y26.115 I0.288 J0.492
G1 X13.568 Y26.144
X13.542 Y26.162
X13.4 Y26.274
X13.365 Y26.305
X13.249 Y26.4
X13.108 Y26.45
X12.928 Y26.427
X12.767 Y26.346
X12.641 Y26.217
X12.565 Y26.053
X12.548 Y25.873
X12.591 Y25.698
X12.689 Y25.546
X12.731 Y25.512
G3 X13.365 Y26.305 I0.279 J0.427
G1 X13.231 Y26.428
X13.117 Y26.542
X13.005 Y26.642
X12.864 Y26.694
X12.715 Y26.703
X12.537 Y26.632
X12.396 Y26.503
X12.309 Y26.333
X12.288 Y26.144
X12.334 Y25.958
X12.443 Y25.801
X12.549 Y25.695
X12.611 Y25.63
G3 X12.858 Y25.57 I0.174 J0.177
X13.117 Y26.542 I-0.175 J0.567
G1 X12.856 Y26.802
X12.745 Y26.903
X12.604 Y26.954
X12.454 Y26.963
X12.276 Y26.894
X12.135 Y26.766
X12.047 Y26.597
X12.025 Y26.407
X12.071 Y26.222
X12.18 Y26.065
X12.443 Y25.801
G3 X12.755 Y25.781 I0.168 J0.18
X12.856 Y26.802 I-0.398 J0.555
G1 X12.601 Y27.058
X12.49 Y27.158
X12.35 Y27.212
X12.2 Y27.225
X12.021 Y27.157
X11.877 Y27.03
X11.788 Y26.86
X11.764 Y26.67
X11.81 Y26.483
X11.919 Y26.325
X12.18 Y26.065
G3 X12.486 Y26.041 I0.168 J0.18
X12.601 Y27.058 I-0.377 J0.557
G1 X12.322 Y27.337
X12.21 Y27.437
X12.067 Y27.483
X11.888 Y27.458
X11.727 Y27.374
X11.603 Y27.242
X11.531 Y27.075
X11.519 Y26.894
X11.568 Y26.72
X11.673 Y26.572
X11.919 Y26.325
G3 X12.237 Y26.31 I0.168 J0.18
X12.322 Y27.337 I-0.425 J0.552
G1 X12.062 Y27.596
X11.951 Y27.697
X11.807 Y27.737
X11.629 Y27.709
X11.47 Y27.622
X11.349 Y27.488
X11.28 Y27.322
X11.269 Y27.142
X11.319 Y26.969
X11.423 Y26.821
X11.673 Y26.572
G3 X11.999 Y26.563 I0.168 J0.18
X12.062 Y27.596 I-0.458 J0.547
G1 X11.814 Y27.845
X11.702 Y27.945
X11.559 Y27.988
X11.409 Y27.99
X11.236 Y27.914
X11.1 Y27.783
X11.018 Y27.613
X11 Y27.426
X11.048 Y27.243
X11.156 Y27.088
X11.423 Y26.821
G3 X11.748 Y26.812 I0.168 J0.18
X11.814 Y27.845 I-0.455 J0.547
G1 X11.557 Y28.102
X11.53 Y28.128
X11.501 Y28.157
X11.436 Y28.202
X11.41 Y28.196
G3 X11.185 Y27.841 I0.069 J-0.292
G1 X11.246 Y27.554
X11.294 Y27.331
G3 X11.655 Y27.102 I0.293 J0.062
X11.878 Y27.468 I-0.068 J0.292
X11.501 Y28.157 I-1.534 J-0.39
G1 X11.487 Y28.168
X11.415 Y28.216
X11.351 Y28.255
X11.202 Y28.271
X11.014 Y28.205
X10.862 Y28.075
X10.767 Y27.9
X10.741 Y27.702
X10.787 Y27.509
X10.9 Y27.344
X10.941 Y27.313
X10.987 Y27.291
X11.036 Y27.279
G3 X11.415 Y28.216 I0.075 J0.515
G1 X11.238 Y28.335
X11.22 Y28.345
X11.202 Y28.351
X11.043 Y28.382
X11.025 Y28.38
X10.866 Y28.349
X10.848 Y28.341
X10.742 Y28.27
X10.706 Y28.243
X10.694 Y28.229
X10.615 Y28.11
X10.606 Y28.093
X10.6 Y28.075
X10.572 Y27.933
X10.57 Y27.916
X10.581 Y27.845
X10.603 Y27.739
X10.612 Y27.721
X10.766 Y27.491
X10.79 Y27.455
X10.848 Y27.396
X11.156 Y27.088
G3 X11.647 Y27.396 I0.205 J0.219
G1 X11.628 Y27.459 Z-1.992
X11.609 Y27.52 Z-1.97
X11.593 Y27.574 Z-1.935
X11.579 Y27.62 Z-1.887
X11.568 Y27.654 Z-1.83
X11.562 Y27.675 Z-1.767
X11.56 Y27.682 Z-1.7
G0 Z6
X13.413 Y20.496
Z-1.4
G1 Z-1.7 F450
X13.409 Y20.489 Z-1.767
X13.398 Y20.47 Z-1.83
X13.38 Y20.439 Z-1.887
X13.355 Y20.399 Z-1.935
X13.326 Y20.35 Z-1.97
X13.294 Y20.295 Z-1.992
X13.26 Y20.238 Z-2
G3 X13.038 Y19.484 I1.36 J-0.809
G1 Y19.059
X13.034 Y18.634
X13.013 Y18.492
X13.004 Y18.449
X12.981 Y18.301
Y18.151
X12.997 Y18.002
X13.028 Y17.855
X13.045 Y17.8
X13.144 Y17.601
X13.301 Y17.444
X13.498 Y17.343
X13.718 Y17.309
X13.937 Y17.345
G3 X14.075 Y17.8 I-0.106 J0.281
G1 X13.938 Y17.993
X13.599 Y18.469
X13.54 Y18.552
G3 X13.004 Y18.449 I-0.244 J-0.174
G1 X12.983 Y18.351
X12.938 Y18.209
X12.873 Y18.067
X12.833 Y17.992
X12.813 Y17.955
X12.747 Y17.82
X12.745 Y17.632
X12.803 Y17.452
X12.914 Y17.3
X13.068 Y17.191
X13.248 Y17.136
X13.436 Y17.141
X13.613 Y17.205
G3 X13.803 Y17.409 I-0.262 J0.433
X12.813 Y17.955 I-0.504 J0.256
G1 X12.797 Y17.926
X12.691 Y17.784
X12.624 Y17.711
X12.528 Y17.596
X12.485 Y17.452
X12.514 Y17.273
X12.6 Y17.114
X12.733 Y16.992
X12.899 Y16.92
X13.08 Y16.906
X13.255 Y16.953
X13.405 Y17.054
X13.431 Y17.084
X13.452 Y17.119
G3 X12.624 Y17.711 I-0.462 J0.23
G1 X12.549 Y17.631
X12.386 Y17.467
X12.285 Y17.356
X12.238 Y17.214
X12.232 Y17.064
X12.304 Y16.89
X12.432 Y16.752
X12.6 Y16.666
X12.787 Y16.643
X12.97 Y16.686
X13.127 Y16.79
X13.346 Y16.997
G3 X13.392 Y17.282 I-0.178 J0.175
X12.386 Y17.467 I-0.572 J-0.28
G1 X12.136 Y17.217
X12.035 Y17.106
X11.982 Y16.965
X11.971 Y16.816
X12.039 Y16.637
X12.166 Y16.494
X12.336 Y16.405
X12.526 Y16.382
X12.712 Y16.428
X12.87 Y16.537
X12.983 Y16.65
X13.127 Y16.79
G3 X13.156 Y17.102 I-0.176 J0.173
X12.136 Y17.217 I-0.559 J-0.379
G1 X11.852 Y16.934
X11.751 Y16.822
X11.708 Y16.679
X11.736 Y16.5
X11.821 Y16.341
X11.955 Y16.219
X12.121 Y16.148
X12.302 Y16.137
X12.476 Y16.186
X12.623 Y16.291
X12.87 Y16.537
G3 X12.882 Y16.859 I-0.18 J0.168
X11.852 Y16.934 I-0.549 J-0.441
G1 X11.595 Y16.677
X11.494 Y16.565
X11.455 Y16.421
X11.484 Y16.243
X11.571 Y16.085
X11.706 Y15.965
X11.872 Y15.896
X12.052 Y15.885
X12.225 Y15.935
X12.372 Y16.04
X12.623 Y16.291
G3 X12.63 Y16.619 I-0.18 J0.168
X11.595 Y16.677 I-0.545 J-0.468
G1 X11.348 Y16.43
X11.248 Y16.319
X11.205 Y16.175
X11.203 Y16.025
X11.279 Y15.852
X11.41 Y15.717
X11.58 Y15.635
X11.768 Y15.616
X11.95 Y15.664
X12.105 Y15.772
X12.372 Y16.04
G3 X12.381 Y16.365 I-0.18 J0.168
X11.348 Y16.43 I-0.547 J-0.456
G1 X11.092 Y16.174
X10.992 Y16.063
X10.945 Y15.92
X10.939 Y15.77
X11.011 Y15.595
X11.141 Y15.456
X11.31 Y15.371
X11.499 Y15.351
X11.682 Y15.397
X11.838 Y15.506
X12.105 Y15.772
G3 X12.119 Y16.091 I-0.18 J0.168
X11.092 Y16.174 I-0.551 J-0.428
G1 X10.848 Y15.929
X10.814 Y15.894
X10.786 Y15.865
X10.708 Y15.736
X10.678 Y15.59
X10.732 Y15.396
X10.853 Y15.235
X11.026 Y15.131
X11.224 Y15.099
X11.421 Y15.142
X11.588 Y15.255
X11.838 Y15.506
G3 X11.836 Y15.846 I-0.181 J0.169
X10.786 Y15.865 I-0.534 J-0.511
G1 X10.612 Y15.605
X10.603 Y15.587
X10.571 Y15.428
X10.569 Y15.41
X10.575 Y15.375
X10.605 Y15.233
X10.615 Y15.215
X10.698 Y15.091
X10.706 Y15.083
X10.777 Y15.033
X10.848 Y14.985
X10.866 Y14.978
X10.883 Y14.973
X11.02 Y14.946
X11.038 Y14.943
X11.057 Y14.946
X11.202 Y14.975
X11.22 Y14.98
X11.273 Y15.015
X11.486 Y15.157
X11.504 Y15.171
X11.588 Y15.255
G3 X11.281 Y15.746 I-0.219 J0.205
G1 X11.217 Y15.727 Z-1.992
X11.156 Y15.708 Z-1.97
X11.102 Y15.692 Z-1.935
X11.056 Y15.678 Z-1.887
X11.022 Y15.667 Z-1.83
X11.001 Y15.661 Z-1.767
X10.994 Y15.659 Z-1.7
G0 Z16
X51.176 Y20.771
Z6
Z3.5
G3 X53.399 Y22.554 Z3.344 I1.112 J0.891 F333.3
X51.176 Y20.771 Z3.187 I-1.112 J-0.891
X53.399 Y22.554 Z3.031 I1.112 J0.891
X51.176 Y20.771 Z2.875 I-1.112 J-0.891
X53.399 Y22.554 Z2.718 I1.112 J0.891
X51.176 Y20.771 Z2.562 I-1.112 J-0.891
X53.399 Y22.554 Z2.406 I1.112 J0.891
X51.176 Y20.771 Z2.249 I-1.112 J-0.891
X53.399 Y22.554 Z2.093 I1.112 J0.891
X51.176 Y20.771 Z1.937 I-1.112 J-0.891
X53.399 Y22.554 Z1.78 I1.112 J0.891
X51.176 Y20.771 Z1.624 I-1.112 J-0.891
X53.399 Y22.554 Z1.468 I1.112 J0.891
X51.176 Y20.771 Z1.311 I-1.112 J-0.891
X53.399 Y22.554 Z1.155 I1.112 J0.891
X51.176 Y20.771 Z0.999 I-1.112 J-0.891
X53.399 Y22.554 Z0.842 I1.112 J0.891
X51.176 Y20.771 Z0.686 I-1.112 J-0.891
X53.399 Y22.554 Z0.53 I1.112 J0.891
X51.176 Y20.771 Z0.373 I-1.112 J-0.891
X53.399 Y22.554 Z0.217 I1.112 J0.891
X51.176 Y20.771 Z0.061 I-1.112 J-0.891
X53.399 Y22.554 Z-0.096 I1.112 J0.891
X51.176 Y20.771 Z-0.252 I-1.112 J-0.891
X53.399 Y22.554 Z-0.408 I1.112 J0.891
X51.176 Y20.771 Z-0.565 I-1.112 J-0.891
X53.399 Y22.554 Z-0.721 I1.112 J0.891
X51.176 Y20.771 Z-0.877 I-1.112 J-0.891
X53.713 Y21.662 Z-1 I1.112 J0.891
X50.863 Y21.662 I-1.425 J0
X53.713 Y21.662 I1.425 J0
G1 X53.743 Y22.285 F450
X53.767 Y22.359
X53.796 Y22.507
X53.793 Y22.657
X53.765 Y22.804
X53.717 Y22.946
X53.65 Y23.08
X53.567 Y23.206
X53.472 Y23.321
X53.365 Y23.427
X53.249 Y23.521
X53.124 Y23.604
X52.992 Y23.676
X52.855 Y23.736
X52.713 Y23.785
X52.565 Y23.822
X52.412 Y23.848
X52.254 Y23.862
X52.093 Y23.863
X51.93 Y23.851
X51.767 Y23.826
X51.604 Y23.787
X51.443 Y23.735
X51.285 Y23.669
X51.132 Y23.59
X50.984 Y23.499
X50.843 Y23.395
X50.71 Y23.28
X50.587 Y23.153
X50.473 Y23.017
X50.37 Y22.871
X50.279 Y22.717
X50.201 Y22.556
X50.135 Y22.388
X50.083 Y22.216
X50.045 Y22.039
X50.021 Y21.86
X50.012 Y21.678
X50.017 Y21.497
X50.037 Y21.316
X50.071 Y21.138
X50.12 Y20.962
X50.182 Y20.791
X50.258 Y20.625
X50.347 Y20.466
X50.449 Y20.314
X50.563 Y20.171
X50.688 Y20.038
X50.823 Y19.914
X50.967 Y19.802
X51.121 Y19.703
X51.281 Y19.615
X51.449 Y19.541
X51.622 Y19.48
X51.799 Y19.434
X51.979 Y19.402
X52.161 Y19.384
X52.344 Y19.381
X52.527 Y19.393
X52.708 Y19.42
X52.887 Y19.461
X53.062 Y19.516
X53.231 Y19.585
X53.395 Y19.667
X53.552 Y19.762
X53.7 Y19.87
X53.839 Y19.989
X53.968 Y20.119
X54.087 Y20.259
X54.194 Y20.408
X54.296 Y20.577
X54.413 Y20.812
X54.574 Y21.213
X54.663 Y21.503
X54.719 Y21.751
X54.751 Y21.975
X54.764 Y22.191
X54.759 Y22.401
X54.739 Y22.603
X54.703 Y22.797
X54.653 Y22.985
X54.588 Y23.169
X54.507 Y23.349
X54.411 Y23.523
X54.302 Y23.689
X54.179 Y23.847
X54.042 Y23.995
X53.892 Y24.134
X53.729 Y24.263
X53.553 Y24.379
X53.366 Y24.483
X53.169 Y24.572
X52.961 Y24.647
X52.746 Y24.705
X52.523 Y24.747
X52.295 Y24.771
X52.063 Y24.776
X51.829 Y24.763
X51.595 Y24.731
X51.362 Y24.679
X51.132 Y24.609
X50.906 Y24.519
X50.687 Y24.411
X50.476 Y24.285
X50.275 Y24.142
X50.085 Y23.982
X49.907 Y23.807
X49.744 Y23.617
X49.595 Y23.413
X49.463 Y23.198
X49.348 Y22.971
X49.252 Y22.736
X49.174 Y22.493
X49.116 Y22.244
X49.078 Y21.991
X49.061 Y21.735
X49.064 Y21.478
X49.088 Y21.221
X49.132 Y20.967
X49.197 Y20.717
X49.281 Y20.473
X49.385 Y20.237
X49.508 Y20.009
X49.649 Y19.792
X49.806 Y19.586
X49.98 Y19.394
X50.169 Y19.216
X50.372 Y19.054
X50.587 Y18.909
X50.813 Y18.781
X51.048 Y18.672
X51.292 Y18.582
X51.542 Y18.512
X51.797 Y18.462
X52.055 Y18.433
X52.315 Y18.425
X52.575 Y18.437
X52.832 Y18.47
X53.087 Y18.524
X53.336 Y18.598
X53.578 Y18.692
X53.813 Y18.805
X54.037 Y18.937
X54.25 Y19.086
X54.453 Y19.254
X54.652 Y19.448
X54.861 Y19.687
X55.056 Y19.949
X55.236 Y20.237
X55.392 Y20.537
X55.519 Y20.841
X55.619 Y21.145
X55.692 Y21.448
X55.74 Y21.748
X55.762 Y22.044
X55.761 Y22.337
X55.737 Y22.626
X55.69 Y22.909
X55.621 Y23.186
X55.53 Y23.455
X55.418 Y23.716
X55.286 Y23.966
X55.133 Y24.206
X54.962 Y24.433
X54.771 Y24.647
X54.563 Y24.846
X54.338 Y25.03
X54.097 Y25.196
X53.841 Y25.343
X53.572 Y25.47
X53.291 Y25.577
X52.999 Y25.661
X52.7 Y25.722
X52.394 Y25.759
X52.083 Y25.772
X51.771 Y25.759
X51.458 Y25.721
X51.147 Y25.658
X50.841 Y25.57
X50.54 Y25.456
X50.249 Y25.318
X49.967 Y25.156
X49.698 Y24.971
X49.444 Y24.764
X49.206 Y24.537
X48.986 Y24.29
X48.786 Y24.025
X48.607 Y23.744
X48.451 Y23.449
X48.319 Y23.141
X48.212 Y22.823
X48.13 Y22.497
X48.075 Y22.164
X48.046 Y21.828
X48.045 Y21.49
X48.07 Y21.152
X48.123 Y20.817
X48.203 Y20.487
X48.309 Y20.164
X48.44 Y19.851
X48.597 Y19.548
X48.777 Y19.26
X48.98 Y18.986
X49.205 Y18.729
X49.449 Y18.492
X49.712 Y18.274
X49.991 Y18.078
X50.286 Y17.906
X50.593 Y17.757
X50.912 Y17.634
X51.239 Y17.536
X51.573 Y17.465
X51.912 Y17.421
X52.254 Y17.404
X52.595 Y17.415
X52.935 Y17.454
X53.27 Y17.519
X53.6 Y17.611
X53.921 Y17.729
X54.231 Y17.873
X54.534 Y18.044
X54.832 Y18.245
X55.122 Y18.477
X55.402 Y18.74
X55.666 Y19.032
X55.908 Y19.348
X56.126 Y19.683
X56.315 Y20.034
X56.474 Y20.397
X56.603 Y20.768
X56.701 Y21.145
X56.767 Y21.524
X56.802 Y21.904
X56.807 Y22.283
X56.782 Y22.658
X56.76 Y22.801
X56.746 Y22.872
X56.724 Y22.942
X56.695 Y23.009
X56.65 Y23.101
X56.626 Y23.169
X56.583 Y23.31
X56.576 Y23.353
X56.526 Y23.567
X56.429 Y23.873
X56.305 Y24.178
X56.152 Y24.48
X55.972 Y24.775
X55.764 Y25.06
X55.531 Y25.332
X55.274 Y25.587
X55.083 Y25.748
X54.947 Y25.838
X54.794 Y25.894
X54.632 Y25.913
G3 X54.398 Y25.439 I0.01 J-0.3
G1 X54.478 Y25.326
X56.034 Y23.137
G3 X56.576 Y23.353 I0.245 J0.174
G1 X56.558 Y23.452
X56.541 Y23.594
X56.539 Y23.877
Y24.727
X56.531 Y24.877
X56.509 Y25.025
X56.469 Y25.192
X56.414 Y25.36
X56.363 Y25.483
X56.257 Y25.658
X56.105 Y25.795
X55.92 Y25.883
X55.717 Y25.913
G3 X55.468 Y25.462 I0.01 J-0.3
G1 X55.552 Y25.318
X55.974 Y24.597
X55.98 Y24.586
G3 X56.539 Y24.727 I0.259 J0.151
G1 X56.538 Y25.259
X56.533 Y25.294
X56.476 Y25.578
X56.471 Y25.595
X56.436 Y25.648
X56.389 Y25.719
X56.366 Y25.748
X56.331 Y25.773
X56.224 Y25.843
X56.206 Y25.85
X55.905 Y25.91
X55.888 Y25.912
X55.799 Y25.913
X54.381
X54.239 Y25.914
X54.097 Y25.93
X53.956 Y25.953
X53.78 Y26.003
X53.672 Y26.051
X53.53 Y26.12
X53.388 Y26.214
X53.264 Y26.298
X53.103 Y26.386
X52.909 Y26.474
X52.703 Y26.548
X52.468 Y26.612
X52.203 Y26.661
X52.019 Y26.68
X51.85 Y26.676
X51.687 Y26.63
X51.54 Y26.546
X51.419 Y26.428
G3 X51.596 Y25.93 I0.222 J-0.201
G1 X51.734 Y25.909
X53.122 Y25.699
X53.141 Y25.696
G3 X53.388 Y26.214 I0.045 J0.297
G1 X53.247 Y26.335
X53.105 Y26.495
X53.051 Y26.569
X52.967 Y26.711
X52.963 Y26.72
X52.892 Y26.852
X52.796 Y26.967
X52.751 Y27.008
X52.569 Y27.128
X52.36 Y27.186
X52.143 Y27.177
X51.939 Y27.102
X51.768 Y26.968
X51.646 Y26.788
G3 X51.895 Y26.371 I0.276 J-0.118
G1 X52.114 Y26.352
X52.495 Y26.317
X52.661 Y26.303
G3 X52.963 Y26.72 I0.027 J0.299
G1 X52.9 Y26.853
X52.853 Y26.995
X52.821 Y27.107
X52.816 Y27.136
X52.788 Y27.284
X52.662 Y27.423
X52.498 Y27.513
X52.313 Y27.546
X52.128 Y27.516
X51.962 Y27.429
X51.834 Y27.292
X51.757 Y27.121
X51.749 Y27.065
X51.75 Y27.01
X51.76 Y26.955
G3 X52.816 Y27.136 I0.52 J0.135
G1 X52.798 Y27.278
X52.79 Y27.42
X52.789 Y27.463
X52.781 Y27.612
X52.709 Y27.744
X52.565 Y27.847
X52.396 Y27.898
X52.22 Y27.892
X52.055 Y27.83
X51.919 Y27.718
X51.826 Y27.568
X51.786 Y27.396
X51.789 Y27.349
X51.801 Y27.304
G3 X52.789 Y27.463 I0.479 J0.173
G1 Y27.703
X52.786 Y27.774
X52.764 Y27.888
X52.728 Y28.033
X52.637 Y28.153
X52.48 Y28.234
X52.305 Y28.259
X52.131 Y28.225
X51.979 Y28.135
X51.865 Y27.999
X51.802 Y27.834
X51.798 Y27.781
X51.801 Y27.729
X51.811 Y27.678
G3 X52.764 Y27.888 I0.471 J0.131
G1 X52.727 Y28.075
X52.722 Y28.093
X52.7 Y28.128
X52.63 Y28.232
X52.614 Y28.249
X52.585 Y28.27
X52.484 Y28.337
X52.467 Y28.346
X52.449 Y28.352
X52.307 Y28.38
X52.289 Y28.381
X52.254 Y28.377
X52.13 Y28.352
X52.112 Y28.347
X51.97 Y28.255
X51.953 Y28.24
X51.941 Y28.224
X51.865 Y28.11
X51.856 Y28.093
X51.85 Y28.075
X51.791 Y27.774
X51.789 Y27.703
X51.788 Y27.561
Y27.483
X51.794 Y27.431
X51.81 Y27.38
X51.834 Y27.332
X51.866 Y27.29
X52.15 Y26.978
X52.169 Y26.95
X52.176 Y26.917
X52.172 Y26.883
X52.157 Y26.853
X52.133 Y26.829
X52.102 Y26.815
G3 X51.419 Y26.428 I0.413 J-1.528
G1 X51.276 Y26.286
X51.19 Y26.215
X51.155 Y26.189
X51.12 Y26.166
X50.978 Y26.086
X50.836 Y26.021
X50.694 Y25.97
X50.552 Y25.941
X50.411 Y25.92
X50.269 Y25.915
X50.191 Y25.914
X50.041 Y25.904
X49.873 Y25.877
X49.691 Y25.832
X49.497 Y25.767
X49.284 Y25.677
X49.073 Y25.566
X48.845 Y25.423
X48.611 Y25.247
X48.387 Y25.049
X48.234 Y24.891
X48.128 Y24.748
X48.061 Y24.582
X48.039 Y24.405
G3 X48.502 Y24.164 I0.3 J0.01
G1 X48.629 Y24.247
X50.329 Y25.35
X50.348 Y25.362
G3 X50.191 Y25.914 I-0.163 J0.252
G1 X50.127 Y25.913
X48.851
X48.691 Y25.912
X48.673 Y25.91
X48.39 Y25.854
X48.372 Y25.85
X48.354 Y25.844
X48.236 Y25.766
X48.212 Y25.748
X48.198 Y25.734
X48.118 Y25.614
X48.107 Y25.596
X48.101 Y25.578
X48.044 Y25.294
X48.039 Y25.259
Y23.877
X48.036 Y23.594
X48.019 Y23.452
X48 Y23.331
X47.951 Y23.169
X47.891 Y23.027
X47.821 Y22.885
X47.722 Y22.743
X47.68 Y22.696
X47.585 Y22.579
X47.505 Y22.453
X47.425 Y22.302
X47.353 Y22.132
X47.287 Y21.934
X47.234 Y21.721
X47.193 Y21.472
X47.191 Y21.453
X47.209 Y21.231
X47.294 Y21.026
X47.44 Y20.859
G3 X47.918 Y21.038 I0.185 J0.237
G1 X47.952 Y21.208
X48.187 Y22.414
X48.19 Y22.43
G3 X47.68 Y22.696 I-0.294 J0.057
G1 X47.595 Y22.602
X47.574 Y22.582
X47.432 Y22.46
X47.291 Y22.371
X47.149 Y22.295
X47.017 Y22.224
X46.999 Y22.209
X46.848 Y22.035
X46.761 Y21.822
X46.748 Y21.592
X46.81 Y21.37
X46.94 Y21.181
X47.124 Y21.043
G3 X47.552 Y21.319 I0.128 J0.271
G1 X47.549 Y21.496
X47.545 Y21.789
X47.541 Y22.014
G3 X47.149 Y22.295 I-0.3 J-0.005
G1 X47.007 Y22.243
X46.865 Y22.202
X46.793 Y22.189
X46.646 Y22.157
X46.52 Y22.076
X46.411 Y21.905
X46.368 Y21.707
X46.397 Y21.507
X46.496 Y21.329
X46.65 Y21.198
X46.84 Y21.128
X46.912 Y21.125
X46.984 Y21.135
G3 X46.793 Y22.189 I-0.119 J0.523
G1 X46.719 Y22.177
X46.582 Y22.167
X46.469 Y22.164
X46.319 Y22.152
X46.185 Y22.086
X46.077 Y21.942
X46.023 Y21.77
X46.029 Y21.591
X46.093 Y21.423
X46.209 Y21.286
X46.364 Y21.195
X46.54 Y21.16
X46.576 Y21.163
X46.61 Y21.171
G3 X46.469 Y22.164 I-0.146 J0.486
G1 X46.44 Y22.163
X46.192
X46.156 Y22.157
X46.043 Y22.134
X45.898 Y22.098
X45.777 Y22.01
X45.694 Y21.856
X45.667 Y21.683
X45.699 Y21.511
X45.787 Y21.36
X45.92 Y21.246
X46.083 Y21.183
X46.135 Y21.179
X46.187 Y21.181
X46.239 Y21.19
G3 X46.043 Y22.134 I-0.118 J0.468
G1 X45.873 Y22.1
X45.859 Y22.097
X45.846 Y22.089
X45.731 Y22.013
X45.714 Y22
X45.697 Y21.983
X45.617 Y21.863
X45.608 Y21.847
X45.602 Y21.832
X45.571 Y21.681
X45.57 Y21.663
X45.571 Y21.645
X45.6 Y21.501
X45.603 Y21.49
X45.614 Y21.468
X45.697 Y21.344
X45.712 Y21.326
X45.837 Y21.242
X45.855 Y21.232
X45.873 Y21.225
X46.156 Y21.169
X46.192 Y21.163
X46.44
G3 X46.69 Y21.314 I-0.01 J0.3
G1 X46.816 Y21.535
X46.841 Y21.563
X46.874 Y21.581
X46.912 Y21.585
X46.948 Y21.574
X46.978 Y21.551
X46.997 Y21.518
G3 X47.433 Y20.864 I1.494 J0.523
G1 X47.558 Y20.76
X47.574 Y20.744
X47.693 Y20.618
X47.716 Y20.592
X47.799 Y20.476
X47.858 Y20.366
X47.874 Y20.334
X47.939 Y20.193
X47.985 Y20.051
X48 Y19.99
X48.013 Y19.909
X48.033 Y19.768
X48.037 Y19.626
X48.039 Y19.484
X48.046 Y19.334
X48.074 Y19.169
X48.116 Y19
X48.182 Y18.807
X48.267 Y18.611
X48.379 Y18.4
X48.522 Y18.175
X48.687 Y17.957
X48.888 Y17.732
X49.02 Y17.606
X49.163 Y17.501
X49.328 Y17.435
X49.503 Y17.413
G3 X49.744 Y17.877 I-0.01 J0.3
G1 X49.661 Y18.003
X48.604 Y19.615
X48.589 Y19.638
G3 X48.039 Y19.484 I-0.251 J-0.164
G1 Y18.209
Y18.067
X48.065 Y17.926
X48.102 Y17.743
X48.106 Y17.73
X48.189 Y17.605
X48.202 Y17.587
X48.224 Y17.568
X48.35 Y17.484
X48.363 Y17.479
X48.375 Y17.475
X48.673 Y17.415
X48.691 Y17.413
X49.134
X50.127
X50.269 Y17.411
X50.411 Y17.406
X50.552 Y17.385
X50.685 Y17.359
X50.836 Y17.306
X50.978 Y17.239
X51.12 Y17.162
X51.261 Y17.054
X51.282 Y17.034
X51.396 Y16.936
X51.531 Y16.853
X51.676 Y16.779
X51.856 Y16.705
X52.046 Y16.644
X52.273 Y16.591
X52.447 Y16.565
X52.633 Y16.562
X52.812 Y16.609
X52.974 Y16.701
X53.105 Y16.832
G3 X52.918 Y17.315 I-0.235 J0.186
G1 X52.759 Y17.341
X51.58 Y17.534
X51.546 Y17.54
G3 X51.282 Y17.034 I-0.048 J-0.296
G1 X51.387 Y16.934
X51.403 Y16.915
X51.502 Y16.792
X51.545 Y16.73
X51.594 Y16.65
X51.648 Y16.537
X51.719 Y16.405
X51.729 Y16.393
X51.875 Y16.254
X52.054 Y16.162
X52.252 Y16.125
X52.453 Y16.144
X52.64 Y16.219
X52.798 Y16.344
X52.914 Y16.508
G3 X52.652 Y16.936 I-0.271 J0.128
G1 X52.461 Y16.942
X52.113 Y16.952
X51.931 Y16.957
G3 X51.648 Y16.537 I-0.009 J-0.3
G1 X51.687 Y16.455
X51.714 Y16.367
X51.754 Y16.225
X51.76 Y16.182
X51.79 Y16.035
X51.869 Y15.907
X52.041 Y15.792
X52.241 Y15.746
X52.444 Y15.775
X52.624 Y15.874
X52.756 Y16.031
X52.823 Y16.225
X52.833 Y16.29
X52.83 Y16.356
X52.815 Y16.421
G3 X51.76 Y16.182 I-0.515 J-0.175
G1 X51.775 Y16.083
X51.786 Y15.942
X51.788 Y15.829
X51.798 Y15.679
X51.87 Y15.547
X52.016 Y15.444
X52.188 Y15.393
X52.367 Y15.402
X52.534 Y15.469
X52.669 Y15.587
X52.758 Y15.743
X52.791 Y15.919
X52.786 Y15.963
X52.774 Y16.006
G3 X51.788 Y15.829 I-0.476 J-0.186
G1 X51.789 Y15.587
X51.79 Y15.552
X51.813 Y15.439
X51.849 Y15.293
X51.932 Y15.168
X52.084 Y15.078
X52.258 Y15.044
X52.433 Y15.072
X52.587 Y15.158
X52.704 Y15.291
X52.768 Y15.456
X52.773 Y15.534
X52.765 Y15.613
G3 X51.813 Y15.439 I-0.474 J-0.096
G1 X51.851 Y15.249
X51.855 Y15.233
X51.865 Y15.215
X51.949 Y15.091
X51.97 Y15.071
X52.041 Y15.023
X52.112 Y14.979
X52.129 Y14.974
X52.254 Y14.949
X52.29 Y14.945
X52.308 Y14.946
X52.449 Y14.974
X52.467 Y14.98
X52.484 Y14.989
X52.606 Y15.07
X52.629 Y15.091
X52.679 Y15.167
X52.722 Y15.233
X52.727 Y15.251
X52.787 Y15.552
X52.789 Y15.587
Y15.8
X52.791 Y15.919
G3 X52.191 Y15.93 I-0.3 J0.006
X52.515 Y15.625 I0.3 J-0.006
X52.786 Y15.979 I-0.024 J0.299
G1 X52.646 Y16.74
G3 X52.056 Y16.632 I-0.295 J-0.054
X52.448 Y16.402 I0.295 J0.054
X53.105 Y16.832 I-0.512 J1.498
G1 X53.191 Y16.934
X53.247 Y16.99
X53.348 Y17.075
X53.388 Y17.107
X53.53 Y17.207
X53.549 Y17.217
X53.672 Y17.274
X53.814 Y17.333
X53.956 Y17.372
X54.097 Y17.396
X54.239 Y17.412
X54.381
X54.581 Y17.423
X54.732 Y17.443
X54.907 Y17.481
X55.092 Y17.538
X55.297 Y17.618
X55.512 Y17.723
X55.75 Y17.864
X55.981 Y18.028
X56.23 Y18.236
X56.329 Y18.333
X56.443 Y18.478
X56.514 Y18.649
X56.539 Y18.832
G3 X56.084 Y19.079 I-0.3 J-0.01
G1 X55.945 Y18.995
X54.249 Y17.977
X54.236 Y17.97
G3 X54.381 Y17.412 I0.154 J-0.257
G1 X55.799 Y17.413
X55.888
X55.905 Y17.416
X56.207 Y17.476
X56.224 Y17.482
X56.366 Y17.578
X56.379 Y17.594
X56.391 Y17.61
X56.46 Y17.713
X56.471 Y17.731
X56.476 Y17.748
X56.512 Y17.926
X56.538 Y18.067
X56.539 Y19.484
X56.54 Y19.626
X56.544 Y19.768
X56.564 Y19.909
X56.592 Y20.051
X56.65 Y20.224
X56.703 Y20.334
X56.779 Y20.476
X56.792 Y20.495
X56.883 Y20.618
X56.933 Y20.676
X57.018 Y20.76
X57.049 Y20.787
X57.157 Y20.891
X57.25 Y21.009
X57.341 Y21.149
X57.424 Y21.301
X57.507 Y21.489
X57.535 Y21.568
X57.573 Y21.758
X57.558 Y21.952
X57.49 Y22.134
X57.374 Y22.29
X57.22 Y22.408
G3 X56.787 Y22.2 I-0.139 J-0.266
G1 X56.743 Y21.977
X56.576 Y21.128
X56.566 Y21.078
G3 X57.049 Y20.787 I0.294 J-0.058
G1 X57.075 Y20.81
X57.217 Y20.915
X57.288 Y20.961
X57.359 Y20.996
X57.501 Y21.06
X57.544 Y21.073
X57.684 Y21.126
X57.832 Y21.264
X57.929 Y21.442
X57.966 Y21.642
X57.937 Y21.842
X57.847 Y22.024
X57.704 Y22.168
X57.523 Y22.259
G3 X57.142 Y21.96 I-0.081 J-0.289
G1 X57.15 Y21.738
X57.155 Y21.594
X57.163 Y21.352
G3 X57.544 Y21.073 I0.3 J0.01
G1 X57.642 Y21.105
X57.784 Y21.14
X57.897 Y21.152
X58.046 Y21.175
X58.175 Y21.25
X58.288 Y21.42
X58.331 Y21.62
X58.298 Y21.821
X58.194 Y21.996
X58.034 Y22.122
X57.838 Y22.18
X57.803
X57.768 Y22.176
G3 X57.897 Y21.152 I0.094 J-0.508
G1 X57.926 Y21.155
X58.068 Y21.163
X58.253
X58.402 Y21.17
X58.533 Y21.244
X58.636 Y21.392
X58.684 Y21.566
X58.673 Y21.745
X58.603 Y21.912
X58.483 Y22.046
X58.325 Y22.133
X58.147 Y22.163
X58.068
X58.01 Y22.155
X57.956 Y22.133
X57.908 Y22.098
G3 X58.253 Y21.163 I0.363 J-0.398
G1 X58.387
X58.422 Y21.169
X58.674 Y21.219
X58.706 Y21.226
X58.724 Y21.233
X58.741 Y21.243
X58.852 Y21.318
X58.863 Y21.326
X58.919 Y21.401
X58.963 Y21.468
X58.972 Y21.486
X58.977 Y21.504
X59.006 Y21.645
X59.007 Y21.663
X59.006 Y21.681
X58.977 Y21.822
X58.972 Y21.84
X58.963 Y21.858
X58.881 Y21.98
X58.874 Y21.99
X58.864 Y22
X58.741 Y22.082
X58.724 Y22.093
X58.706 Y22.1
X58.422 Y22.157
X58.387 Y22.162
X58.147 Y22.163
G3 X57.858 Y21.839 I0.01 J-0.3
G1 X57.875 Y21.789 Z-0.995
X57.892 Y21.741 Z-0.981
X57.908 Y21.696 Z-0.958
X57.945 Y21.663 Z-0.921
X57.975 Y21.636 Z-0.874
X57.997 Y21.615 Z-0.82
X58.011 Y21.603 Z-0.762
X58.016 Y21.599 Z-0.7
G0 Z6
X52.778 Y20.324
Z1.5
G3 X51.798 Y23 Z1.344 I-0.49 J1.338 F333.3
X52.778 Y20.324 Z1.187 I0.49 J-1.338
X51.798 Y23 Z1.031 I-0.49 J1.338
X52.778 Y20.324 Z0.875 I0.49 J-1.338
X51.798 Y23 Z0.718 I-0.49 J1.338
X52.778 Y20.324 Z0.562 I0.49 J-1.338
X51.798 Y23 Z0.406 I-0.49 J1.338
X52.778 Y20.324 Z0.249 I0.49 J-1.338
X51.798 Y23 Z0.093 I-0.49 J1.338
X52.778 Y20.324 Z-0.063 I0.49 J-1.338
X51.798 Y23 Z-0.22 I-0.49 J1.338
X52.778 Y20.324 Z-0.376 I0.49 J-1.338
X51.798 Y23 Z-0.532 I-0.49 J1.338
X52.778 Y20.324 Z-0.689 I0.49 J-1.338
X51.798 Y23 Z-0.845 I-0.49 J1.338
X52.778 Y20.324 Z-1.001 I0.49 J-1.338
X51.798 Y23 Z-1.158 I-0.49 J1.338
X52.778 Y20.324 Z-1.314 I0.49 J-1.338
X51.798 Y23 Z-1.47 I-0.49 J1.338
X52.778 Y20.324 Z-1.627 I0.49 J-1.338
X51.798 Y23 Z-1.783 I-0.49 J1.338
X52.778 Y20.324 Z-1.939 I0.49 J-1.338
X53.713 Y21.662 Z-2 I-0.49 J1.338
X50.863 Y21.662 I-1.425 J0
X53.713 Y21.662 I1.425 J0
G1 X53.743 Y22.285 F450
X53.767 Y22.359
X53.796 Y22.507
X53.793 Y22.657
X53.765 Y22.804
X53.717 Y22.946
X53.65 Y23.08
X53.567 Y23.206
X53.472 Y23.321
X53.365 Y23.427
X53.249 Y23.521
X53.124 Y23.604
X52.992 Y23.676
X52.855 Y23.736
X52.713 Y23.785
X52.565 Y23.822
X52.412 Y23.848
X52.254 Y23.862
X52.093 Y23.863
X51.93 Y23.851
X51.767 Y23.826
X51.604 Y23.787
X51.443 Y23.735
X51.285 Y23.669
X51.132 Y23.59
X50.984 Y23.499
X50.843 Y23.395
X50.71 Y23.28
X50.587 Y23.153
X50.473 Y23.017
X50.37 Y22.871
X50.279 Y22.717
X50.201 Y22.556
X50.135 Y22.388
X50.083 Y22.216
X50.045 Y22.039
X50.021 Y21.86
X50.012 Y21.678
X50.017 Y21.497
X50.037 Y21.316
X50.071 Y21.138
X50.12 Y20.962
X50.182 Y20.791
X50.258 Y20.625
X50.347 Y20.466
X50.449 Y20.314
X50.563 Y20.171
X50.688 Y20.038
X50.823 Y19.914
X50.967 Y19.802
X51.121 Y19.703
X51.281 Y19.615
X51.449 Y19.541
X51.622 Y19.48
X51.799 Y19.434
X51.979 Y19.402
X52.161 Y19.384
X52.344 Y19.381
X52.527 Y19.393
X52.708 Y19.42
X52.887 Y19.461
X53.062 Y19.516
X53.231 Y19.585
X53.395 Y19.667
X53.552 Y19.762
X53.7 Y19.87
X53.839 Y19.989
X53.968 Y20.119
X54.087 Y20.259
X54.194 Y20.408
X54.296 Y20.577
X54.413 Y20.812
X54.574 Y21.213
X54.663 Y21.503
X54.719 Y21.751
X54.751 Y21.975
X54.764 Y22.191
X54.759 Y22.401
X54.739 Y22.603
X54.703 Y22.797
X54.653 Y22.985
X54.588 Y23.169
X54.507 Y23.349
X54.411 Y23.523
X54.302 Y23.689
X54.179 Y23.847
X54.042 Y23.995
X53.892 Y24.134
X53.729 Y24.263
X53.553 Y24.379
X53.366 Y24.483
X53.169 Y24.572
X52.961 Y24.647
X52.746 Y24.705
X52.523 Y24.747
X52.295 Y24.771
X52.063 Y24.776
X51.829 Y24.763
X51.595 Y24.731
X51.362 Y24.679
X51.132 Y24.609
X50.906 Y24.519
X50.687 Y24.411
X50.476 Y24.285
X50.275 Y24.142
X50.085 Y23.982
X49.907 Y23.807
X49.744 Y23.617
X49.595 Y23.413
X49.463 Y23.198
X49.348 Y22.971
X49.252 Y22.736
X49.174 Y22.493
X49.116 Y22.244
X49.078 Y21.991
X49.061 Y21.735
X49.064 Y21.478
X49.088 Y21.221
X49.132 Y20.967
X49.197 Y20.717
X49.281 Y20.473
X49.385 Y20.237
X49.508 Y20.009
X49.649 Y19.792
X49.806 Y19.586
X49.98 Y19.394
X50.169 Y19.216
X50.372 Y19.054
X50.587 Y18.909
X50.813 Y18.781
X51.048 Y18.672
X51.292 Y18.582
X51.542 Y18.512
X51.797 Y18.462
X52.055 Y18.433
X52.315 Y18.425
X52.575 Y18.437
X52.832 Y18.47
X53.087 Y18.524
X53.336 Y18.598
X53.578 Y18.692
X53.813 Y18.805
X54.037 Y18.937
X54.25 Y19.086
X54.453 Y19.254
X54.652 Y19.448
X54.861 Y19.687
X55.056 Y19.949
X55.236 Y20.237
X55.392 Y20.537
X55.519 Y20.841
X55.619 Y21.145
X55.692 Y21.448
X55.74 Y21.748
X55.762 Y22.044
X55.761 Y22.337
X55.737 Y22.626
X55.69 Y22.909
X55.621 Y23.186
X55.53 Y23.455
X55.418 Y23.716
X55.286 Y23.966
X55.133 Y24.206
X54.962 Y24.433
X54.771 Y24.647
X54.563 Y24.846
X54.338 Y25.03
X54.097 Y25.196
X53.841 Y25.343
X53.572 Y25.47
X53.291 Y25.577
X52.999 Y25.661
X52.7 Y25.722
X52.394 Y25.759
X52.083 Y25.772
X51.771 Y25.759
X51.458 Y25.721
X51.147 Y25.658
X50.841 Y25.57
X50.54 Y25.456
X50.249 Y25.318
X49.967 Y25.156
X49.698 Y24.971
X49.444 Y24.764
X49.206 Y24.537
X48.986 Y24.29
X48.786 Y24.025
X48.607 Y23.744
X48.451 Y23.449
X48.319 Y23.141
X48.212 Y22.823
X48.13 Y22.497
X48.075 Y22.164
X48.046 Y21.828
X48.045 Y21.49
X48.07 Y21.152
X48.123 Y20.817
X48.203 Y20.487
X48.309 Y20.164
X48.44 Y19.851
X48.597 Y19.548
X48.777 Y19.26
X48.98 Y18.986
X49.205 Y18.729
X49.449 Y18.492
X49.712 Y18.274
X49.991 Y18.078
X50.286 Y17.906
X50.593 Y17.757
X50.912 Y17.634
X51.239 Y17.536
X51.573 Y17.465
X51.912 Y17.421
X52.254 Y17.404
X52.595 Y17.415
X52.935 Y17.454
X53.27 Y17.519
X53.6 Y17.611
X53.921 Y17.729
X54.231 Y17.873
X54.534 Y18.044
X54.832 Y18.245
X55.122 Y18.477
X55.402 Y18.74
X55.666 Y19.032
X55.908 Y19.348
X56.126 Y19.683
X56.315 Y20.034
X56.474 Y20.397
X56.603 Y20.768
X56.701 Y21.145
X56.767 Y21.524
X56.802 Y21.904
X56.807 Y22.283
X56.782 Y22.658
X56.76 Y22.801
X56.746 Y22.872
X56.724 Y22.942
X56.695 Y23.009
X56.65 Y23.101
X56.626 Y23.169
X56.583 Y23.31
X56.576 Y23.353
X56.526 Y23.567
X56.429 Y23.873
X56.305 Y24.178
X56.152 Y24.48
X55.972 Y24.775
X55.764 Y25.06
X55.531 Y25.332
X55.274 Y25.587
X55.083 Y25.748
X54.947 Y25.838
X54.794 Y25.894
X54.632 Y25.913
G3 X54.398 Y25.439 I0.01 J-0.3
G1 X54.478 Y25.326
X56.034 Y23.137
G3 X56.576 Y23.353 I0.245 J0.174
G1 X56.558 Y23.452
X56.541 Y23.594
X56.539 Y23.877
Y24.727
X56.531 Y24.877
X56.509 Y25.025
X56.469 Y25.192
X56.414 Y25.36
X56.363 Y25.483
X56.257 Y25.658
X56.105 Y25.795
X55.92 Y25.883
X55.717 Y25.913
G3 X55.468 Y25.462 I0.01 J-0.3
G1 X55.552 Y25.318
X55.974 Y24.597
X55.98 Y24.586
G3 X56.539 Y24.727 I0.259 J0.151
G1 X56.538 Y25.259
X56.533 Y25.294
X56.476 Y25.578
X56.471 Y25.595
X56.436 Y25.648
X56.389 Y25.719
X56.366 Y25.748
X56.331 Y25.773
X56.224 Y25.843
X56.206 Y25.85
X55.905 Y25.91
X55.888 Y25.912
X55.799 Y25.913
X54.381
X54.239 Y25.914
X54.097 Y25.93
X53.956 Y25.953
X53.78 Y26.003
X53.672 Y26.051
X53.53 Y26.12
X53.388 Y26.214
X53.264 Y26.298
X53.103 Y26.386
X52.909 Y26.474
X52.703 Y26.548
X52.468 Y26.612
X52.203 Y26.661
X52.019 Y26.68
X51.85 Y26.676
X51.687 Y26.63
X51.54 Y26.546
X51.419 Y26.428
G3 X51.596 Y25.93 I0.222 J-0.201
G1 X51.734 Y25.909
X53.122 Y25.699
X53.141 Y25.696
G3 X53.388 Y26.214 I0.045 J0.297
G1 X53.247 Y26.335
X53.105 Y26.495
X53.051 Y26.569
X52.967 Y26.711
X52.963 Y26.72
X52.892 Y26.852
X52.796 Y26.967
X52.751 Y27.008
X52.569 Y27.128
X52.36 Y27.186
X52.143 Y27.177
X51.939 Y27.102
X51.768 Y26.968
X51.646 Y26.788
G3 X51.895 Y26.371 I0.276 J-0.118
G1 X52.114 Y26.352
X52.495 Y26.317
X52.661 Y26.303
G3 X52.963 Y26.72 I0.027 J0.299
G1 X52.9 Y26.853
X52.853 Y26.995
X52.821 Y27.107
X52.816 Y27.136
X52.788 Y27.284
X52.662 Y27.423
X52.498 Y27.513
X52.313 Y27.546
X52.128 Y27.516
X51.962 Y27.429
X51.834 Y27.292
X51.757 Y27.121
X51.749 Y27.065
X51.75 Y27.01
X51.76 Y26.955
G3 X52.816 Y27.136 I0.52 J0.135
G1 X52.798 Y27.278
X52.79 Y27.42
X52.789 Y27.463
X52.781 Y27.612
X52.709 Y27.744
X52.565 Y27.847
X52.396 Y27.898
X52.22 Y27.892
X52.055 Y27.83
X51.919 Y27.718
X51.826 Y27.568
X51.786 Y27.396
X51.789 Y27.349
X51.801 Y27.304
G3 X52.789 Y27.463 I0.479 J0.173
G1 Y27.703
X52.786 Y27.774
X52.764 Y27.888
X52.728 Y28.033
X52.637 Y28.153
X52.48 Y28.234
X52.305 Y28.259
X52.131 Y28.225
X51.979 Y28.135
X51.865 Y27.999
X51.802 Y27.834
X51.798 Y27.781
X51.801 Y27.729
X51.811 Y27.678
G3 X52.764 Y27.888 I0.471 J0.131
G1 X52.727 Y28.075
X52.722 Y28.093
X52.7 Y28.128
X52.63 Y28.232
X52.614 Y28.249
X52.585 Y28.27
X52.484 Y28.337
X52.467 Y28.346
X52.449 Y28.352
X52.307 Y28.38
X52.289 Y28.381
X52.254 Y28.377
X52.13 Y28.352
X52.112 Y28.347
X51.97 Y28.255
X51.953 Y28.24
X51.941 Y28.224
X51.865 Y28.11
X51.856 Y28.093
X51.85 Y28.075
X51.791 Y27.774
X51.789 Y27.703
X51.788 Y27.561
Y27.483
X51.794 Y27.431
X51.81 Y27.38
X51.834 Y27.332
X51.866 Y27.29
X52.15 Y26.978
X52.169 Y26.95
X52.176 Y26.917
X52.172 Y26.883
X52.157 Y26.853
X52.133 Y26.829
X52.102 Y26.815
G3 X51.419 Y26.428 I0.413 J-1.528
G1 X51.276 Y26.286
X51.19 Y26.215
X51.155 Y26.189
X51.12 Y26.166
X50.978 Y26.086
X50.836 Y26.021
X50.694 Y25.97
X50.552 Y25.941
X50.411 Y25.92
X50.269 Y25.915
X50.191 Y25.914
X50.041 Y25.904
X49.873 Y25.877
X49.691 Y25.832
X49.497 Y25.767
X49.284 Y25.677
X49.073 Y25.566
X48.845 Y25.423
X48.611 Y25.247
X48.387 Y25.049
X48.234 Y24.891
X48.128 Y24.748
X48.061 Y24.582
X48.039 Y24.405
G3 X48.502 Y24.164 I0.3 J0.01
G1 X48.629 Y24.247
X50.329 Y25.35
X50.348 Y25.362
G3 X50.191 Y25.914 I-0.163 J0.252
G1 X50.127 Y25.913
X48.851
X48.691 Y25.912
X48.673 Y25.91
X48.39 Y25.854
X48.372 Y25.85
X48.354 Y25.844
X48.236 Y25.766
X48.212 Y25.748
X48.198 Y25.734
X48.118 Y25.614
X48.107 Y25.596
X48.101 Y25.578
X48.044 Y25.294
X48.039 Y25.259
Y23.877
X48.036 Y23.594
X48.019 Y23.452
X48 Y23.331
X47.951 Y23.169
X47.891 Y23.027
X47.821 Y22.885
X47.722 Y22.743
X47.68 Y22.696
X47.585 Y22.579
X47.505 Y22.453
X47.425 Y22.302
X47.353 Y22.132
X47.287 Y21.934
X47.234 Y21.721
X47.193 Y21.472
X47.191 Y21.453
X47.209 Y21.231
X47.294 Y21.026
X47.44 Y20.859
G3 X47.918 Y21.038 I0.185 J0.237
G1 X47.952 Y21.208
X48.187 Y22.414
X48.19 Y22.43
G3 X47.68 Y22.696 I-0.294 J0.057
G1 X47.595 Y22.602
X47.574 Y22.582
X47.432 Y22.46
X47.291 Y22.371
X47.149 Y22.295
X47.017 Y22.224
X46.999 Y22.209
X46.848 Y22.035
X46.761 Y21.822
X46.748 Y21.592
X46.81 Y21.37
X46.94 Y21.181
X47.124 Y21.043
G3 X47.552 Y21.319 I0.128 J0.271
G1 X47.549 Y21.496
X47.545 Y21.789
X47.541 Y22.014
G3 X47.149 Y22.295 I-0.3 J-0.005
G1 X47.007 Y22.243
X46.865 Y22.202
X46.793 Y22.189
X46.646 Y22.157
X46.52 Y22.076
X46.411 Y21.905
X46.368 Y21.707
X46.397 Y21.507
X46.496 Y21.329
X46.65 Y21.198
X46.84 Y21.128
X46.912 Y21.125
X46.984 Y21.135
G3 X46.793 Y22.189 I-0.119 J0.523
G1 X46.719 Y22.177
X46.582 Y22.167
X46.469 Y22.164
X46.319 Y22.152
X46.185 Y22.086
X46.077 Y21.942
X46.023 Y21.77
X46.029 Y21.591
X46.093 Y21.423
X46.209 Y21.286
X46.364 Y21.195
X46.54 Y21.16
X46.576 Y21.163
X46.61 Y21.171
G3 X46.469 Y22.164 I-0.146 J0.486
G1 X46.44 Y22.163
X46.192
X46.156 Y22.157
X46.043 Y22.134
X45.898 Y22.098
X45.777 Y22.01
X45.694 Y21.856
X45.667 Y21.683
X45.699 Y21.511
X45.787 Y21.36
X45.92 Y21.246
X46.083 Y21.183
X46.135 Y21.179
X46.187 Y21.181
X46.239 Y21.19
G3 X46.043 Y22.134 I-0.118 J0.468
G1 X45.873 Y22.1
X45.859 Y22.097
X45.846 Y22.089
X45.731 Y22.013
X45.714 Y22
X45.697 Y21.983
X45.617 Y21.863
X45.608 Y21.847
X45.602 Y21.832
X45.571 Y21.681
X45.57 Y21.663
X45.571 Y21.645
X45.6 Y21.501
X45.603 Y21.49
X45.614 Y21.468
X45.697 Y21.344
X45.712 Y21.326
X45.837 Y21.242
X45.855 Y21.232
X45.873 Y21.225
X46.156 Y21.169
X46.192 Y21.163
X46.44
G3 X46.69 Y21.314 I-0.01 J0.3
G1 X46.816 Y21.535
X46.841 Y21.563
X46.874 Y21.581
X46.912 Y21.585
X46.948 Y21.574
X46.978 Y21.551
X46.997 Y21.518
G3 X47.433 Y20.864 I1.494 J0.523
G1 X47.558 Y20.76
X47.574 Y20.744
X47.693 Y20.618
X47.716 Y20.592
X47.799 Y20.476
X47.858 Y20.366
X47.874 Y20.334
X47.939 Y20.193
X47.985 Y20.051
X48 Y19.99
X48.013 Y19.909
X48.033 Y19.768
X48.037 Y19.626
X48.039 Y19.484
X48.046 Y19.334
X48.074 Y19.169
X48.116 Y19
X48.182 Y18.807
X48.267 Y18.611
X48.379 Y18.4
X48.522 Y18.175
X48.687 Y17.957
X48.888 Y17.732
X49.02 Y17.606
X49.163 Y17.501
X49.328 Y17.435
X49.503 Y17.413
G3 X49.744 Y17.877 I-0.01 J0.3
G1 X49.661 Y18.003
X48.604 Y19.615
X48.589 Y19.638
G3 X48.039 Y19.484 I-0.251 J-0.164
G1 Y18.209
Y18.067
X48.065 Y17.926
X48.102 Y17.743
X48.106 Y17.73
X48.189 Y17.605
X48.202 Y17.587
X48.224 Y17.568
X48.35 Y17.484
X48.363 Y17.479
X48.375 Y17.475
X48.673 Y17.415
X48.691 Y17.413
X49.134
X50.127
X50.269 Y17.411
X50.411 Y17.406
X50.552 Y17.385
X50.685 Y17.359
X50.836 Y17.306
X50.978 Y17.239
X51.12 Y17.162
X51.261 Y17.054
X51.282 Y17.034
X51.396 Y16.936
X51.531 Y16.853
X51.676 Y16.779
X51.856 Y16.705
X52.046 Y16.644
X52.273 Y16.591
X52.447 Y16.565
X52.633 Y16.562
X52.812 Y16.609
X52.974 Y16.701
X53.105 Y16.832
G3 X52.918 Y17.315 I-0.235 J0.186
G1 X52.759 Y17.341
X51.58 Y17.534
X51.546 Y17.54
G3 X51.282 Y17.034 I-0.048 J-0.296
G1 X51.387 Y16.934
X51.403 Y16.915
X51.502 Y16.792
X51.545 Y16.73
X51.594 Y16.65
X51.648 Y16.537
X51.719 Y16.405
X51.729 Y16.393
X51.875 Y16.254
X52.054 Y16.162
X52.252 Y16.125
X52.453 Y16.144
X52.64 Y16.219
X52.798 Y16.344
X52.914 Y16.508
G3 X52.652 Y16.936 I-0.271 J0.128
G1 X52.461 Y16.942
X52.113 Y16.952
X51.931 Y16.957
G3 X51.648 Y16.537 I-0.009 J-0.3
G1 X51.687 Y16.455
X51.714 Y16.367
X51.754 Y16.225
X51.76 Y16.182
X51.79 Y16.035
X51.869 Y15.907
X52.041 Y15.792
X52.241 Y15.746
X52.444 Y15.775
X52.624 Y15.874
X52.756 Y16.031
X52.823 Y16.225
X52.833 Y16.29
X52.83 Y16.356
X52.815 Y16.421
G3 X51.76 Y16.182 I-0.515 J-0.175
G1 X51.775 Y16.083
X51.786 Y15.942
X51.788 Y15.829
X51.798 Y15.679
X51.87 Y15.547
X52.016 Y15.444
X52.188 Y15.393
X52.367 Y15.402
X52.534 Y15.469
X52.669 Y15.587
X52.758 Y15.743
X52.791 Y15.919
X52.786 Y15.963
X52.774 Y16.006
G3 X51.788 Y15.829 I-0.476 J-0.186
G1 X51.789 Y15.587
X51.79 Y15.552
X51.813 Y15.439
X51.849 Y15.293
X51.932 Y15.168
X52.084 Y15.078
X52.258 Y15.044
X52.433 Y15.072
X52.587 Y15.158
X52.704 Y15.291
X52.768 Y15.456
X52.773 Y15.534
X52.765 Y15.613
G3 X51.813 Y15.439 I-0.474 J-0.096
G1 X51.851 Y15.249
X51.855 Y15.233
X51.865 Y15.215
X51.949 Y15.091
X51.97 Y15.071
X52.041 Y15.023
X52.112 Y14.979
X52.129 Y14.974
X52.254 Y14.949
X52.29 Y14.945
X52.308 Y14.946
X52.449 Y14.974
X52.467 Y14.98
X52.484 Y14.989
X52.606 Y15.07
X52.629 Y15.091
X52.679 Y15.167
X52.722 Y15.233
X52.727 Y15.251
X52.787 Y15.552
X52.789 Y15.587
Y15.8
X52.791 Y15.919
G3 X52.191 Y15.93 I-0.3 J0.006
X52.515 Y15.625 I0.3 J-0.006
X52.786 Y15.979 I-0.024 J0.299
G1 X52.646 Y16.74
G3 X52.056 Y16.632 I-0.295 J-0.054
X52.448 Y16.402 I0.295 J0.054
X53.105 Y16.832 I-0.512 J1.498
G1 X53.191 Y16.934
X53.247 Y16.99
X53.348 Y17.075
X53.388 Y17.107
X53.53 Y17.207
X53.549 Y17.217
X53.672 Y17.274
X53.814 Y17.333
X53.956 Y17.372
X54.097 Y17.396
X54.239 Y17.412
X54.381
X54.581 Y17.423
X54.732 Y17.443
X54.907 Y17.481
X55.092 Y17.538
X55.297 Y17.618
X55.512 Y17.723
X55.75 Y17.864
X55.981 Y18.028
X56.23 Y18.236
X56.329 Y18.333
X56.443 Y18.478
X56.514 Y18.649
X56.539 Y18.832
G3 X56.084 Y19.079 I-0.3 J-0.01
G1 X55.945 Y18.995
X54.249 Y17.977
X54.236 Y17.97
G3 X54.381 Y17.412 I0.154 J-0.257
G1 X55.799 Y17.413
X55.888
X55.905 Y17.416
X56.207 Y17.476
X56.224 Y17.482
X56.366 Y17.578
X56.379 Y17.594
X56.391 Y17.61
X56.46 Y17.713
X56.471 Y17.731
X56.476 Y17.748
X56.512 Y17.926
X56.538 Y18.067
X56.539 Y19.484
X56.54 Y19.626
X56.544 Y19.768
X56.564 Y19.909
X56.592 Y20.051
X56.65 Y20.224
X56.703 Y20.334
X56.779 Y20.476
X56.792 Y20.495
X56.883 Y20.618
X56.933 Y20.676
X57.018 Y20.76
X57.049 Y20.787
X57.157 Y20.891
X57.25 Y21.009
X57.341 Y21.149
X57.424 Y21.301
X57.507 Y21.489
X57.535 Y21.568
X57.573 Y21.758
X57.558 Y21.952
X57.49 Y22.134
X57.374 Y22.29
X57.22 Y22.408
G3 X56.787 Y22.2 I-0.139 J-0.266
G1 X56.743 Y21.977
X56.576 Y21.128
X56.566 Y21.078
G3 X57.049 Y20.787 I0.294 J-0.058
G1 X57.075 Y20.81
X57.217 Y20.915
X57.288 Y20.961
X57.359 Y20.996
X57.501 Y21.06
X57.544 Y21.073
X57.684 Y21.126
X57.832 Y21.264
X57.929 Y21.442
X57.966 Y21.642
X57.937 Y21.842
X57.847 Y22.024
X57.704 Y22.168
X57.523 Y22.259
G3 X57.142 Y21.96 I-0.081 J-0.289
G1 X57.15 Y21.738
X57.155 Y21.594
X57.163 Y21.352
G3 X57.544 Y21.073 I0.3 J0.01
G1 X57.642 Y21.105
X57.784 Y21.14
X57.897 Y21.152
X58.046 Y21.175
X58.175 Y21.25
X58.288 Y21.42
X58.331 Y21.62
X58.298 Y21.821
X58.194 Y21.996
X58.034 Y22.122
X57.838 Y22.18
X57.803
X57.768 Y22.176
G3 X57.897 Y21.152 I0.094 J-0.508
G1 X57.926 Y21.155
X58.068 Y21.163
X58.253
X58.402 Y21.17
X58.533 Y21.244
X58.636 Y21.392
X58.684 Y21.566
X58.673 Y21.745
X58.603 Y21.912
X58.483 Y22.046
X58.325 Y22.133
X58.147 Y22.163
X58.068
X58.01 Y22.155
X57.956 Y22.133
X57.908 Y22.098
G3 X58.253 Y21.163 I0.363 J-0.398
G1 X58.387
X58.422 Y21.169
X58.674 Y21.219
X58.706 Y21.226
X58.724 Y21.233
X58.741 Y21.243
X58.852 Y21.318
X58.863 Y21.326
X58.919 Y21.401
X58.963 Y21.468
X58.972 Y21.486
X58.977 Y21.504
X59.006 Y21.645
X59.007 Y21.663
X59.006 Y21.681
X58.977 Y21.822
X58.972 Y21.84
X58.963 Y21.858
X58.881 Y21.98
X58.874 Y21.99
X58.864 Y22
X58.741 Y22.082
X58.724 Y22.093
X58.706 Y22.1
X58.422 Y22.157
X58.387 Y22.162
X58.147 Y22.163
G3 X58.016 Y21.599 I0.01 J-0.3
G1 X58.074 Y21.567 Z-1.992
X58.13 Y21.537 Z-1.97
X58.181 Y21.511 Z-1.935
X58.222 Y21.488 Z-1.887
X58.254 Y21.471 Z-1.83
X58.273 Y21.461 Z-1.767
X58.28 Y21.457 Z-1.7
G0 Z16

(2D Contour2)
X9.139 Y-15.887
Z16
Z6
G1 Z3 F200
Z0.3
G18 G2 X9.439 Z0 I0.3 K0 F450
G1 X9.738
G17 G3 X10.038 Y-15.587 I0 J0.3
G2 X13.538 Y-12.087 I3.5 J0
G1 X21.038
G2 X24.538 Y-15.587 I0 J-3.5
G1 Y-23.087
G2 X21.038 Y-26.587 I-3.5 J0
G1 X13.538
G2 X10.038 Y-23.087 I0 J3.5
G1 Y-15.587
G3 X9.738 Y-15.287 I-0.3 J0
G1 X9.439
G18 G3 X9.139 Z0.3 I0 K0.3
G0 Z6
Y-15.887
G1 Z2 F200
Z-0.7
G2 X9.439 Z-1 I0.3 K0 F450
G1 X9.738
G17 G3 X10.038 Y-15.587 I0 J0.3
G2 X13.538 Y-12.087 I3.5 J0
G1 X21.038
G2 X24.538 Y-15.587 I0 J-3.5
G1 Y-23.087
G2 X21.038 Y-26.587 I-3.5 J0
G1 X13.538
G2 X10.038 Y-23.087 I0 J3.5
G1 Y-15.587
G3 X9.738 Y-15.287 I-0.3 J0
G1 X9.439
G18 G3 X9.139 Z-0.7 I0 K0.3
G0 Z6
Y-15.887
G1 Z1 F200
Z-1.7
G2 X9.439 Z-2 I0.3 K0 F450
G1 X9.738
G17 G3 X10.038 Y-15.587 I0 J0.3
G2 X13.538 Y-12.087 I3.5 J0
G1 X21.038
G2 X24.538 Y-15.587 I0 J-3.5
G1 Y-23.087
G2 X21.038 Y-26.587 I-3.5 J0
G1 X13.538
G2 X10.038 Y-23.087 I0 J3.5
G1 Y-15.587
G3 X9.738 Y-15.287 I-0.3 J0
G1 X9.439
G18 G3 X9.139 Z-1.7 I0 K0.3
G0 Z6
X13.629 Y-16.102
G1 Z3 F200
Z0.3
X13.635 Y-16.107 Z0.233 F450
X13.65 Y-16.123 Z0.17
X13.676 Y-16.148 Z0.113
X13.709 Y-16.182 Z0.065
X13.749 Y-16.222 Z0.03
X13.794 Y-16.267 Z0.008
X13.841 Y-16.314 Z0
X14.054 Y-16.526
G17 G3 X14.478 Y-16.526 I0.212 J0.212
G2 X15.538 Y-16.087 I1.061 J-1.061
G1 X19.038
G2 X20.538 Y-17.587 I0 J-1.5
G1 Y-21.087
G2 X19.038 Y-22.587 I-1.5 J0
G1 X15.538
G2 X14.038 Y-21.087 I0 J1.5
G1 Y-17.587
G2 X14.478 Y-16.526 I1.5 J0
G3 X14.478 Y-16.102 I-0.212 J0.212
G1 X14.266 Y-15.89
X14.219 Y-15.843 Z0.008
X14.174 Y-15.798 Z0.03
X14.133 Y-15.758 Z0.065
X14.1 Y-15.724 Z0.113
X14.075 Y-15.699 Z0.17
X14.059 Y-15.683 Z0.233
X14.054 Y-15.678 Z0.3
G0 Z6
X13.629 Y-16.102
G1 Z2 F200
Z-0.7
X13.635 Y-16.107 Z-0.767 F450
X13.65 Y-16.123 Z-0.83
X13.676 Y-16.148 Z-0.887
X13.709 Y-16.182 Z-0.935
X13.749 Y-16.222 Z-0.97
X13.794 Y-16.267 Z-0.992
X13.841 Y-16.314 Z-1
X14.054 Y-16.526
G3 X14.478 Y-16.526 I0.212 J0.212
G2 X15.538 Y-16.087 I1.061 J-1.061
G1 X19.038
G2 X20.538 Y-17.587 I0 J-1.5
G1 Y-21.087
G2 X19.038 Y-22.587 I-1.5 J0
G1 X15.538
G2 X14.038 Y-21.087 I0 J1.5
G1 Y-17.587
G2 X14.478 Y-16.526 I1.5 J0
G3 X14.478 Y-16.102 I-0.212 J0.212
G1 X14.266 Y-15.89
X14.219 Y-15.843 Z-0.992
X14.174 Y-15.798 Z-0.97
X14.133 Y-15.758 Z-0.935
X14.1 Y-15.724 Z-0.887
X14.075 Y-15.699 Z-0.83
X14.059 Y-15.683 Z-0.767
X14.054 Y-15.678 Z-0.7
G0 Z6
X13.629 Y-16.102
G1 Z1 F200
Z-1.7
X13.635 Y-16.107 Z-1.767 F450
X13.65 Y-16.123 Z-1.83
X13.676 Y-16.148 Z-1.887
X13.709 Y-16.182 Z-1.935
X13.749 Y-16.222 Z-1.97
X13.794 Y-16.267 Z-1.992
X13.841 Y-16.314 Z-2
X14.054 Y-16.526
G3 X14.478 Y-16.526 I0.212 J0.212
G2 X15.538 Y-16.087 I1.061 J-1.061
G1 X19.038
G2 X20.538 Y-17.587 I0 J-1.5
G1 Y-21.087
G2 X19.038 Y-22.587 I-1.5 J0
G1 X15.538
G2 X14.038 Y-21.087 I0 J1.5
G1 Y-17.587
G2 X14.478 Y-16.526 I1.5 J0
G3 X14.478 Y-16.102 I-0.212 J0.212
G1 X14.266 Y-15.89
X14.219 Y-15.843 Z-1.992
X14.174 Y-15.798 Z-1.97
X14.133 Y-15.758 Z-1.935
X14.1 Y-15.724 Z-1.887
X14.075 Y-15.699 Z-1.83
X14.059 Y-15.683 Z-1.767
X14.054 Y-15.678 Z-1.7
G0 Z6
X-14.361 Y-17.887
G1 Z3 F200
Z0.3
G18 G2 X-14.061 Z0 I0.3 K0 F450
G1 X-13.762
G17 G3 X-13.462 Y-17.587 I0 J0.3
G1 Y-15.587
G3 X-13.962 Y-15.087 I-0.5 J0
G1 X-21.462
G3 X-21.962 Y-15.587 I0 J-0.5
G1 Y-19.337
G3 X-20.962 Y-19.337 I0.5 J0
G1 Y-17.587
G2 X-19.462 Y-16.087 I1.5 J0
G1 X-15.962
G2 X-14.462 Y-17.587 I0 J-1.5
G1 Y-19.337
G3 X-13.462 Y-19.337 I0.5 J0
G1 Y-17.587
G3 X-13.762 Y-17.287 I-0.3 J0
G1 X-14.061
G18 G3 X-14.361 Z0.3 I0 K0.3
G0 Z6
Y-17.887
G1 Z2 F200
Z-0.7
G2 X-14.061 Z-1 I0.3 K0 F450
G1 X-13.762
G17 G3 X-13.462 Y-17.587 I0 J0.3
G1 Y-15.587
G3 X-13.962 Y-15.087 I-0.5 J0
G1 X-21.462
G3 X-21.962 Y-15.587 I0 J-0.5
G1 Y-19.337
G3 X-20.962 Y-19.337 I0.5 J0
G1 Y-17.587
G2 X-19.462 Y-16.087 I1.5 J0
G1 X-15.962
G2 X-14.462 Y-17.587 I0 J-1.5
G1 Y-19.337
G3 X-13.462 Y-19.337 I0.5 J0
G1 Y-17.587
G3 X-13.762 Y-17.287 I-0.3 J0
G1 X-14.061
G18 G3 X-14.361 Z-0.7 I0 K0.3
G0 Z6
Y-17.887
G1 Z1 F200
Z-1.7
G2 X-14.061 Z-2 I0.3 K0 F450
G1 X-13.762
G17 G3 X-13.462 Y-17.587 I0 J0.3
G1 Y-15.587
G3 X-13.962 Y-15.087 I-0.5 J0
G1 X-21.462
G3 X-21.962 Y-15.587 I0 J-0.5
G1 Y-19.337
G3 X-20.962 Y-19.337 I0.5 J0
G1 Y-17.587
G2 X-19.462 Y-16.087 I1.5 J0
G1 X-15.962
G2 X-14.462 Y-17.587 I0 J-1.5
G1 Y-19.337
G3 X-13.462 Y-19.337 I0.5 J0
G1 Y-17.587
G3 X-13.762 Y-17.287 I-0.3 J0
G1 X-14.061
G18 G3 X-14.361 Z-1.7 I0 K0.3
G0 Z6
X-49.361 Y-19.514
G1 Z3 F200
Z0.3
G2 X-49.062 Z0 I0.3 K0 F450
G1 X-48.762
G17 G3 X-48.461 Y-19.214 I0 J0.3
G1 Y-15.587
G3 X-48.961 Y-15.087 I-0.5 J0
G1 X-56.461
G3 X-56.961 Y-15.587 I0 J-0.5
G1 Y-17.587
Y-19.337
G3 X-55.961 Y-19.337 I0.5 J0
G1 Y-17.587
G2 X-54.461 Y-16.087 I1.5 J0
G1 X-50.961
G2 X-49.461 Y-17.587 I0 J-1.5
G1 Y-19.337
G3 X-48.461 Y-19.337 I0.5 J0
G1 Y-19.214
G3 X-48.762 Y-18.914 I-0.3 J0
G1 X-49.062
G18 G3 X-49.361 Z0.3 I0 K0.3
G0 Z6
Y-19.514
G1 Z2 F200
Z-0.7
G2 X-49.062 Z-1 I0.3 K0 F450
G1 X-48.762
G17 G3 X-48.461 Y-19.214 I0 J0.3
G1 Y-15.587
G3 X-48.961 Y-15.087 I-0.5 J0
G1 X-56.461
G3 X-56.961 Y-15.587 I0 J-0.5
G1 Y-17.587
Y-19.337
G3 X-55.961 Y-19.337 I0.5 J0
G1 Y-17.587
G2 X-54.461 Y-16.087 I1.5 J0
G1 X-50.961
G2 X-49.461 Y-17.587 I0 J-1.5
G1 Y-19.337
G3 X-48.461 Y-19.337 I0.5 J0
G1 Y-19.214
G3 X-48.762 Y-18.914 I-0.3 J0
G1 X-49.062
G18 G3 X-49.361 Z-0.7 I0 K0.3
G0 Z6
Y-19.514
G1 Z1 F200
Z-1.7
G2 X-49.062 Z-2 I0.3 K0 F450
G1 X-48.762
G17 G3 X-48.461 Y-19.214 I0 J0.3
G1 Y-15.587
G3 X-48.961 Y-15.087 I-0.5 J0
G1 X-56.461
G3 X-56.961 Y-15.587 I0 J-0.5
G1 Y-17.587
Y-19.337
G3 X-55.961 Y-19.337 I0.5 J0
G1 Y-17.587
G2 X-54.461 Y-16.087 I1.5 J0
G1 X-50.961
G2 X-49.461 Y-17.587 I0 J-1.5
G1 Y-19.337
G3 X-48.461 Y-19.337 I0.5 J0
G1 Y-19.214
G3 X-48.762 Y-18.914 I-0.3 J0
G1 X-49.062
G18 G3 X-49.361 Z-1.7 I0 K0.3
G0 Z6
Y21.486
G1 Z3 F200
Z0.3
G2 X-49.062 Z0 I0.3 K0 F450
G1 X-48.762
G17 G3 X-48.461 Y21.786 I0 J0.3
G1 Y25.413
G3 X-48.961 Y25.913 I-0.5 J0
G1 X-56.461
G3 X-56.961 Y25.413 I0 J-0.5
G1 Y21.663
G3 X-55.961 Y21.663 I0.5 J0
G1 Y23.413
G2 X-54.461 Y24.913 I1.5 J0
G1 X-50.961
G2 X-49.461 Y23.413 I0 J-1.5
G1 Y21.663
G3 X-48.461 Y21.663 I0.5 J0
G1 Y21.786
G3 X-48.762 Y22.086 I-0.3 J0
G1 X-49.062
G18 G3 X-49.361 Z0.3 I0 K0.3
G0 Z6
Y21.486
G1 Z2 F200
Z-0.7
G2 X-49.062 Z-1 I0.3 K0 F450
G1 X-48.762
G17 G3 X-48.461 Y21.786 I0 J0.3
G1 Y25.413
G3 X-48.961 Y25.913 I-0.5 J0
G1 X-56.461
G3 X-56.961 Y25.413 I0 J-0.5
G1 Y21.663
G3 X-55.961 Y21.663 I0.5 J0
G1 Y23.413
G2 X-54.461 Y24.913 I1.5 J0
G1 X-50.961
G2 X-49.461 Y23.413 I0 J-1.5
G1 Y21.663
G3 X-48.461 Y21.663 I0.5 J0
G1 Y21.786
G3 X-48.762 Y22.086 I-0.3 J0
G1 X-49.062
G18 G3 X-49.361 Z-0.7 I0 K0.3
G0 Z6
Y21.486
G1 Z1 F200
Z-1.7
G2 X-49.062 Z-2 I0.3 K0 F450
G1 X-48.762
G17 G3 X-48.461 Y21.786 I0 J0.3
G1 Y25.413
G3 X-48.961 Y25.913 I-0.5 J0
G1 X-56.461
G3 X-56.961 Y25.413 I0 J-0.5
G1 Y21.663
G3 X-55.961 Y21.663 I0.5 J0
G1 Y23.413
G2 X-54.461 Y24.913 I1.5 J0
G1 X-50.961
G2 X-49.461 Y23.413 I0 J-1.5
G1 Y21.663
G3 X-48.461 Y21.663 I0.5 J0
G1 Y21.786
G3 X-48.762 Y22.086 I-0.3 J0
G1 X-49.062
G18 G3 X-49.361 Z-1.7 I0 K0.3
G0 Z6
X-21.861 Y21.486
G1 Z3 F200
Z0.3
G2 X-21.562 Z0 I0.3 K0 F450
G1 X-21.261
G17 G3 X-20.962 Y21.786 I0 J0.3
G1 Y23.413
G2 X-19.462 Y24.913 I1.5 J0
G1 X-15.962
G2 X-14.462 Y23.413 I0 J-1.5
G1 Y21.663
G3 X-13.462 Y21.663 I0.5 J0
G1 Y25.413
G3 X-13.962 Y25.913 I-0.5 J0
G1 X-21.462
G3 X-21.962 Y25.413 I0 J-0.5
G1 Y21.663
G3 X-20.962 Y21.663 I0.5 J0
G1 Y21.786
G3 X-21.261 Y22.086 I-0.3 J0
G1 X-21.562
G18 G3 X-21.861 Z0.3 I0 K0.3
G0 Z6
Y21.486
G1 Z2 F200
Z-0.7
G2 X-21.562 Z-1 I0.3 K0 F450
G1 X-21.261
G17 G3 X-20.962 Y21.786 I0 J0.3
G1 Y23.413
G2 X-19.462 Y24.913 I1.5 J0
G1 X-15.962
G2 X-14.462 Y23.413 I0 J-1.5
G1 Y21.663
G3 X-13.462 Y21.663 I0.5 J0
G1 Y25.413
G3 X-13.962 Y25.913 I-0.5 J0
G1 X-21.462
G3 X-21.962 Y25.413 I0 J-0.5
G1 Y21.663
G3 X-20.962 Y21.663 I0.5 J0
G1 Y21.786
G3 X-21.261 Y22.086 I-0.3 J0
G1 X-21.562
G18 G3 X-21.861 Z-0.7 I0 K0.3
G0 Z6
Y21.486
G1 Z1 F200
Z-1.7
G2 X-21.562 Z-2 I0.3 K0 F450
G1 X-21.261
G17 G3 X-20.962 Y21.786 I0 J0.3
G1 Y23.413
G2 X-19.462 Y24.913 I1.5 J0
G1 X-15.962
G2 X-14.462 Y23.413 I0 J-1.5
G1 Y21.663
G3 X-13.462 Y21.663 I0.5 J0
G1 Y25.413
G3 X-13.962 Y25.913 I-0.5 J0
G1 X-21.462
G3 X-21.962 Y25.413 I0 J-0.5
G1 Y21.663
G3 X-20.962 Y21.663 I0.5 J0
G1 Y21.786
G3 X-21.261 Y22.086 I-0.3 J0
G1 X-21.562
G18 G3 X-21.861 Z-1.7 I0 K0.3
G0 Z6
X48.629 Y-16.102
G1 Z3 F200
Z0.3
X48.635 Y-16.107 Z0.233 F450
X48.65 Y-16.123 Z0.17
X48.676 Y-16.148 Z0.113
X48.709 Y-16.182 Z0.065
X48.749 Y-16.222 Z0.03
X48.794 Y-16.267 Z0.008
X48.841 Y-16.314 Z0
X49.054 Y-16.526
G17 G3 X49.478 Y-16.526 I0.212 J0.212
G2 X50.539 Y-16.087 I1.061 J-1.061
G1 X54.039
G2 X55.539 Y-17.587 I0 J-1.5
G1 Y-19.337
G3 X56.539 Y-19.337 I0.5 J0
G1 Y-15.587
G3 X56.039 Y-15.087 I-0.5 J0
G1 X48.539
G3 X48.039 Y-15.587 I0 J-0.5
G1 Y-19.337
G3 X49.039 Y-19.337 I0.5 J0
G1 Y-17.587
G2 X49.478 Y-16.526 I1.5 J0
G3 X49.478 Y-16.102 I-0.212 J0.212
G1 X49.266 Y-15.89
X49.219 Y-15.843 Z0.008
X49.174 Y-15.798 Z0.03
X49.133 Y-15.758 Z0.065
X49.1 Y-15.724 Z0.113
X49.075 Y-15.699 Z0.17
X49.059 Y-15.683 Z0.233
X49.054 Y-15.678 Z0.3
G0 Z6
X48.629 Y-16.102
G1 Z2 F200
Z-0.7
X48.635 Y-16.107 Z-0.767 F450
X48.65 Y-16.123 Z-0.83
X48.676 Y-16.148 Z-0.887
X48.709 Y-16.182 Z-0.935
X48.749 Y-16.222 Z-0.97
X48.794 Y-16.267 Z-0.992
X48.841 Y-16.314 Z-1
X49.054 Y-16.526
G3 X49.478 Y-16.526 I0.212 J0.212
G2 X50.539 Y-16.087 I1.061 J-1.061
G1 X54.039
G2 X55.539 Y-17.587 I0 J-1.5
G1 Y-19.337
G3 X56.539 Y-19.337 I0.5 J0
G1 Y-15.587
G3 X56.039 Y-15.087 I-0.5 J0
G1 X48.539
G3 X48.039 Y-15.587 I0 J-0.5
G1 Y-19.337
G3 X49.039 Y-19.337 I0.5 J0
G1 Y-17.587
G2 X49.478 Y-16.526 I1.5 J0
G3 X49.478 Y-16.102 I-0.212 J0.212
G1 X49.266 Y-15.89
X49.219 Y-15.843 Z-0.992
X49.174 Y-15.798 Z-0.97
X49.133 Y-15.758 Z-0.935
X49.1 Y-15.724 Z-0.887
X49.075 Y-15.699 Z-0.83
X49.059 Y-15.683 Z-0.767
X49.054 Y-15.678 Z-0.7
G0 Z6
X48.629 Y-16.102
G1 Z1 F200
Z-1.7
X48.635 Y-16.107 Z-1.767 F450
X48.65 Y-16.123 Z-1.83
X48.676 Y-16.148 Z-1.887
X48.709 Y-16.182 Z-1.935
X48.749 Y-16.222 Z-1.97
X48.794 Y-16.267 Z-1.992
X48.841 Y-16.314 Z-2
X49.054 Y-16.526
G3 X49.478 Y-16.526 I0.212 J0.212
G2 X50.539 Y-16.087 I1.061 J-1.061
G1 X54.039
G2 X55.539 Y-17.587 I0 J-1.5
G1 Y-19.337
G3 X56.539 Y-19.337 I0.5 J0
G1 Y-15.587
G3 X56.039 Y-15.087 I-0.5 J0
G1 X48.539
G3 X48.039 Y-15.587 I0 J-0.5
G1 Y-19.337
G3 X49.039 Y-19.337 I0.5 J0
G1 Y-17.587
G2 X49.478 Y-16.526 I1.5 J0
G3 X49.478 Y-16.102 I-0.212 J0.212
G1 X49.266 Y-15.89
X49.219 Y-15.843 Z-1.992
X49.174 Y-15.798 Z-1.97
X49.133 Y-15.758 Z-1.935
X49.1 Y-15.724 Z-1.887
X49.075 Y-15.699 Z-1.83
X49.059 Y-15.683 Z-1.767
X49.054 Y-15.678 Z-1.7
G0 Z16

(Drill7)
X52.288 Y-23.087
Z16
Z6
Z5
G1 Z-2 F200
G0 Z6
X-52.712
Z5
G1 Z-2 F200
G0 Z6
X-17.712
Z5
G1 Z-2 F200
G0 Z6
Y17.913
Z5
G1 Z-2 F200
G0 Z6
X-52.712
Z5
G1 Z-2 F200
G0 Z6
Z16
M9
M5
M30
