(1001)
(Machine)
(  vendor: Autodesk)
(  description: Generic 3-axis)
(T3  D=3 CR=0 - ZMIN=-4.3 - flat end mill)
G90 G94
G17
G21

(2D Adaptive6)
T3
S1000 M3
G54
M8
G0 X-52.221 Y17.493
Z15
Z5
Z2.5
G3 X-53.202 Y20.169 Z2.344 I-0.49 J1.338 F333.3
X-52.221 Y17.493 Z2.187 I0.49 J-1.338
X-53.202 Y20.169 Z2.031 I-0.49 J1.338
X-52.221 Y17.493 Z1.875 I0.49 J-1.338
X-53.202 Y20.169 Z1.718 I-0.49 J1.338
X-52.221 Y17.493 Z1.562 I0.49 J-1.338
X-53.202 Y20.169 Z1.406 I-0.49 J1.338
X-52.221 Y17.493 Z1.249 I0.49 J-1.338
X-53.202 Y20.169 Z1.093 I-0.49 J1.338
X-52.221 Y17.493 Z0.937 I0.49 J-1.338
X-53.202 Y20.169 Z0.78 I-0.49 J1.338
X-52.221 Y17.493 Z0.624 I0.49 J-1.338
X-53.202 Y20.169 Z0.468 I-0.49 J1.338
X-52.221 Y17.493 Z0.311 I0.49 J-1.338
X-53.202 Y20.169 Z0.155 I-0.49 J1.338
X-52.221 Y17.493 Z-0.001 I0.49 J-1.338
X-53.202 Y20.169 Z-0.158 I-0.49 J1.338
X-52.221 Y17.493 Z-0.314 I0.49 J-1.338
X-53.202 Y20.169 Z-0.47 I-0.49 J1.338
X-52.221 Y17.493 Z-0.627 I0.49 J-1.338
X-53.202 Y20.169 Z-0.783 I-0.49 J1.338
X-52.221 Y17.493 Z-0.939 I0.49 J-1.338
X-51.287 Y18.831 Z-1 I-0.49 J1.338
X-54.137 Y18.831 I-1.425 J0
X-51.287 Y18.831 I1.425 J0
G1 X-51.252 Y19.552 F250
X-51.235 Y19.641
X-51.227 Y19.791
X-51.247 Y19.939
X-51.289 Y20.083
X-51.351 Y20.22
X-51.43 Y20.348
X-51.522 Y20.466
X-51.626 Y20.574
X-51.741 Y20.671
X-51.864 Y20.756
X-51.994 Y20.83
X-52.131 Y20.893
X-52.272 Y20.943
X-52.417 Y20.982
X-52.569 Y21.01
X-52.725 Y21.026
X-52.884 Y21.029
X-53.046 Y21.019
X-53.209 Y20.996
X-53.372 Y20.96
X-53.532 Y20.91
X-53.69 Y20.847
X-53.844 Y20.77
X-53.992 Y20.681
X-54.134 Y20.58
X-54.268 Y20.466
X-54.393 Y20.342
X-54.508 Y20.207
X-54.613 Y20.063
X-54.706 Y19.911
X-54.786 Y19.751
X-54.854 Y19.584
X-54.908 Y19.413
X-54.949 Y19.237
X-54.975 Y19.058
X-54.987 Y18.877
X-54.984 Y18.695
X-54.967 Y18.515
X-54.935 Y18.336
X-54.889 Y18.159
X-54.828 Y17.987
X-54.755 Y17.821
X-54.667 Y17.66
X-54.568 Y17.507
X-54.456 Y17.363
X-54.333 Y17.228
X-54.2 Y17.103
X-54.056 Y16.989
X-53.905 Y16.887
X-53.745 Y16.798
X-53.579 Y16.721
X-53.407 Y16.658
X-53.23 Y16.609
X-53.05 Y16.575
X-52.868 Y16.555
X-52.685 Y16.55
X-52.502 Y16.559
X-52.321 Y16.583
X-52.142 Y16.622
X-51.966 Y16.674
X-51.796 Y16.741
X-51.631 Y16.821
X-51.473 Y16.915
X-51.323 Y17.02
X-51.183 Y17.137
X-51.052 Y17.265
X-50.931 Y17.404
X-50.822 Y17.551
X-50.721 Y17.714
X-50.61 Y17.93
X-50.477 Y18.249
X-50.368 Y18.586
X-50.303 Y18.856
X-50.267 Y19.094
X-50.25 Y19.314
X-50.252 Y19.528
X-50.27 Y19.735
X-50.304 Y19.933
X-50.352 Y20.122
X-50.415 Y20.307
X-50.493 Y20.487
X-50.586 Y20.662
X-50.693 Y20.83
X-50.814 Y20.989
X-50.948 Y21.139
X-51.095 Y21.279
X-51.256 Y21.408
X-51.428 Y21.526
X-51.612 Y21.632
X-51.808 Y21.723
X-52.012 Y21.8
X-52.226 Y21.861
X-52.446 Y21.905
X-52.673 Y21.932
X-52.903 Y21.941
X-53.136 Y21.931
X-53.37 Y21.902
X-53.603 Y21.853
X-53.833 Y21.786
X-54.058 Y21.7
X-54.278 Y21.595
X-54.49 Y21.473
X-54.693 Y21.332
X-54.884 Y21.175
X-55.064 Y21.003
X-55.23 Y20.815
X-55.381 Y20.614
X-55.515 Y20.401
X-55.633 Y20.177
X-55.733 Y19.943
X-55.813 Y19.701
X-55.875 Y19.453
X-55.916 Y19.201
X-55.937 Y18.945
Y18.688
X-55.917 Y18.432
X-55.876 Y18.178
X-55.814 Y17.927
X-55.733 Y17.682
X-55.632 Y17.444
X-55.513 Y17.215
X-55.375 Y16.995
X-55.22 Y16.788
X-55.049 Y16.593
X-54.862 Y16.413
X-54.662 Y16.248
X-54.449 Y16.1
X-54.225 Y15.97
X-53.991 Y15.857
X-53.748 Y15.764
X-53.499 Y15.691
X-53.245 Y15.638
X-52.987 Y15.605
X-52.727 Y15.593
X-52.468 Y15.602
X-52.209 Y15.632
X-51.954 Y15.683
X-51.704 Y15.754
X-51.461 Y15.844
X-51.225 Y15.954
X-50.999 Y16.083
X-50.784 Y16.229
X-50.58 Y16.393
X-50.382 Y16.581
X-50.179 Y16.806
X-49.985 Y17.06
X-49.806 Y17.338
X-49.647 Y17.636
X-49.514 Y17.941
X-49.408 Y18.248
X-49.33 Y18.554
X-49.278 Y18.857
X-49.251 Y19.156
X-49.248 Y19.451
X-49.269 Y19.742
X-49.313 Y20.027
X-49.378 Y20.306
X-49.466 Y20.577
X-49.574 Y20.839
X-49.703 Y21.092
X-49.852 Y21.333
X-50.021 Y21.563
X-50.208 Y21.778
X-50.413 Y21.98
X-50.635 Y22.166
X-50.873 Y22.334
X-51.126 Y22.484
X-51.392 Y22.615
X-51.67 Y22.724
X-51.959 Y22.812
X-52.257 Y22.877
X-52.561 Y22.918
X-52.87 Y22.934
X-53.182 Y22.926
X-53.494 Y22.893
X-53.805 Y22.834
X-54.111 Y22.75
X-54.412 Y22.64
X-54.705 Y22.507
X-54.988 Y22.349
X-55.259 Y22.168
X-55.515 Y21.965
X-55.756 Y21.741
X-55.978 Y21.498
X-56.181 Y21.236
X-56.364 Y20.958
X-56.523 Y20.665
X-56.66 Y20.36
X-56.771 Y20.044
X-56.857 Y19.719
X-56.917 Y19.387
X-56.95 Y19.052
X-56.956 Y18.714
X-56.935 Y18.376
X-56.886 Y18.04
X-56.811 Y17.71
X-56.709 Y17.386
X-56.582 Y17.07
X-56.43 Y16.766
X-56.253 Y16.475
X-56.054 Y16.199
X-55.833 Y15.939
X-55.592 Y15.698
X-55.332 Y15.478
X-55.055 Y15.278
X-54.763 Y15.101
X-54.458 Y14.949
X-54.141 Y14.821
X-53.815 Y14.719
X-53.482 Y14.644
X-53.143 Y14.595
X-52.802 Y14.574
X-52.461 Y14.58
X-52.121 Y14.614
X-51.784 Y14.675
X-51.454 Y14.763
X-51.131 Y14.877
X-50.819 Y15.016
X-50.516 Y15.182
X-50.219 Y15.377
X-49.93 Y15.602
X-49.651 Y15.857
X-49.387 Y16.142
X-49.142 Y16.452
X-48.921 Y16.783
X-48.727 Y17.132
X-48.562 Y17.493
X-48.428 Y17.864
X-48.325 Y18.241
X-48.253 Y18.621
X-48.212 Y19.002
X-48.202 Y19.382
X-48.223 Y19.759
X-48.273 Y20.131
X-48.353 Y20.495
X-48.461 Y20.851
X-48.597 Y21.195
X-48.76 Y21.528
X-48.95 Y21.846
X-49.164 Y22.148
X-49.403 Y22.433
X-49.665 Y22.699
X-49.948 Y22.944
X-50.252 Y23.167
X-50.574 Y23.366
X-50.914 Y23.539
X-51.268 Y23.685
X-51.635 Y23.803
X-52.013 Y23.892
X-52.399 Y23.951
X-52.791 Y23.978
X-53.186 Y23.974
X-53.582 Y23.938
X-53.976 Y23.87
X-54.365 Y23.77
X-54.746 Y23.639
X-55.118 Y23.477
X-55.477 Y23.284
X-55.821 Y23.062
X-56.148 Y22.813
X-56.454 Y22.537
X-56.738 Y22.236
X-56.998 Y21.912
X-57.232 Y21.568
X-57.438 Y21.204
X-57.615 Y20.825
X-57.761 Y20.432
X-57.875 Y20.027
X-57.957 Y19.614
X-58.005 Y19.194
X-58.019 Y18.772
X-58 Y18.349
X-57.946 Y17.929
X-57.859 Y17.514
X-57.739 Y17.106
X-57.586 Y16.71
X-57.402 Y16.326
X-57.187 Y15.959
X-56.944 Y15.61
X-56.673 Y15.281
X-56.376 Y14.974
X-56.056 Y14.693
X-55.714 Y14.438
X-55.353 Y14.211
X-54.974 Y14.014
X-54.581 Y13.848
X-54.175 Y13.714
X-53.76 Y13.613
X-53.339 Y13.545
X-52.913 Y13.512
X-52.485
X-52.059 Y13.548
X-51.638 Y13.617
X-51.222 Y13.72
X-50.814 Y13.857
X-50.415 Y14.027
X-50.026 Y14.232
X-49.649 Y14.47
X-49.286 Y14.743
X-48.94 Y15.05
X-48.614 Y15.389
X-48.314 Y15.756
X-48.042 Y16.149
X-47.803 Y16.564
X-47.597 Y16.996
X-47.428 Y17.442
X-47.295 Y17.897
X-47.2 Y18.36
X-47.142 Y18.826
X-47.122 Y19.293
X-47.14 Y19.758
X-47.195 Y20.217
X-47.286 Y20.669
X-47.412 Y21.111
X-47.574 Y21.54
X-47.769 Y21.955
X-47.996 Y22.353
X-48.256 Y22.731
X-48.545 Y23.088
X-48.862 Y23.422
X-49.207 Y23.73
X-49.577 Y24.01
X-49.969 Y24.261
X-50.382 Y24.48
X-50.814 Y24.667
X-51.261 Y24.819
X-51.721 Y24.935
X-52.191 Y25.014
X-52.669 Y25.056
X-53.15 Y25.059
X-53.632 Y25.023
X-54.113 Y24.948
X-54.587 Y24.834
X-55.053 Y24.683
X-55.507 Y24.493
X-55.946 Y24.267
X-56.368 Y24.005
X-56.768 Y23.709
X-57.144 Y23.381
X-57.494 Y23.023
X-57.814 Y22.637
X-58.104 Y22.226
X-58.36 Y21.791
X-58.581 Y21.336
X-58.765 Y20.864
X-58.911 Y20.378
X-59.018 Y19.881
X-59.084 Y19.376
X-59.11 Y18.867
X-59.094 Y18.357
X-59.038 Y17.849
X-58.941 Y17.347
X-58.804 Y16.853
X-58.628 Y16.372
X-58.414 Y15.907
X-58.162 Y15.459
X-57.876 Y15.033
X-57.556 Y14.632
X-57.205 Y14.257
X-56.824 Y13.911
X-56.417 Y13.597
X-55.986 Y13.316
X-55.534 Y13.071
X-55.063 Y12.863
X-54.577 Y12.694
X-54.079 Y12.564
X-53.572 Y12.474
X-53.059 Y12.425
X-52.544 Y12.418
X-52.03 Y12.452
X-51.52 Y12.527
X-51.015 Y12.643
X-50.518 Y12.8
X-50.032 Y12.999
X-49.559 Y13.238
X-49.101 Y13.517
X-48.661 Y13.837
X-48.244 Y14.195
X-47.853 Y14.588
X-47.492 Y15.015
X-47.165 Y15.472
X-46.876 Y15.954
X-46.625 Y16.459
X-46.417 Y16.981
X-46.251 Y17.517
X-46.129 Y18.063
X-46.052 Y18.616
X-46.019 Y19.171
X-46.031 Y19.724
X-46.087 Y20.273
X-46.187 Y20.815
X-46.33 Y21.345
X-46.514 Y21.862
X-46.739 Y22.362
X-47.004 Y22.842
X-47.306 Y23.299
X-47.645 Y23.732
X-48.018 Y24.136
X-48.423 Y24.51
X-48.858 Y24.852
X-49.32 Y25.158
X-49.807 Y25.427
X-50.317 Y25.657
X-50.845 Y25.846
X-51.388 Y25.993
X-51.944 Y26.096
X-52.509 Y26.155
X-53.079 Y26.168
X-53.65 Y26.135
X-54.219 Y26.056
X-54.782 Y25.931
X-55.335 Y25.761
X-55.874 Y25.546
X-56.396 Y25.287
X-56.897 Y24.987
X-57.374 Y24.647
X-57.824 Y24.268
X-58.242 Y23.853
X-58.627 Y23.405
X-58.976 Y22.926
X-59.285 Y22.42
X-59.554 Y21.89
X-59.78 Y21.339
X-59.96 Y20.77
X-60.095 Y20.188
X-60.183 Y19.596
X-60.223 Y18.999
X-60.215 Y18.399
X-60.159 Y17.801
X-60.055 Y17.21
X-59.904 Y16.628
X-59.706 Y16.059
X-59.463 Y15.508
X-59.177 Y14.978
X-58.848 Y14.472
X-58.48 Y13.994
X-58.075 Y13.547
X-57.635 Y13.134
X-57.163 Y12.758
X-56.663 Y12.42
X-56.136 Y12.123
X-55.588 Y11.87
X-55.02 Y11.662
X-54.438 Y11.499
X-53.845 Y11.384
X-53.244 Y11.317
X-52.639 Y11.298
X-52.034 Y11.328
X-51.431 Y11.407
X-50.835 Y11.534
X-50.248 Y11.71
X-49.672 Y11.933
X-49.112 Y12.205
X-48.571 Y12.523
X-48.054 Y12.886
X-47.563 Y13.293
X-47.103 Y13.741
X-46.678 Y14.227
X-46.292 Y14.748
X-45.948 Y15.3
X-45.649 Y15.879
X-45.398 Y16.48
X-45.195 Y17.098
X-45.044 Y17.729
X-44.943 Y18.369
X-44.895 Y19.014
X-44.898 Y19.658
X-44.953 Y20.299
X-45.059 Y20.932
X-45.215 Y21.553
X-45.42 Y22.159
X-45.673 Y22.747
X-45.973 Y23.312
X-46.317 Y23.851
X-46.703 Y24.362
X-47.13 Y24.84
X-47.594 Y25.284
X-48.094 Y25.69
X-48.626 Y26.055
X-49.188 Y26.377
X-49.775 Y26.654
X-50.384 Y26.884
X-51.012 Y27.065
X-51.655 Y27.195
X-52.308 Y27.273
X-52.967 Y27.299
X-53.629 Y27.272
X-54.289 Y27.191
X-54.942 Y27.057
X-55.584 Y26.871
X-56.211 Y26.633
X-56.819 Y26.345
X-57.403 Y26.008
X-57.96 Y25.624
X-58.486 Y25.195
X-58.977 Y24.725
X-59.429 Y24.215
X-59.84 Y23.67
X-60.207 Y23.093
X-60.526 Y22.487
X-60.796 Y21.856
X-61.015 Y21.204
X-61.182 Y20.537
X-61.294 Y19.857
X-61.352 Y19.169
X-61.354 Y18.479
X-61.3 Y17.79
X-61.192 Y17.106
X-61.029 Y16.434
X-60.812 Y15.776
X-60.543 Y15.137
X-60.223 Y14.522
X-59.855 Y13.933
X-59.441 Y13.377
X-58.983 Y12.855
X-58.484 Y12.371
X-57.949 Y11.928
X-57.379 Y11.53
X-56.779 Y11.179
X-56.152 Y10.877
X-55.504 Y10.627
X-54.837 Y10.429
X-54.156 Y10.285
X-53.466 Y10.197
X-52.77 Y10.164
X-52.073 Y10.187
X-51.379 Y10.266
X-50.691 Y10.401
X-50.012 Y10.591
X-49.348 Y10.837
X-48.701 Y11.138
X-48.076 Y11.491
X-47.478 Y11.896
X-46.915 Y12.348
X-46.389 Y12.843
X-45.904 Y13.378
X-45.463 Y13.949
X-45.068 Y14.553
X-44.721 Y15.186
X-44.425 Y15.845
X-44.181 Y16.524
X-43.991 Y17.221
X-43.856 Y17.93
X-43.777 Y18.648
X-43.754 Y19.37
X-43.789 Y20.091
X-43.88 Y20.807
X-44.027 Y21.514
X-44.23 Y22.206
X-44.488 Y22.881
X-44.798 Y23.533
X-45.158 Y24.159
X-45.567 Y24.754
X-46.022 Y25.314
X-46.52 Y25.837
X-47.057 Y26.319
X-47.631 Y26.758
X-48.238 Y27.149
X-48.873 Y27.492
X-49.533 Y27.785
X-50.214 Y28.025
X-50.912 Y28.211
X-51.622 Y28.343
X-52.339 Y28.419
X-53.061 Y28.44
X-53.782 Y28.405
X-54.499 Y28.315
X-55.206 Y28.17
X-55.9 Y27.97
X-56.576 Y27.718
X-57.232 Y27.415
X-57.862 Y27.064
X-58.465 Y26.666
X-59.036 Y26.224
X-59.572 Y25.74
X-60.07 Y25.218
X-60.528 Y24.66
X-60.943 Y24.069
X-61.314 Y23.449
X-61.637 Y22.804
X-61.682 Y22.693
X-61.705 Y22.629
X-61.721 Y22.563
X-61.731 Y22.496
X-62.177 Y17.951
X-62.201 Y17.443
X-62.189 Y17.057
X-62.135 Y16.58
X-62.029 Y16.039
X-61.874 Y15.49
X-61.648 Y14.876
X-61.351 Y14.237
X-60.995 Y13.608
X-60.592 Y13.009
X-60.144 Y12.443
X-59.656 Y11.911
X-59.13 Y11.417
X-58.568 Y10.963
X-57.974 Y10.553
X-57.351 Y10.188
X-56.702 Y9.871
X-56.032 Y9.603
X-55.8 Y9.529
X-55.731 Y9.511
X-55.66 Y9.5
X-55.589 Y9.496
X-50.82
X-50.373 Y9.519
X-49.987 Y9.569
X-49.502 Y9.673
X-49.016 Y9.818
X-48.45 Y10.039
X-47.837 Y10.336
X-47.215 Y10.703
X-46.623 Y11.117
X-46.065 Y11.574
X-45.541 Y12.072
X-45.056 Y12.607
X-44.611 Y13.175
X-44.206 Y13.773
X-43.843 Y14.397
X-43.524 Y15.045
X-43.251 Y15.713
X-43.124 Y16.093
X-43.1 Y16.188
X-43.09 Y16.284
X-43.092 Y16.382
X-43.744 Y23.033
X-43.794 Y23.365
X-43.863 Y23.664
X-43.977 Y24.02
X-44.139 Y24.416
X-44.378 Y24.887
X-44.661 Y25.35
X-45.04 Y25.87
X-45.504 Y26.409
X-46.017 Y26.917
X-46.567 Y27.385
X-47.149 Y27.812
X-47.76 Y28.197
X-48.397 Y28.536
X-49.057 Y28.828
X-49.736 Y29.074
X-50.431 Y29.272
X-51.137 Y29.422
X-51.852 Y29.524
X-52.572 Y29.577
X-53.294 Y29.581
X-54.014 Y29.536
X-54.73 Y29.44
X-55.437 Y29.294
X-56.132 Y29.099
X-56.813 Y28.857
X-57.475 Y28.57
X-58.117 Y28.239
X-58.735 Y27.867
X-59.328 Y27.454
X-59.891 Y27.003
X-60.423 Y26.515
X-60.92 Y25.991
X-61.315 Y25.513
X-61.393 Y25.398
X-61.446 Y25.271
X-61.473 Y25.135
X-61.731 Y22.496
G0 Z5
X-51.831 Y9.871
Z-0.4
G1 Z-0.7 F250
X-51.825 Y9.867 Z-0.767
X-51.806 Y9.856 Z-0.83
X-51.775 Y9.837 Z-0.887
X-51.734 Y9.813 Z-0.935
X-51.685 Y9.784 Z-0.97
X-51.631 Y9.752 Z-0.992
X-51.574 Y9.718 Z-1
G3 X-50.82 Y9.496 I0.809 J1.36
G1 X-48.197
X-47.965 Y9.508
X-47.745 Y9.537
X-47.489 Y9.591
X-47.172 Y9.686
X-46.848 Y9.812
X-46.438 Y10.012
X-46.013 Y10.261
X-45.533 Y10.599
X-45.008 Y11.035
X-44.491 Y11.539
X-44.014 Y12.08
X-43.575 Y12.654
X-43.174 Y13.254
X-42.954 Y13.636
X-42.895 Y13.768
X-42.865 Y13.91
X-42.864 Y14.054
X-43.092 Y16.382
G3 X-43.632 Y16.519 I-0.297 J-0.04
G1 X-43.674 Y16.461
X-48.349 Y10.082
X-48.429 Y9.973
G3 X-48.197 Y9.496 I0.242 J-0.177
G1 X-46.304
X-46.13 Y9.505
X-45.958 Y9.527
X-45.755 Y9.571
X-45.506 Y9.645
X-45.257 Y9.743
X-44.953 Y9.89
X-44.618 Y10.087
X-44.23 Y10.36
X-43.825 Y10.696
X-43.361 Y11.149
X-42.886 Y11.693
X-42.824 Y11.776
X-42.739 Y11.926
X-42.693 Y12.091
X-42.688 Y12.263
X-42.864 Y14.054
G3 X-43.402 Y14.193 I-0.297 J-0.04
G1 X-43.447 Y14.134
X-46.455 Y10.082
X-46.534 Y9.975
G3 X-46.304 Y9.496 I0.241 J-0.179
G1 X-44.664
X-44.514 Y9.504
X-44.342 Y9.529
X-44.166 Y9.569
X-43.961 Y9.633
X-43.713 Y9.733
X-43.469 Y9.856
X-43.166 Y10.04
X-42.863 Y10.258
X-42.773 Y10.336
X-42.644 Y10.481
X-42.56 Y10.657
X-42.527 Y10.849
X-42.549 Y11.043
X-42.555 Y11.066
X-42.586 Y11.23
X-42.688 Y12.263
G3 X-43.233 Y12.393 I-0.297 J-0.04
G1 X-43.269 Y12.341
X-44.819 Y10.085
X-44.901 Y9.966
G3 X-44.664 Y9.496 I0.247 J-0.17
G1 X-44.426
X-44.263 Y9.495
X-44.099 Y9.49
X-43.935 Y9.473
X-43.771 Y9.445
X-43.704 Y9.426
X-43.557 Y9.394
X-43.408 Y9.378
X-43.258
X-43.109 Y9.393
X-42.962 Y9.422
X-42.818 Y9.465
X-42.679 Y9.521
X-42.629 Y9.547
X-42.447 Y9.685
X-42.319 Y9.875
X-42.259 Y10.096
X-42.274 Y10.325
X-42.362 Y10.536
G3 X-42.775 Y10.62 I-0.249 J-0.167
G1 X-43.041 Y10.446
X-43.689 Y10.022
X-43.779 Y9.964
G3 X-43.704 Y9.426 I0.164 J-0.251
G1 X-43.607 Y9.4
X-43.443 Y9.337
X-43.279 Y9.262
X-43.115 Y9.166
X-42.986 Y9.089
X-42.841 Y9.049
X-42.692 Y9.034
X-42.619 Y9.04
X-42.405 Y9.09
X-42.218 Y9.204
X-42.074 Y9.37
X-41.989 Y9.572
X-41.97 Y9.791
X-42.019 Y10.005
X-42.131 Y10.193
G3 X-42.57 Y10.202 I-0.224 J-0.2
G1 X-42.775 Y9.992
X-42.949 Y9.813
X-43.145 Y9.611
G3 X-43.115 Y9.166 I0.215 J-0.209
G1 X-43.023 Y9.098
X-42.951 Y9.041
X-42.825 Y8.934
X-42.787 Y8.895
X-42.681 Y8.789
X-42.545 Y8.726
X-42.398 Y8.696
X-42.248
X-42.101 Y8.724
X-42.065 Y8.737
X-41.884 Y8.838
X-41.74 Y8.986
X-41.647 Y9.17
X-41.611 Y9.374
X-41.636 Y9.579
X-41.719 Y9.768
X-41.855 Y9.924
X-41.967 Y10.021
X-42.031 Y10.082
X-42.131 Y10.193
G3 X-42.639 Y10.053 I-0.216 J-0.209
G1 X-42.672 Y9.914
X-42.734 Y9.65
X-42.849 Y9.157
G3 X-42.787 Y8.895 I0.292 J-0.069
G1 X-42.675 Y8.771
X-42.553 Y8.607
X-42.537 Y8.58
X-42.454 Y8.455
X-42.329 Y8.373
X-42.188 Y8.322
X-42.039 Y8.302
X-41.889 Y8.309
X-41.743 Y8.341
X-41.603 Y8.395
X-41.473 Y8.469
X-41.354 Y8.562
X-41.329 Y8.588
X-41.204 Y8.762
X-41.138 Y8.965
X-41.136 Y9.18
X-41.199 Y9.384
X-41.322 Y9.56
X-41.491 Y9.691
X-41.64 Y9.773
X-41.804 Y9.885
X-41.848 Y9.918
X-41.855 Y9.924
G3 X-42.334 Y9.76 I-0.187 J-0.234
G1 X-42.376 Y9.582
X-42.434 Y9.343
X-42.566 Y8.795
X-42.573 Y8.74
X-42.571 Y8.685
X-42.559 Y8.631
X-42.537 Y8.58
X-42.456 Y8.443
X-42.373 Y8.279
X-42.363 Y8.251
X-42.304 Y8.114
X-42.197 Y8.008
X-42.07 Y7.929
X-41.93 Y7.875
X-41.783 Y7.845
X-41.633 Y7.837
X-41.484 Y7.85
X-41.337 Y7.884
X-41.197 Y7.936
X-41.064 Y8.006
X-40.941 Y8.091
X-40.829 Y8.191
X-40.73 Y8.304
X-40.644 Y8.427
X-40.574 Y8.56
X-40.559 Y8.599
X-40.515 Y8.792
X-40.526 Y8.989
X-40.592 Y9.175
X-40.707 Y9.336
X-40.862 Y9.458
X-41.046 Y9.531
X-41.148 Y9.556
X-41.254 Y9.59
X-41.312 Y9.612
X-41.476 Y9.683
X-41.491 Y9.691
G3 X-41.903 Y9.539 I-0.135 J-0.268
G1 X-42.016 Y9.269
X-42.134 Y8.988
X-42.354 Y8.461
X-42.37 Y8.41
X-42.377 Y8.357
X-42.375 Y8.304
X-42.363 Y8.251
X-42.312 Y8.115
X-42.295 Y8.065
X-42.268 Y7.951
X-42.257 Y7.901
X-42.22 Y7.756
X-42.143 Y7.627
X-42.039 Y7.519
X-41.918 Y7.431
X-41.783 Y7.364
X-41.641 Y7.317
X-41.494 Y7.288
X-41.344 Y7.278
X-41.194 Y7.284
X-41.046 Y7.307
X-40.901 Y7.344
X-40.76 Y7.395
X-40.624 Y7.459
X-40.495 Y7.536
X-40.373 Y7.623
X-40.261 Y7.722
X-40.157 Y7.831
X-40.065 Y7.949
X-39.985 Y8.076
X-39.916 Y8.209
X-39.862 Y8.349
X-39.822 Y8.494
X-39.796 Y8.642
X-39.791 Y8.723
X-39.811 Y8.941
X-39.898 Y9.143
X-40.043 Y9.308
X-40.231 Y9.419
X-40.446 Y9.467
X-40.492 Y9.47
X-40.82 Y9.498
X-40.984 Y9.516
X-41.046 Y9.531
G3 X-41.357 Y9.404 I-0.061 J-0.294
G1 X-41.594 Y9.046
X-41.902 Y8.583
X-42.211 Y8.118
X-42.238 Y8.068
X-42.255 Y8.014
X-42.261 Y7.958
X-42.257 Y7.901
X-42.234 Y7.787
X-42.176 Y7.409
X-42.146 Y7.263
X-42.079 Y7.128
X-41.988 Y7.009
X-41.878 Y6.907
X-41.755 Y6.821
X-41.622 Y6.752
X-41.482 Y6.698
X-41.337 Y6.659
X-41.189 Y6.635
X-41.039 Y6.625
X-40.889 Y6.629
X-40.74 Y6.644
X-40.592 Y6.672
X-40.439 Y6.714
X-40.285 Y6.77
X-40.136 Y6.838
X-39.99 Y6.919
X-39.847 Y7.015
X-39.709 Y7.124
X-39.582 Y7.243
X-39.463 Y7.372
X-39.354 Y7.513
X-39.261 Y7.655
X-39.184 Y7.795
X-39.113 Y7.955
X-39.063 Y8.097
X-39.024 Y8.242
X-38.998 Y8.396
X-38.984 Y8.545
X-38.983 Y8.695
X-38.984 Y8.701
X-39.029 Y8.893
X-39.125 Y9.064
X-39.266 Y9.202
X-39.439 Y9.295
X-39.672 Y9.381
X-39.804 Y9.426
X-39.836 Y9.433
X-40 Y9.443
X-40.328 Y9.46
X-40.446 Y9.467
G3 X-40.685 Y9.359 I-0.008 J-0.3
G1 X-41.012 Y8.963
X-41.763 Y8.054
X-42.109 Y7.636
X-42.143 Y7.585
X-42.166 Y7.529
X-42.177 Y7.47
X-42.176 Y7.409
X-42.109 Y6.967
X-42.1 Y6.926
X-42.086 Y6.885
X-42.048 Y6.803
X-41.944 Y6.588
X-41.872 Y6.457
X-41.777 Y6.341
X-41.666 Y6.239
X-41.543 Y6.153
X-41.412 Y6.081
X-41.274 Y6.022
X-41.131 Y5.977
X-40.984 Y5.944
X-40.83 Y5.923
X-40.666 Y5.914
X-40.497 Y5.918
X-40.322 Y5.937
X-40.139 Y5.971
X-39.951 Y6.022
X-39.761 Y6.091
X-39.573 Y6.176
X-39.389 Y6.279
X-39.209 Y6.398
X-39.038 Y6.533
X-38.874 Y6.685
X-38.723 Y6.85
X-38.587 Y7.025
X-38.465 Y7.211
X-38.358 Y7.405
X-38.323 Y7.485
X-38.288 Y7.581
X-38.267 Y7.682
X-38.262 Y7.785
G3 X-38.558 Y7.986 I-0.225 J-0.012
G1 X-38.91 Y7.868
X-41.42 Y7.024
X-41.81 Y6.893
G3 X-41.944 Y6.588 I0.072 J-0.213
G1 X-41.855 Y6.406
X-41.833 Y6.372
X-41.804 Y6.337
X-41.474 Y5.984
X-41.433 Y5.947
X-41.393 Y5.919
X-40.984 Y5.686
X-40.921 Y5.656
X-40.82 Y5.629
X-40.41 Y5.538
X-40.369 Y5.53
X-40.328 Y5.527
X-40.164 Y5.539
X-39.795 Y5.569
X-39.754 Y5.577
X-39.672 Y5.606
X-39.263 Y5.771
X-39.222 Y5.79
X-39.175 Y5.82
X-38.853 Y6.082
X-38.774 Y6.148
X-38.746 Y6.175
X-38.725 Y6.202
X-38.525 Y6.502
X-38.436 Y6.639
X-38.415 Y6.68
X-38.402 Y6.721
X-38.281 Y7.131
X-38.259 Y7.213
X-38.255 Y7.254
X-38.253 Y7.295
X-38.258 Y7.623
X-38.262 Y7.787
X-38.267 Y7.828
X-38.277 Y7.869
X-38.411 Y8.279
X-38.438 Y8.361
X-38.459 Y8.402
X-38.486 Y8.443
X-38.719 Y8.771
X-38.771 Y8.844
X-38.79 Y8.865
X-38.812 Y8.885
X-38.874 Y8.934
X-39.181 Y9.169
X-39.263 Y9.226
X-39.351 Y9.262
X-39.439 Y9.295
G3 X-39.757 Y8.81 I-0.094 J-0.285
G1 X-39.712 Y8.76 Z-0.992
X-39.67 Y8.713 Z-0.97
X-39.632 Y8.671 Z-0.935
X-39.6 Y8.635 Z-0.887
X-39.577 Y8.609 Z-0.83
X-39.562 Y8.592 Z-0.767
X-39.557 Y8.586 Z-0.7
G0 Z5
X-44.018 Y21.99
Z-0.4
G1 Z-0.7 F250
X-44.015 Y21.997 Z-0.767
X-44.006 Y22.017 Z-0.83
X-43.991 Y22.049 Z-0.887
X-43.97 Y22.092 Z-0.935
X-43.946 Y22.144 Z-0.97
X-43.919 Y22.201 Z-0.992
X-43.891 Y22.261 Z-1
G3 X-43.744 Y23.033 I-1.433 J0.672
G1 X-43.969 Y25.328
X-43.995 Y25.503
X-44.042 Y25.706
X-44.121 Y25.952
X-44.221 Y26.197
X-44.374 Y26.498
X-44.574 Y26.825
X-44.854 Y27.209
X-45.189 Y27.599
X-45.637 Y28.043
X-46.185 Y28.504
X-46.773 Y28.923
X-47.39 Y29.299
X-48.031 Y29.631
X-48.692 Y29.921
X-49.371 Y30.165
X-50.065 Y30.366
X-50.77 Y30.524
X-51.482 Y30.637
X-52.201 Y30.707
X-52.923 Y30.734
X-53.644 Y30.716
X-54.364 Y30.654
X-55.078 Y30.547
X-55.784 Y30.395
X-56.478 Y30.198
X-57.159 Y29.958
X-57.824 Y29.677
X-58.471 Y29.357
X-59.098 Y28.998
X-59.702 Y28.602
X-60.281 Y28.172
X-60.834 Y27.707
X-61.071 Y27.481
X-61.177 Y27.353
X-61.25 Y27.204
X-61.286 Y27.042
X-61.473 Y25.135
G0 Z5
X-44.243 Y24.285
Z-0.4
G1 Z-0.7 F250
X-44.24 Y24.292 Z-0.767
X-44.231 Y24.312 Z-0.83
X-44.216 Y24.344 Z-0.887
X-44.195 Y24.387 Z-0.935
X-44.171 Y24.439 Z-0.97
X-44.144 Y24.496 Z-0.992
X-44.116 Y24.557 Z-1
G3 X-43.969 Y25.328 I-1.433 J0.672
G1 X-44.146 Y27.131
X-44.168 Y27.28
X-44.214 Y27.455
X-44.287 Y27.665
X-44.379 Y27.875
X-44.513 Y28.123
X-44.699 Y28.409
X-44.926 Y28.703
X-45.237 Y29.047
X-45.635 Y29.421
X-46.109 Y29.799
X-46.708 Y30.203
X-47.337 Y30.557
X-47.989 Y30.867
X-48.659 Y31.134
X-49.345 Y31.361
X-50.043 Y31.547
X-50.75 Y31.693
X-51.464 Y31.8
X-52.183 Y31.866
X-52.904 Y31.891
X-53.626 Y31.875
X-54.346 Y31.818
X-55.061 Y31.72
X-55.77 Y31.582
X-56.469 Y31.404
X-57.158 Y31.187
X-57.833 Y30.931
X-58.494 Y30.639
X-59.137 Y30.312
X-59.761 Y29.949
X-60.365 Y29.552
X-60.844 Y29.197
X-60.983 Y29.059
X-61.079 Y28.888
X-61.124 Y28.697
X-61.148 Y28.443
X-61.286 Y27.042
G0 Z5
X-44.42 Y26.088
Z-0.4
G1 Z-0.7 F250
X-44.417 Y26.095 Z-0.767
X-44.408 Y26.115 Z-0.83
X-44.392 Y26.147 Z-0.887
X-44.372 Y26.19 Z-0.935
X-44.348 Y26.242 Z-0.97
X-44.321 Y26.299 Z-0.992
X-44.293 Y26.36 Z-1
G3 X-44.146 Y27.131 I-1.433 J0.672
G1 X-44.291 Y28.607
X-44.313 Y28.763
X-44.347 Y28.915
X-44.402 Y29.093
X-44.473 Y29.27
X-44.578 Y29.481
X-44.717 Y29.713
X-44.892 Y29.958
X-45.142 Y30.252
X-45.425 Y30.537
X-45.814 Y30.87
X-46.308 Y31.229
X-46.892 Y31.585
X-47.492 Y31.887
X-47.55 Y31.913
X-47.609 Y31.933
X-47.67 Y31.948
X-49.017 Y32.218
X-49.181 Y32.252
X-49.345 Y32.293
X-49.508 Y32.351
X-49.577 Y32.377
X-49.672 Y32.421
X-49.809 Y32.483
X-50.268 Y32.647
X-50.86 Y32.807
X-51.57 Y32.938
X-52.288 Y33.013
X-53.009 Y33.041
X-53.731 Y33.027
X-54.451 Y32.971
X-54.912 Y32.91
X-55.061 Y32.873
X-55.199 Y32.805
X-55.319 Y32.707
X-55.366 Y32.666
X-55.41 Y32.631
X-55.574 Y32.522
X-55.738 Y32.429
X-55.845 Y32.377
X-55.902 Y32.352
X-56.066 Y32.298
X-56.23 Y32.255
X-56.427 Y32.213
X-57.705 Y31.958
X-58.405 Y31.781
X-58.923 Y31.61
X-59.548 Y31.347
X-60.188 Y31.015
X-60.739 Y30.678
X-61 Y30.488
X-61.025 Y30.467
X-61.163 Y30.307
X-61.246 Y30.115
X-61.269 Y29.906
X-61.229 Y29.699
X-61.19 Y29.59
X-61.146 Y29.426
X-61.121 Y29.263
X-61.107 Y29.099
X-61.104 Y28.935
X-61.124 Y28.697
G3 X-60.619 Y28.463 I0.3 J-0.016
G1 X-60.567 Y28.511
X-57.466 Y31.429
X-57.451 Y31.443
G3 X-57.705 Y31.958 I-0.206 J0.218
G1 X-58.07 Y31.885
X-58.525 Y31.8
X-58.689 Y31.787
X-58.853 Y31.785
X-59.017 Y31.794
X-59.181 Y31.823
X-59.345 Y31.864
X-59.49 Y31.9
X-59.64 Y31.912
X-59.816
X-60.032 Y31.894
X-60.255 Y31.857
X-60.503 Y31.796
X-60.71 Y31.727
X-60.91 Y31.641
X-61.08 Y31.552
X-61.22 Y31.463
X-61.365 Y31.354
X-61.485 Y31.248
X-61.522 Y31.209
X-61.641 Y31.043
X-61.706 Y30.851
X-61.713 Y30.647
X-61.662 Y30.45
X-61.556 Y30.276
X-61.476 Y30.179
X-61.414 Y30.082
X-61.312 Y29.903
X-61.248 Y29.754
X-61.229 Y29.699
G3 X-60.722 Y29.616 I0.279 J0.111
G1 X-60.613 Y29.744
X-59.346 Y31.232
X-59.214 Y31.386
G3 X-59.345 Y31.864 I-0.228 J0.195
G1 X-59.415 Y31.885
X-59.509 Y31.916
X-59.672 Y31.991
X-59.782 Y32.049
X-59.836 Y32.083
X-60 Y32.191
X-60.126 Y32.273
X-60.266 Y32.325
X-60.412 Y32.36
X-60.561 Y32.38
X-60.711 Y32.385
X-60.861 Y32.377
X-61.016 Y32.357
X-61.168 Y32.323
X-61.312 Y32.28
X-61.461 Y32.221
X-61.595 Y32.155
X-61.724 Y32.078
X-61.845 Y31.989
X-61.958 Y31.891
X-62.062 Y31.783
X-62.155 Y31.665
X-62.187 Y31.617
X-62.276 Y31.417
X-62.297 Y31.2
X-62.248 Y30.988
X-62.134 Y30.801
X-61.968 Y30.661
X-61.911 Y30.621
X-61.853 Y30.574
X-61.672 Y30.41
X-61.64 Y30.377
X-61.556 Y30.276
G3 X-61.093 Y30.294 I0.224 J0.2
G1 X-60.937 Y30.498
X-60.159 Y31.518
X-59.957 Y31.781
X-59.924 Y31.837
X-59.903 Y31.899
X-59.896 Y31.963
Y31.964
G3 X-60 Y32.191 I-0.3 J0
G1 X-60.028 Y32.213
X-60.164 Y32.332
X-60.212 Y32.377
X-60.328 Y32.514
X-60.35 Y32.541
X-60.445 Y32.657
X-60.563 Y32.751
X-60.694 Y32.824
X-60.833 Y32.879
X-60.979 Y32.916
X-61.127 Y32.938
X-61.277 Y32.945
X-61.427 Y32.939
X-61.575 Y32.919
X-61.724 Y32.886
X-61.871 Y32.84
X-62.016 Y32.783
X-62.15 Y32.716
X-62.28 Y32.638
X-62.405 Y32.548
X-62.519 Y32.451
X-62.624 Y32.344
X-62.719 Y32.227
X-62.804 Y32.104
X-62.876 Y31.972
X-62.935 Y31.835
X-62.946 Y31.801
X-62.981 Y31.578
X-62.943 Y31.356
X-62.836 Y31.158
X-62.672 Y31.003
X-62.468 Y30.909
X-62.407 Y30.901
X-62.347 Y30.905
X-62.288 Y30.922
X-62.234 Y30.949
X-61.78 Y31.245
X-60.692 Y31.953
X-60.434 Y32.12
G3 X-60.35 Y32.541 I-0.164 J0.251
G1 X-60.471 Y32.705
X-60.567 Y32.869
X-60.625 Y33
X-60.693 Y33.134
X-60.791 Y33.247
X-60.907 Y33.342
X-61.036 Y33.42
X-61.173 Y33.481
X-61.316 Y33.526
X-61.463 Y33.557
X-61.612 Y33.574
X-61.762 Y33.578
X-61.914 Y33.569
X-62.073 Y33.546
X-62.232 Y33.511
X-62.39 Y33.462
X-62.549 Y33.398
X-62.708 Y33.319
X-62.862 Y33.226
X-63.007 Y33.123
X-63.142 Y33.009
X-63.253 Y32.899
X-63.364 Y32.769
X-63.459 Y32.638
X-63.537 Y32.51
X-63.604 Y32.376
X-63.66 Y32.234
X-63.704 Y32.091
X-63.735 Y31.944
X-63.743 Y31.869
X-63.736 Y31.67
X-63.674 Y31.481
X-63.562 Y31.317
X-63.407 Y31.191
X-63.224 Y31.114
X-62.951 Y31.043
X-62.468 Y30.909
G3 X-62.173 Y31.002 I0.07 J0.292
G1 X-61.867 Y31.347
X-60.979 Y32.35
X-60.679 Y32.689
G3 X-60.625 Y33 I-0.225 J0.199
G1 X-60.656 Y33.071
X-60.706 Y33.197
X-60.827 Y33.525
X-60.887 Y33.663
X-60.967 Y33.789
X-61.068 Y33.9
X-61.184 Y33.995
X-61.311 Y34.075
X-61.446 Y34.141
X-61.587 Y34.193
X-61.732 Y34.231
X-61.879 Y34.257
X-62.038 Y34.272
X-62.208 Y34.274
X-62.382 Y34.263
X-62.563 Y34.236
X-62.749 Y34.192
X-62.937 Y34.132
X-63.126 Y34.055
X-63.311 Y33.961
X-63.49 Y33.852
X-63.659 Y33.728
X-63.819 Y33.591
X-63.969 Y33.439
X-64.104 Y33.278
X-64.225 Y33.109
X-64.321 Y32.949
X-64.407 Y32.774
X-64.471 Y32.613
X-64.481 Y32.581
X-64.51 Y32.428
X-64.504 Y32.272
X-64.464 Y32.122
X-64.436 Y32.049
X-64.427 Y32.029
X-64.407 Y31.993
X-64.381 Y31.957
X-64.054 Y31.558
X-64.024 Y31.528
X-63.995 Y31.503
X-63.771 Y31.359
X-63.57 Y31.23
X-63.507 Y31.193
X-63.475 Y31.18
X-63.224 Y31.114
G3 X-62.947 Y31.194 I0.066 J0.293
G1 X-62.602 Y31.535
X-61.223 Y32.899
X-60.901 Y33.217
G3 X-60.827 Y33.525 I-0.211 J0.213
G1 X-60.949 Y33.853
X-60.984 Y33.942
X-61.004 Y33.979
X-61.032 Y34.017
X-61.346 Y34.413
X-61.364 Y34.434
X-61.387 Y34.455
X-61.476 Y34.517
X-61.71 Y34.672
X-61.804 Y34.734
X-61.886 Y34.784
X-61.927 Y34.802
X-61.968 Y34.814
X-62.132 Y34.859
X-62.222 Y34.884
X-62.368 Y34.917
X-62.523 Y34.937
X-62.689 Y34.944
X-62.871 Y34.938
X-63.06 Y34.917
X-63.183 Y34.893
X-63.221 Y34.884
X-63.259 Y34.873
X-63.296 Y34.86
G3 X-63.175 Y34.284 I0.116 J-0.277
G1 X-62.307 Y34.298
G3 X-62.222 Y34.884 I-0.005 J0.3
G1 X-62.459 Y34.949
X-62.5 Y34.956
X-62.541
X-62.951 Y34.938
X-63.115 Y34.925
X-63.279 Y34.867
X-63.607 Y34.743
X-63.673 Y34.715
X-63.706 Y34.697
X-63.739 Y34.672
X-64.099 Y34.383
X-64.146 Y34.345
X-64.183 Y34.305
X-64.212 Y34.266
X-64.481 Y33.853
X-64.505 Y33.812
X-64.522 Y33.771
X-64.633 Y33.361
X-64.672 Y33.197
X-64.667 Y33.033
X-64.644 Y32.623
X-64.638 Y32.582
X-64.626 Y32.541
X-64.464 Y32.122
G3 X-63.891 Y32.205 I0.276 J0.118
G1 X-63.883 Y32.271 Z-0.992
X-63.875 Y32.334 Z-0.97
X-63.869 Y32.39 Z-0.935
X-63.863 Y32.438 Z-0.887
X-63.859 Y32.473 Z-0.83
X-63.856 Y32.495 Z-0.767
X-63.855 Y32.503 Z-0.7
G0 Z5
X-44.573 Y27.566
Z-0.4
G1 Z-0.7 F250
X-44.57 Y27.573 Z-0.767
X-44.56 Y27.593 Z-0.83
X-44.545 Y27.625 Z-0.887
X-44.524 Y27.668 Z-0.935
X-44.5 Y27.719 Z-0.97
X-44.472 Y27.776 Z-0.992
X-44.444 Y27.836 Z-1
G3 X-44.291 Y28.607 I-1.427 J0.684
G1 X-44.305 Y28.771
X-44.319 Y28.935
X-44.316 Y29.099
X-44.302 Y29.263
X-44.277 Y29.426
X-44.263 Y29.48
X-44.231 Y29.627
X-44.226 Y29.777
X-44.237 Y29.927
X-44.263 Y30.075
X-44.304 Y30.233
X-44.364 Y30.407
X-44.454 Y30.612
X-44.563 Y30.814
X-44.719 Y31.056
X-44.911 Y31.306
X-45.166 Y31.589
X-45.307 Y31.722
X-45.458 Y31.831
X-45.632 Y31.897
X-45.817 Y31.916
X-46.001 Y31.885
X-46.066 Y31.866
X-46.23 Y31.824
X-46.394 Y31.799
X-46.558 Y31.785
X-46.722 Y31.784
X-46.886 Y31.801
X-47.049 Y31.825
X-47.67 Y31.948
G3 X-47.884 Y31.402 I-0.049 J-0.296
G1 X-44.905 Y29.442
X-44.714 Y29.317
G3 X-44.263 Y29.48 I0.165 J0.251
G1 X-44.233 Y29.59
X-44.176 Y29.754
X-44.099 Y29.925
X-44.012 Y30.082
X-43.94 Y30.214
X-43.9 Y30.358
X-43.878 Y30.507
X-43.873 Y30.657
X-43.882 Y30.806
X-43.904 Y30.961
X-43.945 Y31.146
X-44.003 Y31.331
X-44.075 Y31.512
X-44.164 Y31.69
X-44.254 Y31.84
X-44.349 Y31.972
X-44.459 Y32.102
X-44.493 Y32.137
X-44.655 Y32.258
X-44.844 Y32.328
X-45.045 Y32.341
X-45.241 Y32.296
X-45.417 Y32.198
X-45.492 Y32.14
X-45.574 Y32.088
X-45.738 Y31.997
X-45.902 Y31.924
X-46.001 Y31.885
G3 X-46.072 Y31.379 I0.119 J-0.275
G1 X-45.939 Y31.269
X-44.676 Y30.231
X-44.438 Y30.036
G3 X-44.012 Y30.082 I0.19 J0.232
G1 X-43.935 Y30.188
X-43.89 Y30.246
X-43.771 Y30.387
X-43.669 Y30.481
X-43.565 Y30.589
X-43.487 Y30.717
X-43.428 Y30.855
X-43.387 Y31
X-43.361 Y31.147
X-43.35 Y31.297
X-43.353 Y31.447
X-43.368 Y31.599
X-43.396 Y31.751
X-43.435 Y31.896
X-43.488 Y32.044
X-43.55 Y32.181
X-43.624 Y32.312
X-43.709 Y32.435
X-43.803 Y32.551
X-43.909 Y32.658
X-44.024 Y32.755
X-44.051 Y32.773
X-44.249 Y32.869
X-44.467 Y32.899
X-44.684 Y32.859
X-44.878 Y32.754
X-45.029 Y32.594
G3 X-45.041 Y32.294 I0.253 J-0.16
G1 X-44.822 Y31.877
X-44.246 Y30.784
X-44.132 Y30.568
G3 X-43.867 Y30.408 I0.265 J0.14
G1 X-43.866
X-43.813 Y30.412
X-43.761 Y30.427
X-43.713 Y30.45
X-43.669 Y30.481
X-43.57 Y30.574
X-43.443 Y30.664
X-43.333 Y30.738
X-43.279 Y30.768
X-43.148 Y30.841
X-43.037 Y30.942
X-42.946 Y31.061
X-42.872 Y31.192
X-42.815 Y31.33
X-42.773 Y31.474
X-42.747 Y31.622
X-42.734 Y31.771
X-42.735 Y31.921
X-42.749 Y32.072
X-42.775 Y32.224
X-42.814 Y32.375
X-42.867 Y32.529
X-42.928 Y32.667
X-42.999 Y32.8
X-43.086 Y32.934
X-43.177 Y33.053
X-43.279 Y33.164
X-43.39 Y33.264
X-43.509 Y33.355
X-43.636 Y33.435
X-43.77 Y33.502
X-43.835 Y33.528
X-44.049 Y33.575
X-44.268 Y33.553
X-44.469 Y33.465
X-44.633 Y33.319
X-44.744 Y33.129
X-44.754 Y33.101
X-44.855 Y32.869
X-44.953 Y32.705
X-45.029 Y32.594
G3 X-44.989 Y32.223 I0.253 J-0.16
G1 X-44.72 Y31.951
X-43.911 Y31.131
X-43.615 Y30.831
G3 X-43.279 Y30.768 I0.213 J0.211
G1 X-43.115 Y30.848
X-42.951 Y30.903
X-42.787 Y30.952
X-42.646 Y31.002
X-42.52 Y31.084
X-42.409 Y31.185
X-42.315 Y31.301
X-42.235 Y31.429
X-42.17 Y31.564
X-42.119 Y31.705
X-42.082 Y31.85
X-42.057 Y31.998
X-42.045 Y32.152
Y32.313
X-42.058 Y32.478
X-42.085 Y32.646
X-42.127 Y32.816
X-42.183 Y32.987
X-42.256 Y33.157
X-42.341 Y33.322
X-42.439 Y33.477
X-42.552 Y33.628
X-42.665 Y33.756
X-42.79 Y33.877
X-42.924 Y33.987
X-43.047 Y34.073
X-43.177 Y34.148
X-43.32 Y34.216
X-43.46 Y34.27
X-43.605 Y34.31
X-43.674 Y34.323
X-43.863 Y34.332
X-44.047 Y34.29
X-44.213 Y34.201
X-44.349 Y34.07
X-44.391 Y34.017
X-44.426 Y33.967
X-44.474 Y33.853
X-44.717 Y33.197
X-44.744 Y33.129
G3 X-44.684 Y32.831 I0.283 J-0.098
G1 X-44.373 Y32.483
X-43.391 Y31.382
X-43.087 Y31.042
G3 X-42.787 Y30.952 I0.224 J0.2
G1 X-42.623 Y31.001
X-42.459 Y31.046
X-42.205 Y31.113
X-42.062 Y31.158
X-41.928 Y31.225
X-41.807 Y31.313
X-41.699 Y31.418
X-41.606 Y31.535
X-41.525 Y31.662
X-41.458 Y31.796
X-41.403 Y31.935
X-41.36 Y32.08
X-41.326 Y32.235
X-41.304 Y32.406
X-41.294 Y32.586
X-41.3 Y32.772
X-41.321 Y32.965
X-41.36 Y33.165
X-41.416 Y33.368
X-41.49 Y33.571
X-41.582 Y33.771
X-41.691 Y33.964
X-41.814 Y34.147
X-41.952 Y34.321
X-42.105 Y34.483
X-42.268 Y34.632
X-42.434 Y34.76
X-42.532 Y34.824
X-42.709 Y34.906
X-42.901 Y34.937
X-43.095 Y34.913
X-43.443 Y34.818
X-43.525 Y34.791
X-43.607 Y34.742
X-43.96 Y34.508
X-44.029 Y34.461
X-44.049 Y34.444
X-44.068 Y34.423
X-44.131 Y34.345
X-44.349 Y34.07
G3 X-44.349 Y33.713 I0.241 J-0.178
G1 X-44.109 Y33.389
X-42.773 Y31.58
X-42.512 Y31.227
G3 X-42.205 Y31.113 I0.241 J0.178
G1 X-41.967 Y31.175
X-41.91 Y31.196
X-41.853 Y31.23
X-41.476 Y31.472
X-41.422 Y31.508
X-41.395 Y31.531
X-41.368 Y31.558
X-41.034 Y31.967
X-41.007 Y32.008
X-40.987 Y32.049
X-40.797 Y32.541
X-40.785 Y32.582
X-40.779 Y32.623
X-40.756 Y33.033
X-40.751 Y33.197
X-40.79 Y33.361
X-40.878 Y33.689
X-40.902 Y33.771
X-40.918 Y33.812
X-40.942 Y33.853
X-41.209 Y34.263
X-41.238 Y34.304
X-41.255 Y34.324
X-41.277 Y34.345
X-41.684 Y34.672
X-41.714 Y34.695
X-41.744 Y34.713
X-41.804 Y34.738
X-42.131 Y34.862
X-42.295 Y34.922
X-42.336 Y34.93
X-42.377 Y34.933
X-42.869 Y34.956
X-42.91
X-42.951 Y34.952
X-43.095 Y34.913
G3 X-43.075 Y34.334 I0.088 J-0.287
G1 X-43.01 Y34.319 Z-0.992
X-42.948 Y34.305 Z-0.97
X-42.893 Y34.292 Z-0.935
X-42.846 Y34.281 Z-0.887
X-42.812 Y34.273 Z-0.83
X-42.79 Y34.268 Z-0.767
X-42.783 Y34.267 Z-0.7
G0 Z5
X-48.965 Y31.606
Z-0.4
G1 Z-0.7 F250
X-48.969 Y31.613 Z-0.767
X-48.98 Y31.632 Z-0.83
X-48.999 Y31.663 Z-0.887
X-49.023 Y31.704 Z-0.935
X-49.052 Y31.753 Z-0.97
X-49.084 Y31.807 Z-0.992
X-49.118 Y31.865 Z-1
G3 X-49.672 Y32.421 I-1.363 J-0.804
G1 X-49.836 Y32.511
X-49.884 Y32.541
X-50.104 Y32.705
X-50.328 Y32.937
X-50.398 Y33.033
X-50.491 Y33.151
X-50.595 Y33.258
X-50.712 Y33.358
X-50.864 Y33.468
X-51.055 Y33.584
X-51.271 Y33.693
X-51.558 Y33.809
X-51.898 Y33.916
X-52.342 Y34.018
X-52.858 Y34.093
X-53.522 Y34.136
X-54.08 Y34.127
X-54.123 Y34.123
X-54.319 Y34.074
X-54.494 Y33.972
X-54.631 Y33.824
X-54.721 Y33.643
G3 X-54.487 Y33.265 I0.288 J-0.083
G1 X-54.207 Y33.214
X-50.786 Y32.588
X-50.702 Y32.573
G3 X-50.398 Y33.033 I0.054 J0.295
G1 X-50.492 Y33.165
X-50.511 Y33.197
X-50.595 Y33.361
X-50.659 Y33.525
X-50.717 Y33.689
X-50.767 Y33.83
X-50.837 Y33.963
X-50.923 Y34.086
X-51.02 Y34.2
X-51.142 Y34.319
X-51.275 Y34.432
X-51.449 Y34.555
X-51.654 Y34.677
X-51.894 Y34.795
X-52.208 Y34.919
X-52.542 Y35.021
X-52.939 Y35.108
X-53.232 Y35.149
X-53.492 Y35.163
X-53.698 Y35.158
X-53.911 Y35.135
X-54.083 Y35.103
X-54.129 Y35.09
X-54.301 Y35.018
X-54.448 Y34.903
X-54.559 Y34.753
X-54.626 Y34.579
X-54.645 Y34.393
X-54.639 Y34.181
X-54.647 Y34.017
X-54.669 Y33.853
X-54.706 Y33.689
X-54.754 Y33.541
X-54.76 Y33.525
X-54.828 Y33.361
X-54.918 Y33.187
X-55.025 Y33.033
X-55.082 Y32.954
X-55.159 Y32.869
X-55.319 Y32.707
G3 X-55.018 Y32.215 I0.221 J-0.203
G1 X-55.008 Y32.218
X-51.257 Y33.253
X-50.932 Y33.343
G3 X-50.717 Y33.689 I-0.08 J0.289
G1 X-50.754 Y33.853
X-50.776 Y34.017
X-50.784 Y34.181
X-50.782 Y34.271
X-50.785 Y34.421
X-50.817 Y34.567
X-50.869 Y34.708
X-50.937 Y34.842
X-51.017 Y34.968
X-51.11 Y35.09
X-51.228 Y35.222
X-51.366 Y35.352
X-51.536 Y35.49
X-51.732 Y35.623
X-51.958 Y35.752
X-52.205 Y35.868
X-52.463 Y35.964
X-52.73 Y36.04
X-53.002 Y36.094
X-53.247 Y36.123
X-53.477 Y36.131
X-53.679 Y36.122
X-53.859 Y36.1
X-54.04 Y36.062
X-54.11 Y36.041
X-54.277 Y35.968
X-54.418 Y35.855
X-54.526 Y35.708
X-54.593 Y35.539
G3 X-54.403 Y35.195 I0.293 J-0.062
G1 X-54.068 Y35.072
X-51.399 Y34.088
X-51.185 Y34.009
G3 X-50.782 Y34.271 I0.104 J0.281
G1 X-50.769 Y34.672
X-50.752 Y35
X-50.749 Y35.09
X-50.746 Y35.164
X-50.749 Y35.205
X-50.757 Y35.246
X-50.8 Y35.418
X-50.844 Y35.562
X-50.905 Y35.699
X-50.978 Y35.83
X-51.066 Y35.961
X-51.177 Y36.1
X-51.303 Y36.235
X-51.458 Y36.376
X-51.632 Y36.51
X-51.827 Y36.637
X-52.046 Y36.756
X-52.283 Y36.861
X-52.469 Y36.926
X-52.511 Y36.939
X-52.554 Y36.949
X-52.597 Y36.957
G3 X-52.825 Y36.43 I-0.034 J-0.298
G1 X-52.809 Y36.417
X-51.318 Y35.153
X-51.288 Y35.127
G3 X-50.8 Y35.418 I0.194 J0.229
G1 X-50.859 Y35.656
X-50.883 Y35.738
X-50.924 Y35.82
X-51.148 Y36.194
X-51.189 Y36.253
X-51.25 Y36.312
X-51.583 Y36.614
X-51.619 Y36.64
X-51.64 Y36.652
X-51.804 Y36.731
X-51.968 Y36.809
X-52.131 Y36.883
X-52.295 Y36.913
X-52.668 Y36.968
X-52.713 Y36.971
X-52.757 Y36.968
X-53.115 Y36.914
X-53.279 Y36.887
X-53.443 Y36.815
X-53.771 Y36.66
X-53.805 Y36.64
X-53.935 Y36.528
X-54.174 Y36.312
X-54.225 Y36.263
X-54.246 Y36.239
X-54.263 Y36.215
X-54.499 Y35.82
X-54.54 Y35.738
X-54.564 Y35.656
X-54.666 Y35.246
X-54.674 Y35.205
X-54.677 Y35.164
X-54.671 Y35
X-54.654 Y34.672
X-54.645 Y34.393
G3 X-54.077 Y34.281 I0.299 J0.02
G1 X-54.047 Y34.34 Z-0.992
X-54.019 Y34.397 Z-0.97
X-53.994 Y34.448 Z-0.935
X-53.973 Y34.491 Z-0.887
X-53.957 Y34.523 Z-0.83
X-53.947 Y34.543 Z-0.767
X-53.944 Y34.55 Z-0.7
G0 Z5
X-61.705 Y18.921
Z-0.4
G1 Z-0.7 F250
X-61.71 Y18.915 Z-0.767
X-61.723 Y18.897 Z-0.83
X-61.744 Y18.868 Z-0.887
X-61.772 Y18.83 Z-0.935
X-61.806 Y18.784 Z-0.97
X-61.844 Y18.733 Z-0.992
X-61.883 Y18.679 Z-1
G3 X-62.177 Y17.951 I1.275 J-0.938
G1 X-62.434 Y15.328
X-62.447 Y15.057
X-62.44 Y14.844
X-62.411 Y14.585
X-62.348 Y14.267
X-62.256 Y13.939
X-62.103 Y13.523
X-61.901 Y13.088
X-61.619 Y12.59
X-61.245 Y12.038
X-60.794 Y11.474
X-60.3 Y10.948
X-59.769 Y10.458
X-59.205 Y10.007
X-58.611 Y9.598
X-58.604 Y9.594
X-58.492 Y9.54
X-58.372 Y9.507
X-58.247 Y9.496
X-55.589
G3 X-55.406 Y10.026 I-0.01 J0.3
G1 X-55.454 Y10.066
X-61.833 Y15.425
X-61.944 Y15.518
G3 X-62.434 Y15.328 I-0.193 J-0.23
G1 X-62.623 Y13.398
X-62.63 Y13.248
X-62.624 Y13.076
X-62.599 Y12.866
X-62.548 Y12.614
X-62.475 Y12.359
X-62.353 Y12.036
X-62.193 Y11.696
X-61.955 Y11.28
X-61.667 Y10.86
X-61.272 Y10.373
X-60.778 Y9.854
X-60.576 Y9.674
X-60.437 Y9.577
X-60.278 Y9.517
X-60.11 Y9.496
X-58.247
G3 X-58.06 Y10.022 I-0.01 J0.3
G1 X-58.112 Y10.067
X-62.024 Y13.493
X-62.128 Y13.584
G3 X-62.623 Y13.398 I-0.198 J-0.226
G1 X-62.772 Y11.885
X-62.781 Y11.68
X-62.776 Y11.513
X-62.756 Y11.337
X-62.717 Y11.136
X-62.648 Y10.891
X-62.557 Y10.644
X-62.418 Y10.344
X-62.231 Y10.013
X-62.078 Y9.786
X-61.956 Y9.649
X-61.803 Y9.548
X-61.629 Y9.491
X-61.447 Y9.48
X-61.312 Y9.49
X-61.148 Y9.496
X-60.11
G3 X-59.923 Y10.022 I-0.01 J0.3
G1 X-59.975 Y10.067
X-62.172 Y11.98
X-62.277 Y12.072
G3 X-62.772 Y11.885 I-0.197 J-0.226
G1 X-62.837 Y11.23
X-62.868 Y11.066
X-62.91 Y10.902
X-62.951 Y10.773
X-62.995 Y10.63
X-63.016 Y10.481
X-63.022 Y10.331
X-63.015 Y10.182
X-62.994 Y10.033
X-62.96 Y9.887
X-62.913 Y9.744
X-62.895 Y9.704
X-62.776 Y9.518
X-62.606 Y9.379
X-62.401 Y9.299
X-62.181 Y9.287
X-61.968 Y9.344
G3 X-61.837 Y9.758 I-0.132 J0.27
G1 X-61.981 Y10.022
X-62.358 Y10.712
X-62.409 Y10.806
G3 X-62.951 Y10.773 I-0.263 J-0.144
G1 X-62.964 Y10.738
X-63.037 Y10.574
X-63.131 Y10.41
X-63.186 Y10.328
X-63.249 Y10.246
X-63.339 Y10.127
X-63.391 Y9.986
X-63.42 Y9.839
X-63.422 Y9.689
X-63.402 Y9.54
X-63.4 Y9.533
X-63.309 Y9.335
X-63.161 Y9.175
X-62.971 Y9.068
X-62.758 Y9.025
X-62.541 Y9.049
X-62.343 Y9.139
X-62.295 Y9.17
X-62.149 Y9.262
X-62.132 Y9.272
X-61.968 Y9.344
G3 X-61.974 Y9.886 I-0.132 J0.27
G1 X-62.073 Y9.932
X-62.532 Y10.144
X-62.902 Y10.315
G3 X-63.249 Y10.246 I-0.126 J-0.272
G1 X-63.389 Y10.082
X-63.574 Y9.918
X-63.682 Y9.813
X-63.754 Y9.682
X-63.794 Y9.537
X-63.805 Y9.388
X-63.789 Y9.239
X-63.782 Y9.217
X-63.698 Y9.03
X-63.562 Y8.876
X-63.388 Y8.767
X-63.19 Y8.714
X-62.985 Y8.721
X-62.79 Y8.787
X-62.623 Y8.906
X-62.459 Y9.054
X-62.405 Y9.098
X-62.343 Y9.139
G3 X-62.417 Y9.667 I-0.173 J0.245
G1 X-62.538 Y9.71
X-62.834 Y9.812
X-63.285 Y9.97
G3 X-63.574 Y9.918 I-0.099 J-0.283
G1 X-63.607 Y9.889
X-63.689 Y9.83
X-63.771 Y9.778
X-63.812 Y9.754
X-63.879 Y9.717
X-64.007 Y9.638
X-64.106 Y9.525
X-64.173 Y9.391
X-64.21 Y9.245
X-64.22 Y9.096
X-64.203 Y8.947
X-64.164 Y8.802
X-64.103 Y8.665
X-64.022 Y8.538
X-64.006 Y8.518
X-63.839 Y8.373
X-63.635 Y8.288
X-63.415 Y8.27
X-63.201 Y8.322
X-63.013 Y8.438
X-62.87 Y8.607
X-62.748 Y8.771
X-62.693 Y8.838
X-62.623 Y8.906
G3 X-62.735 Y9.396 I-0.216 J0.208
G1 X-62.914 Y9.462
X-63.135 Y9.544
X-63.639 Y9.731
X-63.699 Y9.746
X-63.761 Y9.749
X-63.822 Y9.739
X-63.879 Y9.717
X-63.935 Y9.686
X-64.099 Y9.614
X-64.221 Y9.574
X-64.361 Y9.52
X-64.479 Y9.427
X-64.572 Y9.31
X-64.641 Y9.176
X-64.686 Y9.033
X-64.71 Y8.885
X-64.712 Y8.735
X-64.692 Y8.587
X-64.655 Y8.441
X-64.597 Y8.303
X-64.524 Y8.172
X-64.435 Y8.051
X-64.331 Y7.943
X-64.216 Y7.847
X-64.09 Y7.765
X-64.062 Y7.751
X-63.877 Y7.691
X-63.682 Y7.684
X-63.493 Y7.731
X-63.325 Y7.828
X-63.189 Y7.968
X-63.098 Y8.14
G3 X-63.139 Y8.408 I-0.285 J0.093
G1 X-63.433 Y8.817
X-63.652 Y9.122
X-63.895 Y9.46
G3 X-64.221 Y9.574 I-0.244 J-0.175
G1 X-64.263 Y9.56
X-64.427 Y9.521
X-64.591 Y9.493
X-64.64 Y9.49
X-64.789 Y9.472
X-64.918 Y9.396
X-65.029 Y9.295
X-65.121 Y9.177
X-65.195 Y9.046
X-65.249 Y8.906
X-65.285 Y8.76
X-65.305 Y8.612
X-65.308 Y8.462
X-65.294 Y8.312
X-65.267 Y8.165
X-65.225 Y8.021
X-65.17 Y7.881
X-65.103 Y7.747
X-65.023 Y7.62
X-64.932 Y7.501
X-64.83 Y7.391
X-64.718 Y7.291
X-64.596 Y7.203
X-64.467 Y7.127
X-64.331 Y7.065
X-64.189 Y7.016
X-64.043 Y6.981
X-64.002 Y6.976
X-63.787 Y6.983
X-63.584 Y7.054
X-63.412 Y7.184
X-63.288 Y7.36
X-63.223 Y7.565
X-63.189 Y7.787
X-63.157 Y7.951
X-63.115 Y8.092
X-63.047 Y8.279
X-62.967 Y8.443
X-62.951 Y8.472
X-62.87 Y8.607
G3 X-63.049 Y9.04 I-0.262 J0.146
G1 X-63.286 Y9.11
X-63.884 Y9.284
X-64.547 Y9.478
X-64.593 Y9.487
X-64.64 Y9.49
X-65.082 Y9.461
X-65.232 Y9.445
X-65.373 Y9.394
X-65.5 Y9.316
X-65.613 Y9.217
X-65.711 Y9.103
X-65.794 Y8.978
X-65.861 Y8.844
X-65.913 Y8.703
X-65.951 Y8.558
X-65.976 Y8.41
X-65.987 Y8.261
X-65.985 Y8.111
X-65.971 Y7.959
X-65.943 Y7.801
X-65.903 Y7.647
X-65.849 Y7.494
X-65.781 Y7.339
X-65.699 Y7.187
X-65.606 Y7.044
X-65.501 Y6.908
X-65.381 Y6.776
X-65.25 Y6.652
X-65.118 Y6.548
X-64.991 Y6.462
X-64.843 Y6.379
X-64.704 Y6.315
X-64.563 Y6.263
X-64.417 Y6.224
X-64.269 Y6.196
X-64.116 Y6.182
X-63.922 Y6.209
X-63.743 Y6.288
X-63.594 Y6.414
X-63.485 Y6.577
X-63.375 Y6.803
X-63.337 Y6.885
X-63.323 Y6.926
X-63.314 Y6.967
X-63.223 Y7.565
G3 X-63.309 Y7.812 I-0.298 J0.035
G1 X-63.672 Y8.176
X-64.481 Y8.987
X-64.864 Y9.372
X-64.911 Y9.411
X-64.964 Y9.439
X-65.022 Y9.456
X-65.082 Y9.461
X-65.574 Y9.435
X-65.622 Y9.426
X-65.738 Y9.386
X-65.902 Y9.325
X-66.04 Y9.266
X-66.167 Y9.186
X-66.28 Y9.088
X-66.381 Y8.977
X-66.468 Y8.854
X-66.541 Y8.724
X-66.602 Y8.587
X-66.651 Y8.445
X-66.688 Y8.295
X-66.715 Y8.136
X-66.728 Y7.97
X-66.729 Y7.795
X-66.715 Y7.61
X-66.685 Y7.42
X-66.638 Y7.227
X-66.575 Y7.035
X-66.493 Y6.841
X-66.394 Y6.65
X-66.279 Y6.466
X-66.147 Y6.289
X-66.001 Y6.122
X-65.842 Y5.968
X-65.673 Y5.827
X-65.492 Y5.701
X-65.395 Y5.645
X-65.235 Y5.576
X-65.063 Y5.549
X-64.89 Y5.565
G3 X-64.675 Y5.932 I-0.075 J0.29
G1 X-64.755 Y6.234
X-65.442 Y8.831
X-65.518 Y9.117
G3 X-65.902 Y9.325 I-0.29 J-0.077
G1 X-66.072 Y9.262
X-66.151 Y9.231
X-66.19 Y9.208
X-66.23 Y9.179
X-66.602 Y8.893
X-66.647 Y8.849
X-66.722 Y8.746
X-66.937 Y8.443
X-66.964 Y8.402
X-66.984 Y8.361
X-67.012 Y8.279
X-67.146 Y7.869
X-67.156 Y7.828
X-67.161 Y7.787
X-67.167 Y7.459
X-67.17 Y7.295
X-67.169 Y7.254
X-67.164 Y7.213
X-67.142 Y7.131
X-67.021 Y6.721
X-67.008 Y6.68
X-66.988 Y6.639
X-66.771 Y6.312
X-66.722 Y6.237
X-66.691 Y6.192
X-66.65 Y6.148
X-66.394 Y5.938
X-66.248 Y5.82
X-66.23 Y5.807
X-66.189 Y5.783
X-65.875 Y5.656
X-65.697 Y5.585
X-65.656 Y5.573
X-65.574 Y5.565
X-65.246 Y5.537
X-65.082 Y5.527
X-64.918 Y5.559
X-64.591 Y5.631
X-64.499 Y5.656
X-64.427 Y5.693
X-64.024 Y5.923
X-63.987 Y5.95
X-63.949 Y5.984
X-63.643 Y6.312
X-63.607 Y6.351
X-63.583 Y6.382
X-63.564 Y6.413
X-63.485 Y6.577
G3 X-63.651 Y6.978 I-0.274 J0.121
G1 X-63.706 Y6.988 Z-0.995
X-63.759 Y6.998 Z-0.979
X-63.804 Y6.986 Z-0.955
X-63.844 Y6.976 Z-0.924
X-63.879 Y6.967 Z-0.886
X-63.906 Y6.959 Z-0.842
X-63.923 Y6.949 Z-0.797
X-63.933 Y6.942 Z-0.749
X-63.936 Y6.94 Z-0.7
G0 Z5
X-52.221 Y17.493
Z1.5
G3 X-53.202 Y20.169 Z1.344 I-0.49 J1.338 F333.3
X-52.221 Y17.493 Z1.187 I0.49 J-1.338
X-53.202 Y20.169 Z1.031 I-0.49 J1.338
X-52.221 Y17.493 Z0.875 I0.49 J-1.338
X-53.202 Y20.169 Z0.718 I-0.49 J1.338
X-52.221 Y17.493 Z0.562 I0.49 J-1.338
X-53.202 Y20.169 Z0.406 I-0.49 J1.338
X-52.221 Y17.493 Z0.249 I0.49 J-1.338
X-53.202 Y20.169 Z0.093 I-0.49 J1.338
X-52.221 Y17.493 Z-0.063 I0.49 J-1.338
X-53.202 Y20.169 Z-0.22 I-0.49 J1.338
X-52.221 Y17.493 Z-0.376 I0.49 J-1.338
X-53.202 Y20.169 Z-0.532 I-0.49 J1.338
X-52.221 Y17.493 Z-0.689 I0.49 J-1.338
X-53.202 Y20.169 Z-0.845 I-0.49 J1.338
X-52.221 Y17.493 Z-1.001 I0.49 J-1.338
X-53.202 Y20.169 Z-1.158 I-0.49 J1.338
X-52.221 Y17.493 Z-1.314 I0.49 J-1.338
X-53.202 Y20.169 Z-1.47 I-0.49 J1.338
X-52.221 Y17.493 Z-1.627 I0.49 J-1.338
X-53.202 Y20.169 Z-1.783 I-0.49 J1.338
X-52.221 Y17.493 Z-1.939 I0.49 J-1.338
X-51.287 Y18.831 Z-2 I-0.49 J1.338
X-54.137 Y18.831 I-1.425 J0
X-51.287 Y18.831 I1.425 J0
G1 X-51.252 Y19.552 F250
X-51.235 Y19.641
X-51.227 Y19.791
X-51.247 Y19.939
X-51.289 Y20.083
X-51.351 Y20.22
X-51.43 Y20.348
X-51.522 Y20.466
X-51.626 Y20.574
X-51.741 Y20.671
X-51.864 Y20.756
X-51.994 Y20.83
X-52.131 Y20.893
X-52.272 Y20.943
X-52.417 Y20.982
X-52.569 Y21.01
X-52.725 Y21.026
X-52.884 Y21.029
X-53.046 Y21.019
X-53.209 Y20.996
X-53.372 Y20.96
X-53.532 Y20.91
X-53.69 Y20.847
X-53.844 Y20.77
X-53.992 Y20.681
X-54.134 Y20.58
X-54.268 Y20.466
X-54.393 Y20.342
X-54.508 Y20.207
X-54.613 Y20.063
X-54.706 Y19.911
X-54.786 Y19.751
X-54.854 Y19.584
X-54.908 Y19.413
X-54.949 Y19.237
X-54.975 Y19.058
X-54.987 Y18.877
X-54.984 Y18.695
X-54.967 Y18.515
X-54.935 Y18.336
X-54.889 Y18.159
X-54.828 Y17.987
X-54.755 Y17.821
X-54.667 Y17.66
X-54.568 Y17.507
X-54.456 Y17.363
X-54.333 Y17.228
X-54.2 Y17.103
X-54.056 Y16.989
X-53.905 Y16.887
X-53.745 Y16.798
X-53.579 Y16.721
X-53.407 Y16.658
X-53.23 Y16.609
X-53.05 Y16.575
X-52.868 Y16.555
X-52.685 Y16.55
X-52.502 Y16.559
X-52.321 Y16.583
X-52.142 Y16.622
X-51.966 Y16.674
X-51.796 Y16.741
X-51.631 Y16.821
X-51.473 Y16.915
X-51.323 Y17.02
X-51.183 Y17.137
X-51.052 Y17.265
X-50.931 Y17.404
X-50.822 Y17.551
X-50.721 Y17.714
X-50.61 Y17.93
X-50.477 Y18.249
X-50.368 Y18.586
X-50.303 Y18.856
X-50.267 Y19.094
X-50.25 Y19.314
X-50.252 Y19.528
X-50.27 Y19.735
X-50.304 Y19.933
X-50.352 Y20.122
X-50.415 Y20.307
X-50.493 Y20.487
X-50.586 Y20.662
X-50.693 Y20.83
X-50.814 Y20.989
X-50.948 Y21.139
X-51.095 Y21.279
X-51.256 Y21.408
X-51.428 Y21.526
X-51.612 Y21.632
X-51.808 Y21.723
X-52.012 Y21.8
X-52.226 Y21.861
X-52.446 Y21.905
X-52.673 Y21.932
X-52.903 Y21.941
X-53.136 Y21.931
X-53.37 Y21.902
X-53.603 Y21.853
X-53.833 Y21.786
X-54.058 Y21.7
X-54.278 Y21.595
X-54.49 Y21.473
X-54.693 Y21.332
X-54.884 Y21.175
X-55.064 Y21.003
X-55.23 Y20.815
X-55.381 Y20.614
X-55.515 Y20.401
X-55.633 Y20.177
X-55.733 Y19.943
X-55.813 Y19.701
X-55.875 Y19.453
X-55.916 Y19.201
X-55.937 Y18.945
Y18.688
X-55.917 Y18.432
X-55.876 Y18.178
X-55.814 Y17.927
X-55.733 Y17.682
X-55.632 Y17.444
X-55.513 Y17.215
X-55.375 Y16.995
X-55.22 Y16.788
X-55.049 Y16.593
X-54.862 Y16.413
X-54.662 Y16.248
X-54.449 Y16.1
X-54.225 Y15.97
X-53.991 Y15.857
X-53.748 Y15.764
X-53.499 Y15.691
X-53.245 Y15.638
X-52.987 Y15.605
X-52.727 Y15.593
X-52.468 Y15.602
X-52.209 Y15.632
X-51.954 Y15.683
X-51.704 Y15.754
X-51.461 Y15.844
X-51.225 Y15.954
X-50.999 Y16.083
X-50.784 Y16.229
X-50.58 Y16.393
X-50.382 Y16.581
X-50.179 Y16.806
X-49.985 Y17.06
X-49.806 Y17.338
X-49.647 Y17.636
X-49.514 Y17.941
X-49.408 Y18.248
X-49.33 Y18.554
X-49.278 Y18.857
X-49.251 Y19.156
X-49.248 Y19.451
X-49.269 Y19.742
X-49.313 Y20.027
X-49.378 Y20.306
X-49.466 Y20.577
X-49.574 Y20.839
X-49.703 Y21.092
X-49.852 Y21.333
X-50.021 Y21.563
X-50.208 Y21.778
X-50.413 Y21.98
X-50.635 Y22.166
X-50.873 Y22.334
X-51.126 Y22.484
X-51.392 Y22.615
X-51.67 Y22.724
X-51.959 Y22.812
X-52.257 Y22.877
X-52.561 Y22.918
X-52.87 Y22.934
X-53.182 Y22.926
X-53.494 Y22.893
X-53.805 Y22.834
X-54.111 Y22.75
X-54.412 Y22.64
X-54.705 Y22.507
X-54.988 Y22.349
X-55.259 Y22.168
X-55.515 Y21.965
X-55.756 Y21.741
X-55.978 Y21.498
X-56.181 Y21.236
X-56.364 Y20.958
X-56.523 Y20.665
X-56.66 Y20.36
X-56.771 Y20.044
X-56.857 Y19.719
X-56.917 Y19.387
X-56.95 Y19.052
X-56.956 Y18.714
X-56.935 Y18.376
X-56.886 Y18.04
X-56.811 Y17.71
X-56.709 Y17.386
X-56.582 Y17.07
X-56.43 Y16.766
X-56.253 Y16.475
X-56.054 Y16.199
X-55.833 Y15.939
X-55.592 Y15.698
X-55.332 Y15.478
X-55.055 Y15.278
X-54.763 Y15.101
X-54.458 Y14.949
X-54.141 Y14.821
X-53.815 Y14.719
X-53.482 Y14.644
X-53.143 Y14.595
X-52.802 Y14.574
X-52.461 Y14.58
X-52.121 Y14.614
X-51.784 Y14.675
X-51.454 Y14.763
X-51.131 Y14.877
X-50.819 Y15.016
X-50.516 Y15.182
X-50.219 Y15.377
X-49.93 Y15.602
X-49.651 Y15.857
X-49.387 Y16.142
X-49.142 Y16.452
X-48.921 Y16.783
X-48.727 Y17.132
X-48.562 Y17.493
X-48.428 Y17.864
X-48.325 Y18.241
X-48.253 Y18.621
X-48.212 Y19.002
X-48.202 Y19.382
X-48.223 Y19.759
X-48.273 Y20.131
X-48.353 Y20.495
X-48.461 Y20.851
X-48.597 Y21.195
X-48.76 Y21.528
X-48.95 Y21.846
X-49.164 Y22.148
X-49.403 Y22.433
X-49.665 Y22.699
X-49.948 Y22.944
X-50.252 Y23.167
X-50.574 Y23.366
X-50.914 Y23.539
X-51.268 Y23.685
X-51.635 Y23.803
X-52.013 Y23.892
X-52.399 Y23.951
X-52.791 Y23.978
X-53.186 Y23.974
X-53.582 Y23.938
X-53.976 Y23.87
X-54.365 Y23.77
X-54.746 Y23.639
X-55.118 Y23.477
X-55.477 Y23.284
X-55.821 Y23.062
X-56.148 Y22.813
X-56.454 Y22.537
X-56.738 Y22.236
X-56.998 Y21.912
X-57.232 Y21.568
X-57.438 Y21.204
X-57.615 Y20.825
X-57.761 Y20.432
X-57.875 Y20.027
X-57.957 Y19.614
X-58.005 Y19.194
X-58.019 Y18.772
X-58 Y18.349
X-57.946 Y17.929
X-57.859 Y17.514
X-57.739 Y17.106
X-57.586 Y16.71
X-57.402 Y16.326
X-57.187 Y15.959
X-56.944 Y15.61
X-56.673 Y15.281
X-56.376 Y14.974
X-56.056 Y14.693
X-55.714 Y14.438
X-55.353 Y14.211
X-54.974 Y14.014
X-54.581 Y13.848
X-54.175 Y13.714
X-53.76 Y13.613
X-53.339 Y13.545
X-52.913 Y13.512
X-52.485
X-52.059 Y13.548
X-51.638 Y13.617
X-51.222 Y13.72
X-50.814 Y13.857
X-50.415 Y14.027
X-50.026 Y14.232
X-49.649 Y14.47
X-49.286 Y14.743
X-48.94 Y15.05
X-48.614 Y15.389
X-48.314 Y15.756
X-48.042 Y16.149
X-47.803 Y16.564
X-47.597 Y16.996
X-47.428 Y17.442
X-47.295 Y17.897
X-47.2 Y18.36
X-47.142 Y18.826
X-47.122 Y19.293
X-47.14 Y19.758
X-47.195 Y20.217
X-47.286 Y20.669
X-47.412 Y21.111
X-47.574 Y21.54
X-47.769 Y21.955
X-47.996 Y22.353
X-48.256 Y22.731
X-48.545 Y23.088
X-48.862 Y23.422
X-49.207 Y23.73
X-49.577 Y24.01
X-49.969 Y24.261
X-50.382 Y24.48
X-50.814 Y24.667
X-51.261 Y24.819
X-51.721 Y24.935
X-52.191 Y25.014
X-52.669 Y25.056
X-53.15 Y25.059
X-53.632 Y25.023
X-54.113 Y24.948
X-54.587 Y24.834
X-55.053 Y24.683
X-55.507 Y24.493
X-55.946 Y24.267
X-56.368 Y24.005
X-56.768 Y23.709
X-57.144 Y23.381
X-57.494 Y23.023
X-57.814 Y22.637
X-58.104 Y22.226
X-58.36 Y21.791
X-58.581 Y21.336
X-58.765 Y20.864
X-58.911 Y20.378
X-59.018 Y19.881
X-59.084 Y19.376
X-59.11 Y18.867
X-59.094 Y18.357
X-59.038 Y17.849
X-58.941 Y17.347
X-58.804 Y16.853
X-58.628 Y16.372
X-58.414 Y15.907
X-58.162 Y15.459
X-57.876 Y15.033
X-57.556 Y14.632
X-57.205 Y14.257
X-56.824 Y13.911
X-56.417 Y13.597
X-55.986 Y13.316
X-55.534 Y13.071
X-55.063 Y12.863
X-54.577 Y12.694
X-54.079 Y12.564
X-53.572 Y12.474
X-53.059 Y12.425
X-52.544 Y12.418
X-52.03 Y12.452
X-51.52 Y12.527
X-51.015 Y12.643
X-50.518 Y12.8
X-50.032 Y12.999
X-49.559 Y13.238
X-49.101 Y13.517
X-48.661 Y13.837
X-48.244 Y14.195
X-47.853 Y14.588
X-47.492 Y15.015
X-47.165 Y15.472
X-46.876 Y15.954
X-46.625 Y16.459
X-46.417 Y16.981
X-46.251 Y17.517
X-46.129 Y18.063
X-46.052 Y18.616
X-46.019 Y19.171
X-46.031 Y19.724
X-46.087 Y20.273
X-46.187 Y20.815
X-46.33 Y21.345
X-46.514 Y21.862
X-46.739 Y22.362
X-47.004 Y22.842
X-47.306 Y23.299
X-47.645 Y23.732
X-48.018 Y24.136
X-48.423 Y24.51
X-48.858 Y24.852
X-49.32 Y25.158
X-49.807 Y25.427
X-50.317 Y25.657
X-50.845 Y25.846
X-51.388 Y25.993
X-51.944 Y26.096
X-52.509 Y26.155
X-53.079 Y26.168
X-53.65 Y26.135
X-54.219 Y26.056
X-54.782 Y25.931
X-55.335 Y25.761
X-55.874 Y25.546
X-56.396 Y25.287
X-56.897 Y24.987
X-57.374 Y24.647
X-57.824 Y24.268
X-58.242 Y23.853
X-58.627 Y23.405
X-58.976 Y22.926
X-59.285 Y22.42
X-59.554 Y21.89
X-59.78 Y21.339
X-59.96 Y20.77
X-60.095 Y20.188
X-60.183 Y19.596
X-60.223 Y18.999
X-60.215 Y18.399
X-60.159 Y17.801
X-60.055 Y17.21
X-59.904 Y16.628
X-59.706 Y16.059
X-59.463 Y15.508
X-59.177 Y14.978
X-58.848 Y14.472
X-58.48 Y13.994
X-58.075 Y13.547
X-57.635 Y13.134
X-57.163 Y12.758
X-56.663 Y12.42
X-56.136 Y12.123
X-55.588 Y11.87
X-55.02 Y11.662
X-54.438 Y11.499
X-53.845 Y11.384
X-53.244 Y11.317
X-52.639 Y11.298
X-52.034 Y11.328
X-51.431 Y11.407
X-50.835 Y11.534
X-50.248 Y11.71
X-49.672 Y11.933
X-49.112 Y12.205
X-48.571 Y12.523
X-48.054 Y12.886
X-47.563 Y13.293
X-47.103 Y13.741
X-46.678 Y14.227
X-46.292 Y14.748
X-45.948 Y15.3
X-45.649 Y15.879
X-45.398 Y16.48
X-45.195 Y17.098
X-45.044 Y17.729
X-44.943 Y18.369
X-44.895 Y19.014
X-44.898 Y19.658
X-44.953 Y20.299
X-45.059 Y20.932
X-45.215 Y21.553
X-45.42 Y22.159
X-45.673 Y22.747
X-45.973 Y23.312
X-46.317 Y23.851
X-46.703 Y24.362
X-47.13 Y24.84
X-47.594 Y25.284
X-48.094 Y25.69
X-48.626 Y26.055
X-49.188 Y26.377
X-49.775 Y26.654
X-50.384 Y26.884
X-51.012 Y27.065
X-51.655 Y27.195
X-52.308 Y27.273
X-52.967 Y27.299
X-53.629 Y27.272
X-54.289 Y27.191
X-54.942 Y27.057
X-55.584 Y26.871
X-56.211 Y26.633
X-56.819 Y26.345
X-57.403 Y26.008
X-57.96 Y25.624
X-58.486 Y25.195
X-58.977 Y24.725
X-59.429 Y24.215
X-59.84 Y23.67
X-60.207 Y23.093
X-60.526 Y22.487
X-60.796 Y21.856
X-61.015 Y21.204
X-61.182 Y20.537
X-61.294 Y19.857
X-61.352 Y19.169
X-61.354 Y18.479
X-61.3 Y17.79
X-61.192 Y17.106
X-61.029 Y16.434
X-60.812 Y15.776
X-60.543 Y15.137
X-60.223 Y14.522
X-59.855 Y13.933
X-59.441 Y13.377
X-58.983 Y12.855
X-58.484 Y12.371
X-57.949 Y11.928
X-57.379 Y11.53
X-56.779 Y11.179
X-56.152 Y10.877
X-55.504 Y10.627
X-54.837 Y10.429
X-54.156 Y10.285
X-53.466 Y10.197
X-52.77 Y10.164
X-52.073 Y10.187
X-51.379 Y10.266
X-50.691 Y10.401
X-50.012 Y10.591
X-49.348 Y10.837
X-48.701 Y11.138
X-48.076 Y11.491
X-47.478 Y11.896
X-46.915 Y12.348
X-46.389 Y12.843
X-45.904 Y13.378
X-45.463 Y13.949
X-45.068 Y14.553
X-44.721 Y15.186
X-44.425 Y15.845
X-44.181 Y16.524
X-43.991 Y17.221
X-43.856 Y17.93
X-43.777 Y18.648
X-43.754 Y19.37
X-43.789 Y20.091
X-43.88 Y20.807
X-44.027 Y21.514
X-44.23 Y22.206
X-44.488 Y22.881
X-44.798 Y23.533
X-45.158 Y24.159
X-45.567 Y24.754
X-46.022 Y25.314
X-46.52 Y25.837
X-47.057 Y26.319
X-47.631 Y26.758
X-48.238 Y27.149
X-48.873 Y27.492
X-49.533 Y27.785
X-50.214 Y28.025
X-50.912 Y28.211
X-51.622 Y28.343
X-52.339 Y28.419
X-53.061 Y28.44
X-53.782 Y28.405
X-54.499 Y28.315
X-55.206 Y28.17
X-55.9 Y27.97
X-56.576 Y27.718
X-57.232 Y27.415
X-57.862 Y27.064
X-58.465 Y26.666
X-59.036 Y26.224
X-59.572 Y25.74
X-60.07 Y25.218
X-60.528 Y24.66
X-60.943 Y24.069
X-61.314 Y23.449
X-61.637 Y22.804
X-61.682 Y22.693
X-61.705 Y22.629
X-61.721 Y22.563
X-61.731 Y22.496
X-62.177 Y17.951
X-62.201 Y17.443
X-62.189 Y17.057
X-62.135 Y16.58
X-62.029 Y16.039
X-61.874 Y15.49
X-61.648 Y14.876
X-61.351 Y14.237
X-60.995 Y13.608
X-60.592 Y13.009
X-60.144 Y12.443
X-59.656 Y11.911
X-59.13 Y11.417
X-58.568 Y10.963
X-57.974 Y10.553
X-57.351 Y10.188
X-56.702 Y9.871
X-56.032 Y9.603
X-55.8 Y9.529
X-55.731 Y9.511
X-55.66 Y9.5
X-55.589 Y9.496
X-50.82
X-50.373 Y9.519
X-49.987 Y9.569
X-49.502 Y9.673
X-49.016 Y9.818
X-48.45 Y10.039
X-47.837 Y10.336
X-47.215 Y10.703
X-46.623 Y11.117
X-46.065 Y11.574
X-45.541 Y12.072
X-45.056 Y12.607
X-44.611 Y13.175
X-44.206 Y13.773
X-43.843 Y14.397
X-43.524 Y15.045
X-43.251 Y15.713
X-43.124 Y16.093
X-43.1 Y16.188
X-43.09 Y16.284
X-43.092 Y16.382
X-43.744 Y23.033
X-43.794 Y23.365
X-43.863 Y23.664
X-43.977 Y24.02
X-44.139 Y24.416
X-44.378 Y24.887
X-44.661 Y25.35
X-45.04 Y25.87
X-45.504 Y26.409
X-46.017 Y26.917
X-46.567 Y27.385
X-47.149 Y27.812
X-47.76 Y28.197
X-48.397 Y28.536
X-49.057 Y28.828
X-49.736 Y29.074
X-50.431 Y29.272
X-51.137 Y29.422
X-51.852 Y29.524
X-52.572 Y29.577
X-53.294 Y29.581
X-54.014 Y29.536
X-54.73 Y29.44
X-55.437 Y29.294
X-56.132 Y29.099
X-56.813 Y28.857
X-57.475 Y28.57
X-58.117 Y28.239
X-58.735 Y27.867
X-59.328 Y27.454
X-59.891 Y27.003
X-60.423 Y26.515
X-60.92 Y25.991
X-61.315 Y25.513
X-61.393 Y25.398
X-61.446 Y25.271
X-61.473 Y25.135
X-61.731 Y22.496
G0 Z5
X-51.831 Y9.871
Z-1.4
G1 Z-1.7 F250
X-51.825 Y9.867 Z-1.767
X-51.806 Y9.856 Z-1.83
X-51.775 Y9.837 Z-1.887
X-51.734 Y9.813 Z-1.935
X-51.685 Y9.784 Z-1.97
X-51.631 Y9.752 Z-1.992
X-51.574 Y9.718 Z-2
G3 X-50.82 Y9.496 I0.809 J1.36
G1 X-48.197
X-47.965 Y9.508
X-47.745 Y9.537
X-47.489 Y9.591
X-47.172 Y9.686
X-46.848 Y9.812
X-46.438 Y10.012
X-46.013 Y10.261
X-45.533 Y10.599
X-45.008 Y11.035
X-44.491 Y11.539
X-44.014 Y12.08
X-43.575 Y12.654
X-43.174 Y13.254
X-42.954 Y13.636
X-42.895 Y13.768
X-42.865 Y13.91
X-42.864 Y14.054
X-43.092 Y16.382
G3 X-43.632 Y16.519 I-0.297 J-0.04
G1 X-43.674 Y16.461
X-48.349 Y10.082
X-48.429 Y9.973
G3 X-48.197 Y9.496 I0.242 J-0.177
G1 X-46.304
X-46.13 Y9.505
X-45.958 Y9.527
X-45.755 Y9.571
X-45.506 Y9.645
X-45.257 Y9.743
X-44.953 Y9.89
X-44.618 Y10.087
X-44.23 Y10.36
X-43.825 Y10.696
X-43.361 Y11.149
X-42.886 Y11.693
X-42.824 Y11.776
X-42.739 Y11.926
X-42.693 Y12.091
X-42.688 Y12.263
X-42.864 Y14.054
G3 X-43.402 Y14.193 I-0.297 J-0.04
G1 X-43.447 Y14.134
X-46.455 Y10.082
X-46.534 Y9.975
G3 X-46.304 Y9.496 I0.241 J-0.179
G1 X-44.664
X-44.514 Y9.504
X-44.342 Y9.529
X-44.166 Y9.569
X-43.961 Y9.633
X-43.713 Y9.733
X-43.469 Y9.856
X-43.166 Y10.04
X-42.863 Y10.258
X-42.773 Y10.336
X-42.644 Y10.481
X-42.56 Y10.657
X-42.527 Y10.849
X-42.549 Y11.043
X-42.555 Y11.066
X-42.586 Y11.23
X-42.688 Y12.263
G3 X-43.233 Y12.393 I-0.297 J-0.04
G1 X-43.269 Y12.341
X-44.819 Y10.085
X-44.901 Y9.966
G3 X-44.664 Y9.496 I0.247 J-0.17
G1 X-44.426
X-44.263 Y9.495
X-44.099 Y9.49
X-43.935 Y9.473
X-43.771 Y9.445
X-43.704 Y9.426
X-43.557 Y9.394
X-43.408 Y9.378
X-43.258
X-43.109 Y9.393
X-42.962 Y9.422
X-42.818 Y9.465
X-42.679 Y9.521
X-42.629 Y9.547
X-42.447 Y9.685
X-42.319 Y9.875
X-42.259 Y10.096
X-42.274 Y10.325
X-42.362 Y10.536
G3 X-42.775 Y10.62 I-0.249 J-0.167
G1 X-43.041 Y10.446
X-43.689 Y10.022
X-43.779 Y9.964
G3 X-43.704 Y9.426 I0.164 J-0.251
G1 X-43.607 Y9.4
X-43.443 Y9.337
X-43.279 Y9.262
X-43.115 Y9.166
X-42.986 Y9.089
X-42.841 Y9.049
X-42.692 Y9.034
X-42.619 Y9.04
X-42.405 Y9.09
X-42.218 Y9.204
X-42.074 Y9.37
X-41.989 Y9.572
X-41.97 Y9.791
X-42.019 Y10.005
X-42.131 Y10.193
G3 X-42.57 Y10.202 I-0.224 J-0.2
G1 X-42.775 Y9.992
X-42.949 Y9.813
X-43.145 Y9.611
G3 X-43.115 Y9.166 I0.215 J-0.209
G1 X-43.023 Y9.098
X-42.951 Y9.041
X-42.825 Y8.934
X-42.787 Y8.895
X-42.681 Y8.789
X-42.545 Y8.726
X-42.398 Y8.696
X-42.248
X-42.101 Y8.724
X-42.065 Y8.737
X-41.884 Y8.838
X-41.74 Y8.986
X-41.647 Y9.17
X-41.611 Y9.374
X-41.636 Y9.579
X-41.719 Y9.768
X-41.855 Y9.924
X-41.967 Y10.021
X-42.031 Y10.082
X-42.131 Y10.193
G3 X-42.639 Y10.053 I-0.216 J-0.209
G1 X-42.672 Y9.914
X-42.734 Y9.65
X-42.849 Y9.157
G3 X-42.787 Y8.895 I0.292 J-0.069
G1 X-42.675 Y8.771
X-42.553 Y8.607
X-42.537 Y8.58
X-42.454 Y8.455
X-42.329 Y8.373
X-42.188 Y8.322
X-42.039 Y8.302
X-41.889 Y8.309
X-41.743 Y8.341
X-41.603 Y8.395
X-41.473 Y8.469
X-41.354 Y8.562
X-41.329 Y8.588
X-41.204 Y8.762
X-41.138 Y8.965
X-41.136 Y9.18
X-41.199 Y9.384
X-41.322 Y9.56
X-41.491 Y9.691
X-41.64 Y9.773
X-41.804 Y9.885
X-41.848 Y9.918
X-41.855 Y9.924
G3 X-42.334 Y9.76 I-0.187 J-0.234
G1 X-42.376 Y9.582
X-42.434 Y9.343
X-42.566 Y8.795
X-42.573 Y8.74
X-42.571 Y8.685
X-42.559 Y8.631
X-42.537 Y8.58
X-42.456 Y8.443
X-42.373 Y8.279
X-42.363 Y8.251
X-42.304 Y8.114
X-42.197 Y8.008
X-42.07 Y7.929
X-41.93 Y7.875
X-41.783 Y7.845
X-41.633 Y7.837
X-41.484 Y7.85
X-41.337 Y7.884
X-41.197 Y7.936
X-41.064 Y8.006
X-40.941 Y8.091
X-40.829 Y8.191
X-40.73 Y8.304
X-40.644 Y8.427
X-40.574 Y8.56
X-40.559 Y8.599
X-40.515 Y8.792
X-40.526 Y8.989
X-40.592 Y9.175
X-40.707 Y9.336
X-40.862 Y9.458
X-41.046 Y9.531
X-41.148 Y9.556
X-41.254 Y9.59
X-41.312 Y9.612
X-41.476 Y9.683
X-41.491 Y9.691
G3 X-41.903 Y9.539 I-0.135 J-0.268
G1 X-42.016 Y9.269
X-42.134 Y8.988
X-42.354 Y8.461
X-42.37 Y8.41
X-42.377 Y8.357
X-42.375 Y8.304
X-42.363 Y8.251
X-42.312 Y8.115
X-42.295 Y8.065
X-42.268 Y7.951
X-42.257 Y7.901
X-42.22 Y7.756
X-42.143 Y7.627
X-42.039 Y7.519
X-41.918 Y7.431
X-41.783 Y7.364
X-41.641 Y7.317
X-41.494 Y7.288
X-41.344 Y7.278
X-41.194 Y7.284
X-41.046 Y7.307
X-40.901 Y7.344
X-40.76 Y7.395
X-40.624 Y7.459
X-40.495 Y7.536
X-40.373 Y7.623
X-40.261 Y7.722
X-40.157 Y7.831
X-40.065 Y7.949
X-39.985 Y8.076
X-39.916 Y8.209
X-39.862 Y8.349
X-39.822 Y8.494
X-39.796 Y8.642
X-39.791 Y8.723
X-39.811 Y8.941
X-39.898 Y9.143
X-40.043 Y9.308
X-40.231 Y9.419
X-40.446 Y9.467
X-40.492 Y9.47
X-40.82 Y9.498
X-40.984 Y9.516
X-41.046 Y9.531
G3 X-41.357 Y9.404 I-0.061 J-0.294
G1 X-41.594 Y9.046
X-41.902 Y8.583
X-42.211 Y8.118
X-42.238 Y8.068
X-42.255 Y8.014
X-42.261 Y7.958
X-42.257 Y7.901
X-42.234 Y7.787
X-42.176 Y7.409
X-42.146 Y7.263
X-42.079 Y7.128
X-41.988 Y7.009
X-41.878 Y6.907
X-41.755 Y6.821
X-41.622 Y6.752
X-41.482 Y6.698
X-41.337 Y6.659
X-41.189 Y6.635
X-41.039 Y6.625
X-40.889 Y6.629
X-40.74 Y6.644
X-40.592 Y6.672
X-40.439 Y6.714
X-40.285 Y6.77
X-40.136 Y6.838
X-39.99 Y6.919
X-39.847 Y7.015
X-39.709 Y7.124
X-39.582 Y7.243
X-39.463 Y7.372
X-39.354 Y7.513
X-39.261 Y7.655
X-39.184 Y7.795
X-39.113 Y7.955
X-39.063 Y8.097
X-39.024 Y8.242
X-38.998 Y8.396
X-38.984 Y8.545
X-38.983 Y8.695
X-38.984 Y8.701
X-39.029 Y8.893
X-39.125 Y9.064
X-39.266 Y9.202
X-39.439 Y9.295
X-39.672 Y9.381
X-39.804 Y9.426
X-39.836 Y9.433
X-40 Y9.443
X-40.328 Y9.46
X-40.446 Y9.467
G3 X-40.685 Y9.359 I-0.008 J-0.3
G1 X-41.012 Y8.963
X-41.763 Y8.054
X-42.109 Y7.636
X-42.143 Y7.585
X-42.166 Y7.529
X-42.177 Y7.47
X-42.176 Y7.409
X-42.109 Y6.967
X-42.1 Y6.926
X-42.086 Y6.885
X-42.048 Y6.803
X-41.944 Y6.588
X-41.872 Y6.457
X-41.777 Y6.341
X-41.666 Y6.239
X-41.543 Y6.153
X-41.412 Y6.081
X-41.274 Y6.022
X-41.131 Y5.977
X-40.984 Y5.944
X-40.83 Y5.923
X-40.666 Y5.914
X-40.497 Y5.918
X-40.322 Y5.937
X-40.139 Y5.971
X-39.951 Y6.022
X-39.761 Y6.091
X-39.573 Y6.176
X-39.389 Y6.279
X-39.209 Y6.398
X-39.038 Y6.533
X-38.874 Y6.685
X-38.723 Y6.85
X-38.587 Y7.025
X-38.465 Y7.211
X-38.358 Y7.405
X-38.323 Y7.485
X-38.288 Y7.581
X-38.267 Y7.682
X-38.262 Y7.785
G3 X-38.558 Y7.986 I-0.225 J-0.012
G1 X-38.91 Y7.868
X-41.42 Y7.024
X-41.81 Y6.893
G3 X-41.944 Y6.588 I0.072 J-0.213
G1 X-41.855 Y6.406
X-41.833 Y6.372
X-41.804 Y6.337
X-41.474 Y5.984
X-41.433 Y5.947
X-41.393 Y5.919
X-40.984 Y5.686
X-40.921 Y5.656
X-40.82 Y5.629
X-40.41 Y5.538
X-40.369 Y5.53
X-40.328 Y5.527
X-40.164 Y5.539
X-39.795 Y5.569
X-39.754 Y5.577
X-39.672 Y5.606
X-39.263 Y5.771
X-39.222 Y5.79
X-39.175 Y5.82
X-38.853 Y6.082
X-38.774 Y6.148
X-38.746 Y6.175
X-38.725 Y6.202
X-38.525 Y6.502
X-38.436 Y6.639
X-38.415 Y6.68
X-38.402 Y6.721
X-38.281 Y7.131
X-38.259 Y7.213
X-38.255 Y7.254
X-38.253 Y7.295
X-38.258 Y7.623
X-38.262 Y7.787
X-38.267 Y7.828
X-38.277 Y7.869
X-38.411 Y8.279
X-38.438 Y8.361
X-38.459 Y8.402
X-38.486 Y8.443
X-38.719 Y8.771
X-38.771 Y8.844
X-38.79 Y8.865
X-38.812 Y8.885
X-38.874 Y8.934
X-39.181 Y9.169
X-39.263 Y9.226
X-39.351 Y9.262
X-39.439 Y9.295
G3 X-39.757 Y8.81 I-0.094 J-0.285
G1 X-39.712 Y8.76 Z-1.992
X-39.67 Y8.713 Z-1.97
X-39.632 Y8.671 Z-1.935
X-39.6 Y8.635 Z-1.887
X-39.577 Y8.609 Z-1.83
X-39.562 Y8.592 Z-1.767
X-39.557 Y8.586 Z-1.7
G0 Z5
X-44.018 Y21.99
Z-1.4
G1 Z-1.7 F250
X-44.015 Y21.997 Z-1.767
X-44.006 Y22.017 Z-1.83
X-43.991 Y22.049 Z-1.887
X-43.97 Y22.092 Z-1.935
X-43.946 Y22.144 Z-1.97
X-43.919 Y22.201 Z-1.992
X-43.891 Y22.261 Z-2
G3 X-43.744 Y23.033 I-1.433 J0.672
G1 X-43.969 Y25.328
X-43.995 Y25.503
X-44.042 Y25.706
X-44.121 Y25.952
X-44.221 Y26.197
X-44.374 Y26.498
X-44.574 Y26.825
X-44.854 Y27.209
X-45.189 Y27.599
X-45.637 Y28.043
X-46.185 Y28.504
X-46.773 Y28.923
X-47.39 Y29.299
X-48.031 Y29.631
X-48.692 Y29.921
X-49.371 Y30.165
X-50.065 Y30.366
X-50.77 Y30.524
X-51.482 Y30.637
X-52.201 Y30.707
X-52.923 Y30.734
X-53.644 Y30.716
X-54.364 Y30.654
X-55.078 Y30.547
X-55.784 Y30.395
X-56.478 Y30.198
X-57.159 Y29.958
X-57.824 Y29.677
X-58.471 Y29.357
X-59.098 Y28.998
X-59.702 Y28.602
X-60.281 Y28.172
X-60.834 Y27.707
X-61.071 Y27.481
X-61.177 Y27.353
X-61.25 Y27.204
X-61.286 Y27.042
X-61.473 Y25.135
G0 Z5
X-44.243 Y24.285
Z-1.4
G1 Z-1.7 F250
X-44.24 Y24.292 Z-1.767
X-44.231 Y24.312 Z-1.83
X-44.216 Y24.344 Z-1.887
X-44.195 Y24.387 Z-1.935
X-44.171 Y24.439 Z-1.97
X-44.144 Y24.496 Z-1.992
X-44.116 Y24.557 Z-2
G3 X-43.969 Y25.328 I-1.433 J0.672
G1 X-44.146 Y27.131
X-44.168 Y27.28
X-44.214 Y27.455
X-44.287 Y27.665
X-44.379 Y27.875
X-44.513 Y28.123
X-44.699 Y28.409
X-44.926 Y28.703
X-45.237 Y29.047
X-45.635 Y29.421
X-46.109 Y29.799
X-46.708 Y30.203
X-47.337 Y30.557
X-47.989 Y30.867
X-48.659 Y31.134
X-49.345 Y31.361
X-50.043 Y31.547
X-50.75 Y31.693
X-51.464 Y31.8
X-52.183 Y31.866
X-52.904 Y31.891
X-53.626 Y31.875
X-54.346 Y31.818
X-55.061 Y31.72
X-55.77 Y31.582
X-56.469 Y31.404
X-57.158 Y31.187
X-57.833 Y30.931
X-58.494 Y30.639
X-59.137 Y30.312
X-59.761 Y29.949
X-60.365 Y29.552
X-60.844 Y29.197
X-60.983 Y29.059
X-61.079 Y28.888
X-61.124 Y28.697
X-61.148 Y28.443
X-61.286 Y27.042
G0 Z5
X-44.42 Y26.088
Z-1.4
G1 Z-1.7 F250
X-44.417 Y26.095 Z-1.767
X-44.408 Y26.115 Z-1.83
X-44.392 Y26.147 Z-1.887
X-44.372 Y26.19 Z-1.935
X-44.348 Y26.242 Z-1.97
X-44.321 Y26.299 Z-1.992
X-44.293 Y26.36 Z-2
G3 X-44.146 Y27.131 I-1.433 J0.672
G1 X-44.291 Y28.607
X-44.313 Y28.763
X-44.347 Y28.915
X-44.402 Y29.093
X-44.473 Y29.27
X-44.578 Y29.481
X-44.717 Y29.713
X-44.892 Y29.958
X-45.142 Y30.252
X-45.425 Y30.537
X-45.814 Y30.87
X-46.308 Y31.229
X-46.892 Y31.585
X-47.492 Y31.887
X-47.55 Y31.913
X-47.609 Y31.933
X-47.67 Y31.948
X-49.017 Y32.218
X-49.181 Y32.252
X-49.345 Y32.293
X-49.508 Y32.351
X-49.577 Y32.377
X-49.672 Y32.421
X-49.809 Y32.483
X-50.268 Y32.647
X-50.86 Y32.807
X-51.57 Y32.938
X-52.288 Y33.013
X-53.009 Y33.041
X-53.731 Y33.027
X-54.451 Y32.971
X-54.912 Y32.91
X-55.061 Y32.873
X-55.199 Y32.805
X-55.319 Y32.707
X-55.366 Y32.666
X-55.41 Y32.631
X-55.574 Y32.522
X-55.738 Y32.429
X-55.845 Y32.377
X-55.902 Y32.352
X-56.066 Y32.298
X-56.23 Y32.255
X-56.427 Y32.213
X-57.705 Y31.958
X-58.405 Y31.781
X-58.923 Y31.61
X-59.548 Y31.347
X-60.188 Y31.015
X-60.739 Y30.678
X-61 Y30.488
X-61.025 Y30.467
X-61.163 Y30.307
X-61.246 Y30.115
X-61.269 Y29.906
X-61.229 Y29.699
X-61.19 Y29.59
X-61.146 Y29.426
X-61.121 Y29.263
X-61.107 Y29.099
X-61.104 Y28.935
X-61.124 Y28.697
G3 X-60.619 Y28.463 I0.3 J-0.016
G1 X-60.567 Y28.511
X-57.466 Y31.429
X-57.451 Y31.443
G3 X-57.705 Y31.958 I-0.206 J0.218
G1 X-58.07 Y31.885
X-58.525 Y31.8
X-58.689 Y31.787
X-58.853 Y31.785
X-59.017 Y31.794
X-59.181 Y31.823
X-59.345 Y31.864
X-59.49 Y31.9
X-59.64 Y31.912
X-59.816
X-60.032 Y31.894
X-60.255 Y31.857
X-60.503 Y31.796
X-60.71 Y31.727
X-60.91 Y31.641
X-61.08 Y31.552
X-61.22 Y31.463
X-61.365 Y31.354
X-61.485 Y31.248
X-61.522 Y31.209
X-61.641 Y31.043
X-61.706 Y30.851
X-61.713 Y30.647
X-61.662 Y30.45
X-61.556 Y30.276
X-61.476 Y30.179
X-61.414 Y30.082
X-61.312 Y29.903
X-61.248 Y29.754
X-61.229 Y29.699
G3 X-60.722 Y29.616 I0.279 J0.111
G1 X-60.613 Y29.744
X-59.346 Y31.232
X-59.214 Y31.386
G3 X-59.345 Y31.864 I-0.228 J0.195
G1 X-59.415 Y31.885
X-59.509 Y31.916
X-59.672 Y31.991
X-59.782 Y32.049
X-59.836 Y32.083
X-60 Y32.191
X-60.126 Y32.273
X-60.266 Y32.325
X-60.412 Y32.36
X-60.561 Y32.38
X-60.711 Y32.385
X-60.861 Y32.377
X-61.016 Y32.357
X-61.168 Y32.323
X-61.312 Y32.28
X-61.461 Y32.221
X-61.595 Y32.155
X-61.724 Y32.078
X-61.845 Y31.989
X-61.958 Y31.891
X-62.062 Y31.783
X-62.155 Y31.665
X-62.187 Y31.617
X-62.276 Y31.417
X-62.297 Y31.2
X-62.248 Y30.988
X-62.134 Y30.801
X-61.968 Y30.661
X-61.911 Y30.621
X-61.853 Y30.574
X-61.672 Y30.41
X-61.64 Y30.377
X-61.556 Y30.276
G3 X-61.093 Y30.294 I0.224 J0.2
G1 X-60.937 Y30.498
X-60.159 Y31.518
X-59.957 Y31.781
X-59.924 Y31.837
X-59.903 Y31.899
X-59.896 Y31.963
Y31.964
G3 X-60 Y32.191 I-0.3 J0
G1 X-60.028 Y32.213
X-60.164 Y32.332
X-60.212 Y32.377
X-60.328 Y32.514
X-60.35 Y32.541
X-60.445 Y32.657
X-60.563 Y32.751
X-60.694 Y32.824
X-60.833 Y32.879
X-60.979 Y32.916
X-61.127 Y32.938
X-61.277 Y32.945
X-61.427 Y32.939
X-61.575 Y32.919
X-61.724 Y32.886
X-61.871 Y32.84
X-62.016 Y32.783
X-62.15 Y32.716
X-62.28 Y32.638
X-62.405 Y32.548
X-62.519 Y32.451
X-62.624 Y32.344
X-62.719 Y32.227
X-62.804 Y32.104
X-62.876 Y31.972
X-62.935 Y31.835
X-62.946 Y31.801
X-62.981 Y31.578
X-62.943 Y31.356
X-62.836 Y31.158
X-62.672 Y31.003
X-62.468 Y30.909
X-62.407 Y30.901
X-62.347 Y30.905
X-62.288 Y30.922
X-62.234 Y30.949
X-61.78 Y31.245
X-60.692 Y31.953
X-60.434 Y32.12
G3 X-60.35 Y32.541 I-0.164 J0.251
G1 X-60.471 Y32.705
X-60.567 Y32.869
X-60.625 Y33
X-60.693 Y33.134
X-60.791 Y33.247
X-60.907 Y33.342
X-61.036 Y33.42
X-61.173 Y33.481
X-61.316 Y33.526
X-61.463 Y33.557
X-61.612 Y33.574
X-61.762 Y33.578
X-61.914 Y33.569
X-62.073 Y33.546
X-62.232 Y33.511
X-62.39 Y33.462
X-62.549 Y33.398
X-62.708 Y33.319
X-62.862 Y33.226
X-63.007 Y33.123
X-63.142 Y33.009
X-63.253 Y32.899
X-63.364 Y32.769
X-63.459 Y32.638
X-63.537 Y32.51
X-63.604 Y32.376
X-63.66 Y32.234
X-63.704 Y32.091
X-63.735 Y31.944
X-63.743 Y31.869
X-63.736 Y31.67
X-63.674 Y31.481
X-63.562 Y31.317
X-63.407 Y31.191
X-63.224 Y31.114
X-62.951 Y31.043
X-62.468 Y30.909
G3 X-62.173 Y31.002 I0.07 J0.292
G1 X-61.867 Y31.347
X-60.979 Y32.35
X-60.679 Y32.689
G3 X-60.625 Y33 I-0.225 J0.199
G1 X-60.656 Y33.071
X-60.706 Y33.197
X-60.827 Y33.525
X-60.887 Y33.663
X-60.967 Y33.789
X-61.068 Y33.9
X-61.184 Y33.995
X-61.311 Y34.075
X-61.446 Y34.141
X-61.587 Y34.193
X-61.732 Y34.231
X-61.879 Y34.257
X-62.038 Y34.272
X-62.208 Y34.274
X-62.382 Y34.263
X-62.563 Y34.236
X-62.749 Y34.192
X-62.937 Y34.132
X-63.126 Y34.055
X-63.311 Y33.961
X-63.49 Y33.852
X-63.659 Y33.728
X-63.819 Y33.591
X-63.969 Y33.439
X-64.104 Y33.278
X-64.225 Y33.109
X-64.321 Y32.949
X-64.407 Y32.774
X-64.471 Y32.613
X-64.481 Y32.581
X-64.51 Y32.428
X-64.504 Y32.272
X-64.464 Y32.122
X-64.436 Y32.049
X-64.427 Y32.029
X-64.407 Y31.993
X-64.381 Y31.957
X-64.054 Y31.558
X-64.024 Y31.528
X-63.995 Y31.503
X-63.771 Y31.359
X-63.57 Y31.23
X-63.507 Y31.193
X-63.475 Y31.18
X-63.224 Y31.114
G3 X-62.947 Y31.194 I0.066 J0.293
G1 X-62.602 Y31.535
X-61.223 Y32.899
X-60.901 Y33.217
G3 X-60.827 Y33.525 I-0.211 J0.213
G1 X-60.949 Y33.853
X-60.984 Y33.942
X-61.004 Y33.979
X-61.032 Y34.017
X-61.346 Y34.413
X-61.364 Y34.434
X-61.387 Y34.455
X-61.476 Y34.517
X-61.71 Y34.672
X-61.804 Y34.734
X-61.886 Y34.784
X-61.927 Y34.802
X-61.968 Y34.814
X-62.132 Y34.859
X-62.222 Y34.884
X-62.368 Y34.917
X-62.523 Y34.937
X-62.689 Y34.944
X-62.871 Y34.938
X-63.06 Y34.917
X-63.183 Y34.893
X-63.221 Y34.884
X-63.259 Y34.873
X-63.296 Y34.86
G3 X-63.175 Y34.284 I0.116 J-0.277
G1 X-62.307 Y34.298
G3 X-62.222 Y34.884 I-0.005 J0.3
G1 X-62.459 Y34.949
X-62.5 Y34.956
X-62.541
X-62.951 Y34.938
X-63.115 Y34.925
X-63.279 Y34.867
X-63.607 Y34.743
X-63.673 Y34.715
X-63.706 Y34.697
X-63.739 Y34.672
X-64.099 Y34.383
X-64.146 Y34.345
X-64.183 Y34.305
X-64.212 Y34.266
X-64.481 Y33.853
X-64.505 Y33.812
X-64.522 Y33.771
X-64.633 Y33.361
X-64.672 Y33.197
X-64.667 Y33.033
X-64.644 Y32.623
X-64.638 Y32.582
X-64.626 Y32.541
X-64.464 Y32.122
G3 X-63.891 Y32.205 I0.276 J0.118
G1 X-63.883 Y32.271 Z-1.992
X-63.875 Y32.334 Z-1.97
X-63.869 Y32.39 Z-1.935
X-63.863 Y32.438 Z-1.887
X-63.859 Y32.473 Z-1.83
X-63.856 Y32.495 Z-1.767
X-63.855 Y32.503 Z-1.7
G0 Z5
X-44.573 Y27.566
Z-1.4
G1 Z-1.7 F250
X-44.57 Y27.573 Z-1.767
X-44.56 Y27.593 Z-1.83
X-44.545 Y27.625 Z-1.887
X-44.524 Y27.668 Z-1.935
X-44.5 Y27.719 Z-1.97
X-44.472 Y27.776 Z-1.992
X-44.444 Y27.836 Z-2
G3 X-44.291 Y28.607 I-1.427 J0.684
G1 X-44.305 Y28.771
X-44.319 Y28.935
X-44.316 Y29.099
X-44.302 Y29.263
X-44.277 Y29.426
X-44.263 Y29.48
X-44.231 Y29.627
X-44.226 Y29.777
X-44.237 Y29.927
X-44.263 Y30.075
X-44.304 Y30.233
X-44.364 Y30.407
X-44.454 Y30.612
X-44.563 Y30.814
X-44.719 Y31.056
X-44.911 Y31.306
X-45.166 Y31.589
X-45.307 Y31.722
X-45.458 Y31.831
X-45.632 Y31.897
X-45.817 Y31.916
X-46.001 Y31.885
X-46.066 Y31.866
X-46.23 Y31.824
X-46.394 Y31.799
X-46.558 Y31.785
X-46.722 Y31.784
X-46.886 Y31.801
X-47.049 Y31.825
X-47.67 Y31.948
G3 X-47.884 Y31.402 I-0.049 J-0.296
G1 X-44.905 Y29.442
X-44.714 Y29.317
G3 X-44.263 Y29.48 I0.165 J0.251
G1 X-44.233 Y29.59
X-44.176 Y29.754
X-44.099 Y29.925
X-44.012 Y30.082
X-43.94 Y30.214
X-43.9 Y30.358
X-43.878 Y30.507
X-43.873 Y30.657
X-43.882 Y30.806
X-43.904 Y30.961
X-43.945 Y31.146
X-44.003 Y31.331
X-44.075 Y31.512
X-44.164 Y31.69
X-44.254 Y31.84
X-44.349 Y31.972
X-44.459 Y32.102
X-44.493 Y32.137
X-44.655 Y32.258
X-44.844 Y32.328
X-45.045 Y32.341
X-45.241 Y32.296
X-45.417 Y32.198
X-45.492 Y32.14
X-45.574 Y32.088
X-45.738 Y31.997
X-45.902 Y31.924
X-46.001 Y31.885
G3 X-46.072 Y31.379 I0.119 J-0.275
G1 X-45.939 Y31.269
X-44.676 Y30.231
X-44.438 Y30.036
G3 X-44.012 Y30.082 I0.19 J0.232
G1 X-43.935 Y30.188
X-43.89 Y30.246
X-43.771 Y30.387
X-43.669 Y30.481
X-43.565 Y30.589
X-43.487 Y30.717
X-43.428 Y30.855
X-43.387 Y31
X-43.361 Y31.147
X-43.35 Y31.297
X-43.353 Y31.447
X-43.368 Y31.599
X-43.396 Y31.751
X-43.435 Y31.896
X-43.488 Y32.044
X-43.55 Y32.181
X-43.624 Y32.312
X-43.709 Y32.435
X-43.803 Y32.551
X-43.909 Y32.658
X-44.024 Y32.755
X-44.051 Y32.773
X-44.249 Y32.869
X-44.467 Y32.899
X-44.684 Y32.859
X-44.878 Y32.754
X-45.029 Y32.594
G3 X-45.041 Y32.294 I0.253 J-0.16
G1 X-44.822 Y31.877
X-44.246 Y30.784
X-44.132 Y30.568
G3 X-43.867 Y30.408 I0.265 J0.14
G1 X-43.866
X-43.813 Y30.412
X-43.761 Y30.427
X-43.713 Y30.45
X-43.669 Y30.481
X-43.57 Y30.574
X-43.443 Y30.664
X-43.333 Y30.738
X-43.279 Y30.768
X-43.148 Y30.841
X-43.037 Y30.942
X-42.946 Y31.061
X-42.872 Y31.192
X-42.815 Y31.33
X-42.773 Y31.474
X-42.747 Y31.622
X-42.734 Y31.771
X-42.735 Y31.921
X-42.749 Y32.072
X-42.775 Y32.224
X-42.814 Y32.375
X-42.867 Y32.529
X-42.928 Y32.667
X-42.999 Y32.8
X-43.086 Y32.934
X-43.177 Y33.053
X-43.279 Y33.164
X-43.39 Y33.264
X-43.509 Y33.355
X-43.636 Y33.435
X-43.77 Y33.502
X-43.835 Y33.528
X-44.049 Y33.575
X-44.268 Y33.553
X-44.469 Y33.465
X-44.633 Y33.319
X-44.744 Y33.129
X-44.754 Y33.101
X-44.855 Y32.869
X-44.953 Y32.705
X-45.029 Y32.594
G3 X-44.989 Y32.223 I0.253 J-0.16
G1 X-44.72 Y31.951
X-43.911 Y31.131
X-43.615 Y30.831
G3 X-43.279 Y30.768 I0.213 J0.211
G1 X-43.115 Y30.848
X-42.951 Y30.903
X-42.787 Y30.952
X-42.646 Y31.002
X-42.52 Y31.084
X-42.409 Y31.185
X-42.315 Y31.301
X-42.235 Y31.429
X-42.17 Y31.564
X-42.119 Y31.705
X-42.082 Y31.85
X-42.057 Y31.998
X-42.045 Y32.152
Y32.313
X-42.058 Y32.478
X-42.085 Y32.646
X-42.127 Y32.816
X-42.183 Y32.987
X-42.256 Y33.157
X-42.341 Y33.322
X-42.439 Y33.477
X-42.552 Y33.628
X-42.665 Y33.756
X-42.79 Y33.877
X-42.924 Y33.987
X-43.047 Y34.073
X-43.177 Y34.148
X-43.32 Y34.216
X-43.46 Y34.27
X-43.605 Y34.31
X-43.674 Y34.323
X-43.863 Y34.332
X-44.047 Y34.29
X-44.213 Y34.201
X-44.349 Y34.07
X-44.391 Y34.017
X-44.426 Y33.967
X-44.474 Y33.853
X-44.717 Y33.197
X-44.744 Y33.129
G3 X-44.684 Y32.831 I0.283 J-0.098
G1 X-44.373 Y32.483
X-43.391 Y31.382
X-43.087 Y31.042
G3 X-42.787 Y30.952 I0.224 J0.2
G1 X-42.623 Y31.001
X-42.459 Y31.046
X-42.205 Y31.113
X-42.062 Y31.158
X-41.928 Y31.225
X-41.807 Y31.313
X-41.699 Y31.418
X-41.606 Y31.535
X-41.525 Y31.662
X-41.458 Y31.796
X-41.403 Y31.935
X-41.36 Y32.08
X-41.326 Y32.235
X-41.304 Y32.406
X-41.294 Y32.586
X-41.3 Y32.772
X-41.321 Y32.965
X-41.36 Y33.165
X-41.416 Y33.368
X-41.49 Y33.571
X-41.582 Y33.771
X-41.691 Y33.964
X-41.814 Y34.147
X-41.952 Y34.321
X-42.105 Y34.483
X-42.268 Y34.632
X-42.434 Y34.76
X-42.532 Y34.824
X-42.709 Y34.906
X-42.901 Y34.937
X-43.095 Y34.913
X-43.443 Y34.818
X-43.525 Y34.791
X-43.607 Y34.742
X-43.96 Y34.508
X-44.029 Y34.461
X-44.049 Y34.444
X-44.068 Y34.423
X-44.131 Y34.345
X-44.349 Y34.07
G3 X-44.349 Y33.713 I0.241 J-0.178
G1 X-44.109 Y33.389
X-42.773 Y31.58
X-42.512 Y31.227
G3 X-42.205 Y31.113 I0.241 J0.178
G1 X-41.967 Y31.175
X-41.91 Y31.196
X-41.853 Y31.23
X-41.476 Y31.472
X-41.422 Y31.508
X-41.395 Y31.531
X-41.368 Y31.558
X-41.034 Y31.967
X-41.007 Y32.008
X-40.987 Y32.049
X-40.797 Y32.541
X-40.785 Y32.582
X-40.779 Y32.623
X-40.756 Y33.033
X-40.751 Y33.197
X-40.79 Y33.361
X-40.878 Y33.689
X-40.902 Y33.771
X-40.918 Y33.812
X-40.942 Y33.853
X-41.209 Y34.263
X-41.238 Y34.304
X-41.255 Y34.324
X-41.277 Y34.345
X-41.684 Y34.672
X-41.714 Y34.695
X-41.744 Y34.713
X-41.804 Y34.738
X-42.131 Y34.862
X-42.295 Y34.922
X-42.336 Y34.93
X-42.377 Y34.933
X-42.869 Y34.956
X-42.91
X-42.951 Y34.952
X-43.095 Y34.913
G3 X-43.075 Y34.334 I0.088 J-0.287
G1 X-43.01 Y34.319 Z-1.992
X-42.948 Y34.305 Z-1.97
X-42.893 Y34.292 Z-1.935
X-42.846 Y34.281 Z-1.887
X-42.812 Y34.273 Z-1.83
X-42.79 Y34.268 Z-1.767
X-42.783 Y34.267 Z-1.7
G0 Z5
X-48.965 Y31.606
Z-1.4
G1 Z-1.7 F250
X-48.969 Y31.613 Z-1.767
X-48.98 Y31.632 Z-1.83
X-48.999 Y31.663 Z-1.887
X-49.023 Y31.704 Z-1.935
X-49.052 Y31.753 Z-1.97
X-49.084 Y31.807 Z-1.992
X-49.118 Y31.865 Z-2
G3 X-49.672 Y32.421 I-1.363 J-0.804
G1 X-49.836 Y32.511
X-49.884 Y32.541
X-50.104 Y32.705
X-50.328 Y32.937
X-50.398 Y33.033
X-50.491 Y33.151
X-50.595 Y33.258
X-50.712 Y33.358
X-50.864 Y33.468
X-51.055 Y33.584
X-51.271 Y33.693
X-51.558 Y33.809
X-51.898 Y33.916
X-52.342 Y34.018
X-52.858 Y34.093
X-53.522 Y34.136
X-54.08 Y34.127
X-54.123 Y34.123
X-54.319 Y34.074
X-54.494 Y33.972
X-54.631 Y33.824
X-54.721 Y33.643
G3 X-54.487 Y33.265 I0.288 J-0.083
G1 X-54.207 Y33.214
X-50.786 Y32.588
X-50.702 Y32.573
G3 X-50.398 Y33.033 I0.054 J0.295
G1 X-50.492 Y33.165
X-50.511 Y33.197
X-50.595 Y33.361
X-50.659 Y33.525
X-50.717 Y33.689
X-50.767 Y33.83
X-50.837 Y33.963
X-50.923 Y34.086
X-51.02 Y34.2
X-51.142 Y34.319
X-51.275 Y34.432
X-51.449 Y34.555
X-51.654 Y34.677
X-51.894 Y34.795
X-52.208 Y34.919
X-52.542 Y35.021
X-52.939 Y35.108
X-53.232 Y35.149
X-53.492 Y35.163
X-53.698 Y35.158
X-53.911 Y35.135
X-54.083 Y35.103
X-54.129 Y35.09
X-54.301 Y35.018
X-54.448 Y34.903
X-54.559 Y34.753
X-54.626 Y34.579
X-54.645 Y34.393
X-54.639 Y34.181
X-54.647 Y34.017
X-54.669 Y33.853
X-54.706 Y33.689
X-54.754 Y33.541
X-54.76 Y33.525
X-54.828 Y33.361
X-54.918 Y33.187
X-55.025 Y33.033
X-55.082 Y32.954
X-55.159 Y32.869
X-55.319 Y32.707
G3 X-55.018 Y32.215 I0.221 J-0.203
G1 X-55.008 Y32.218
X-51.257 Y33.253
X-50.932 Y33.343
G3 X-50.717 Y33.689 I-0.08 J0.289
G1 X-50.754 Y33.853
X-50.776 Y34.017
X-50.784 Y34.181
X-50.782 Y34.271
X-50.785 Y34.421
X-50.817 Y34.567
X-50.869 Y34.708
X-50.937 Y34.842
X-51.017 Y34.968
X-51.11 Y35.09
X-51.228 Y35.222
X-51.366 Y35.352
X-51.536 Y35.49
X-51.732 Y35.623
X-51.958 Y35.752
X-52.205 Y35.868
X-52.463 Y35.964
X-52.73 Y36.04
X-53.002 Y36.094
X-53.247 Y36.123
X-53.477 Y36.131
X-53.679 Y36.122
X-53.859 Y36.1
X-54.04 Y36.062
X-54.11 Y36.041
X-54.277 Y35.968
X-54.418 Y35.855
X-54.526 Y35.708
X-54.593 Y35.539
G3 X-54.403 Y35.195 I0.293 J-0.062
G1 X-54.068 Y35.072
X-51.399 Y34.088
X-51.185 Y34.009
G3 X-50.782 Y34.271 I0.104 J0.281
G1 X-50.769 Y34.672
X-50.752 Y35
X-50.749 Y35.09
X-50.746 Y35.164
X-50.749 Y35.205
X-50.757 Y35.246
X-50.8 Y35.418
X-50.844 Y35.562
X-50.905 Y35.699
X-50.978 Y35.83
X-51.066 Y35.961
X-51.177 Y36.1
X-51.303 Y36.235
X-51.458 Y36.376
X-51.632 Y36.51
X-51.827 Y36.637
X-52.046 Y36.756
X-52.283 Y36.861
X-52.469 Y36.926
X-52.511 Y36.939
X-52.554 Y36.949
X-52.597 Y36.957
G3 X-52.825 Y36.43 I-0.034 J-0.298
G1 X-52.809 Y36.417
X-51.318 Y35.153
X-51.288 Y35.127
G3 X-50.8 Y35.418 I0.194 J0.229
G1 X-50.859 Y35.656
X-50.883 Y35.738
X-50.924 Y35.82
X-51.148 Y36.194
X-51.189 Y36.253
X-51.25 Y36.312
X-51.583 Y36.614
X-51.619 Y36.64
X-51.64 Y36.652
X-51.804 Y36.731
X-51.968 Y36.809
X-52.131 Y36.883
X-52.295 Y36.913
X-52.668 Y36.968
X-52.713 Y36.971
X-52.757 Y36.968
X-53.115 Y36.914
X-53.279 Y36.887
X-53.443 Y36.815
X-53.771 Y36.66
X-53.805 Y36.64
X-53.935 Y36.528
X-54.174 Y36.312
X-54.225 Y36.263
X-54.246 Y36.239
X-54.263 Y36.215
X-54.499 Y35.82
X-54.54 Y35.738
X-54.564 Y35.656
X-54.666 Y35.246
X-54.674 Y35.205
X-54.677 Y35.164
X-54.671 Y35
X-54.654 Y34.672
X-54.645 Y34.393
G3 X-54.077 Y34.281 I0.299 J0.02
G1 X-54.047 Y34.34 Z-1.992
X-54.019 Y34.397 Z-1.97
X-53.994 Y34.448 Z-1.935
X-53.973 Y34.491 Z-1.887
X-53.957 Y34.523 Z-1.83
X-53.947 Y34.543 Z-1.767
X-53.944 Y34.55 Z-1.7
G0 Z5
X-61.705 Y18.921
Z-1.4
G1 Z-1.7 F250
X-61.71 Y18.915 Z-1.767
X-61.723 Y18.897 Z-1.83
X-61.744 Y18.868 Z-1.887
X-61.772 Y18.83 Z-1.935
X-61.806 Y18.784 Z-1.97
X-61.844 Y18.733 Z-1.992
X-61.883 Y18.679 Z-2
G3 X-62.177 Y17.951 I1.275 J-0.938
G1 X-62.434 Y15.328
X-62.447 Y15.057
X-62.44 Y14.844
X-62.411 Y14.585
X-62.348 Y14.267
X-62.256 Y13.939
X-62.103 Y13.523
X-61.901 Y13.088
X-61.619 Y12.59
X-61.245 Y12.038
X-60.794 Y11.474
X-60.3 Y10.948
X-59.769 Y10.458
X-59.205 Y10.007
X-58.611 Y9.598
X-58.604 Y9.594
X-58.492 Y9.54
X-58.372 Y9.507
X-58.247 Y9.496
X-55.589
G3 X-55.406 Y10.026 I-0.01 J0.3
G1 X-55.454 Y10.066
X-61.833 Y15.425
X-61.944 Y15.518
G3 X-62.434 Y15.328 I-0.193 J-0.23
G1 X-62.623 Y13.398
X-62.63 Y13.248
X-62.624 Y13.076
X-62.599 Y12.866
X-62.548 Y12.614
X-62.475 Y12.359
X-62.353 Y12.036
X-62.193 Y11.696
X-61.955 Y11.28
X-61.667 Y10.86
X-61.272 Y10.373
X-60.778 Y9.854
X-60.576 Y9.674
X-60.437 Y9.577
X-60.278 Y9.517
X-60.11 Y9.496
X-58.247
G3 X-58.06 Y10.022 I-0.01 J0.3
G1 X-58.112 Y10.067
X-62.024 Y13.493
X-62.128 Y13.584
G3 X-62.623 Y13.398 I-0.198 J-0.226
G1 X-62.772 Y11.885
X-62.781 Y11.68
X-62.776 Y11.513
X-62.756 Y11.337
X-62.717 Y11.136
X-62.648 Y10.891
X-62.557 Y10.644
X-62.418 Y10.344
X-62.231 Y10.013
X-62.078 Y9.786
X-61.956 Y9.649
X-61.803 Y9.548
X-61.629 Y9.491
X-61.447 Y9.48
X-61.312 Y9.49
X-61.148 Y9.496
X-60.11
G3 X-59.923 Y10.022 I-0.01 J0.3
G1 X-59.975 Y10.067
X-62.172 Y11.98
X-62.277 Y12.072
G3 X-62.772 Y11.885 I-0.197 J-0.226
G1 X-62.837 Y11.23
X-62.868 Y11.066
X-62.91 Y10.902
X-62.951 Y10.773
X-62.995 Y10.63
X-63.016 Y10.481
X-63.022 Y10.331
X-63.015 Y10.182
X-62.994 Y10.033
X-62.96 Y9.887
X-62.913 Y9.744
X-62.895 Y9.704
X-62.776 Y9.518
X-62.606 Y9.379
X-62.401 Y9.299
X-62.181 Y9.287
X-61.968 Y9.344
G3 X-61.837 Y9.758 I-0.132 J0.27
G1 X-61.981 Y10.022
X-62.358 Y10.712
X-62.409 Y10.806
G3 X-62.951 Y10.773 I-0.263 J-0.144
G1 X-62.964 Y10.738
X-63.037 Y10.574
X-63.131 Y10.41
X-63.186 Y10.328
X-63.249 Y10.246
X-63.339 Y10.127
X-63.391 Y9.986
X-63.42 Y9.839
X-63.422 Y9.689
X-63.402 Y9.54
X-63.4 Y9.533
X-63.309 Y9.335
X-63.161 Y9.175
X-62.971 Y9.068
X-62.758 Y9.025
X-62.541 Y9.049
X-62.343 Y9.139
X-62.295 Y9.17
X-62.149 Y9.262
X-62.132 Y9.272
X-61.968 Y9.344
G3 X-61.974 Y9.886 I-0.132 J0.27
G1 X-62.073 Y9.932
X-62.532 Y10.144
X-62.902 Y10.315
G3 X-63.249 Y10.246 I-0.126 J-0.272
G1 X-63.389 Y10.082
X-63.574 Y9.918
X-63.682 Y9.813
X-63.754 Y9.682
X-63.794 Y9.537
X-63.805 Y9.388
X-63.789 Y9.239
X-63.782 Y9.217
X-63.698 Y9.03
X-63.562 Y8.876
X-63.388 Y8.767
X-63.19 Y8.714
X-62.985 Y8.721
X-62.79 Y8.787
X-62.623 Y8.906
X-62.459 Y9.054
X-62.405 Y9.098
X-62.343 Y9.139
G3 X-62.417 Y9.667 I-0.173 J0.245
G1 X-62.538 Y9.71
X-62.834 Y9.812
X-63.285 Y9.97
G3 X-63.574 Y9.918 I-0.099 J-0.283
G1 X-63.607 Y9.889
X-63.689 Y9.83
X-63.771 Y9.778
X-63.812 Y9.754
X-63.879 Y9.717
X-64.007 Y9.638
X-64.106 Y9.525
X-64.173 Y9.391
X-64.21 Y9.245
X-64.22 Y9.096
X-64.203 Y8.947
X-64.164 Y8.802
X-64.103 Y8.665
X-64.022 Y8.538
X-64.006 Y8.518
X-63.839 Y8.373
X-63.635 Y8.288
X-63.415 Y8.27
X-63.201 Y8.322
X-63.013 Y8.438
X-62.87 Y8.607
X-62.748 Y8.771
X-62.693 Y8.838
X-62.623 Y8.906
G3 X-62.735 Y9.396 I-0.216 J0.208
G1 X-62.914 Y9.462
X-63.135 Y9.544
X-63.639 Y9.731
X-63.699 Y9.746
X-63.761 Y9.749
X-63.822 Y9.739
X-63.879 Y9.717
X-63.935 Y9.686
X-64.099 Y9.614
X-64.221 Y9.574
X-64.361 Y9.52
X-64.479 Y9.427
X-64.572 Y9.31
X-64.641 Y9.176
X-64.686 Y9.033
X-64.71 Y8.885
X-64.712 Y8.735
X-64.692 Y8.587
X-64.655 Y8.441
X-64.597 Y8.303
X-64.524 Y8.172
X-64.435 Y8.051
X-64.331 Y7.943
X-64.216 Y7.847
X-64.09 Y7.765
X-64.062 Y7.751
X-63.877 Y7.691
X-63.682 Y7.684
X-63.493 Y7.731
X-63.325 Y7.828
X-63.189 Y7.968
X-63.098 Y8.14
G3 X-63.139 Y8.408 I-0.285 J0.093
G1 X-63.433 Y8.817
X-63.652 Y9.122
X-63.895 Y9.46
G3 X-64.221 Y9.574 I-0.244 J-0.175
G1 X-64.263 Y9.56
X-64.427 Y9.521
X-64.591 Y9.493
X-64.64 Y9.49
X-64.789 Y9.472
X-64.918 Y9.396
X-65.029 Y9.295
X-65.121 Y9.177
X-65.195 Y9.046
X-65.249 Y8.906
X-65.285 Y8.76
X-65.305 Y8.612
X-65.308 Y8.462
X-65.294 Y8.312
X-65.267 Y8.165
X-65.225 Y8.021
X-65.17 Y7.881
X-65.103 Y7.747
X-65.023 Y7.62
X-64.932 Y7.501
X-64.83 Y7.391
X-64.718 Y7.291
X-64.596 Y7.203
X-64.467 Y7.127
X-64.331 Y7.065
X-64.189 Y7.016
X-64.043 Y6.981
X-64.002 Y6.976
X-63.787 Y6.983
X-63.584 Y7.054
X-63.412 Y7.184
X-63.288 Y7.36
X-63.223 Y7.565
X-63.189 Y7.787
X-63.157 Y7.951
X-63.115 Y8.092
X-63.047 Y8.279
X-62.967 Y8.443
X-62.951 Y8.472
X-62.87 Y8.607
G3 X-63.049 Y9.04 I-0.262 J0.146
G1 X-63.286 Y9.11
X-63.884 Y9.284
X-64.547 Y9.478
X-64.593 Y9.487
X-64.64 Y9.49
X-65.082 Y9.461
X-65.232 Y9.445
X-65.373 Y9.394
X-65.5 Y9.316
X-65.613 Y9.217
X-65.711 Y9.103
X-65.794 Y8.978
X-65.861 Y8.844
X-65.913 Y8.703
X-65.951 Y8.558
X-65.976 Y8.41
X-65.987 Y8.261
X-65.985 Y8.111
X-65.971 Y7.959
X-65.943 Y7.801
X-65.903 Y7.647
X-65.849 Y7.494
X-65.781 Y7.339
X-65.699 Y7.187
X-65.606 Y7.044
X-65.501 Y6.908
X-65.381 Y6.776
X-65.25 Y6.652
X-65.118 Y6.548
X-64.991 Y6.462
X-64.843 Y6.379
X-64.704 Y6.315
X-64.563 Y6.263
X-64.417 Y6.224
X-64.269 Y6.196
X-64.116 Y6.182
X-63.922 Y6.209
X-63.743 Y6.288
X-63.594 Y6.414
X-63.485 Y6.577
X-63.375 Y6.803
X-63.337 Y6.885
X-63.323 Y6.926
X-63.314 Y6.967
X-63.223 Y7.565
G3 X-63.309 Y7.812 I-0.298 J0.035
G1 X-63.672 Y8.176
X-64.481 Y8.987
X-64.864 Y9.372
X-64.911 Y9.411
X-64.964 Y9.439
X-65.022 Y9.456
X-65.082 Y9.461
X-65.574 Y9.435
X-65.622 Y9.426
X-65.738 Y9.386
X-65.902 Y9.325
X-66.04 Y9.266
X-66.167 Y9.186
X-66.28 Y9.088
X-66.381 Y8.977
X-66.468 Y8.854
X-66.541 Y8.724
X-66.602 Y8.587
X-66.651 Y8.445
X-66.688 Y8.295
X-66.715 Y8.136
X-66.728 Y7.97
X-66.729 Y7.795
X-66.715 Y7.61
X-66.685 Y7.42
X-66.638 Y7.227
X-66.575 Y7.035
X-66.493 Y6.841
X-66.394 Y6.65
X-66.279 Y6.466
X-66.147 Y6.289
X-66.001 Y6.122
X-65.842 Y5.968
X-65.673 Y5.827
X-65.492 Y5.701
X-65.395 Y5.645
X-65.235 Y5.576
X-65.063 Y5.549
X-64.89 Y5.565
G3 X-64.675 Y5.932 I-0.075 J0.29
G1 X-64.755 Y6.234
X-65.442 Y8.831
X-65.518 Y9.117
G3 X-65.902 Y9.325 I-0.29 J-0.077
G1 X-66.072 Y9.262
X-66.151 Y9.231
X-66.19 Y9.208
X-66.23 Y9.179
X-66.602 Y8.893
X-66.647 Y8.849
X-66.722 Y8.746
X-66.937 Y8.443
X-66.964 Y8.402
X-66.984 Y8.361
X-67.012 Y8.279
X-67.146 Y7.869
X-67.156 Y7.828
X-67.161 Y7.787
X-67.167 Y7.459
X-67.17 Y7.295
X-67.169 Y7.254
X-67.164 Y7.213
X-67.142 Y7.131
X-67.021 Y6.721
X-67.008 Y6.68
X-66.988 Y6.639
X-66.771 Y6.312
X-66.722 Y6.237
X-66.691 Y6.192
X-66.65 Y6.148
X-66.394 Y5.938
X-66.248 Y5.82
X-66.23 Y5.807
X-66.189 Y5.783
X-65.875 Y5.656
X-65.697 Y5.585
X-65.656 Y5.573
X-65.574 Y5.565
X-65.246 Y5.537
X-65.082 Y5.527
X-64.918 Y5.559
X-64.591 Y5.631
X-64.499 Y5.656
X-64.427 Y5.693
X-64.024 Y5.923
X-63.987 Y5.95
X-63.949 Y5.984
X-63.643 Y6.312
X-63.607 Y6.351
X-63.583 Y6.382
X-63.564 Y6.413
X-63.485 Y6.577
G3 X-63.651 Y6.978 I-0.274 J0.121
G1 X-63.706 Y6.988 Z-1.995
X-63.759 Y6.998 Z-1.979
X-63.804 Y6.986 Z-1.955
X-63.844 Y6.976 Z-1.924
X-63.879 Y6.967 Z-1.886
X-63.906 Y6.959 Z-1.842
X-63.923 Y6.949 Z-1.797
X-63.933 Y6.942 Z-1.749
X-63.936 Y6.94 Z-1.7
G0 Z5
X-52.221 Y17.493
Z0.5
G3 X-53.202 Y20.169 Z0.344 I-0.49 J1.338 F333.3
X-52.221 Y17.493 Z0.187 I0.49 J-1.338
X-53.202 Y20.169 Z0.031 I-0.49 J1.338
X-52.221 Y17.493 Z-0.125 I0.49 J-1.338
X-53.202 Y20.169 Z-0.282 I-0.49 J1.338
X-52.221 Y17.493 Z-0.438 I0.49 J-1.338
X-53.202 Y20.169 Z-0.594 I-0.49 J1.338
X-52.221 Y17.493 Z-0.751 I0.49 J-1.338
X-53.202 Y20.169 Z-0.907 I-0.49 J1.338
X-52.221 Y17.493 Z-1.063 I0.49 J-1.338
X-53.202 Y20.169 Z-1.22 I-0.49 J1.338
X-52.221 Y17.493 Z-1.376 I0.49 J-1.338
X-53.202 Y20.169 Z-1.532 I-0.49 J1.338
X-52.221 Y17.493 Z-1.689 I0.49 J-1.338
X-53.202 Y20.169 Z-1.845 I-0.49 J1.338
X-52.221 Y17.493 Z-2.001 I0.49 J-1.338
X-53.202 Y20.169 Z-2.158 I-0.49 J1.338
X-52.221 Y17.493 Z-2.314 I0.49 J-1.338
X-53.202 Y20.169 Z-2.47 I-0.49 J1.338
X-52.221 Y17.493 Z-2.627 I0.49 J-1.338
X-53.202 Y20.169 Z-2.783 I-0.49 J1.338
X-52.221 Y17.493 Z-2.939 I0.49 J-1.338
X-51.287 Y18.831 Z-3 I-0.49 J1.338
X-54.137 Y18.831 I-1.425 J0
X-51.287 Y18.831 I1.425 J0
G1 X-51.252 Y19.552 F250
X-51.235 Y19.641
X-51.227 Y19.791
X-51.247 Y19.939
X-51.289 Y20.083
X-51.351 Y20.22
X-51.43 Y20.348
X-51.522 Y20.466
X-51.626 Y20.574
X-51.741 Y20.671
X-51.864 Y20.756
X-51.994 Y20.83
X-52.131 Y20.893
X-52.272 Y20.943
X-52.417 Y20.982
X-52.569 Y21.01
X-52.725 Y21.026
X-52.884 Y21.029
X-53.046 Y21.019
X-53.209 Y20.996
X-53.372 Y20.96
X-53.532 Y20.91
X-53.69 Y20.847
X-53.844 Y20.77
X-53.992 Y20.681
X-54.134 Y20.58
X-54.268 Y20.466
X-54.393 Y20.342
X-54.508 Y20.207
X-54.613 Y20.063
X-54.706 Y19.911
X-54.786 Y19.751
X-54.854 Y19.584
X-54.908 Y19.413
X-54.949 Y19.237
X-54.975 Y19.058
X-54.987 Y18.877
X-54.984 Y18.695
X-54.967 Y18.515
X-54.935 Y18.336
X-54.889 Y18.159
X-54.828 Y17.987
X-54.755 Y17.821
X-54.667 Y17.66
X-54.568 Y17.507
X-54.456 Y17.363
X-54.333 Y17.228
X-54.2 Y17.103
X-54.056 Y16.989
X-53.905 Y16.887
X-53.745 Y16.798
X-53.579 Y16.721
X-53.407 Y16.658
X-53.23 Y16.609
X-53.05 Y16.575
X-52.868 Y16.555
X-52.685 Y16.55
X-52.502 Y16.559
X-52.321 Y16.583
X-52.142 Y16.622
X-51.966 Y16.674
X-51.796 Y16.741
X-51.631 Y16.821
X-51.473 Y16.915
X-51.323 Y17.02
X-51.183 Y17.137
X-51.052 Y17.265
X-50.931 Y17.404
X-50.822 Y17.551
X-50.721 Y17.714
X-50.61 Y17.93
X-50.477 Y18.249
X-50.368 Y18.586
X-50.303 Y18.856
X-50.267 Y19.094
X-50.25 Y19.314
X-50.252 Y19.528
X-50.27 Y19.735
X-50.304 Y19.933
X-50.352 Y20.122
X-50.415 Y20.307
X-50.493 Y20.487
X-50.586 Y20.662
X-50.693 Y20.83
X-50.814 Y20.989
X-50.948 Y21.139
X-51.095 Y21.279
X-51.256 Y21.408
X-51.428 Y21.526
X-51.612 Y21.632
X-51.808 Y21.723
X-52.012 Y21.8
X-52.226 Y21.861
X-52.446 Y21.905
X-52.673 Y21.932
X-52.903 Y21.941
X-53.136 Y21.931
X-53.37 Y21.902
X-53.603 Y21.853
X-53.833 Y21.786
X-54.058 Y21.7
X-54.278 Y21.595
X-54.49 Y21.473
X-54.693 Y21.332
X-54.884 Y21.175
X-55.064 Y21.003
X-55.23 Y20.815
X-55.381 Y20.614
X-55.515 Y20.401
X-55.633 Y20.177
X-55.733 Y19.943
X-55.813 Y19.701
X-55.875 Y19.453
X-55.916 Y19.201
X-55.937 Y18.945
Y18.688
X-55.917 Y18.432
X-55.876 Y18.178
X-55.814 Y17.927
X-55.733 Y17.682
X-55.632 Y17.444
X-55.513 Y17.215
X-55.375 Y16.995
X-55.22 Y16.788
X-55.049 Y16.593
X-54.862 Y16.413
X-54.662 Y16.248
X-54.449 Y16.1
X-54.225 Y15.97
X-53.991 Y15.857
X-53.748 Y15.764
X-53.499 Y15.691
X-53.245 Y15.638
X-52.987 Y15.605
X-52.727 Y15.593
X-52.468 Y15.602
X-52.209 Y15.632
X-51.954 Y15.683
X-51.704 Y15.754
X-51.461 Y15.844
X-51.225 Y15.954
X-50.999 Y16.083
X-50.784 Y16.229
X-50.58 Y16.393
X-50.382 Y16.581
X-50.179 Y16.806
X-49.985 Y17.06
X-49.806 Y17.338
X-49.647 Y17.636
X-49.514 Y17.941
X-49.408 Y18.248
X-49.33 Y18.554
X-49.278 Y18.857
X-49.251 Y19.156
X-49.248 Y19.451
X-49.269 Y19.742
X-49.313 Y20.027
X-49.378 Y20.306
X-49.466 Y20.577
X-49.574 Y20.839
X-49.703 Y21.092
X-49.852 Y21.333
X-50.021 Y21.563
X-50.208 Y21.778
X-50.413 Y21.98
X-50.635 Y22.166
X-50.873 Y22.334
X-51.126 Y22.484
X-51.392 Y22.615
X-51.67 Y22.724
X-51.959 Y22.812
X-52.257 Y22.877
X-52.561 Y22.918
X-52.87 Y22.934
X-53.182 Y22.926
X-53.494 Y22.893
X-53.805 Y22.834
X-54.111 Y22.75
X-54.412 Y22.64
X-54.705 Y22.507
X-54.988 Y22.349
X-55.259 Y22.168
X-55.515 Y21.965
X-55.756 Y21.741
X-55.978 Y21.498
X-56.181 Y21.236
X-56.364 Y20.958
X-56.523 Y20.665
X-56.66 Y20.36
X-56.771 Y20.044
X-56.857 Y19.719
X-56.917 Y19.387
X-56.95 Y19.052
X-56.956 Y18.714
X-56.935 Y18.376
X-56.886 Y18.04
X-56.811 Y17.71
X-56.709 Y17.386
X-56.582 Y17.07
X-56.43 Y16.766
X-56.253 Y16.475
X-56.054 Y16.199
X-55.833 Y15.939
X-55.592 Y15.698
X-55.332 Y15.478
X-55.055 Y15.278
X-54.763 Y15.101
X-54.458 Y14.949
X-54.141 Y14.821
X-53.815 Y14.719
X-53.482 Y14.644
X-53.143 Y14.595
X-52.802 Y14.574
X-52.461 Y14.58
X-52.121 Y14.614
X-51.784 Y14.675
X-51.454 Y14.763
X-51.131 Y14.877
X-50.819 Y15.016
X-50.516 Y15.182
X-50.219 Y15.377
X-49.93 Y15.602
X-49.651 Y15.857
X-49.387 Y16.142
X-49.142 Y16.452
X-48.921 Y16.783
X-48.727 Y17.132
X-48.562 Y17.493
X-48.428 Y17.864
X-48.325 Y18.241
X-48.253 Y18.621
X-48.212 Y19.002
X-48.202 Y19.382
X-48.223 Y19.759
X-48.273 Y20.131
X-48.353 Y20.495
X-48.461 Y20.851
X-48.597 Y21.195
X-48.76 Y21.528
X-48.95 Y21.846
X-49.164 Y22.148
X-49.403 Y22.433
X-49.665 Y22.699
X-49.948 Y22.944
X-50.252 Y23.167
X-50.574 Y23.366
X-50.914 Y23.539
X-51.268 Y23.685
X-51.635 Y23.803
X-52.013 Y23.892
X-52.399 Y23.951
X-52.791 Y23.978
X-53.186 Y23.974
X-53.582 Y23.938
X-53.976 Y23.87
X-54.365 Y23.77
X-54.746 Y23.639
X-55.118 Y23.477
X-55.477 Y23.284
X-55.821 Y23.062
X-56.148 Y22.813
X-56.454 Y22.537
X-56.738 Y22.236
X-56.998 Y21.912
X-57.232 Y21.568
X-57.438 Y21.204
X-57.615 Y20.825
X-57.761 Y20.432
X-57.875 Y20.027
X-57.957 Y19.614
X-58.005 Y19.194
X-58.019 Y18.772
X-58 Y18.349
X-57.946 Y17.929
X-57.859 Y17.514
X-57.739 Y17.106
X-57.586 Y16.71
X-57.402 Y16.326
X-57.187 Y15.959
X-56.944 Y15.61
X-56.673 Y15.281
X-56.376 Y14.974
X-56.056 Y14.693
X-55.714 Y14.438
X-55.353 Y14.211
X-54.974 Y14.014
X-54.581 Y13.848
X-54.175 Y13.714
X-53.76 Y13.613
X-53.339 Y13.545
X-52.913 Y13.512
X-52.485
X-52.059 Y13.548
X-51.638 Y13.617
X-51.222 Y13.72
X-50.814 Y13.857
X-50.415 Y14.027
X-50.026 Y14.232
X-49.649 Y14.47
X-49.286 Y14.743
X-48.94 Y15.05
X-48.614 Y15.389
X-48.314 Y15.756
X-48.042 Y16.149
X-47.803 Y16.564
X-47.597 Y16.996
X-47.428 Y17.442
X-47.295 Y17.897
X-47.2 Y18.36
X-47.142 Y18.826
X-47.122 Y19.293
X-47.14 Y19.758
X-47.195 Y20.217
X-47.286 Y20.669
X-47.412 Y21.111
X-47.574 Y21.54
X-47.769 Y21.955
X-47.996 Y22.353
X-48.256 Y22.731
X-48.545 Y23.088
X-48.862 Y23.422
X-49.207 Y23.73
X-49.577 Y24.01
X-49.969 Y24.261
X-50.382 Y24.48
X-50.814 Y24.667
X-51.261 Y24.819
X-51.721 Y24.935
X-52.191 Y25.014
X-52.669 Y25.056
X-53.15 Y25.059
X-53.632 Y25.023
X-54.113 Y24.948
X-54.587 Y24.834
X-55.053 Y24.683
X-55.507 Y24.493
X-55.946 Y24.267
X-56.368 Y24.005
X-56.768 Y23.709
X-57.144 Y23.381
X-57.494 Y23.023
X-57.814 Y22.637
X-58.104 Y22.226
X-58.36 Y21.791
X-58.581 Y21.336
X-58.765 Y20.864
X-58.911 Y20.378
X-59.018 Y19.881
X-59.084 Y19.376
X-59.11 Y18.867
X-59.094 Y18.357
X-59.038 Y17.849
X-58.941 Y17.347
X-58.804 Y16.853
X-58.628 Y16.372
X-58.414 Y15.907
X-58.162 Y15.459
X-57.876 Y15.033
X-57.556 Y14.632
X-57.205 Y14.257
X-56.824 Y13.911
X-56.417 Y13.597
X-55.986 Y13.316
X-55.534 Y13.071
X-55.063 Y12.863
X-54.577 Y12.694
X-54.079 Y12.564
X-53.572 Y12.474
X-53.059 Y12.425
X-52.544 Y12.418
X-52.03 Y12.452
X-51.52 Y12.527
X-51.015 Y12.643
X-50.518 Y12.8
X-50.032 Y12.999
X-49.559 Y13.238
X-49.101 Y13.517
X-48.661 Y13.837
X-48.244 Y14.195
X-47.853 Y14.588
X-47.492 Y15.015
X-47.165 Y15.472
X-46.876 Y15.954
X-46.625 Y16.459
X-46.417 Y16.981
X-46.251 Y17.517
X-46.129 Y18.063
X-46.052 Y18.616
X-46.019 Y19.171
X-46.031 Y19.724
X-46.087 Y20.273
X-46.187 Y20.815
X-46.33 Y21.345
X-46.514 Y21.862
X-46.739 Y22.362
X-47.004 Y22.842
X-47.306 Y23.299
X-47.645 Y23.732
X-48.018 Y24.136
X-48.423 Y24.51
X-48.858 Y24.852
X-49.32 Y25.158
X-49.807 Y25.427
X-50.317 Y25.657
X-50.845 Y25.846
X-51.388 Y25.993
X-51.944 Y26.096
X-52.509 Y26.155
X-53.079 Y26.168
X-53.65 Y26.135
X-54.219 Y26.056
X-54.782 Y25.931
X-55.335 Y25.761
X-55.874 Y25.546
X-56.396 Y25.287
X-56.897 Y24.987
X-57.374 Y24.647
X-57.824 Y24.268
X-58.242 Y23.853
X-58.627 Y23.405
X-58.976 Y22.926
X-59.285 Y22.42
X-59.554 Y21.89
X-59.78 Y21.339
X-59.96 Y20.77
X-60.095 Y20.188
X-60.183 Y19.596
X-60.223 Y18.999
X-60.215 Y18.399
X-60.159 Y17.801
X-60.055 Y17.21
X-59.904 Y16.628
X-59.706 Y16.059
X-59.463 Y15.508
X-59.177 Y14.978
X-58.848 Y14.472
X-58.48 Y13.994
X-58.075 Y13.547
X-57.635 Y13.134
X-57.163 Y12.758
X-56.663 Y12.42
X-56.136 Y12.123
X-55.588 Y11.87
X-55.02 Y11.662
X-54.438 Y11.499
X-53.845 Y11.384
X-53.244 Y11.317
X-52.639 Y11.298
X-52.034 Y11.328
X-51.431 Y11.407
X-50.835 Y11.534
X-50.248 Y11.71
X-49.672 Y11.933
X-49.112 Y12.205
X-48.571 Y12.523
X-48.054 Y12.886
X-47.563 Y13.293
X-47.103 Y13.741
X-46.678 Y14.227
X-46.292 Y14.748
X-45.948 Y15.3
X-45.649 Y15.879
X-45.398 Y16.48
X-45.195 Y17.098
X-45.044 Y17.729
X-44.943 Y18.369
X-44.895 Y19.014
X-44.898 Y19.658
X-44.953 Y20.299
X-45.059 Y20.932
X-45.215 Y21.553
X-45.42 Y22.159
X-45.673 Y22.747
X-45.973 Y23.312
X-46.317 Y23.851
X-46.703 Y24.362
X-47.13 Y24.84
X-47.594 Y25.284
X-48.094 Y25.69
X-48.626 Y26.055
X-49.188 Y26.377
X-49.775 Y26.654
X-50.384 Y26.884
X-51.012 Y27.065
X-51.655 Y27.195
X-52.308 Y27.273
X-52.967 Y27.299
X-53.629 Y27.272
X-54.289 Y27.191
X-54.942 Y27.057
X-55.584 Y26.871
X-56.211 Y26.633
X-56.819 Y26.345
X-57.403 Y26.008
X-57.96 Y25.624
X-58.486 Y25.195
X-58.977 Y24.725
X-59.429 Y24.215
X-59.84 Y23.67
X-60.207 Y23.093
X-60.526 Y22.487
X-60.796 Y21.856
X-61.015 Y21.204
X-61.182 Y20.537
X-61.294 Y19.857
X-61.352 Y19.169
X-61.354 Y18.479
X-61.3 Y17.79
X-61.192 Y17.106
X-61.029 Y16.434
X-60.812 Y15.776
X-60.543 Y15.137
X-60.223 Y14.522
X-59.855 Y13.933
X-59.441 Y13.377
X-58.983 Y12.855
X-58.484 Y12.371
X-57.949 Y11.928
X-57.379 Y11.53
X-56.779 Y11.179
X-56.152 Y10.877
X-55.504 Y10.627
X-54.837 Y10.429
X-54.156 Y10.285
X-53.466 Y10.197
X-52.77 Y10.164
X-52.073 Y10.187
X-51.379 Y10.266
X-50.691 Y10.401
X-50.012 Y10.591
X-49.348 Y10.837
X-48.701 Y11.138
X-48.076 Y11.491
X-47.478 Y11.896
X-46.915 Y12.348
X-46.389 Y12.843
X-45.904 Y13.378
X-45.463 Y13.949
X-45.068 Y14.553
X-44.721 Y15.186
X-44.425 Y15.845
X-44.181 Y16.524
X-43.991 Y17.221
X-43.856 Y17.93
X-43.777 Y18.648
X-43.754 Y19.37
X-43.789 Y20.091
X-43.88 Y20.807
X-44.027 Y21.514
X-44.23 Y22.206
X-44.488 Y22.881
X-44.798 Y23.533
X-45.158 Y24.159
X-45.567 Y24.754
X-46.022 Y25.314
X-46.52 Y25.837
X-47.057 Y26.319
X-47.631 Y26.758
X-48.238 Y27.149
X-48.873 Y27.492
X-49.533 Y27.785
X-50.214 Y28.025
X-50.912 Y28.211
X-51.622 Y28.343
X-52.339 Y28.419
X-53.061 Y28.44
X-53.782 Y28.405
X-54.499 Y28.315
X-55.206 Y28.17
X-55.9 Y27.97
X-56.576 Y27.718
X-57.232 Y27.415
X-57.862 Y27.064
X-58.465 Y26.666
X-59.036 Y26.224
X-59.572 Y25.74
X-60.07 Y25.218
X-60.528 Y24.66
X-60.943 Y24.069
X-61.314 Y23.449
X-61.637 Y22.804
X-61.682 Y22.693
X-61.705 Y22.629
X-61.721 Y22.563
X-61.731 Y22.496
X-62.177 Y17.951
X-62.201 Y17.443
X-62.189 Y17.057
X-62.135 Y16.58
X-62.029 Y16.039
X-61.874 Y15.49
X-61.648 Y14.876
X-61.351 Y14.237
X-60.995 Y13.608
X-60.592 Y13.009
X-60.144 Y12.443
X-59.656 Y11.911
X-59.13 Y11.417
X-58.568 Y10.963
X-57.974 Y10.553
X-57.351 Y10.188
X-56.702 Y9.871
X-56.032 Y9.603
X-55.8 Y9.529
X-55.731 Y9.511
X-55.66 Y9.5
X-55.589 Y9.496
X-50.82
X-50.373 Y9.519
X-49.987 Y9.569
X-49.502 Y9.673
X-49.016 Y9.818
X-48.45 Y10.039
X-47.837 Y10.336
X-47.215 Y10.703
X-46.623 Y11.117
X-46.065 Y11.574
X-45.541 Y12.072
X-45.056 Y12.607
X-44.611 Y13.175
X-44.206 Y13.773
X-43.843 Y14.397
X-43.524 Y15.045
X-43.251 Y15.713
X-43.124 Y16.093
X-43.1 Y16.188
X-43.09 Y16.284
X-43.092 Y16.382
X-43.744 Y23.033
X-43.794 Y23.365
X-43.863 Y23.664
X-43.977 Y24.02
X-44.139 Y24.416
X-44.378 Y24.887
X-44.661 Y25.35
X-45.04 Y25.87
X-45.504 Y26.409
X-46.017 Y26.917
X-46.567 Y27.385
X-47.149 Y27.812
X-47.76 Y28.197
X-48.397 Y28.536
X-49.057 Y28.828
X-49.736 Y29.074
X-50.431 Y29.272
X-51.137 Y29.422
X-51.852 Y29.524
X-52.572 Y29.577
X-53.294 Y29.581
X-54.014 Y29.536
X-54.73 Y29.44
X-55.437 Y29.294
X-56.132 Y29.099
X-56.813 Y28.857
X-57.475 Y28.57
X-58.117 Y28.239
X-58.735 Y27.867
X-59.328 Y27.454
X-59.891 Y27.003
X-60.423 Y26.515
X-60.92 Y25.991
X-61.315 Y25.513
X-61.393 Y25.398
X-61.446 Y25.271
X-61.473 Y25.135
X-61.731 Y22.496
G0 Z5
X-51.831 Y9.871
Z-2.4
G1 Z-2.7 F250
X-51.825 Y9.867 Z-2.767
X-51.806 Y9.856 Z-2.83
X-51.775 Y9.837 Z-2.887
X-51.734 Y9.813 Z-2.935
X-51.685 Y9.784 Z-2.97
X-51.631 Y9.752 Z-2.992
X-51.574 Y9.718 Z-3
G3 X-50.82 Y9.496 I0.809 J1.36
G1 X-48.197
X-47.965 Y9.508
X-47.745 Y9.537
X-47.489 Y9.591
X-47.172 Y9.686
X-46.848 Y9.812
X-46.438 Y10.012
X-46.013 Y10.261
X-45.533 Y10.599
X-45.008 Y11.035
X-44.491 Y11.539
X-44.014 Y12.08
X-43.575 Y12.654
X-43.174 Y13.254
X-42.954 Y13.636
X-42.895 Y13.768
X-42.865 Y13.91
X-42.864 Y14.054
X-43.092 Y16.382
G3 X-43.632 Y16.519 I-0.297 J-0.04
G1 X-43.674 Y16.461
X-48.349 Y10.082
X-48.429 Y9.973
G3 X-48.197 Y9.496 I0.242 J-0.177
G1 X-46.304
X-46.13 Y9.505
X-45.958 Y9.527
X-45.755 Y9.571
X-45.506 Y9.645
X-45.257 Y9.743
X-44.953 Y9.89
X-44.618 Y10.087
X-44.23 Y10.36
X-43.825 Y10.696
X-43.361 Y11.149
X-42.886 Y11.693
X-42.824 Y11.776
X-42.739 Y11.926
X-42.693 Y12.091
X-42.688 Y12.263
X-42.864 Y14.054
G3 X-43.402 Y14.193 I-0.297 J-0.04
G1 X-43.447 Y14.134
X-46.455 Y10.082
X-46.534 Y9.975
G3 X-46.304 Y9.496 I0.241 J-0.179
G1 X-44.664
X-44.514 Y9.504
X-44.342 Y9.529
X-44.166 Y9.569
X-43.961 Y9.633
X-43.713 Y9.733
X-43.469 Y9.856
X-43.166 Y10.04
X-42.863 Y10.258
X-42.773 Y10.336
X-42.644 Y10.481
X-42.56 Y10.657
X-42.527 Y10.849
X-42.549 Y11.043
X-42.555 Y11.066
X-42.586 Y11.23
X-42.688 Y12.263
G3 X-43.233 Y12.393 I-0.297 J-0.04
G1 X-43.269 Y12.341
X-44.819 Y10.085
X-44.901 Y9.966
G3 X-44.664 Y9.496 I0.247 J-0.17
G1 X-44.426
X-44.263 Y9.495
X-44.099 Y9.49
X-43.935 Y9.473
X-43.771 Y9.445
X-43.704 Y9.426
X-43.557 Y9.394
X-43.408 Y9.378
X-43.258
X-43.109 Y9.393
X-42.962 Y9.422
X-42.818 Y9.465
X-42.679 Y9.521
X-42.629 Y9.547
X-42.447 Y9.685
X-42.319 Y9.875
X-42.259 Y10.096
X-42.274 Y10.325
X-42.362 Y10.536
G3 X-42.775 Y10.62 I-0.249 J-0.167
G1 X-43.041 Y10.446
X-43.689 Y10.022
X-43.779 Y9.964
G3 X-43.704 Y9.426 I0.164 J-0.251
G1 X-43.607 Y9.4
X-43.443 Y9.337
X-43.279 Y9.262
X-43.115 Y9.166
X-42.986 Y9.089
X-42.841 Y9.049
X-42.692 Y9.034
X-42.619 Y9.04
X-42.405 Y9.09
X-42.218 Y9.204
X-42.074 Y9.37
X-41.989 Y9.572
X-41.97 Y9.791
X-42.019 Y10.005
X-42.131 Y10.193
G3 X-42.57 Y10.202 I-0.224 J-0.2
G1 X-42.775 Y9.992
X-42.949 Y9.813
X-43.145 Y9.611
G3 X-43.115 Y9.166 I0.215 J-0.209
G1 X-43.023 Y9.098
X-42.951 Y9.041
X-42.825 Y8.934
X-42.787 Y8.895
X-42.681 Y8.789
X-42.545 Y8.726
X-42.398 Y8.696
X-42.248
