(1001)
(Machine)
(  vendor: Autodesk)
(  description: Generic 3-axis)
(T3  D=3 CR=0 - ZMIN=-1.3 - flat end mill)
G90 G94
G17
G21

(2D Pocket6)
T3
S1000 M3
G54
M8
G0 X-48.461 Y23.218
Z18
Z5
G1 Z2.8 F250
G19 G3 Y23.507 Z2.5 J0.3 K0 F333.3
G1 Y25.413 Z2.433
G17 G3 X-48.961 Y25.913 Z2.406 I-0.5 J0
G1 X-56.461 Z2.144
G3 X-56.961 Y25.413 Z2.117 I0 J-0.5
G1 Y21.663 Z1.986
G3 X-55.961 Y21.663 Z1.931 I0.5 J0
G1 Y23.413 Z1.87
G2 X-54.461 Y24.913 Z1.787 I1.5 J0
G1 X-50.961 Z1.665
G2 X-49.461 Y23.413 Z1.583 I0 J-1.5
G1 Y21.663 Z1.522
G3 X-48.461 Y21.663 Z1.467 I0.5 J0
G1 Y25.413 Z1.336
G3 X-48.961 Y25.913 Z1.309 I-0.5 J0
G1 X-56.461 Z1.047
G3 X-56.961 Y25.413 Z1.019 I0 J-0.5
G1 Y21.663 Z0.888
G3 X-55.961 Y21.663 Z0.834 I0.5 J0
G1 Y23.413 Z0.772
G2 X-54.461 Y24.913 Z0.69 I1.5 J0
G1 X-50.961 Z0.568
G2 X-49.461 Y23.413 Z0.486 I0 J-1.5
G1 Y21.663 Z0.425
G3 X-48.461 Y21.663 Z0.37 I0.5 J0
G1 Y25.413 Z0.239
G3 X-48.961 Y25.913 Z0.211 I-0.5 J0
G1 X-56.461 Z-0.051
G3 X-56.961 Y25.413 Z-0.078 I0 J-0.5
G1 Y24.785 Z-0.1
Y21.663 F250
G3 X-55.961 Y21.663 I0.5 J0
G1 Y23.413
G2 X-54.461 Y24.913 I1.5 J0
G1 X-50.961
G2 X-49.461 Y23.413 I0 J-1.5
G1 Y21.663
G3 X-48.461 Y21.663 I0.5 J0
G1 Y25.413
G3 X-48.961 Y25.913 I-0.5 J0
G1 X-56.461
G3 X-56.961 Y25.413 I0 J-0.5
G1 Y24.785
Y21.921 Z-0.2 F333.3
Y21.663 F250
G3 X-55.961 Y21.663 I0.5 J0
G1 Y23.413
G2 X-54.461 Y24.913 I1.5 J0
G1 X-50.961
G2 X-49.461 Y23.413 I0 J-1.5
G1 Y21.663
G3 X-48.461 Y21.663 I0.5 J0
G1 Y25.413
G3 X-48.961 Y25.913 I-0.5 J0
G1 X-56.461
G3 X-56.961 Y25.413 I0 J-0.5
G1 Y21.921
Y21.663 Z-0.209 F333.3
G3 X-55.961 Y21.663 Z-0.264 I0.5 J0
G1 Y22.698 Z-0.3
Y23.413 F250
G2 X-54.461 Y24.913 I1.5 J0
G1 X-50.961
G2 X-49.461 Y23.413 I0 J-1.5
G1 Y21.663
G3 X-48.461 Y21.663 I0.5 J0
G1 Y25.413
G3 X-48.961 Y25.913 I-0.5 J0
G1 X-56.461
G3 X-56.961 Y25.413 I0 J-0.5
G1 Y21.921
Y21.663
G3 X-55.961 Y21.663 I0.5 J0
G1 Y22.698
Y23.413 Z-0.325 F333.3
G2 X-54.669 Y24.899 Z-0.4 I1.5 J0
G1 X-54.565 Y24.909 F250
X-54.461 Y24.913
X-50.961
G2 X-49.461 Y23.413 I0 J-1.5
G1 Y21.663
G3 X-48.461 Y21.663 I0.5 J0
G1 Y25.413
G3 X-48.961 Y25.913 I-0.5 J0
G1 X-56.461
G3 X-56.961 Y25.413 I0 J-0.5
G1 Y21.663
G3 X-55.961 Y21.663 I0.5 J0
G1 Y22.698
Y23.413
G2 X-54.669 Y24.899 I1.5 J0
G1 X-54.565 Y24.909 Z-0.404 F333.3
X-54.461 Y24.913 Z-0.407
X-51.806 Z-0.5
X-50.961 F250
G2 X-49.461 Y23.413 I0 J-1.5
G1 Y21.663
G3 X-48.461 Y21.663 I0.5 J0
G1 Y25.413
G3 X-48.961 Y25.913 I-0.5 J0
G1 X-56.461
G3 X-56.961 Y25.413 I0 J-0.5
G1 Y21.663
G3 X-55.961 Y21.663 I0.5 J0
G1 Y23.413
G2 X-54.461 Y24.913 I1.5 J0
G1 X-51.806
X-50.961 Z-0.529 F333.3
G2 X-49.499 Y23.747 Z-0.6 I0 J-1.5
X-49.461 Y23.413 I-1.462 J-0.334 F250
G1 Y21.663
G3 X-48.461 Y21.663 I0.5 J0
G1 Y25.413
G3 X-48.961 Y25.913 I-0.5 J0
G1 X-56.461
G3 X-56.961 Y25.413 I0 J-0.5
G1 Y21.663
G3 X-55.961 Y21.663 I0.5 J0
G1 Y23.413
G2 X-54.461 Y24.913 I1.5 J0
G1 X-51.806
X-50.961
G2 X-49.499 Y23.747 I0 J-1.5
X-49.461 Y23.413 Z-0.612 I-1.462 J-0.334 F333.3
G1 Y21.663 Z-0.673
G3 X-48.97 Y21.163 Z-0.7 I0.5 J0
X-48.461 Y21.663 I0.009 J0.5 F250
G1 Y25.413
G3 X-48.961 Y25.913 I-0.5 J0
G1 X-56.461
G3 X-56.961 Y25.413 I0 J-0.5
G1 Y21.663
G3 X-55.961 Y21.663 I0.5 J0
G1 Y23.413
G2 X-54.461 Y24.913 I1.5 J0
G1 X-50.961
G2 X-49.461 Y23.413 I0 J-1.5
G1 Y21.663
G3 X-48.97 Y21.163 I0.5 J0
X-48.461 Y21.663 Z-0.728 I0.009 J0.5 F333.3
G1 Y23.732 Z-0.8
Y25.413 F250
G3 X-48.961 Y25.913 I-0.5 J0
G1 X-56.461
G3 X-56.961 Y25.413 I0 J-0.5
G1 Y21.663
G3 X-55.961 Y21.663 I0.5 J0
G1 Y23.413
G2 X-54.461 Y24.913 I1.5 J0
G1 X-50.961
G2 X-49.461 Y23.413 I0 J-1.5
G1 Y21.663
G3 X-48.461 Y21.663 I0.5 J0
G1 Y23.732
Y25.413 Z-0.859 F333.3
G3 X-48.961 Y25.913 Z-0.886 I-0.5 J0
G1 X-49.359 Z-0.9
X-56.461 F250
G3 X-56.961 Y25.413 I0 J-0.5
G1 Y21.663
G3 X-55.961 Y21.663 I0.5 J0
G1 Y23.413
G2 X-54.461 Y24.913 I1.5 J0
G1 X-50.961
G2 X-49.461 Y23.413 I0 J-1.5
G1 Y21.663
G3 X-48.461 Y21.663 I0.5 J0
G1 Y23.732
Y25.413
G3 X-48.961 Y25.913 I-0.5 J0
G1 X-49.359
X-52.223 Z-1 F333.3
X-56.461 F250
G3 X-56.961 Y25.413 I0 J-0.5
G1 Y21.663
G3 X-55.961 Y21.663 I0.5 J0
G1 Y23.413
G2 X-54.461 Y24.913 I1.5 J0
G1 X-50.961
G2 X-49.461 Y23.413 I0 J-1.5
G1 Y21.663
G3 X-48.461 Y21.663 I0.5 J0
G1 Y25.413
G3 X-48.961 Y25.913 I-0.5 J0
G1 X-52.223
X-55.087 Z-1.1 F333.3
X-56.461 F250
G3 X-56.961 Y25.413 I0 J-0.5
G1 Y21.663
G3 X-55.961 Y21.663 I0.5 J0
G1 Y23.413
G2 X-54.461 Y24.913 I1.5 J0
G1 X-50.961
G2 X-49.461 Y23.413 I0 J-1.5
G1 Y21.663
G3 X-48.461 Y21.663 I0.5 J0
G1 Y25.413
G3 X-48.961 Y25.913 I-0.5 J0
G1 X-52.223
X-55.087
X-56.461 Z-1.148 F333.3
G3 X-56.961 Y25.413 Z-1.175 I0 J-0.5
G1 Y24.71 Z-1.2
Y21.663 F250
G3 X-55.961 Y21.663 I0.5 J0
G1 Y23.413
G2 X-54.461 Y24.913 I1.5 J0
G1 X-50.961
G2 X-49.461 Y23.413 I0 J-1.5
G1 Y21.663
G3 X-48.461 Y21.663 I0.5 J0
G1 Y25.413
G3 X-48.961 Y25.913 I-0.5 J0
G1 X-55.087
X-56.461
G3 X-56.961 Y25.413 I0 J-0.5
G1 Y24.71
Y21.846 Z-1.3 F333.3
Y21.663 F250
G3 X-55.961 Y21.663 I0.5 J0
G1 Y23.413
G2 X-54.461 Y24.913 I1.5 J0
G1 X-50.961
G2 X-49.461 Y23.413 I0 J-1.5
G1 Y21.663
G3 X-48.461 Y21.663 I0.5 J0
G1 Y25.413
G3 X-48.961 Y25.913 I-0.5 J0
G1 X-56.461
G3 X-56.961 Y25.413 I0 J-0.5
G1 Y21.846
X-56.956 Y21.789 Z-1.289
X-56.94 Y21.734 Z-1.277
X-56.918 Y21.691 Z-1.245
X-56.89 Y21.651 Z-1.212
X-56.842 Y21.607 Z-1.115
X-56.824 Y21.594 Z-1
G0 Z18
X-13.462 Y23.218
Z5
G1 Z2.8 F250
G19 G3 Y23.507 Z2.5 J0.3 K0 F333.3
G1 Y25.413 Z2.433
G17 G3 X-13.962 Y25.913 Z2.406 I-0.5 J0
G1 X-21.462 Z2.144
G3 X-21.962 Y25.413 Z2.117 I0 J-0.5
G1 Y21.663 Z1.986
G3 X-20.962 Y21.663 Z1.931 I0.5 J0
G1 Y23.413 Z1.87
G2 X-19.462 Y24.913 Z1.787 I1.5 J0
G1 X-15.962 Z1.665
G2 X-14.462 Y23.413 Z1.583 I0 J-1.5
G1 Y21.663 Z1.522
G3 X-13.462 Y21.663 Z1.467 I0.5 J0
G1 Y25.413 Z1.336
G3 X-13.962 Y25.913 Z1.309 I-0.5 J0
G1 X-21.462 Z1.047
G3 X-21.962 Y25.413 Z1.019 I0 J-0.5
G1 Y21.663 Z0.888
G3 X-20.962 Y21.663 Z0.834 I0.5 J0
G1 Y23.413 Z0.772
G2 X-19.462 Y24.913 Z0.69 I1.5 J0
G1 X-15.962 Z0.568
G2 X-14.462 Y23.413 Z0.486 I0 J-1.5
G1 Y21.663 Z0.425
G3 X-13.462 Y21.663 Z0.37 I0.5 J0
G1 Y25.413 Z0.239
G3 X-13.962 Y25.913 Z0.211 I-0.5 J0
G1 X-21.462 Z-0.051
G3 X-21.962 Y25.413 Z-0.078 I0 J-0.5
G1 Y24.785 Z-0.1
Y21.663 F250
G3 X-20.962 Y21.663 I0.5 J0
G1 Y23.413
G2 X-19.462 Y24.913 I1.5 J0
G1 X-15.962
G2 X-14.462 Y23.413 I0 J-1.5
G1 Y21.663
G3 X-13.462 Y21.663 I0.5 J0
G1 Y25.413
G3 X-13.962 Y25.913 I-0.5 J0
G1 X-21.462
G3 X-21.962 Y25.413 I0 J-0.5
G1 Y24.785
Y21.921 Z-0.2 F333.3
Y21.663 F250
G3 X-20.962 Y21.663 I0.5 J0
G1 Y23.413
G2 X-19.462 Y24.913 I1.5 J0
G1 X-15.962
G2 X-14.462 Y23.413 I0 J-1.5
G1 Y21.663
G3 X-13.462 Y21.663 I0.5 J0
G1 Y25.413
G3 X-13.962 Y25.913 I-0.5 J0
G1 X-21.462
G3 X-21.962 Y25.413 I0 J-0.5
G1 Y21.921
Y21.663 Z-0.209 F333.3
G3 X-20.962 Y21.663 Z-0.264 I0.5 J0
G1 Y22.698 Z-0.3
Y23.413 F250
G2 X-19.462 Y24.913 I1.5 J0
G1 X-15.962
G2 X-14.462 Y23.413 I0 J-1.5
G1 Y21.663
G3 X-13.462 Y21.663 I0.5 J0
G1 Y25.413
G3 X-13.962 Y25.913 I-0.5 J0
G1 X-21.462
G3 X-21.962 Y25.413 I0 J-0.5
G1 Y21.921
Y21.663
G3 X-20.962 Y21.663 I0.5 J0
G1 Y22.698
Y23.413 Z-0.325 F333.3
G2 X-19.669 Y24.899 Z-0.4 I1.5 J0
G1 X-19.565 Y24.909 F250
X-19.462 Y24.913
X-15.962
G2 X-14.462 Y23.413 I0 J-1.5
G1 Y21.663
G3 X-13.462 Y21.663 I0.5 J0
G1 Y25.413
G3 X-13.962 Y25.913 I-0.5 J0
G1 X-21.462
G3 X-21.962 Y25.413 I0 J-0.5
G1 Y21.663
G3 X-20.962 Y21.663 I0.5 J0
G1 Y22.698
Y23.413
G2 X-19.669 Y24.899 I1.5 J0
G1 X-19.565 Y24.909 Z-0.404 F333.3
X-19.462 Y24.913 Z-0.407
X-16.806 Z-0.5
X-15.962 F250
G2 X-14.462 Y23.413 I0 J-1.5
G1 Y21.663
G3 X-13.462 Y21.663 I0.5 J0
G1 Y25.413
G3 X-13.962 Y25.913 I-0.5 J0
G1 X-21.462
G3 X-21.962 Y25.413 I0 J-0.5
G1 Y21.663
G3 X-20.962 Y21.663 I0.5 J0
G1 Y23.413
G2 X-19.462 Y24.913 I1.5 J0
G1 X-16.806
X-15.962 Z-0.529 F333.3
G2 X-14.499 Y23.747 Z-0.6 I0 J-1.5
X-14.462 Y23.413 I-1.462 J-0.334 F250
G1 Y21.663
G3 X-13.462 Y21.663 I0.5 J0
G1 Y25.413
G3 X-13.962 Y25.913 I-0.5 J0
G1 X-21.462
G3 X-21.962 Y25.413 I0 J-0.5
G1 Y21.663
G3 X-20.962 Y21.663 I0.5 J0
G1 Y23.413
G2 X-19.462 Y24.913 I1.5 J0
G1 X-16.806
X-15.962
G2 X-14.499 Y23.747 I0 J-1.5
X-14.462 Y23.413 Z-0.612 I-1.462 J-0.334 F333.3
G1 Y21.663 Z-0.673
G3 X-13.97 Y21.163 Z-0.7 I0.5 J0
X-13.462 Y21.663 I0.009 J0.5 F250
G1 Y25.413
G3 X-13.962 Y25.913 I-0.5 J0
G1 X-21.462
G3 X-21.962 Y25.413 I0 J-0.5
G1 Y21.663
G3 X-20.962 Y21.663 I0.5 J0
G1 Y23.413
G2 X-19.462 Y24.913 I1.5 J0
G1 X-15.962
G2 X-14.462 Y23.413 I0 J-1.5
G1 Y21.663
G3 X-13.97 Y21.163 I0.5 J0
X-13.462 Y21.663 Z-0.728 I0.009 J0.5 F333.3
G1 Y23.732 Z-0.8
Y25.413 F250
G3 X-13.962 Y25.913 I-0.5 J0
G1 X-21.462
G3 X-21.962 Y25.413 I0 J-0.5
G1 Y21.663
G3 X-20.962 Y21.663 I0.5 J0
G1 Y23.413
G2 X-19.462 Y24.913 I1.5 J0
G1 X-15.962
G2 X-14.462 Y23.413 I0 J-1.5
G1 Y21.663
G3 X-13.462 Y21.663 I0.5 J0
G1 Y23.732
Y25.413 Z-0.859 F333.3
G3 X-13.962 Y25.913 Z-0.886 I-0.5 J0
G1 X-14.359 Z-0.9
X-21.462 F250
G3 X-21.962 Y25.413 I0 J-0.5
G1 Y21.663
G3 X-20.962 Y21.663 I0.5 J0
G1 Y23.413
G2 X-19.462 Y24.913 I1.5 J0
G1 X-15.962
G2 X-14.462 Y23.413 I0 J-1.5
G1 Y21.663
G3 X-13.462 Y21.663 I0.5 J0
G1 Y23.732
Y25.413
G3 X-13.962 Y25.913 I-0.5 J0
G1 X-14.359
X-17.223 Z-1 F333.3
X-21.462 F250
G3 X-21.962 Y25.413 I0 J-0.5
G1 Y21.663
G3 X-20.962 Y21.663 I0.5 J0
G1 Y23.413
G2 X-19.462 Y24.913 I1.5 J0
G1 X-15.962
G2 X-14.462 Y23.413 I0 J-1.5
G1 Y21.663
G3 X-13.462 Y21.663 I0.5 J0
G1 Y25.413
G3 X-13.962 Y25.913 I-0.5 J0
G1 X-17.223
X-20.087 Z-1.1 F333.3
X-21.462 F250
G3 X-21.962 Y25.413 I0 J-0.5
G1 Y21.663
G3 X-20.962 Y21.663 I0.5 J0
G1 Y23.413
G2 X-19.462 Y24.913 I1.5 J0
G1 X-15.962
G2 X-14.462 Y23.413 I0 J-1.5
G1 Y21.663
G3 X-13.462 Y21.663 I0.5 J0
G1 Y25.413
G3 X-13.962 Y25.913 I-0.5 J0
G1 X-17.223
X-20.087
X-21.462 Z-1.148 F333.3
G3 X-21.962 Y25.413 Z-1.175 I0 J-0.5
G1 Y24.71 Z-1.2
Y21.663 F250
G3 X-20.962 Y21.663 I0.5 J0
G1 Y23.413
G2 X-19.462 Y24.913 I1.5 J0
G1 X-15.962
G2 X-14.462 Y23.413 I0 J-1.5
G1 Y21.663
G3 X-13.462 Y21.663 I0.5 J0
G1 Y25.413
G3 X-13.962 Y25.913 I-0.5 J0
G1 X-20.087
X-21.462
G3 X-21.962 Y25.413 I0 J-0.5
G1 Y24.71
Y21.846 Z-1.3 F333.3
Y21.663 F250
G3 X-20.962 Y21.663 I0.5 J0
G1 Y23.413
G2 X-19.462 Y24.913 I1.5 J0
G1 X-15.962
G2 X-14.462 Y23.413 I0 J-1.5
G1 Y21.663
G3 X-13.462 Y21.663 I0.5 J0
G1 Y25.413
G3 X-13.962 Y25.913 I-0.5 J0
G1 X-21.462
G3 X-21.962 Y25.413 I0 J-0.5
G1 Y21.846
X-21.956 Y21.789 Z-1.289
X-21.94 Y21.734 Z-1.277
X-21.918 Y21.691 Z-1.245
X-21.89 Y21.651 Z-1.212
X-21.842 Y21.607 Z-1.115
X-21.824 Y21.594 Z-1
G0 Z18
X21.538 Y23.218
Z5
G1 Z2.8 F250
G19 G3 Y23.507 Z2.5 J0.3 K0 F333.3
G1 Y25.413 Z2.433
G17 G3 X21.038 Y25.913 Z2.406 I-0.5 J0
G1 X13.538 Z2.144
G3 X13.038 Y25.413 Z2.117 I0 J-0.5
G1 Y21.663 Z1.986
G3 X14.038 Y21.663 Z1.931 I0.5 J0
G1 Y23.413 Z1.87
G2 X15.538 Y24.913 Z1.787 I1.5 J0
G1 X19.038 Z1.665
G2 X20.538 Y23.413 Z1.583 I0 J-1.5
G1 Y21.663 Z1.522
G3 X21.538 Y21.663 Z1.467 I0.5 J0
G1 Y25.413 Z1.336
G3 X21.038 Y25.913 Z1.309 I-0.5 J0
G1 X13.538 Z1.047
G3 X13.038 Y25.413 Z1.019 I0 J-0.5
G1 Y21.663 Z0.888
G3 X14.038 Y21.663 Z0.834 I0.5 J0
G1 Y23.413 Z0.772
G2 X15.538 Y24.913 Z0.69 I1.5 J0
G1 X19.038 Z0.568
G2 X20.538 Y23.413 Z0.486 I0 J-1.5
G1 Y21.663 Z0.425
G3 X21.538 Y21.663 Z0.37 I0.5 J0
G1 Y25.413 Z0.239
G3 X21.038 Y25.913 Z0.211 I-0.5 J0
G1 X13.538 Z-0.051
G3 X13.038 Y25.413 Z-0.078 I0 J-0.5
G1 Y24.785 Z-0.1
Y21.663 F250
G3 X14.038 Y21.663 I0.5 J0
G1 Y23.413
G2 X15.538 Y24.913 I1.5 J0
G1 X19.038
G2 X20.538 Y23.413 I0 J-1.5
G1 Y21.663
G3 X21.538 Y21.663 I0.5 J0
G1 Y25.413
G3 X21.038 Y25.913 I-0.5 J0
G1 X13.538
G3 X13.038 Y25.413 I0 J-0.5
G1 Y24.785
Y21.921 Z-0.2 F333.3
Y21.663 F250
G3 X14.038 Y21.663 I0.5 J0
G1 Y23.413
G2 X15.538 Y24.913 I1.5 J0
G1 X19.038
G2 X20.538 Y23.413 I0 J-1.5
G1 Y21.663
G3 X21.538 Y21.663 I0.5 J0
G1 Y25.413
G3 X21.038 Y25.913 I-0.5 J0
G1 X13.538
G3 X13.038 Y25.413 I0 J-0.5
G1 Y21.921
Y21.663 Z-0.209 F333.3
G3 X14.038 Y21.663 Z-0.264 I0.5 J0
G1 Y22.698 Z-0.3
Y23.413 F250
G2 X15.538 Y24.913 I1.5 J0
G1 X19.038
G2 X20.538 Y23.413 I0 J-1.5
G1 Y21.663
G3 X21.538 Y21.663 I0.5 J0
G1 Y25.413
G3 X21.038 Y25.913 I-0.5 J0
G1 X13.538
G3 X13.038 Y25.413 I0 J-0.5
G1 Y21.921
Y21.663
G3 X14.038 Y21.663 I0.5 J0
G1 Y22.698
Y23.413 Z-0.325 F333.3
G2 X15.331 Y24.899 Z-0.4 I1.5 J0
G1 X15.435 Y24.909 F250
X15.538 Y24.913
X19.038
G2 X20.538 Y23.413 I0 J-1.5
G1 Y21.663
G3 X21.538 Y21.663 I0.5 J0
G1 Y25.413
G3 X21.038 Y25.913 I-0.5 J0
G1 X13.538
G3 X13.038 Y25.413 I0 J-0.5
G1 Y21.663
G3 X14.038 Y21.663 I0.5 J0
G1 Y22.698
Y23.413
G2 X15.331 Y24.899 I1.5 J0
G1 X15.435 Y24.909 Z-0.404 F333.3
X15.538 Y24.913 Z-0.407
X18.194 Z-0.5
X19.038 F250
G2 X20.538 Y23.413 I0 J-1.5
G1 Y21.663
G3 X21.538 Y21.663 I0.5 J0
G1 Y25.413
G3 X21.038 Y25.913 I-0.5 J0
G1 X13.538
G3 X13.038 Y25.413 I0 J-0.5
G1 Y21.663
G3 X14.038 Y21.663 I0.5 J0
G1 Y23.413
G2 X15.538 Y24.913 I1.5 J0
G1 X18.194
X19.038 Z-0.529 F333.3
G2 X20.501 Y23.747 Z-0.6 I0 J-1.5
X20.538 Y23.413 I-1.462 J-0.334 F250
G1 Y21.663
G3 X21.538 Y21.663 I0.5 J0
G1 Y25.413
G3 X21.038 Y25.913 I-0.5 J0
G1 X13.538
G3 X13.038 Y25.413 I0 J-0.5
G1 Y21.663
G3 X14.038 Y21.663 I0.5 J0
G1 Y23.413
G2 X15.538 Y24.913 I1.5 J0
G1 X18.194
X19.038
G2 X20.501 Y23.747 I0 J-1.5
X20.538 Y23.413 Z-0.612 I-1.462 J-0.334 F333.3
G1 Y21.663 Z-0.673
G3 X21.03 Y21.163 Z-0.7 I0.5 J0
X21.538 Y21.663 I0.009 J0.5 F250
G1 Y25.413
G3 X21.038 Y25.913 I-0.5 J0
G1 X13.538
G3 X13.038 Y25.413 I0 J-0.5
G1 Y21.663
G3 X14.038 Y21.663 I0.5 J0
G1 Y23.413
G2 X15.538 Y24.913 I1.5 J0
G1 X19.038
G2 X20.538 Y23.413 I0 J-1.5
G1 Y21.663
G3 X21.03 Y21.163 I0.5 J0
X21.538 Y21.663 Z-0.728 I0.009 J0.5 F333.3
G1 Y23.732 Z-0.8
Y25.413 F250
G3 X21.038 Y25.913 I-0.5 J0
G1 X13.538
G3 X13.038 Y25.413 I0 J-0.5
G1 Y21.663
G3 X14.038 Y21.663 I0.5 J0
G1 Y23.413
G2 X15.538 Y24.913 I1.5 J0
G1 X19.038
G2 X20.538 Y23.413 I0 J-1.5
G1 Y21.663
G3 X21.538 Y21.663 I0.5 J0
G1 Y23.732
Y25.413 Z-0.859 F333.3
G3 X21.038 Y25.913 Z-0.886 I-0.5 J0
G1 X20.641 Z-0.9
X13.538 F250
G3 X13.038 Y25.413 I0 J-0.5
G1 Y21.663
G3 X14.038 Y21.663 I0.5 J0
G1 Y23.413
G2 X15.538 Y24.913 I1.5 J0
G1 X19.038
G2 X20.538 Y23.413 I0 J-1.5
G1 Y21.663
G3 X21.538 Y21.663 I0.5 J0
G1 Y23.732
Y25.413
G3 X21.038 Y25.913 I-0.5 J0
G1 X20.641
X17.777 Z-1 F333.3
X13.538 F250
G3 X13.038 Y25.413 I0 J-0.5
G1 Y21.663
G3 X14.038 Y21.663 I0.5 J0
G1 Y23.413
G2 X15.538 Y24.913 I1.5 J0
G1 X19.038
G2 X20.538 Y23.413 I0 J-1.5
G1 Y21.663
G3 X21.538 Y21.663 I0.5 J0
G1 Y25.413
G3 X21.038 Y25.913 I-0.5 J0
G1 X17.777
X14.913 Z-1.1 F333.3
X13.538 F250
G3 X13.038 Y25.413 I0 J-0.5
G1 Y21.663
G3 X14.038 Y21.663 I0.5 J0
G1 Y23.413
G2 X15.538 Y24.913 I1.5 J0
G1 X19.038
G2 X20.538 Y23.413 I0 J-1.5
G1 Y21.663
G3 X21.538 Y21.663 I0.5 J0
G1 Y25.413
G3 X21.038 Y25.913 I-0.5 J0
G1 X17.777
X14.913
X13.538 Z-1.148 F333.3
G3 X13.038 Y25.413 Z-1.175 I0 J-0.5
G1 Y24.71 Z-1.2
Y21.663 F250
G3 X14.038 Y21.663 I0.5 J0
G1 Y23.413
G2 X15.538 Y24.913 I1.5 J0
G1 X19.038
G2 X20.538 Y23.413 I0 J-1.5
G1 Y21.663
G3 X21.538 Y21.663 I0.5 J0
G1 Y25.413
G3 X21.038 Y25.913 I-0.5 J0
G1 X14.913
X13.538
G3 X13.038 Y25.413 I0 J-0.5
G1 Y24.71
Y21.846 Z-1.3 F333.3
Y21.663 F250
G3 X14.038 Y21.663 I0.5 J0
G1 Y23.413
G2 X15.538 Y24.913 I1.5 J0
G1 X19.038
G2 X20.538 Y23.413 I0 J-1.5
G1 Y21.663
G3 X21.538 Y21.663 I0.5 J0
G1 Y25.413
G3 X21.038 Y25.913 I-0.5 J0
G1 X13.538
G3 X13.038 Y25.413 I0 J-0.5
G1 Y21.846
X13.044 Y21.789 Z-1.289
X13.06 Y21.734 Z-1.277
X13.082 Y21.691 Z-1.245
X13.11 Y21.651 Z-1.212
X13.158 Y21.607 Z-1.115
X13.176 Y21.594 Z-1
G0 Z18
X56.539 Y-17.782
Z5
G1 Z2.8 F250
G19 G3 Y-17.493 Z2.5 J0.3 K0 F333.3
G1 Y-15.587 Z2.433
G17 G3 X56.039 Y-15.087 Z2.406 I-0.5 J0
G1 X48.539 Z2.144
G3 X48.039 Y-15.587 Z2.117 I0 J-0.5
G1 Y-19.337 Z1.986
G3 X49.039 Y-19.337 Z1.931 I0.5 J0
G1 Y-17.587 Z1.87
G2 X50.539 Y-16.087 Z1.787 I1.5 J0
G1 X54.039 Z1.665
G2 X55.539 Y-17.587 Z1.583 I0 J-1.5
G1 Y-19.337 Z1.522
G3 X56.539 Y-19.337 Z1.467 I0.5 J0
G1 Y-15.587 Z1.336
G3 X56.039 Y-15.087 Z1.309 I-0.5 J0
G1 X48.539 Z1.047
G3 X48.039 Y-15.587 Z1.019 I0 J-0.5
G1 Y-19.337 Z0.888
G3 X49.039 Y-19.337 Z0.834 I0.5 J0
G1 Y-17.587 Z0.772
G2 X50.539 Y-16.087 Z0.69 I1.5 J0
G1 X54.039 Z0.568
G2 X55.539 Y-17.587 Z0.486 I0 J-1.5
G1 Y-19.337 Z0.425
G3 X56.539 Y-19.337 Z0.37 I0.5 J0
G1 Y-15.587 Z0.239
G3 X56.039 Y-15.087 Z0.211 I-0.5 J0
G1 X48.539 Z-0.051
G3 X48.039 Y-15.587 Z-0.078 I0 J-0.5
G1 Y-16.215 Z-0.1
Y-19.337 F250
G3 X49.039 Y-19.337 I0.5 J0
G1 Y-17.587
G2 X50.539 Y-16.087 I1.5 J0
G1 X54.039
G2 X55.539 Y-17.587 I0 J-1.5
G1 Y-19.337
G3 X56.539 Y-19.337 I0.5 J0
G1 Y-15.587
G3 X56.039 Y-15.087 I-0.5 J0
G1 X48.539
G3 X48.039 Y-15.587 I0 J-0.5
G1 Y-16.215
Y-19.079 Z-0.2 F333.3
Y-19.337 F250
G3 X49.039 Y-19.337 I0.5 J0
G1 Y-17.587
G2 X50.539 Y-16.087 I1.5 J0
G1 X54.039
G2 X55.539 Y-17.587 I0 J-1.5
G1 Y-19.337
G3 X56.539 Y-19.337 I0.5 J0
G1 Y-15.587
G3 X56.039 Y-15.087 I-0.5 J0
G1 X48.539
G3 X48.039 Y-15.587 I0 J-0.5
G1 Y-19.079
Y-19.337 Z-0.209 F333.3
G3 X49.039 Y-19.337 Z-0.264 I0.5 J0
G1 Y-18.302 Z-0.3
Y-17.587 F250
G2 X50.539 Y-16.087 I1.5 J0
G1 X54.039
G2 X55.539 Y-17.587 I0 J-1.5
G1 Y-19.337
G3 X56.539 Y-19.337 I0.5 J0
G1 Y-15.587
G3 X56.039 Y-15.087 I-0.5 J0
G1 X48.539
G3 X48.039 Y-15.587 I0 J-0.5
G1 Y-19.079
Y-19.337
G3 X49.039 Y-19.337 I0.5 J0
G1 Y-18.302
Y-17.587 Z-0.325 F333.3
G2 X50.331 Y-16.101 Z-0.4 I1.5 J0
G1 X50.435 Y-16.091 F250
X50.539 Y-16.087
X54.039
G2 X55.539 Y-17.587 I0 J-1.5
G1 Y-19.337
G3 X56.539 Y-19.337 I0.5 J0
G1 Y-15.587
G3 X56.039 Y-15.087 I-0.5 J0
G1 X48.539
G3 X48.039 Y-15.587 I0 J-0.5
G1 Y-19.337
G3 X49.039 Y-19.337 I0.5 J0
G1 Y-18.302
Y-17.587
G2 X50.331 Y-16.101 I1.5 J0
G1 X50.435 Y-16.091 Z-0.404 F333.3
X50.539 Y-16.087 Z-0.407
X53.194 Z-0.5
X54.039 F250
G2 X55.539 Y-17.587 I0 J-1.5
G1 Y-19.337
G3 X56.539 Y-19.337 I0.5 J0
G1 Y-15.587
G3 X56.039 Y-15.087 I-0.5 J0
G1 X48.539
G3 X48.039 Y-15.587 I0 J-0.5
G1 Y-19.337
G3 X49.039 Y-19.337 I0.5 J0
G1 Y-17.587
G2 X50.539 Y-16.087 I1.5 J0
G1 X53.194
X54.039 Z-0.529 F333.3
G2 X55.501 Y-17.253 Z-0.6 I0 J-1.5
X55.539 Y-17.587 I-1.462 J-0.334 F250
G1 Y-19.337
G3 X56.539 Y-19.337 I0.5 J0
G1 Y-15.587
G3 X56.039 Y-15.087 I-0.5 J0
G1 X48.539
G3 X48.039 Y-15.587 I0 J-0.5
G1 Y-19.337
G3 X49.039 Y-19.337 I0.5 J0
G1 Y-17.587
G2 X50.539 Y-16.087 I1.5 J0
G1 X53.194
X54.039
G2 X55.501 Y-17.253 I0 J-1.5
X55.539 Y-17.587 Z-0.612 I-1.462 J-0.334 F333.3
G1 Y-19.337 Z-0.673
G3 X56.03 Y-19.837 Z-0.7 I0.5 J0
X56.539 Y-19.337 I0.009 J0.5 F250
G1 Y-15.587
G3 X56.039 Y-15.087 I-0.5 J0
G1 X48.539
G3 X48.039 Y-15.587 I0 J-0.5
G1 Y-19.337
G3 X49.039 Y-19.337 I0.5 J0
G1 Y-17.587
G2 X50.539 Y-16.087 I1.5 J0
G1 X54.039
G2 X55.539 Y-17.587 I0 J-1.5
G1 Y-19.337
G3 X56.03 Y-19.837 I0.5 J0
X56.539 Y-19.337 Z-0.728 I0.009 J0.5 F333.3
G1 Y-17.268 Z-0.8
Y-15.587 F250
G3 X56.039 Y-15.087 I-0.5 J0
G1 X48.539
G3 X48.039 Y-15.587 I0 J-0.5
G1 Y-19.337
G3 X49.039 Y-19.337 I0.5 J0
G1 Y-17.587
G2 X50.539 Y-16.087 I1.5 J0
G1 X54.039
G2 X55.539 Y-17.587 I0 J-1.5
G1 Y-19.337
G3 X56.539 Y-19.337 I0.5 J0
G1 Y-17.268
Y-15.587 Z-0.859 F333.3
G3 X56.039 Y-15.087 Z-0.886 I-0.5 J0
G1 X55.641 Z-0.9
X48.539 F250
G3 X48.039 Y-15.587 I0 J-0.5
G1 Y-19.337
G3 X49.039 Y-19.337 I0.5 J0
G1 Y-17.587
G2 X50.539 Y-16.087 I1.5 J0
G1 X54.039
G2 X55.539 Y-17.587 I0 J-1.5
G1 Y-19.337
G3 X56.539 Y-19.337 I0.5 J0
G1 Y-17.268
Y-15.587
G3 X56.039 Y-15.087 I-0.5 J0
G1 X55.641
X52.777 Z-1 F333.3
X48.539 F250
G3 X48.039 Y-15.587 I0 J-0.5
G1 Y-19.337
G3 X49.039 Y-19.337 I0.5 J0
G1 Y-17.587
G2 X50.539 Y-16.087 I1.5 J0
G1 X54.039
G2 X55.539 Y-17.587 I0 J-1.5
G1 Y-19.337
G3 X56.539 Y-19.337 I0.5 J0
G1 Y-15.587
G3 X56.039 Y-15.087 I-0.5 J0
G1 X52.777
X49.913 Z-1.1 F333.3
X48.539 F250
G3 X48.039 Y-15.587 I0 J-0.5
G1 Y-19.337
G3 X49.039 Y-19.337 I0.5 J0
G1 Y-17.587
G2 X50.539 Y-16.087 I1.5 J0
G1 X54.039
G2 X55.539 Y-17.587 I0 J-1.5
G1 Y-19.337
G3 X56.539 Y-19.337 I0.5 J0
G1 Y-15.587
G3 X56.039 Y-15.087 I-0.5 J0
G1 X52.777
X49.913
X48.539 Z-1.148 F333.3
G3 X48.039 Y-15.587 Z-1.175 I0 J-0.5
G1 Y-16.29 Z-1.2
Y-19.337 F250
G3 X49.039 Y-19.337 I0.5 J0
G1 Y-17.587
G2 X50.539 Y-16.087 I1.5 J0
G1 X54.039
G2 X55.539 Y-17.587 I0 J-1.5
G1 Y-19.337
G3 X56.539 Y-19.337 I0.5 J0
G1 Y-15.587
G3 X56.039 Y-15.087 I-0.5 J0
G1 X49.913
X48.539
G3 X48.039 Y-15.587 I0 J-0.5
G1 Y-16.29
Y-19.154 Z-1.3 F333.3
Y-19.337 F250
G3 X49.039 Y-19.337 I0.5 J0
G1 Y-17.587
G2 X50.539 Y-16.087 I1.5 J0
G1 X54.039
G2 X55.539 Y-17.587 I0 J-1.5
G1 Y-19.337
G3 X56.539 Y-19.337 I0.5 J0
G1 Y-15.587
G3 X56.039 Y-15.087 I-0.5 J0
G1 X48.539
G3 X48.039 Y-15.587 I0 J-0.5
G1 Y-19.154
X48.044 Y-19.211 Z-1.289
X48.06 Y-19.266 Z-1.277
X48.082 Y-19.309 Z-1.245
X48.11 Y-19.349 Z-1.212
X48.158 Y-19.393 Z-1.115
X48.176 Y-19.406 Z-1
G0 Z18
X-13.462 Y-17.782
Z5
G1 Z2.8 F250
G19 G3 Y-17.493 Z2.5 J0.3 K0 F333.3
G1 Y-15.587 Z2.433
G17 G3 X-13.962 Y-15.087 Z2.406 I-0.5 J0
G1 X-21.462 Z2.144
G3 X-21.962 Y-15.587 Z2.117 I0 J-0.5
G1 Y-19.337 Z1.986
G3 X-20.962 Y-19.337 Z1.931 I0.5 J0
G1 Y-17.587 Z1.87
G2 X-19.462 Y-16.087 Z1.787 I1.5 J0
G1 X-15.962 Z1.665
G2 X-14.462 Y-17.587 Z1.583 I0 J-1.5
G1 Y-19.337 Z1.522
G3 X-13.462 Y-19.337 Z1.467 I0.5 J0
G1 Y-15.587 Z1.336
G3 X-13.962 Y-15.087 Z1.309 I-0.5 J0
G1 X-21.462 Z1.047
G3 X-21.962 Y-15.587 Z1.019 I0 J-0.5
G1 Y-19.337 Z0.888
G3 X-20.962 Y-19.337 Z0.834 I0.5 J0
G1 Y-17.587 Z0.772
G2 X-19.462 Y-16.087 Z0.69 I1.5 J0
G1 X-15.962 Z0.568
G2 X-14.462 Y-17.587 Z0.486 I0 J-1.5
G1 Y-19.337 Z0.425
G3 X-13.462 Y-19.337 Z0.37 I0.5 J0
G1 Y-15.587 Z0.239
G3 X-13.962 Y-15.087 Z0.211 I-0.5 J0
G1 X-21.462 Z-0.051
G3 X-21.962 Y-15.587 Z-0.078 I0 J-0.5
G1 Y-16.215 Z-0.1
Y-19.337 F250
G3 X-20.962 Y-19.337 I0.5 J0
G1 Y-17.587
G2 X-19.462 Y-16.087 I1.5 J0
G1 X-15.962
G2 X-14.462 Y-17.587 I0 J-1.5
G1 Y-19.337
G3 X-13.462 Y-19.337 I0.5 J0
G1 Y-15.587
G3 X-13.962 Y-15.087 I-0.5 J0
G1 X-21.462
G3 X-21.962 Y-15.587 I0 J-0.5
G1 Y-16.215
Y-19.079 Z-0.2 F333.3
Y-19.337 F250
G3 X-20.962 Y-19.337 I0.5 J0
G1 Y-17.587
G2 X-19.462 Y-16.087 I1.5 J0
G1 X-15.962
G2 X-14.462 Y-17.587 I0 J-1.5
G1 Y-19.337
G3 X-13.462 Y-19.337 I0.5 J0
G1 Y-15.587
G3 X-13.962 Y-15.087 I-0.5 J0
G1 X-21.462
G3 X-21.962 Y-15.587 I0 J-0.5
G1 Y-19.079
Y-19.337 Z-0.209 F333.3
G3 X-20.962 Y-19.337 Z-0.264 I0.5 J0
G1 Y-18.302 Z-0.3
Y-17.587 F250
G2 X-19.462 Y-16.087 I1.5 J0
G1 X-15.962
G2 X-14.462 Y-17.587 I0 J-1.5
G1 Y-19.337
G3 X-13.462 Y-19.337 I0.5 J0
G1 Y-15.587
G3 X-13.962 Y-15.087 I-0.5 J0
G1 X-21.462
G3 X-21.962 Y-15.587 I0 J-0.5
G1 Y-19.079
Y-19.337
G3 X-20.962 Y-19.337 I0.5 J0
G1 Y-18.302
Y-17.587 Z-0.325 F333.3
G2 X-19.669 Y-16.101 Z-0.4 I1.5 J0
G1 X-19.565 Y-16.091 F250
X-19.462 Y-16.087
X-15.962
G2 X-14.462 Y-17.587 I0 J-1.5
G1 Y-19.337
G3 X-13.462 Y-19.337 I0.5 J0
G1 Y-15.587
G3 X-13.962 Y-15.087 I-0.5 J0
G1 X-21.462
G3 X-21.962 Y-15.587 I0 J-0.5
G1 Y-19.337
G3 X-20.962 Y-19.337 I0.5 J0
G1 Y-18.302
Y-17.587
G2 X-19.669 Y-16.101 I1.5 J0
G1 X-19.565 Y-16.091 Z-0.404 F333.3
X-19.462 Y-16.087 Z-0.407
X-16.806 Z-0.5
X-15.962 F250
G2 X-14.462 Y-17.587 I0 J-1.5
G1 Y-19.337
G3 X-13.462 Y-19.337 I0.5 J0
G1 Y-15.587
G3 X-13.962 Y-15.087 I-0.5 J0
G1 X-21.462
G3 X-21.962 Y-15.587 I0 J-0.5
G1 Y-19.337
G3 X-20.962 Y-19.337 I0.5 J0
G1 Y-17.587
G2 X-19.462 Y-16.087 I1.5 J0
G1 X-16.806
X-15.962 Z-0.529 F333.3
G2 X-14.499 Y-17.253 Z-0.6 I0 J-1.5
X-14.462 Y-17.587 I-1.462 J-0.334 F250
G1 Y-19.337
G3 X-13.462 Y-19.337 I0.5 J0
G1 Y-15.587
G3 X-13.962 Y-15.087 I-0.5 J0
G1 X-21.462
G3 X-21.962 Y-15.587 I0 J-0.5
G1 Y-19.337
G3 X-20.962 Y-19.337 I0.5 J0
G1 Y-17.587
G2 X-19.462 Y-16.087 I1.5 J0
G1 X-16.806
X-15.962
G2 X-14.499 Y-17.253 I0 J-1.5
X-14.462 Y-17.587 Z-0.612 I-1.462 J-0.334 F333.3
G1 Y-19.337 Z-0.673
G3 X-13.97 Y-19.837 Z-0.7 I0.5 J0
X-13.462 Y-19.337 I0.009 J0.5 F250
G1 Y-15.587
G3 X-13.962 Y-15.087 I-0.5 J0
G1 X-21.462
G3 X-21.962 Y-15.587 I0 J-0.5
G1 Y-19.337
G3 X-20.962 Y-19.337 I0.5 J0
G1 Y-17.587
G2 X-19.462 Y-16.087 I1.5 J0
G1 X-15.962
G2 X-14.462 Y-17.587 I0 J-1.5
G1 Y-19.337
G3 X-13.97 Y-19.837 I0.5 J0
X-13.462 Y-19.337 Z-0.728 I0.009 J0.5 F333.3
G1 Y-17.268 Z-0.8
Y-15.587 F250
G3 X-13.962 Y-15.087 I-0.5 J0
G1 X-21.462
G3 X-21.962 Y-15.587 I0 J-0.5
G1 Y-19.337
G3 X-20.962 Y-19.337 I0.5 J0
G1 Y-17.587
G2 X-19.462 Y-16.087 I1.5 J0
G1 X-15.962
G2 X-14.462 Y-17.587 I0 J-1.5
G1 Y-19.337
G3 X-13.462 Y-19.337 I0.5 J0
G1 Y-17.268
Y-15.587 Z-0.859 F333.3
G3 X-13.962 Y-15.087 Z-0.886 I-0.5 J0
G1 X-14.359 Z-0.9
X-21.462 F250
G3 X-21.962 Y-15.587 I0 J-0.5
G1 Y-19.337
G3 X-20.962 Y-19.337 I0.5 J0
G1 Y-17.587
G2 X-19.462 Y-16.087 I1.5 J0
G1 X-15.962
G2 X-14.462 Y-17.587 I0 J-1.5
G1 Y-19.337
G3 X-13.462 Y-19.337 I0.5 J0
G1 Y-17.268
Y-15.587
G3 X-13.962 Y-15.087 I-0.5 J0
G1 X-14.359
X-17.223 Z-1 F333.3
X-21.462 F250
G3 X-21.962 Y-15.587 I0 J-0.5
G1 Y-19.337
G3 X-20.962 Y-19.337 I0.5 J0
G1 Y-17.587
G2 X-19.462 Y-16.087 I1.5 J0
G1 X-15.962
G2 X-14.462 Y-17.587 I0 J-1.5
G1 Y-19.337
G3 X-13.462 Y-19.337 I0.5 J0
G1 Y-15.587
G3 X-13.962 Y-15.087 I-0.5 J0
G1 X-17.223
X-20.087 Z-1.1 F333.3
X-21.462 F250
G3 X-21.962 Y-15.587 I0 J-0.5
G1 Y-19.337
G3 X-20.962 Y-19.337 I0.5 J0
G1 Y-17.587
G2 X-19.462 Y-16.087 I1.5 J0
G1 X-15.962
G2 X-14.462 Y-17.587 I0 J-1.5
G1 Y-19.337
G3 X-13.462 Y-19.337 I0.5 J0
G1 Y-15.587
G3 X-13.962 Y-15.087 I-0.5 J0
G1 X-17.223
X-20.087
X-21.462 Z-1.148 F333.3
G3 X-21.962 Y-15.587 Z-1.175 I0 J-0.5
G1 Y-16.29 Z-1.2
Y-19.337 F250
G3 X-20.962 Y-19.337 I0.5 J0
G1 Y-17.587
G2 X-19.462 Y-16.087 I1.5 J0
G1 X-15.962
G2 X-14.462 Y-17.587 I0 J-1.5
G1 Y-19.337
G3 X-13.462 Y-19.337 I0.5 J0
G1 Y-15.587
G3 X-13.962 Y-15.087 I-0.5 J0
G1 X-20.087
X-21.462
G3 X-21.962 Y-15.587 I0 J-0.5
G1 Y-16.29
Y-19.154 Z-1.3 F333.3
Y-19.337 F250
G3 X-20.962 Y-19.337 I0.5 J0
G1 Y-17.587
G2 X-19.462 Y-16.087 I1.5 J0
G1 X-15.962
G2 X-14.462 Y-17.587 I0 J-1.5
G1 Y-19.337
G3 X-13.462 Y-19.337 I0.5 J0
G1 Y-15.587
G3 X-13.962 Y-15.087 I-0.5 J0
G1 X-21.462
G3 X-21.962 Y-15.587 I0 J-0.5
G1 Y-19.154
X-21.956 Y-19.211 Z-1.289
X-21.94 Y-19.266 Z-1.277
X-21.918 Y-19.309 Z-1.245
X-21.89 Y-19.349 Z-1.212
X-21.842 Y-19.393 Z-1.115
X-21.824 Y-19.406 Z-1
G0 Z18
X-17.349 Y17.66
Z5
G1 Z2.5 F250
Z0.2 F200
X-17.331 Y17.674 Z0.085
X-17.283 Y17.718 Z-0.012
X-17.255 Y17.757 Z-0.045
X-17.233 Y17.801 Z-0.077
X-17.217 Y17.856 Z-0.089
X-17.212 Y17.913 Z-0.1
G3 X-18.212 Y17.913 I-0.5 J0 F250
X-17.212 Y17.913 I0.5 J0
X-18.212 Y17.913 Z-0.155 I-0.5 J0 F333.3
X-17.287 Y17.649 Z-0.2 I0.5 J0
X-18.136 Y18.177 I-0.425 J0.264 F250
X-17.287 Y17.649 I0.425 J-0.264
X-18.136 Y18.177 Z-0.255 I-0.425 J0.264 F333.3
X-17.49 Y17.465 Z-0.3 I0.425 J-0.264
X-17.933 Y18.361 I-0.221 J0.448 F250
X-17.49 Y17.465 I0.221 J-0.448
X-17.933 Y18.361 Z-0.355 I-0.221 J0.448 F333.3
X-17.76 Y17.415 Z-0.4 I0.221 J-0.448
X-17.663 Y18.411 I0.048 J0.498 F250
X-17.76 Y17.415 I-0.048 J-0.498
X-17.663 Y18.411 Z-0.455 I0.048 J0.498 F333.3
X-18.015 Y17.516 Z-0.5 I-0.048 J-0.498
X-17.408 Y18.31 I0.304 J0.397 F250
X-18.015 Y17.516 I-0.304 J-0.397
X-17.408 Y18.31 Z-0.555 I0.304 J0.397 F333.3
X-18.179 Y17.736 Z-0.6 I-0.304 J-0.397
X-17.244 Y18.09 I0.468 J0.177 F250
X-18.179 Y17.736 I-0.468 J-0.177
X-17.244 Y18.09 Z-0.655 I0.468 J0.177 F333.3
X-18.202 Y18.009 Z-0.7 I-0.468 J-0.177
X-17.221 Y17.817 I0.491 J-0.096 F250
X-18.202 Y18.009 I-0.491 J0.096
X-17.221 Y17.817 Z-0.755 I0.491 J-0.096 F333.3
X-18.077 Y18.254 Z-0.8 I-0.491 J0.096
X-17.346 Y17.572 I0.366 J-0.341 F250
X-18.077 Y18.254 I-0.366 J0.341
X-17.346 Y17.572 Z-0.855 I0.366 J-0.341 F333.3
X-17.842 Y18.395 Z-0.9 I-0.366 J0.341
X-17.581 Y17.43 I0.131 J-0.483 F250
X-17.842 Y18.395 I-0.131 J0.483
X-17.581 Y17.43 Z-0.955 I0.131 J-0.483 F333.3
X-17.568 Y18.392 Z-1 I-0.131 J0.483
X-17.855 Y17.434 I-0.143 J-0.479 F250
X-17.568 Y18.392 I0.143 J0.479
X-17.855 Y17.434 Z-1.055 I-0.143 J-0.479 F333.3
X-17.337 Y18.244 Z-1.1 I0.143 J0.479
X-18.086 Y17.582 I-0.375 J-0.331 F250
X-17.337 Y18.244 I0.375 J0.331
X-18.086 Y17.582 Z-1.155 I-0.375 J-0.331 F333.3
X-17.219 Y17.996 Z-1.2 I0.375 J0.331
X-18.204 Y17.829 I-0.493 J-0.084 F250
X-17.219 Y17.996 I0.493 J0.084
X-18.204 Y17.829 Z-1.255 I-0.493 J-0.084 F333.3
X-17.249 Y17.724 Z-1.3 I0.493 J0.084
X-18.174 Y18.102 I-0.463 J0.189 F250
X-17.249 Y17.724 I0.463 J-0.189
G1 X-17.232 Y17.779 Z-1.289
X-17.226 Y17.836 Z-1.277
X-17.23 Y17.884 Z-1.245
X-17.242 Y17.931 Z-1.212
X-17.268 Y17.99 Z-1.115
X-17.281 Y18.01 Z-1
G0 Z8
X17.036 Y17.551
Z5
G1 Z2.5 F250
Z0.2 F200
X17.049 Y17.532 Z0.085
X17.094 Y17.485 Z-0.012
X17.133 Y17.456 Z-0.045
X17.176 Y17.435 Z-0.077
X17.231 Y17.418 Z-0.089
X17.288 Y17.413 Z-0.1
G3 X17.288 Y18.413 I0 J0.5 F250
X17.288 Y17.413 I0 J-0.5
X17.288 Y18.413 Z-0.155 I0 J0.5 F333.3
X17.025 Y17.488 Z-0.2 I0 J-0.5
X17.552 Y18.338 I0.264 J0.425 F250
X17.025 Y17.488 I-0.264 J-0.425
X17.552 Y18.338 Z-0.255 I0.264 J0.425 F333.3
X16.84 Y17.691 Z-0.3 I-0.264 J-0.425
X17.737 Y18.134 I0.448 J0.221 F250
X16.84 Y17.691 I-0.448 J-0.221
X17.737 Y18.134 Z-0.355 I0.448 J0.221 F333.3
X16.791 Y17.961 Z-0.4 I-0.448 J-0.221
X17.786 Y17.864 I0.498 J-0.048 F250
X16.791 Y17.961 I-0.498 J0.048
X17.786 Y17.864 Z-0.455 I0.498 J-0.048 F333.3
X16.891 Y18.217 Z-0.5 I-0.498 J0.048
X17.686 Y17.609 I0.397 J-0.304 F250
X16.891 Y18.217 I-0.397 J0.304
X17.686 Y17.609 Z-0.555 I0.397 J-0.304 F333.3
X17.111 Y18.381 Z-0.6 I-0.397 J0.304
X17.466 Y17.445 I0.177 J-0.468 F250
X17.111 Y18.381 I-0.177 J0.468
X17.466 Y17.445 Z-0.655 I0.177 J-0.468 F333.3
X17.385 Y18.404 Z-0.7 I-0.177 J0.468
X17.192 Y17.422 I-0.096 J-0.491 F250
X17.385 Y18.404 I0.096 J0.491
X17.192 Y17.422 Z-0.755 I-0.096 J-0.491 F333.3
X17.629 Y18.279 Z-0.8 I0.096 J0.491
X16.948 Y17.547 I-0.341 J-0.366 F250
X17.629 Y18.279 I0.341 J0.366
X16.948 Y17.547 Z-0.855 I-0.341 J-0.366 F333.3
X17.771 Y18.044 Z-0.9 I0.341 J0.366
X16.806 Y17.782 I-0.483 J-0.131 F250
X17.771 Y18.044 I0.483 J0.131
X16.806 Y17.782 Z-0.955 I-0.483 J-0.131 F333.3
X17.767 Y17.769 Z-1 I0.483 J0.131
X16.81 Y18.056 I-0.479 J0.143 F250
X17.767 Y17.769 I0.479 J-0.143
X16.81 Y18.056 Z-1.055 I-0.479 J0.143 F333.3
X17.62 Y17.538 Z-1.1 I0.479 J-0.143
X16.957 Y18.288 I-0.331 J0.375 F250
X17.62 Y17.538 I0.331 J-0.375
X16.957 Y18.288 Z-1.155 I-0.331 J0.375 F333.3
X17.372 Y17.42 Z-1.2 I0.331 J-0.375
X17.205 Y18.406 I-0.084 J0.493 F250
X17.372 Y17.42 I0.084 J-0.493
X17.205 Y18.406 Z-1.255 I-0.084 J0.493 F333.3
X17.099 Y17.45 Z-1.3 I0.084 J-0.493
X17.478 Y18.376 I0.189 J0.463 F250
X17.099 Y17.45 I-0.189 J-0.463
G1 X17.154 Y17.434 Z-1.289
X17.211 Y17.428 Z-1.277
X17.26 Y17.431 Z-1.245
X17.307 Y17.443 Z-1.212
X17.366 Y17.47 Z-1.115
X17.385 Y17.482 Z-1
G0 Z8
X17.985 Y-16.087
Z5
G1 Z2.8 F250
G18 G2 X18.274 Z2.5 I0.3 K0 F333.3
G1 X19.038 Z2.473
G17 G2 X20.538 Y-17.587 Z2.391 I0 J-1.5
G1 Y-19.337 Z2.33
G3 X21.538 Y-19.337 Z2.275 I0.5 J0
G1 Y-15.587 Z2.144
G3 X21.038 Y-15.087 Z2.117 I-0.5 J0
G1 X13.538 Z1.855
G3 X13.038 Y-15.587 Z1.827 I0 J-0.5
G1 Y-19.337 Z1.696
G3 X14.038 Y-19.337 Z1.642 I0.5 J0
G1 Y-17.587 Z1.58
G2 X15.538 Y-16.087 Z1.498 I1.5 J0
G1 X19.038 Z1.376
G2 X20.538 Y-17.587 Z1.294 I0 J-1.5
G1 Y-19.337 Z1.233
G3 X21.538 Y-19.337 Z1.178 I0.5 J0
G1 Y-15.587 Z1.047
G3 X21.038 Y-15.087 Z1.019 I-0.5 J0
G1 X13.538 Z0.757
G3 X13.038 Y-15.587 Z0.73 I0 J-0.5
G1 Y-19.337 Z0.599
G3 X14.038 Y-19.337 Z0.544 I0.5 J0
G1 Y-17.587 Z0.483
G2 X15.538 Y-16.087 Z0.401 I1.5 J0
G1 X19.038 Z0.279
G2 X20.538 Y-17.587 Z0.196 I0 J-1.5
G1 Y-19.337 Z0.135
G3 X21.538 Y-19.337 Z0.08 I0.5 J0
G1 Y-15.587 Z-0.051
G3 X21.038 Y-15.087 Z-0.078 I-0.5 J0
G1 X20.41 Z-0.1
X13.538 F250
G3 X13.038 Y-15.587 I0 J-0.5
G1 Y-19.337
G3 X14.038 Y-19.337 I0.5 J0
G1 Y-17.587
G2 X15.538 Y-16.087 I1.5 J0
G1 X19.038
G2 X20.538 Y-17.587 I0 J-1.5
G1 Y-19.337
G3 X21.538 Y-19.337 I0.5 J0
G1 Y-15.587
G3 X21.038 Y-15.087 I-0.5 J0
G1 X20.41
X17.547 Z-0.2 F333.3
X13.538 F250
G3 X13.038 Y-15.587 I0 J-0.5
G1 Y-19.337
G3 X14.038 Y-19.337 I0.5 J0
G1 Y-17.587
G2 X15.538 Y-16.087 I1.5 J0
G1 X19.038
G2 X20.538 Y-17.587 I0 J-1.5
G1 Y-19.337
G3 X21.538 Y-19.337 I0.5 J0
G1 Y-15.587
G3 X21.038 Y-15.087 I-0.5 J0
G1 X17.547
X14.683 Z-0.3 F333.3
X13.538 F250
G3 X13.038 Y-15.587 I0 J-0.5
G1 Y-19.337
G3 X14.038 Y-19.337 I0.5 J0
G1 Y-17.587
G2 X15.538 Y-16.087 I1.5 J0
G1 X19.038
G2 X20.538 Y-17.587 I0 J-1.5
G1 Y-19.337
G3 X21.538 Y-19.337 I0.5 J0
G1 Y-15.587
G3 X21.038 Y-15.087 I-0.5 J0
G1 X17.547
X14.683
X13.538 Z-0.34 F333.3
G3 X13.038 Y-15.587 Z-0.367 I0 J-0.5
G1 Y-16.521 Z-0.4
Y-19.337 F250
G3 X14.038 Y-19.337 I0.5 J0
G1 Y-17.587
G2 X15.538 Y-16.087 I1.5 J0
G1 X19.038
G2 X20.538 Y-17.587 I0 J-1.5
G1 Y-19.337
G3 X21.538 Y-19.337 I0.5 J0
G1 Y-15.587
G3 X21.038 Y-15.087 I-0.5 J0
G1 X14.683
X13.538
G3 X13.038 Y-15.587 I0 J-0.5
G1 Y-16.521
Y-19.337 Z-0.498 F333.3
X13.041 Y-19.384 Z-0.5
G3 X14.038 Y-19.337 I0.498 J0.047 F250
G1 Y-17.587
G2 X15.538 Y-16.087 I1.5 J0
G1 X19.038
G2 X20.538 Y-17.587 I0 J-1.5
G1 Y-19.337
G3 X21.538 Y-19.337 I0.5 J0
G1 Y-15.587
G3 X21.038 Y-15.087 I-0.5 J0
G1 X13.538
G3 X13.038 Y-15.587 I0 J-0.5
G1 Y-19.337
X13.041 Y-19.384
G3 X14.038 Y-19.337 Z-0.553 I0.498 J0.047 F333.3
G1 Y-17.997 Z-0.6
Y-17.587 F250
G2 X15.538 Y-16.087 I1.5 J0
G1 X19.038
G2 X20.538 Y-17.587 I0 J-1.5
G1 Y-19.337
G3 X21.538 Y-19.337 I0.5 J0
G1 Y-15.587
G3 X21.038 Y-15.087 I-0.5 J0
G1 X13.538
G3 X13.038 Y-15.587 I0 J-0.5
G1 Y-19.337
G3 X14.038 Y-19.337 I0.5 J0
G1 Y-17.997
Y-17.587 Z-0.614 F333.3
G2 X15.538 Y-16.087 Z-0.697 I1.5 J0
G1 X15.636 Z-0.7
X19.038 F250
G2 X20.538 Y-17.587 I0 J-1.5
G1 Y-19.337
G3 X21.538 Y-19.337 I0.5 J0
G1 Y-15.587
G3 X21.038 Y-15.087 I-0.5 J0
G1 X13.538
G3 X13.038 Y-15.587 I0 J-0.5
G1 Y-19.337
G3 X14.038 Y-19.337 I0.5 J0
G1 Y-17.997
Y-17.587
G2 X15.538 Y-16.087 I1.5 J0
G1 X15.636
X18.5 Z-0.8 F333.3
X19.038 F250
G2 X20.538 Y-17.587 I0 J-1.5
G1 Y-19.337
G3 X21.538 Y-19.337 I0.5 J0
G1 Y-15.587
G3 X21.038 Y-15.087 I-0.5 J0
G1 X13.538
G3 X13.038 Y-15.587 I0 J-0.5
G1 Y-19.337
G3 X14.038 Y-19.337 I0.5 J0
G1 Y-17.587
G2 X15.538 Y-16.087 I1.5 J0
G1 X18.5
X19.038 Z-0.819 F333.3
G2 X20.538 Y-17.556 Z-0.9 I0 J-1.5
G1 Y-17.587 F250
Y-19.337
G3 X21.538 Y-19.337 I0.5 J0
G1 Y-15.587
G3 X21.038 Y-15.087 I-0.5 J0
G1 X13.538
G3 X13.038 Y-15.587 I0 J-0.5
G1 Y-19.337
G3 X14.038 Y-19.337 I0.5 J0
G1 Y-17.587
G2 X15.538 Y-16.087 I1.5 J0
G1 X18.5
X19.038
G2 X20.538 Y-17.556 I0 J-1.5
G1 Y-17.587 Z-0.901 F333.3
Y-19.337 Z-0.962
G3 X21.318 Y-19.752 Z-1 I0.5 J0
X21.538 Y-19.337 I-0.28 J0.414 F250
G1 Y-15.587
G3 X21.038 Y-15.087 I-0.5 J0
G1 X13.538
G3 X13.038 Y-15.587 I0 J-0.5
G1 Y-19.337
G3 X14.038 Y-19.337 I0.5 J0
G1 Y-17.587
G2 X15.538 Y-16.087 I1.5 J0
G1 X19.038
G2 X20.538 Y-17.587 I0 J-1.5
G1 Y-19.337
G3 X21.318 Y-19.752 I0.5 J0
X21.538 Y-19.337 Z-1.017 I-0.28 J0.414 F333.3
G1 Y-16.962 Z-1.1
Y-15.587 F250
G3 X21.038 Y-15.087 I-0.5 J0
G1 X13.538
G3 X13.038 Y-15.587 I0 J-0.5
G1 Y-19.337
G3 X14.038 Y-19.337 I0.5 J0
G1 Y-17.587
G2 X15.538 Y-16.087 I1.5 J0
G1 X19.038
G2 X20.538 Y-17.587 I0 J-1.5
G1 Y-19.337
G3 X21.538 Y-19.337 I0.5 J0
G1 Y-16.962
Y-15.587 Z-1.148 F333.3
G3 X21.038 Y-15.087 Z-1.175 I-0.5 J0
G1 X20.335 Z-1.2
X13.538 F250
G3 X13.038 Y-15.587 I0 J-0.5
G1 Y-19.337
G3 X14.038 Y-19.337 I0.5 J0
G1 Y-17.587
G2 X15.538 Y-16.087 I1.5 J0
G1 X19.038
G2 X20.538 Y-17.587 I0 J-1.5
G1 Y-19.337
G3 X21.538 Y-19.337 I0.5 J0
G1 Y-16.962
Y-15.587
G3 X21.038 Y-15.087 I-0.5 J0
G1 X20.335
X17.472 Z-1.3 F333.3
X13.538 F250
G3 X13.038 Y-15.587 I0 J-0.5
G1 Y-19.337
G3 X14.038 Y-19.337 I0.5 J0
G1 Y-17.587
G2 X15.538 Y-16.087 I1.5 J0
G1 X19.038
G2 X20.538 Y-17.587 I0 J-1.5
G1 Y-19.337
G3 X21.538 Y-19.337 I0.5 J0
G1 Y-15.587
G3 X21.038 Y-15.087 I-0.5 J0
G1 X17.472
X17.415 Y-15.093 Z-1.289
X17.36 Y-15.109 Z-1.277
X17.316 Y-15.131 Z-1.245
X17.277 Y-15.159 Z-1.212
X17.232 Y-15.206 Z-1.115
X17.219 Y-15.225 Z-1
G0 Z8
X16.926 Y-22.835
Z5
G1 Z2.5 F250
Z0.2 F200
X16.908 Y-22.848 Z0.085
X16.86 Y-22.892 Z-0.012
X16.832 Y-22.932 Z-0.045
X16.81 Y-22.975 Z-0.077
X16.794 Y-23.03 Z-0.089
X16.788 Y-23.087 Z-0.1
G3 X17.788 Y-23.087 I0.5 J0 F250
X16.788 Y-23.087 I-0.5 J0
X17.788 Y-23.087 Z-0.155 I0.5 J0 F333.3
X16.864 Y-22.823 Z-0.2 I-0.5 J0
X17.713 Y-23.351 I0.425 J-0.264 F250
X16.864 Y-22.823 I-0.425 J0.264
X17.713 Y-23.351 Z-0.255 I0.425 J-0.264 F333.3
X17.067 Y-22.639 Z-0.3 I-0.425 J0.264
X17.51 Y-23.535 I0.221 J-0.448 F250
X17.067 Y-22.639 I-0.221 J0.448
X17.51 Y-23.535 Z-0.355 I0.221 J-0.448 F333.3
X17.337 Y-22.589 Z-0.4 I-0.221 J0.448
X17.24 Y-23.585 I-0.048 J-0.498 F250
X17.337 Y-22.589 I0.048 J0.498
X17.24 Y-23.585 Z-0.455 I-0.048 J-0.498 F333.3
X17.592 Y-22.69 Z-0.5 I0.048 J0.498
X16.985 Y-23.484 I-0.304 J-0.397 F250
X17.592 Y-22.69 I0.304 J0.397
X16.985 Y-23.484 Z-0.555 I-0.304 J-0.397 F333.3
X17.756 Y-22.91 Z-0.6 I0.304 J0.397
X16.821 Y-23.264 I-0.468 J-0.177 F250
X17.756 Y-22.91 I0.468 J0.177
X16.821 Y-23.264 Z-0.655 I-0.468 J-0.177 F333.3
X17.779 Y-23.184 Z-0.7 I0.468 J0.177
X16.798 Y-22.991 I-0.491 J0.096 F250
X17.779 Y-23.184 I0.491 J-0.096
X16.798 Y-22.991 Z-0.755 I-0.491 J0.096 F333.3
X17.654 Y-23.428 Z-0.8 I0.491 J-0.096
X16.923 Y-22.746 I-0.366 J0.341 F250
X17.654 Y-23.428 I0.366 J-0.341
X16.923 Y-22.746 Z-0.855 I-0.366 J0.341 F333.3
X17.419 Y-23.57 Z-0.9 I0.366 J-0.341
X17.158 Y-22.605 I-0.131 J0.483 F250
X17.419 Y-23.57 I0.131 J-0.483
X17.158 Y-22.605 Z-0.955 I-0.131 J0.483 F333.3
X17.145 Y-23.566 Z-1 I0.131 J-0.483
X17.432 Y-22.608 I0.143 J0.479 F250
X17.145 Y-23.566 I-0.143 J-0.479
X17.432 Y-22.608 Z-1.055 I0.143 J0.479 F333.3
X16.914 Y-23.418 Z-1.1 I-0.143 J-0.479
X17.663 Y-22.756 I0.375 J0.331 F250
X16.914 Y-23.418 I-0.375 J-0.331
X17.663 Y-22.756 Z-1.155 I0.375 J0.331 F333.3
X16.796 Y-23.171 Z-1.2 I-0.375 J-0.331
X17.781 Y-23.004 I0.493 J0.084 F250
X16.796 Y-23.171 I-0.493 J-0.084
X17.781 Y-23.004 Z-1.255 I0.493 J0.084 F333.3
X16.826 Y-22.898 Z-1.3 I-0.493 J-0.084
X17.751 Y-23.276 I0.463 J-0.189 F250
X16.826 Y-22.898 I-0.463 J0.189
G1 X16.809 Y-22.953 Z-1.289
X16.803 Y-23.01 Z-1.277
X16.807 Y-23.058 Z-1.245
X16.819 Y-23.106 Z-1.212
X16.845 Y-23.165 Z-1.115
X16.858 Y-23.184 Z-1
G0 Z8
X-18.074 Y-22.835
Z5
G1 Z2.5 F250
Z0.2 F200
X-18.092 Y-22.848 Z0.085
X-18.14 Y-22.892 Z-0.012
X-18.168 Y-22.932 Z-0.045
X-18.19 Y-22.975 Z-0.077
X-18.206 Y-23.03 Z-0.089
X-18.212 Y-23.087 Z-0.1
G3 X-17.212 Y-23.087 I0.5 J0 F250
X-18.212 Y-23.087 I-0.5 J0
X-17.212 Y-23.087 Z-0.155 I0.5 J0 F333.3
X-18.136 Y-22.823 Z-0.2 I-0.5 J0
X-17.287 Y-23.351 I0.425 J-0.264 F250
X-18.136 Y-22.823 I-0.425 J0.264
X-17.287 Y-23.351 Z-0.255 I0.425 J-0.264 F333.3
X-17.933 Y-22.639 Z-0.3 I-0.425 J0.264
X-17.49 Y-23.535 I0.221 J-0.448 F250
X-17.933 Y-22.639 I-0.221 J0.448
X-17.49 Y-23.535 Z-0.355 I0.221 J-0.448 F333.3
X-17.663 Y-22.589 Z-0.4 I-0.221 J0.448
X-17.76 Y-23.585 I-0.048 J-0.498 F250
X-17.663 Y-22.589 I0.048 J0.498
X-17.76 Y-23.585 Z-0.455 I-0.048 J-0.498 F333.3
X-17.408 Y-22.69 Z-0.5 I0.048 J0.498
X-18.015 Y-23.484 I-0.304 J-0.397 F250
X-17.408 Y-22.69 I0.304 J0.397
X-18.015 Y-23.484 Z-0.555 I-0.304 J-0.397 F333.3
X-17.244 Y-22.91 Z-0.6 I0.304 J0.397
X-18.179 Y-23.264 I-0.468 J-0.177 F250
X-17.244 Y-22.91 I0.468 J0.177
X-18.179 Y-23.264 Z-0.655 I-0.468 J-0.177 F333.3
X-17.221 Y-23.184 Z-0.7 I0.468 J0.177
X-18.202 Y-22.991 I-0.491 J0.096 F250
X-17.221 Y-23.184 I0.491 J-0.096
X-18.202 Y-22.991 Z-0.755 I-0.491 J0.096 F333.3
X-17.346 Y-23.428 Z-0.8 I0.491 J-0.096
X-18.077 Y-22.746 I-0.366 J0.341 F250
X-17.346 Y-23.428 I0.366 J-0.341
X-18.077 Y-22.746 Z-0.855 I-0.366 J0.341 F333.3
X-17.581 Y-23.57 Z-0.9 I0.366 J-0.341
X-17.842 Y-22.605 I-0.131 J0.483 F250
X-17.581 Y-23.57 I0.131 J-0.483
X-17.842 Y-22.605 Z-0.955 I-0.131 J0.483 F333.3
X-17.855 Y-23.566 Z-1 I0.131 J-0.483
X-17.568 Y-22.608 I0.143 J0.479 F250
X-17.855 Y-23.566 I-0.143 J-0.479
X-17.568 Y-22.608 Z-1.055 I0.143 J0.479 F333.3
X-18.086 Y-23.418 Z-1.1 I-0.143 J-0.479
X-17.337 Y-22.756 I0.375 J0.331 F250
X-18.086 Y-23.418 I-0.375 J-0.331
X-17.337 Y-22.756 Z-1.155 I0.375 J0.331 F333.3
X-18.204 Y-23.171 Z-1.2 I-0.375 J-0.331
X-17.219 Y-23.004 I0.493 J0.084 F250
X-18.204 Y-23.171 I-0.493 J-0.084
X-17.219 Y-23.004 Z-1.255 I0.493 J0.084 F333.3
X-18.174 Y-22.898 Z-1.3 I-0.493 J-0.084
X-17.249 Y-23.276 I0.463 J-0.189 F250
X-18.174 Y-22.898 I-0.463 J0.189
G1 X-18.191 Y-22.953 Z-1.289
X-18.197 Y-23.01 Z-1.277
X-18.193 Y-23.058 Z-1.245
X-18.181 Y-23.106 Z-1.212
X-18.155 Y-23.165 Z-1.115
X-18.142 Y-23.184 Z-1
G0 Z8
X-48.461 Y-17.782
Z5
G1 Z2.8 F250
G19 G3 Y-17.493 Z2.5 J0.3 K0 F333.3
G1 Y-15.587 Z2.433
G17 G3 X-48.961 Y-15.087 Z2.406 I-0.5 J0
G1 X-56.461 Z2.144
G3 X-56.961 Y-15.587 Z2.117 I0 J-0.5
G1 Y-19.337 Z1.986
G3 X-55.961 Y-19.337 Z1.931 I0.5 J0
G1 Y-17.587 Z1.87
G2 X-54.461 Y-16.087 Z1.787 I1.5 J0
G1 X-50.961 Z1.665
G2 X-49.461 Y-17.587 Z1.583 I0 J-1.5
G1 Y-19.337 Z1.522
G3 X-48.461 Y-19.337 Z1.467 I0.5 J0
G1 Y-15.587 Z1.336
G3 X-48.961 Y-15.087 Z1.309 I-0.5 J0
G1 X-56.461 Z1.047
G3 X-56.961 Y-15.587 Z1.019 I0 J-0.5
G1 Y-19.337 Z0.888
G3 X-55.961 Y-19.337 Z0.834 I0.5 J0
G1 Y-17.587 Z0.772
G2 X-54.461 Y-16.087 Z0.69 I1.5 J0
G1 X-50.961 Z0.568
G2 X-49.461 Y-17.587 Z0.486 I0 J-1.5
G1 Y-19.337 Z0.425
G3 X-48.461 Y-19.337 Z0.37 I0.5 J0
G1 Y-15.587 Z0.239
G3 X-48.961 Y-15.087 Z0.211 I-0.5 J0
G1 X-56.461 Z-0.051
G3 X-56.961 Y-15.587 Z-0.078 I0 J-0.5
G1 Y-16.215 Z-0.1
Y-19.337 F250
G3 X-55.961 Y-19.337 I0.5 J0
G1 Y-17.587
G2 X-54.461 Y-16.087 I1.5 J0
G1 X-50.961
G2 X-49.461 Y-17.587 I0 J-1.5
G1 Y-19.337
G3 X-48.461 Y-19.337 I0.5 J0
G1 Y-15.587
G3 X-48.961 Y-15.087 I-0.5 J0
G1 X-56.461
G3 X-56.961 Y-15.587 I0 J-0.5
G1 Y-16.215
Y-19.079 Z-0.2 F333.3
Y-19.337 F250
G3 X-55.961 Y-19.337 I0.5 J0
G1 Y-17.587
G2 X-54.461 Y-16.087 I1.5 J0
G1 X-50.961
G2 X-49.461 Y-17.587 I0 J-1.5
G1 Y-19.337
G3 X-48.461 Y-19.337 I0.5 J0
G1 Y-15.587
G3 X-48.961 Y-15.087 I-0.5 J0
G1 X-56.461
G3 X-56.961 Y-15.587 I0 J-0.5
G1 Y-19.079
Y-19.337 Z-0.209 F333.3
G3 X-55.961 Y-19.337 Z-0.264 I0.5 J0
G1 Y-18.302 Z-0.3
Y-17.587 F250
G2 X-54.461 Y-16.087 I1.5 J0
G1 X-50.961
G2 X-49.461 Y-17.587 I0 J-1.5
G1 Y-19.337
G3 X-48.461 Y-19.337 I0.5 J0
G1 Y-15.587
G3 X-48.961 Y-15.087 I-0.5 J0
G1 X-56.461
G3 X-56.961 Y-15.587 I0 J-0.5
G1 Y-19.079
Y-19.337
G3 X-55.961 Y-19.337 I0.5 J0
G1 Y-18.302
Y-17.587 Z-0.325 F333.3
G2 X-54.669 Y-16.101 Z-0.4 I1.5 J0
G1 X-54.565 Y-16.091 F250
X-54.461 Y-16.087
X-50.961
G2 X-49.461 Y-17.587 I0 J-1.5
G1 Y-19.337
G3 X-48.461 Y-19.337 I0.5 J0
G1 Y-15.587
G3 X-48.961 Y-15.087 I-0.5 J0
G1 X-56.461
G3 X-56.961 Y-15.587 I0 J-0.5
G1 Y-19.337
G3 X-55.961 Y-19.337 I0.5 J0
G1 Y-18.302
Y-17.587
G2 X-54.669 Y-16.101 I1.5 J0
G1 X-54.565 Y-16.091 Z-0.404 F333.3
X-54.461 Y-16.087 Z-0.407
X-51.806 Z-0.5
X-50.961 F250
G2 X-49.461 Y-17.587 I0 J-1.5
G1 Y-19.337
G3 X-48.461 Y-19.337 I0.5 J0
G1 Y-15.587
G3 X-48.961 Y-15.087 I-0.5 J0
G1 X-56.461
G3 X-56.961 Y-15.587 I0 J-0.5
G1 Y-19.337
G3 X-55.961 Y-19.337 I0.5 J0
G1 Y-17.587
G2 X-54.461 Y-16.087 I1.5 J0
G1 X-51.806
X-50.961 Z-0.529 F333.3
G2 X-49.499 Y-17.253 Z-0.6 I0 J-1.5
X-49.461 Y-17.587 I-1.462 J-0.334 F250
G1 Y-19.337
G3 X-48.461 Y-19.337 I0.5 J0
G1 Y-15.587
G3 X-48.961 Y-15.087 I-0.5 J0
G1 X-56.461
G3 X-56.961 Y-15.587 I0 J-0.5
G1 Y-19.337
G3 X-55.961 Y-19.337 I0.5 J0
G1 Y-17.587
G2 X-54.461 Y-16.087 I1.5 J0
G1 X-51.806
X-50.961
G2 X-49.499 Y-17.253 I0 J-1.5
X-49.461 Y-17.587 Z-0.612 I-1.462 J-0.334 F333.3
G1 Y-19.337 Z-0.673
G3 X-48.97 Y-19.837 Z-0.7 I0.5 J0
X-48.461 Y-19.337 I0.009 J0.5 F250
G1 Y-15.587
G3 X-48.961 Y-15.087 I-0.5 J0
G1 X-56.461
G3 X-56.961 Y-15.587 I0 J-0.5
G1 Y-19.337
G3 X-55.961 Y-19.337 I0.5 J0
G1 Y-17.587
G2 X-54.461 Y-16.087 I1.5 J0
G1 X-50.961
G2 X-49.461 Y-17.587 I0 J-1.5
G1 Y-19.337
G3 X-48.97 Y-19.837 I0.5 J0
X-48.461 Y-19.337 Z-0.728 I0.009 J0.5 F333.3
G1 Y-17.268 Z-0.8
Y-15.587 F250
G3 X-48.961 Y-15.087 I-0.5 J0
G1 X-56.461
G3 X-56.961 Y-15.587 I0 J-0.5
G1 Y-19.337
G3 X-55.961 Y-19.337 I0.5 J0
G1 Y-17.587
G2 X-54.461 Y-16.087 I1.5 J0
G1 X-50.961
G2 X-49.461 Y-17.587 I0 J-1.5
G1 Y-19.337
G3 X-48.461 Y-19.337 I0.5 J0
G1 Y-17.268
Y-15.587 Z-0.859 F333.3
G3 X-48.961 Y-15.087 Z-0.886 I-0.5 J0
G1 X-49.359 Z-0.9
X-56.461 F250
G3 X-56.961 Y-15.587 I0 J-0.5
G1 Y-19.337
G3 X-55.961 Y-19.337 I0.5 J0
G1 Y-17.587
G2 X-54.461 Y-16.087 I1.5 J0
G1 X-50.961
G2 X-49.461 Y-17.587 I0 J-1.5
G1 Y-19.337
G3 X-48.461 Y-19.337 I0.5 J0
G1 Y-17.268
Y-15.587
G3 X-48.961 Y-15.087 I-0.5 J0
G1 X-49.359
X-52.223 Z-1 F333.3
X-56.461 F250
G3 X-56.961 Y-15.587 I0 J-0.5
G1 Y-19.337
G3 X-55.961 Y-19.337 I0.5 J0
G1 Y-17.587
G2 X-54.461 Y-16.087 I1.5 J0
G1 X-50.961
G2 X-49.461 Y-17.587 I0 J-1.5
G1 Y-19.337
G3 X-48.461 Y-19.337 I0.5 J0
G1 Y-15.587
G3 X-48.961 Y-15.087 I-0.5 J0
G1 X-52.223
X-55.087 Z-1.1 F333.3
X-56.461 F250
G3 X-56.961 Y-15.587 I0 J-0.5
G1 Y-19.337
G3 X-55.961 Y-19.337 I0.5 J0
G1 Y-17.587
G2 X-54.461 Y-16.087 I1.5 J0
G1 X-50.961
G2 X-49.461 Y-17.587 I0 J-1.5
G1 Y-19.337
G3 X-48.461 Y-19.337 I0.5 J0
G1 Y-15.587
G3 X-48.961 Y-15.087 I-0.5 J0
G1 X-52.223
X-55.087
X-56.461 Z-1.148 F333.3
G3 X-56.961 Y-15.587 Z-1.175 I0 J-0.5
G1 Y-16.29 Z-1.2
Y-19.337 F250
G3 X-55.961 Y-19.337 I0.5 J0
G1 Y-17.587
G2 X-54.461 Y-16.087 I1.5 J0
G1 X-50.961
G2 X-49.461 Y-17.587 I0 J-1.5
G1 Y-19.337
G3 X-48.461 Y-19.337 I0.5 J0
G1 Y-15.587
G3 X-48.961 Y-15.087 I-0.5 J0
G1 X-55.087
X-56.461
G3 X-56.961 Y-15.587 I0 J-0.5
G1 Y-16.29
Y-19.154 Z-1.3 F333.3
Y-19.337 F250
G3 X-55.961 Y-19.337 I0.5 J0
G1 Y-17.587
G2 X-54.461 Y-16.087 I1.5 J0
G1 X-50.961
G2 X-49.461 Y-17.587 I0 J-1.5
G1 Y-19.337
G3 X-48.461 Y-19.337 I0.5 J0
G1 Y-15.587
G3 X-48.961 Y-15.087 I-0.5 J0
G1 X-56.461
G3 X-56.961 Y-15.587 I0 J-0.5
G1 Y-19.154
X-56.956 Y-19.211 Z-1.289
X-56.94 Y-19.266 Z-1.277
X-56.918 Y-19.309 Z-1.245
X-56.89 Y-19.349 Z-1.212
X-56.842 Y-19.393 Z-1.115
X-56.824 Y-19.406 Z-1
G0 Z8
X-53.074 Y-22.835
Z5
G1 Z2.5 F250
Z0.2 F200
X-53.092 Y-22.848 Z0.085
X-53.14 Y-22.892 Z-0.012
X-53.168 Y-22.932 Z-0.045
X-53.19 Y-22.975 Z-0.077
X-53.206 Y-23.03 Z-0.089
X-53.211 Y-23.087 Z-0.1
G3 X-52.211 Y-23.087 I0.5 J0 F250
X-53.211 Y-23.087 I-0.5 J0
X-52.211 Y-23.087 Z-0.155 I0.5 J0 F333.3
X-53.136 Y-22.823 Z-0.2 I-0.5 J0
X-52.287 Y-23.351 I0.425 J-0.264 F250
X-53.136 Y-22.823 I-0.425 J0.264
X-52.287 Y-23.351 Z-0.255 I0.425 J-0.264 F333.3
X-52.933 Y-22.639 Z-0.3 I-0.425 J0.264
X-52.49 Y-23.535 I0.221 J-0.448 F250
X-52.933 Y-22.639 I-0.221 J0.448
X-52.49 Y-23.535 Z-0.355 I0.221 J-0.448 F333.3
X-52.663 Y-22.589 Z-0.4 I-0.221 J0.448
X-52.76 Y-23.585 I-0.048 J-0.498 F250
X-52.663 Y-22.589 I0.048 J0.498
X-52.76 Y-23.585 Z-0.455 I-0.048 J-0.498 F333.3
X-52.408 Y-22.69 Z-0.5 I0.048 J0.498
X-53.015 Y-23.484 I-0.304 J-0.397 F250
X-52.408 Y-22.69 I0.304 J0.397
X-53.015 Y-23.484 Z-0.555 I-0.304 J-0.397 F333.3
X-52.244 Y-22.91 Z-0.6 I0.304 J0.397
X-53.179 Y-23.264 I-0.468 J-0.177 F250
X-52.244 Y-22.91 I0.468 J0.177
X-53.179 Y-23.264 Z-0.655 I-0.468 J-0.177 F333.3
X-52.221 Y-23.184 Z-0.7 I0.468 J0.177
X-53.202 Y-22.991 I-0.491 J0.096 F250
X-52.221 Y-23.184 I0.491 J-0.096
X-53.202 Y-22.991 Z-0.755 I-0.491 J0.096 F333.3
X-52.346 Y-23.428 Z-0.8 I0.491 J-0.096
X-53.077 Y-22.746 I-0.366 J0.341 F250
X-52.346 Y-23.428 I0.366 J-0.341
X-53.077 Y-22.746 Z-0.855 I-0.366 J0.341 F333.3
X-52.581 Y-23.57 Z-0.9 I0.366 J-0.341
X-52.842 Y-22.605 I-0.131 J0.483 F250
X-52.581 Y-23.57 I0.131 J-0.483
X-52.842 Y-22.605 Z-0.955 I-0.131 J0.483 F333.3
X-52.855 Y-23.566 Z-1 I0.131 J-0.483
X-52.568 Y-22.608 I0.143 J0.479 F250
X-52.855 Y-23.566 I-0.143 J-0.479
X-52.568 Y-22.608 Z-1.055 I0.143 J0.479 F333.3
X-53.086 Y-23.418 Z-1.1 I-0.143 J-0.479
X-52.337 Y-22.756 I0.375 J0.331 F250
X-53.086 Y-23.418 I-0.375 J-0.331
X-52.337 Y-22.756 Z-1.155 I0.375 J0.331 F333.3
X-53.204 Y-23.171 Z-1.2 I-0.375 J-0.331
X-52.219 Y-23.004 I0.493 J0.084 F250
X-53.204 Y-23.171 I-0.493 J-0.084
X-52.219 Y-23.004 Z-1.255 I0.493 J0.084 F333.3
X-53.174 Y-22.898 Z-1.3 I-0.493 J-0.084
X-52.249 Y-23.276 I0.463 J-0.189 F250
X-53.174 Y-22.898 I-0.463 J0.189
G1 X-53.191 Y-22.953 Z-1.289
X-53.197 Y-23.01 Z-1.277
X-53.193 Y-23.058 Z-1.245
X-53.181 Y-23.106 Z-1.212
X-53.155 Y-23.165 Z-1.115
X-53.142 Y-23.184 Z-1
G0 Z8
X-52.459 Y18.275
Z5
G1 Z2.5 F250
Z0.2 F200
X-52.472 Y18.294 Z0.085
X-52.517 Y18.341 Z-0.012
X-52.556 Y18.369 Z-0.045
X-52.599 Y18.391 Z-0.077
X-52.654 Y18.407 Z-0.089
X-52.711 Y18.413 Z-0.1
G3 X-52.711 Y17.413 I0 J-0.5 F250
X-52.711 Y18.413 I0 J0.5
X-52.711 Y17.413 Z-0.155 I0 J-0.5 F333.3
X-52.448 Y18.338 Z-0.2 I0 J0.5
X-52.975 Y17.488 I-0.264 J-0.425 F250
X-52.448 Y18.338 I0.264 J0.425
X-52.975 Y17.488 Z-0.255 I-0.264 J-0.425 F333.3
X-52.263 Y18.134 Z-0.3 I0.264 J0.425
X-53.16 Y17.691 I-0.448 J-0.221 F250
X-52.263 Y18.134 I0.448 J0.221
X-53.16 Y17.691 Z-0.355 I-0.448 J-0.221 F333.3
X-52.214 Y17.864 Z-0.4 I0.448 J0.221
X-53.209 Y17.961 I-0.498 J0.048 F250
X-52.214 Y17.864 I0.498 J-0.048
X-53.209 Y17.961 Z-0.455 I-0.498 J0.048 F333.3
X-52.314 Y17.609 Z-0.5 I0.498 J-0.048
X-53.109 Y18.217 I-0.397 J0.304 F250
X-52.314 Y17.609 I0.397 J-0.304
X-53.109 Y18.217 Z-0.555 I-0.397 J0.304 F333.3
X-52.534 Y17.445 Z-0.6 I0.397 J-0.304
X-52.889 Y18.381 I-0.177 J0.468 F250
X-52.534 Y17.445 I0.177 J-0.468
X-52.889 Y18.381 Z-0.655 I-0.177 J0.468 F333.3
X-52.808 Y17.422 Z-0.7 I0.177 J-0.468
X-52.615 Y18.404 I0.096 J0.491 F250
X-52.808 Y17.422 I-0.096 J-0.491
X-52.615 Y18.404 Z-0.755 I0.096 J0.491 F333.3
X-53.052 Y17.547 Z-0.8 I-0.096 J-0.491
X-52.371 Y18.279 I0.341 J0.366 F250
X-53.052 Y17.547 I-0.341 J-0.366
X-52.371 Y18.279 Z-0.855 I0.341 J0.366 F333.3
X-53.194 Y17.782 Z-0.9 I-0.341 J-0.366
X-52.229 Y18.044 I0.483 J0.131 F250
X-53.194 Y17.782 I-0.483 J-0.131
X-52.229 Y18.044 Z-0.955 I0.483 J0.131 F333.3
X-53.19 Y18.056 Z-1 I-0.483 J-0.131
X-52.233 Y17.769 I0.479 J-0.143 F250
X-53.19 Y18.056 I-0.479 J0.143
X-52.233 Y17.769 Z-1.055 I0.479 J-0.143 F333.3
X-53.043 Y18.288 Z-1.1 I-0.479 J0.143
X-52.38 Y17.538 I0.331 J-0.375 F250
X-53.043 Y18.288 I-0.331 J0.375
X-52.38 Y17.538 Z-1.155 I0.331 J-0.375 F333.3
X-52.795 Y18.406 Z-1.2 I-0.331 J0.375
X-52.628 Y17.42 I0.084 J-0.493 F250
X-52.795 Y18.406 I-0.084 J0.493
X-52.628 Y17.42 Z-1.255 I0.084 J-0.493 F333.3
X-52.522 Y18.376 Z-1.3 I-0.084 J0.493
X-52.901 Y17.45 I-0.189 J-0.463 F250
X-52.522 Y18.376 I0.189 J0.463
G1 X-52.577 Y18.392 Z-1.289
X-52.634 Y18.398 Z-1.277
X-52.683 Y18.394 Z-1.245
X-52.73 Y18.383 Z-1.212
X-52.789 Y18.356 Z-1.115
X-52.808 Y18.344 Z-1
G0 Z8
X52.541 Y18.275
Z5
G1 Z2.5 F250
Z0.2 F200
X52.528 Y18.294 Z0.085
X52.483 Y18.341 Z-0.012
X52.444 Y18.369 Z-0.045
X52.401 Y18.391 Z-0.077
X52.346 Y18.407 Z-0.089
X52.289 Y18.413 Z-0.1
G3 X52.289 Y17.413 I0 J-0.5 F250
X52.289 Y18.413 I0 J0.5
X52.289 Y17.413 Z-0.155 I0 J-0.5 F333.3
X52.552 Y18.338 Z-0.2 I0 J0.5
X52.025 Y17.488 I-0.264 J-0.425 F250
X52.552 Y18.338 I0.264 J0.425
X52.025 Y17.488 Z-0.255 I-0.264 J-0.425 F333.3
X52.737 Y18.134 Z-0.3 I0.264 J0.425
X51.84 Y17.691 I-0.448 J-0.221 F250
X52.737 Y18.134 I0.448 J0.221
X51.84 Y17.691 Z-0.355 I-0.448 J-0.221 F333.3
X52.786 Y17.864 Z-0.4 I0.448 J0.221
X51.791 Y17.961 I-0.498 J0.048 F250
X52.786 Y17.864 I0.498 J-0.048
X51.791 Y17.961 Z-0.455 I-0.498 J0.048 F333.3
X52.686 Y17.609 Z-0.5 I0.498 J-0.048
X51.891 Y18.217 I-0.397 J0.304 F250
X52.686 Y17.609 I0.397 J-0.304
X51.891 Y18.217 Z-0.555 I-0.397 J0.304 F333.3
X52.466 Y17.445 Z-0.6 I0.397 J-0.304
X52.111 Y18.381 I-0.177 J0.468 F250
X52.466 Y17.445 I0.177 J-0.468
X52.111 Y18.381 Z-0.655 I-0.177 J0.468 F333.3
X52.192 Y17.422 Z-0.7 I0.177 J-0.468
X52.385 Y18.404 I0.096 J0.491 F250
X52.192 Y17.422 I-0.096 J-0.491
X52.385 Y18.404 Z-0.755 I0.096 J0.491 F333.3
X51.948 Y17.547 Z-0.8 I-0.096 J-0.491
X52.629 Y18.279 I0.341 J0.366 F250
X51.948 Y17.547 I-0.341 J-0.366
X52.629 Y18.279 Z-0.855 I0.341 J0.366 F333.3
X51.806 Y17.782 Z-0.9 I-0.341 J-0.366
X52.771 Y18.044 I0.483 J0.131 F250
X51.806 Y17.782 I-0.483 J-0.131
X52.771 Y18.044 Z-0.955 I0.483 J0.131 F333.3
X51.81 Y18.056 Z-1 I-0.483 J-0.131
X52.767 Y17.769 I0.479 J-0.143 F250
X51.81 Y18.056 I-0.479 J0.143
X52.767 Y17.769 Z-1.055 I0.479 J-0.143 F333.3
X51.957 Y18.288 Z-1.1 I-0.479 J0.143
X52.62 Y17.538 I0.331 J-0.375 F250
X51.957 Y18.288 I-0.331 J0.375
X52.62 Y17.538 Z-1.155 I0.331 J-0.375 F333.3
X52.205 Y18.406 Z-1.2 I-0.331 J0.375
X52.372 Y17.42 I0.084 J-0.493 F250
X52.205 Y18.406 I-0.084 J0.493
X52.372 Y17.42 Z-1.255 I0.084 J-0.493 F333.3
X52.478 Y18.376 Z-1.3 I-0.084 J0.493
X52.099 Y17.45 I-0.189 J-0.463 F250
X52.478 Y18.376 I0.189 J0.463
G1 X52.423 Y18.392 Z-1.289
X52.366 Y18.398 Z-1.277
X52.317 Y18.394 Z-1.245
X52.27 Y18.383 Z-1.212
X52.211 Y18.356 Z-1.115
X52.192 Y18.344 Z-1
G0 Z8
X52.985 Y24.913
Z5
G1 Z2.8 F250
G18 G2 X53.274 Z2.5 I0.3 K0 F333.3
G1 X54.039 Z2.473
G17 G2 X55.539 Y23.413 Z2.391 I0 J-1.5
G1 Y21.663 Z2.33
G3 X56.539 Y21.663 Z2.275 I0.5 J0
G1 Y25.413 Z2.144
G3 X56.039 Y25.913 Z2.117 I-0.5 J0
G1 X48.539 Z1.855
G3 X48.039 Y25.413 Z1.827 I0 J-0.5
G1 Y21.663 Z1.696
G3 X49.039 Y21.663 Z1.642 I0.5 J0
G1 Y23.413 Z1.58
G2 X50.539 Y24.913 Z1.498 I1.5 J0
G1 X54.039 Z1.376
G2 X55.539 Y23.413 Z1.294 I0 J-1.5
G1 Y21.663 Z1.233
G3 X56.539 Y21.663 Z1.178 I0.5 J0
G1 Y25.413 Z1.047
G3 X56.039 Y25.913 Z1.019 I-0.5 J0
G1 X48.539 Z0.757
G3 X48.039 Y25.413 Z0.73 I0 J-0.5
G1 Y21.663 Z0.599
G3 X49.039 Y21.663 Z0.544 I0.5 J0
G1 Y23.413 Z0.483
G2 X50.539 Y24.913 Z0.401 I1.5 J0
G1 X54.039 Z0.279
G2 X55.539 Y23.413 Z0.196 I0 J-1.5
G1 Y21.663 Z0.135
G3 X56.539 Y21.663 Z0.08 I0.5 J0
G1 Y25.413 Z-0.051
G3 X56.039 Y25.913 Z-0.078 I-0.5 J0
G1 X55.41 Z-0.1
X48.539 F250
G3 X48.039 Y25.413 I0 J-0.5
G1 Y21.663
G3 X49.039 Y21.663 I0.5 J0
G1 Y23.413
G2 X50.539 Y24.913 I1.5 J0
G1 X54.039
G2 X55.539 Y23.413 I0 J-1.5
G1 Y21.663
G3 X56.539 Y21.663 I0.5 J0
G1 Y25.413
G3 X56.039 Y25.913 I-0.5 J0
G1 X55.41
X52.547 Z-0.2 F333.3
X48.539 F250
G3 X48.039 Y25.413 I0 J-0.5
G1 Y21.663
G3 X49.039 Y21.663 I0.5 J0
G1 Y23.413
G2 X50.539 Y24.913 I1.5 J0
G1 X54.039
G2 X55.539 Y23.413 I0 J-1.5
G1 Y21.663
G3 X56.539 Y21.663 I0.5 J0
G1 Y25.413
G3 X56.039 Y25.913 I-0.5 J0
G1 X52.547
X49.683 Z-0.3 F333.3
X48.539 F250
G3 X48.039 Y25.413 I0 J-0.5
G1 Y21.663
G3 X49.039 Y21.663 I0.5 J0
G1 Y23.413
G2 X50.539 Y24.913 I1.5 J0
G1 X54.039
G2 X55.539 Y23.413 I0 J-1.5
G1 Y21.663
G3 X56.539 Y21.663 I0.5 J0
G1 Y25.413
G3 X56.039 Y25.913 I-0.5 J0
G1 X52.547
X49.683
X48.539 Z-0.34 F333.3
G3 X48.039 Y25.413 Z-0.367 I0 J-0.5
G1 Y24.479 Z-0.4
Y21.663 F250
G3 X49.039 Y21.663 I0.5 J0
G1 Y23.413
G2 X50.539 Y24.913 I1.5 J0
G1 X54.039
G2 X55.539 Y23.413 I0 J-1.5
G1 Y21.663
G3 X56.539 Y21.663 I0.5 J0
G1 Y25.413
G3 X56.039 Y25.913 I-0.5 J0
G1 X49.683
X48.539
G3 X48.039 Y25.413 I0 J-0.5
G1 Y24.479
Y21.663 Z-0.498 F333.3
X48.041 Y21.616 Z-0.5
G3 X49.039 Y21.663 I0.498 J0.047 F250
G1 Y23.413
G2 X50.539 Y24.913 I1.5 J0
G1 X54.039
G2 X55.539 Y23.413 I0 J-1.5
G1 Y21.663
G3 X56.539 Y21.663 I0.5 J0
G1 Y25.413
G3 X56.039 Y25.913 I-0.5 J0
G1 X48.539
G3 X48.039 Y25.413 I0 J-0.5
G1 Y21.663
X48.041 Y21.616
G3 X49.039 Y21.663 Z-0.553 I0.498 J0.047 F333.3
G1 Y23.003 Z-0.6
Y23.413 F250
G2 X50.539 Y24.913 I1.5 J0
G1 X54.039
G2 X55.539 Y23.413 I0 J-1.5
G1 Y21.663
G3 X56.539 Y21.663 I0.5 J0
G1 Y25.413
G3 X56.039 Y25.913 I-0.5 J0
G1 X48.539
G3 X48.039 Y25.413 I0 J-0.5
G1 Y21.663
G3 X49.039 Y21.663 I0.5 J0
G1 Y23.003
Y23.413 Z-0.614 F333.3
G2 X50.539 Y24.913 Z-0.697 I1.5 J0
G1 X50.636 Z-0.7
X54.039 F250
G2 X55.539 Y23.413 I0 J-1.5
G1 Y21.663
G3 X56.539 Y21.663 I0.5 J0
G1 Y25.413
G3 X56.039 Y25.913 I-0.5 J0
G1 X48.539
G3 X48.039 Y25.413 I0 J-0.5
G1 Y21.663
G3 X49.039 Y21.663 I0.5 J0
G1 Y23.003
Y23.413
G2 X50.539 Y24.913 I1.5 J0
G1 X50.636
X53.5 Z-0.8 F333.3
X54.039 F250
G2 X55.539 Y23.413 I0 J-1.5
G1 Y21.663
G3 X56.539 Y21.663 I0.5 J0
G1 Y25.413
G3 X56.039 Y25.913 I-0.5 J0
G1 X48.539
G3 X48.039 Y25.413 I0 J-0.5
G1 Y21.663
G3 X49.039 Y21.663 I0.5 J0
G1 Y23.413
G2 X50.539 Y24.913 I1.5 J0
G1 X53.5
X54.039 Z-0.819 F333.3
G2 X55.538 Y23.444 Z-0.9 I0 J-1.5
G1 X55.539 Y23.413 F250
Y21.663
G3 X56.539 Y21.663 I0.5 J0
G1 Y25.413
G3 X56.039 Y25.913 I-0.5 J0
G1 X48.539
G3 X48.039 Y25.413 I0 J-0.5
G1 Y21.663
G3 X49.039 Y21.663 I0.5 J0
G1 Y23.413
G2 X50.539 Y24.913 I1.5 J0
G1 X53.5
X54.039
G2 X55.538 Y23.444 I0 J-1.5
G1 X55.539 Y23.413 Z-0.901 F333.3
Y21.663 Z-0.962
G3 X56.318 Y21.248 Z-1 I0.5 J0
X56.539 Y21.663 I-0.28 J0.414 F250
G1 Y25.413
G3 X56.039 Y25.913 I-0.5 J0
G1 X48.539
G3 X48.039 Y25.413 I0 J-0.5
G1 Y21.663
G3 X49.039 Y21.663 I0.5 J0
G1 Y23.413
G2 X50.539 Y24.913 I1.5 J0
G1 X54.039
G2 X55.539 Y23.413 I0 J-1.5
G1 Y21.663
G3 X56.318 Y21.248 I0.5 J0
X56.539 Y21.663 Z-1.017 I-0.28 J0.414 F333.3
G1 Y24.038 Z-1.1
Y25.413 F250
G3 X56.039 Y25.913 I-0.5 J0
G1 X48.539
G3 X48.039 Y25.413 I0 J-0.5
G1 Y21.663
G3 X49.039 Y21.663 I0.5 J0
G1 Y23.413
G2 X50.539 Y24.913 I1.5 J0
G1 X54.039
G2 X55.539 Y23.413 I0 J-1.5
G1 Y21.663
G3 X56.539 Y21.663 I0.5 J0
G1 Y24.038
Y25.413 Z-1.148 F333.3
G3 X56.039 Y25.913 Z-1.175 I-0.5 J0
G1 X55.335 Z-1.2
X48.539 F250
G3 X48.039 Y25.413 I0 J-0.5
G1 Y21.663
G3 X49.039 Y21.663 I0.5 J0
G1 Y23.413
G2 X50.539 Y24.913 I1.5 J0
G1 X54.039
G2 X55.539 Y23.413 I0 J-1.5
G1 Y21.663
G3 X56.539 Y21.663 I0.5 J0
G1 Y24.038
Y25.413
G3 X56.039 Y25.913 I-0.5 J0
G1 X55.335
X52.472 Z-1.3 F333.3
X48.539 F250
G3 X48.039 Y25.413 I0 J-0.5
G1 Y21.663
G3 X49.039 Y21.663 I0.5 J0
G1 Y23.413
G2 X50.539 Y24.913 I1.5 J0
G1 X54.039
G2 X55.539 Y23.413 I0 J-1.5
G1 Y21.663
G3 X56.539 Y21.663 I0.5 J0
G1 Y25.413
G3 X56.039 Y25.913 I-0.5 J0
G1 X52.472
X52.415 Y25.907 Z-1.289
X52.36 Y25.891 Z-1.277
X52.316 Y25.869 Z-1.245
X52.277 Y25.841 Z-1.212
X52.232 Y25.794 Z-1.115
X52.219 Y25.775 Z-1
G0 Z8
X52.651 Y-23.34
Z5
G1 Z2.5 F250
Z0.2 F200
X52.669 Y-23.326 Z0.085
X52.717 Y-23.282 Z-0.012
X52.745 Y-23.243 Z-0.045
X52.767 Y-23.199 Z-0.077
X52.783 Y-23.144 Z-0.089
X52.789 Y-23.087 Z-0.1
G3 X51.789 Y-23.087 I-0.5 J0 F250
X52.789 Y-23.087 I0.5 J0
X51.789 Y-23.087 Z-0.155 I-0.5 J0 F333.3
X52.713 Y-23.351 Z-0.2 I0.5 J0
X51.864 Y-22.823 I-0.425 J0.264 F250
X52.713 Y-23.351 I0.425 J-0.264
X51.864 Y-22.823 Z-0.255 I-0.425 J0.264 F333.3
X52.51 Y-23.535 Z-0.3 I0.425 J-0.264
X52.067 Y-22.639 I-0.221 J0.448 F250
X52.51 Y-23.535 I0.221 J-0.448
X52.067 Y-22.639 Z-0.355 I-0.221 J0.448 F333.3
X52.24 Y-23.585 Z-0.4 I0.221 J-0.448
X52.337 Y-22.589 I0.048 J0.498 F250
X52.24 Y-23.585 I-0.048 J-0.498
X52.337 Y-22.589 Z-0.455 I0.048 J0.498 F333.3
X51.985 Y-23.484 Z-0.5 I-0.048 J-0.498
X52.592 Y-22.69 I0.304 J0.397 F250
X51.985 Y-23.484 I-0.304 J-0.397
X52.592 Y-22.69 Z-0.555 I0.304 J0.397 F333.3
X51.821 Y-23.264 Z-0.6 I-0.304 J-0.397
X52.756 Y-22.91 I0.468 J0.177 F250
X51.821 Y-23.264 I-0.468 J-0.177
X52.756 Y-22.91 Z-0.655 I0.468 J0.177 F333.3
X51.798 Y-22.991 Z-0.7 I-0.468 J-0.177
X52.779 Y-23.183 I0.491 J-0.096 F250
X51.798 Y-22.991 I-0.491 J0.096
X52.779 Y-23.183 Z-0.755 I0.491 J-0.096 F333.3
X51.923 Y-22.746 Z-0.8 I-0.491 J0.096
X52.654 Y-23.428 I0.366 J-0.341 F250
X51.923 Y-22.746 I-0.366 J0.341
X52.654 Y-23.428 Z-0.855 I0.366 J-0.341 F333.3
X52.158 Y-22.605 Z-0.9 I-0.366 J0.341
X52.419 Y-23.57 I0.131 J-0.483 F250
X52.158 Y-22.605 I-0.131 J0.483
X52.419 Y-23.57 Z-0.955 I0.131 J-0.483 F333.3
X52.432 Y-22.608 Z-1 I-0.131 J0.483
X52.145 Y-23.566 I-0.143 J-0.479 F250
X52.432 Y-22.608 I0.143 J0.479
X52.145 Y-23.566 Z-1.055 I-0.143 J-0.479 F333.3
X52.663 Y-22.756 Z-1.1 I0.143 J0.479
X51.914 Y-23.418 I-0.375 J-0.331 F250
X52.663 Y-22.756 I0.375 J0.331
X51.914 Y-23.418 Z-1.155 I-0.375 J-0.331 F333.3
X52.781 Y-23.004 Z-1.2 I0.375 J0.331
X51.796 Y-23.171 I-0.493 J-0.084 F250
X52.781 Y-23.004 I0.493 J0.084
X51.796 Y-23.171 Z-1.255 I-0.493 J-0.084 F333.3
X52.751 Y-23.276 Z-1.3 I0.493 J0.084
X51.826 Y-22.898 I-0.463 J0.189 F250
X52.751 Y-23.276 I0.463 J-0.189
G1 X52.768 Y-23.221 Z-1.289
X52.774 Y-23.164 Z-1.277
X52.77 Y-23.116 Z-1.245
X52.758 Y-23.069 Z-1.212
X52.732 Y-23.01 Z-1.115
X52.719 Y-22.99 Z-1
G0 Z18
M9
M5
M30
