(1001)
(Machine)
(  vendor: Autodesk)
(  description: Generic 3-axis)
(T3  D=3 CR=0 - ZMIN=-1.3 - flat end mill)
G90 G94
G17
G21

(2D Pocket4)
T3
S1000 M3
G54
M8
G0 X-21.14 Y-15.087
Z15
Z5
G1 Z2.8 F250
G18 G3 X-21.429 Z2.5 I-0.3 K0 F333.3
G1 X-21.462 Z2.499
G17 G3 X-21.462 Y-16.087 Z2.444 I0 J-0.5
G1 X-13.962 Z2.182
G3 X-13.962 Y-15.087 Z2.127 I0 J0.5
G1 X-21.462 Z1.865
G3 X-21.462 Y-16.087 Z1.811 I0 J-0.5
G1 X-13.962 Z1.549
G3 X-13.962 Y-15.087 Z1.494 I0 J0.5
G1 X-21.462 Z1.232
G3 X-21.462 Y-16.087 Z1.177 I0 J-0.5
G1 X-13.962 Z0.915
G3 X-13.962 Y-15.087 Z0.86 I0 J0.5
G1 X-21.462 Z0.598
G3 X-21.462 Y-16.087 Z0.543 I0 J-0.5
G1 X-13.962 Z0.282
G3 X-13.962 Y-15.087 Z0.227 I0 J0.5
G1 X-21.462 Z-0.035
G3 X-21.462 Y-16.087 Z-0.09 I0 J-0.5
G1 X-21.177 Z-0.1
X-13.962 F250
G3 X-13.962 Y-15.087 I0 J0.5
G1 X-21.462
G3 X-21.462 Y-16.087 I0 J-0.5
G1 X-21.177
X-18.313 Z-0.2 F333.3
X-13.962 F250
G3 X-13.962 Y-15.087 I0 J0.5
G1 X-21.462
G3 X-21.462 Y-16.087 I0 J-0.5
G1 X-18.313
X-15.449 Z-0.3 F333.3
X-13.962 F250
G3 X-13.962 Y-15.087 I0 J0.5
G1 X-21.462
G3 X-21.462 Y-16.087 I0 J-0.5
G1 X-18.313
X-15.449
X-13.962 Z-0.352 F333.3
G3 X-13.771 Y-15.125 Z-0.4 I0 J0.5
G1 X-13.833 Y-15.104 F250
X-13.897 Y-15.091
X-13.962 Y-15.087
X-21.462
G3 X-21.462 Y-16.087 I0 J-0.5
G1 X-15.449
X-13.962
G3 X-13.771 Y-15.125 I0 J0.5
G1 X-13.833 Y-15.104 Z-0.402 F333.3
X-13.897 Y-15.091 Z-0.405
X-13.962 Y-15.087 Z-0.407
X-16.63 Z-0.5
X-21.462 F250
G3 X-21.462 Y-16.087 I0 J-0.5
G1 X-13.962
G3 X-13.962 Y-15.087 I0 J0.5
G1 X-16.63
X-19.494 Z-0.6 F333.3
X-21.462 F250
G3 X-21.462 Y-16.087 I0 J-0.5
G1 X-13.962
G3 X-13.962 Y-15.087 I0 J0.5
G1 X-19.494
X-21.462 Z-0.669 F333.3
G3 X-21.949 Y-15.697 Z-0.7 I0 J-0.5
X-21.462 Y-16.087 I0.488 J0.11 F250
G1 X-13.962
G3 X-13.962 Y-15.087 I0 J0.5
G1 X-19.494
X-21.462
G3 X-21.949 Y-15.697 I0 J-0.5
X-21.462 Y-16.087 Z-0.724 I0.488 J0.11 F333.3
G1 X-19.273 Z-0.8
X-13.962 F250
G3 X-13.962 Y-15.087 I0 J0.5
G1 X-21.462
G3 X-21.462 Y-16.087 I0 J-0.5
G1 X-19.273
X-16.409 Z-0.9 F333.3
X-13.962 F250
G3 X-13.962 Y-15.087 I0 J0.5
G1 X-21.462
G3 X-21.462 Y-16.087 I0 J-0.5
G1 X-16.409
X-13.962 Z-0.985 F333.3
G3 X-13.592 Y-15.924 Z-1 I0 J0.5
X-13.962 Y-15.087 I-0.37 J0.337 F250
G1 X-21.462
G3 X-21.462 Y-16.087 I0 J-0.5
G1 X-16.409
X-13.962
G3 X-13.592 Y-15.924 I0 J0.5
X-13.962 Y-15.087 Z-1.04 I-0.37 J0.337 F333.3
G1 X-15.67 Z-1.1
X-21.462 F250
G3 X-21.462 Y-16.087 I0 J-0.5
G1 X-13.962
G3 X-13.962 Y-15.087 I0 J0.5
G1 X-15.67
X-18.534 Z-1.2 F333.3
X-21.462 F250
G3 X-21.462 Y-16.087 I0 J-0.5
G1 X-13.962
G3 X-13.962 Y-15.087 I0 J0.5
G1 X-18.534
X-21.398 Z-1.3 F333.3
X-21.462 F250
G3 X-21.462 Y-16.087 I0 J-0.5
G1 X-13.962
G3 X-13.962 Y-15.087 I0 J0.5
G1 X-18.534
X-21.398
X-21.455 Y-15.093 Z-1.289
X-21.51 Y-15.109 Z-1.277
X-21.553 Y-15.131 Z-1.245
X-21.593 Y-15.159 Z-1.212
X-21.637 Y-15.206 Z-1.115
X-21.65 Y-15.225 Z-1
G0 Z15
X-13.462 Y23.218
Z5
G1 Z2.8 F250
G19 G3 Y23.507 Z2.5 J0.3 K0 F333.3
G1 Y25.413 Z2.433
G17 G3 X-13.962 Y25.913 Z2.406 I-0.5 J0
G1 X-21.462 Z2.144
G3 X-21.962 Y25.413 Z2.117 I0 J-0.5
G1 Y21.663 Z1.986
G3 X-20.962 Y21.663 Z1.931 I0.5 J0
G1 Y23.413 Z1.87
G2 X-19.462 Y24.913 Z1.787 I1.5 J0
G1 X-15.962 Z1.665
G2 X-14.462 Y23.413 Z1.583 I0 J-1.5
G1 Y21.663 Z1.522
G3 X-13.462 Y21.663 Z1.467 I0.5 J0
G1 Y25.413 Z1.336
G3 X-13.962 Y25.913 Z1.309 I-0.5 J0
G1 X-21.462 Z1.047
G3 X-21.962 Y25.413 Z1.019 I0 J-0.5
G1 Y21.663 Z0.888
G3 X-20.962 Y21.663 Z0.834 I0.5 J0
G1 Y23.413 Z0.772
G2 X-19.462 Y24.913 Z0.69 I1.5 J0
G1 X-15.962 Z0.568
G2 X-14.462 Y23.413 Z0.486 I0 J-1.5
G1 Y21.663 Z0.425
G3 X-13.462 Y21.663 Z0.37 I0.5 J0
G1 Y25.413 Z0.239
G3 X-13.962 Y25.913 Z0.211 I-0.5 J0
G1 X-21.462 Z-0.051
G3 X-21.962 Y25.413 Z-0.078 I0 J-0.5
G1 Y24.785 Z-0.1
Y21.663 F250
G3 X-20.962 Y21.663 I0.5 J0
G1 Y23.413
G2 X-19.462 Y24.913 I1.5 J0
G1 X-15.962
G2 X-14.462 Y23.413 I0 J-1.5
G1 Y21.663
G3 X-13.462 Y21.663 I0.5 J0
G1 Y25.413
G3 X-13.962 Y25.913 I-0.5 J0
G1 X-21.462
G3 X-21.962 Y25.413 I0 J-0.5
G1 Y24.785
Y21.921 Z-0.2 F333.3
Y21.663 F250
G3 X-20.962 Y21.663 I0.5 J0
G1 Y23.413
G2 X-19.462 Y24.913 I1.5 J0
G1 X-15.962
G2 X-14.462 Y23.413 I0 J-1.5
G1 Y21.663
G3 X-13.462 Y21.663 I0.5 J0
G1 Y25.413
G3 X-13.962 Y25.913 I-0.5 J0
G1 X-21.462
G3 X-21.962 Y25.413 I0 J-0.5
G1 Y21.921
Y21.663 Z-0.209 F333.3
G3 X-20.962 Y21.663 Z-0.264 I0.5 J0
G1 Y22.698 Z-0.3
Y23.413 F250
G2 X-19.462 Y24.913 I1.5 J0
G1 X-15.962
G2 X-14.462 Y23.413 I0 J-1.5
G1 Y21.663
G3 X-13.462 Y21.663 I0.5 J0
G1 Y25.413
G3 X-13.962 Y25.913 I-0.5 J0
G1 X-21.462
G3 X-21.962 Y25.413 I0 J-0.5
G1 Y21.921
Y21.663
G3 X-20.962 Y21.663 I0.5 J0
G1 Y22.698
Y23.413 Z-0.325 F333.3
G2 X-19.669 Y24.899 Z-0.4 I1.5 J0
G1 X-19.565 Y24.909 F250
X-19.462 Y24.913
X-15.962
G2 X-14.462 Y23.413 I0 J-1.5
G1 Y21.663
G3 X-13.462 Y21.663 I0.5 J0
G1 Y25.413
G3 X-13.962 Y25.913 I-0.5 J0
G1 X-21.462
G3 X-21.962 Y25.413 I0 J-0.5
G1 Y21.663
G3 X-20.962 Y21.663 I0.5 J0
G1 Y22.698
Y23.413
G2 X-19.669 Y24.899 I1.5 J0
G1 X-19.565 Y24.909 Z-0.404 F333.3
X-19.462 Y24.913 Z-0.407
X-16.806 Z-0.5
X-15.962 F250
G2 X-14.462 Y23.413 I0 J-1.5
G1 Y21.663
G3 X-13.462 Y21.663 I0.5 J0
G1 Y25.413
G3 X-13.962 Y25.913 I-0.5 J0
G1 X-21.462
G3 X-21.962 Y25.413 I0 J-0.5
G1 Y21.663
G3 X-20.962 Y21.663 I0.5 J0
G1 Y23.413
G2 X-19.462 Y24.913 I1.5 J0
G1 X-16.806
X-15.962 Z-0.529 F333.3
G2 X-14.499 Y23.747 Z-0.6 I0 J-1.5
X-14.462 Y23.413 I-1.462 J-0.334 F250
G1 Y21.663
G3 X-13.462 Y21.663 I0.5 J0
G1 Y25.413
G3 X-13.962 Y25.913 I-0.5 J0
G1 X-21.462
G3 X-21.962 Y25.413 I0 J-0.5
G1 Y21.663
G3 X-20.962 Y21.663 I0.5 J0
G1 Y23.413
G2 X-19.462 Y24.913 I1.5 J0
G1 X-16.806
X-15.962
G2 X-14.499 Y23.747 I0 J-1.5
X-14.462 Y23.413 Z-0.612 I-1.462 J-0.334 F333.3
G1 Y21.663 Z-0.673
G3 X-13.97 Y21.163 Z-0.7 I0.5 J0
X-13.462 Y21.663 I0.009 J0.5 F250
G1 Y25.413
G3 X-13.962 Y25.913 I-0.5 J0
G1 X-21.462
G3 X-21.962 Y25.413 I0 J-0.5
G1 Y21.663
G3 X-20.962 Y21.663 I0.5 J0
G1 Y23.413
G2 X-19.462 Y24.913 I1.5 J0
G1 X-15.962
G2 X-14.462 Y23.413 I0 J-1.5
G1 Y21.663
G3 X-13.97 Y21.163 I0.5 J0
X-13.462 Y21.663 Z-0.728 I0.009 J0.5 F333.3
G1 Y23.732 Z-0.8
Y25.413 F250
G3 X-13.962 Y25.913 I-0.5 J0
G1 X-21.462
G3 X-21.962 Y25.413 I0 J-0.5
G1 Y21.663
G3 X-20.962 Y21.663 I0.5 J0
G1 Y23.413
G2 X-19.462 Y24.913 I1.5 J0
G1 X-15.962
G2 X-14.462 Y23.413 I0 J-1.5
G1 Y21.663
G3 X-13.462 Y21.663 I0.5 J0
G1 Y23.732
Y25.413 Z-0.859 F333.3
G3 X-13.962 Y25.913 Z-0.886 I-0.5 J0
G1 X-14.359 Z-0.9
X-21.462 F250
G3 X-21.962 Y25.413 I0 J-0.5
G1 Y21.663
G3 X-20.962 Y21.663 I0.5 J0
G1 Y23.413
G2 X-19.462 Y24.913 I1.5 J0
G1 X-15.962
G2 X-14.462 Y23.413 I0 J-1.5
G1 Y21.663
G3 X-13.462 Y21.663 I0.5 J0
G1 Y23.732
Y25.413
G3 X-13.962 Y25.913 I-0.5 J0
G1 X-14.359
X-17.223 Z-1 F333.3
X-21.462 F250
G3 X-21.962 Y25.413 I0 J-0.5
G1 Y21.663
G3 X-20.962 Y21.663 I0.5 J0
G1 Y23.413
G2 X-19.462 Y24.913 I1.5 J0
G1 X-15.962
G2 X-14.462 Y23.413 I0 J-1.5
G1 Y21.663
G3 X-13.462 Y21.663 I0.5 J0
G1 Y25.413
G3 X-13.962 Y25.913 I-0.5 J0
G1 X-17.223
X-20.087 Z-1.1 F333.3
X-21.462 F250
G3 X-21.962 Y25.413 I0 J-0.5
G1 Y21.663
G3 X-20.962 Y21.663 I0.5 J0
G1 Y23.413
G2 X-19.462 Y24.913 I1.5 J0
G1 X-15.962
G2 X-14.462 Y23.413 I0 J-1.5
G1 Y21.663
G3 X-13.462 Y21.663 I0.5 J0
G1 Y25.413
G3 X-13.962 Y25.913 I-0.5 J0
G1 X-17.223
X-20.087
X-21.462 Z-1.148 F333.3
G3 X-21.962 Y25.413 Z-1.175 I0 J-0.5
G1 Y24.71 Z-1.2
Y21.663 F250
G3 X-20.962 Y21.663 I0.5 J0
G1 Y23.413
G2 X-19.462 Y24.913 I1.5 J0
G1 X-15.962
G2 X-14.462 Y23.413 I0 J-1.5
G1 Y21.663
G3 X-13.462 Y21.663 I0.5 J0
G1 Y25.413
G3 X-13.962 Y25.913 I-0.5 J0
G1 X-20.087
X-21.462
G3 X-21.962 Y25.413 I0 J-0.5
G1 Y24.71
Y21.846 Z-1.3 F333.3
Y21.663 F250
G3 X-20.962 Y21.663 I0.5 J0
G1 Y23.413
G2 X-19.462 Y24.913 I1.5 J0
G1 X-15.962
G2 X-14.462 Y23.413 I0 J-1.5
G1 Y21.663
G3 X-13.462 Y21.663 I0.5 J0
G1 Y25.413
G3 X-13.962 Y25.913 I-0.5 J0
G1 X-21.462
G3 X-21.962 Y25.413 I0 J-0.5
G1 Y21.846
X-21.956 Y21.789 Z-1.289
X-21.94 Y21.734 Z-1.277
X-21.918 Y21.691 Z-1.245
X-21.89 Y21.651 Z-1.212
X-21.842 Y21.607 Z-1.115
X-21.824 Y21.594 Z-1
G0 Z15
X20.373 Y25.454
Z5
G1 Z2.8 F250
X20.368 Y25.449 Z2.735 F333.3
X20.353 Y25.434 Z2.672
X20.329 Y25.41 Z2.616
X20.296 Y25.378 Z2.569
X20.258 Y25.339 Z2.533
X20.214 Y25.296 Z2.509
X20.168 Y25.25 Z2.5
X18.349 Y23.431 Z2.41
G2 X16.228 Y23.431 Z2.328 I-1.061 J1.061
G1 X11.392 Y28.266 Z2.089
G3 X10.685 Y27.559 Z2.034 I-0.354 J-0.354
G1 X15.521 Y22.724 Z1.795
G2 X15.521 Y20.602 Z1.713 I-1.061 J-1.061
G1 X10.685 Y15.766 Z1.474
G3 X11.392 Y15.059 Z1.419 I0.354 J-0.354
G1 X16.228 Y19.895 Z1.181
G2 X18.349 Y19.895 Z1.098 I1.061 J-1.061
G1 X23.185 Y15.059 Z0.86
G3 X23.892 Y15.766 Z0.805 I0.354 J0.354
G1 X19.056 Y20.602 Z0.566
G2 X19.056 Y22.724 Z0.484 I1.061 J1.061
G1 X23.892 Y27.559 Z0.245
G3 X23.892 Y28.266 Z0.217 I-0.354 J0.354
X23.185 Y28.266 Z0.19 I-0.354 J-0.354
G1 X18.349 Y23.431 Z-0.049
G2 X17.005 Y23.018 Z-0.1 I-1.061 J1.061
X16.228 Y23.431 I0.283 J1.473 F250
G1 X11.392 Y28.266
G3 X10.685 Y27.559 I-0.354 J-0.354
G1 X15.521 Y22.724
G2 X15.521 Y20.602 I-1.061 J-1.061
G1 X10.685 Y15.766
G3 X11.392 Y15.059 I0.354 J-0.354
G1 X16.228 Y19.895
G2 X18.349 Y19.895 I1.061 J-1.061
G1 X23.185 Y15.059
G3 X23.892 Y15.766 I0.354 J0.354
G1 X19.056 Y20.602
G2 X19.056 Y22.724 I1.061 J1.061
G1 X23.892 Y27.559
G3 X23.892 Y28.266 I-0.354 J0.354
X23.185 Y28.266 I-0.354 J-0.354
G1 X18.349 Y23.431
G2 X17.005 Y23.018 I-1.061 J1.061
X16.228 Y23.431 Z-0.131 I0.283 J1.473 F333.3
G1 X14.834 Y24.824 Z-0.2
X11.392 Y28.266 F250
G3 X10.685 Y27.559 I-0.354 J-0.354
G1 X15.521 Y22.724
G2 X15.521 Y20.602 I-1.061 J-1.061
G1 X10.685 Y15.766
G3 X11.392 Y15.059 I0.354 J-0.354
G1 X16.228 Y19.895
G2 X18.349 Y19.895 I1.061 J-1.061
G1 X23.185 Y15.059
G3 X23.892 Y15.766 I0.354 J0.354
G1 X19.056 Y20.602
G2 X19.056 Y22.724 I1.061 J1.061
G1 X23.892 Y27.559
G3 X23.892 Y28.266 I-0.354 J0.354
X23.185 Y28.266 I-0.354 J-0.354
G1 X18.349 Y23.431
G2 X16.228 Y23.431 I-1.061 J1.061
G1 X14.834 Y24.824
X12.81 Y26.849 Z-0.3 F333.3
X11.392 Y28.266 F250
G3 X10.685 Y27.559 I-0.354 J-0.354
G1 X15.521 Y22.724
G2 X15.521 Y20.602 I-1.061 J-1.061
G1 X10.685 Y15.766
G3 X11.392 Y15.059 I0.354 J-0.354
G1 X16.228 Y19.895
G2 X18.349 Y19.895 I1.061 J-1.061
G1 X23.185 Y15.059
G3 X23.892 Y15.766 I0.354 J0.354
G1 X19.056 Y20.602
G2 X19.056 Y22.724 I1.061 J1.061
G1 X23.892 Y27.559
G3 X23.892 Y28.266 I-0.354 J0.354
X23.185 Y28.266 I-0.354 J-0.354
G1 X18.349 Y23.431
G2 X16.228 Y23.431 I-1.061 J1.061
G1 X12.81 Y26.849
X11.392 Y28.266 Z-0.37 F333.3
G3 X10.637 Y28.211 Z-0.4 I-0.354 J-0.354
X10.685 Y27.559 I0.402 J-0.298 F250
G1 X15.521 Y22.724
G2 X15.521 Y20.602 I-1.061 J-1.061
G1 X10.685 Y15.766
G3 X11.392 Y15.059 I0.354 J-0.354
G1 X16.228 Y19.895
G2 X18.349 Y19.895 I1.061 J-1.061
G1 X23.185 Y15.059
G3 X23.892 Y15.766 I0.354 J0.354
G1 X19.056 Y20.602
G2 X19.056 Y22.724 I1.061 J1.061
G1 X23.892 Y27.559
G3 X23.892 Y28.266 I-0.354 J0.354
X23.185 Y28.266 I-0.354 J-0.354
G1 X18.349 Y23.431
G2 X16.228 Y23.431 I-1.061 J1.061
G1 X12.81 Y26.849
X11.392 Y28.266
G3 X10.637 Y28.211 I-0.354 J-0.354
X10.685 Y27.559 Z-0.425 I0.402 J-0.298 F333.3
G1 X12.206 Y26.038 Z-0.5
X15.521 Y22.724 F250
G2 X15.521 Y20.602 I-1.061 J-1.061
G1 X10.685 Y15.766
G3 X11.392 Y15.059 I0.354 J-0.354
G1 X16.228 Y19.895
G2 X18.349 Y19.895 I1.061 J-1.061
G1 X23.185 Y15.059
G3 X23.892 Y15.766 I0.354 J0.354
G1 X19.056 Y20.602
G2 X19.056 Y22.724 I1.061 J1.061
G1 X23.892 Y27.559
G3 X23.892 Y28.266 I-0.354 J0.354
X23.185 Y28.266 I-0.354 J-0.354
G1 X18.349 Y23.431
G2 X16.228 Y23.431 I-1.061 J1.061
G1 X11.392 Y28.266
G3 X10.685 Y27.559 I-0.354 J-0.354
G1 X12.206 Y26.038
X14.231 Y24.013 Z-0.6 F333.3
X15.521 Y22.724 F250
G2 X15.521 Y20.602 I-1.061 J-1.061
G1 X10.685 Y15.766
G3 X11.392 Y15.059 I0.354 J-0.354
G1 X16.228 Y19.895
G2 X18.349 Y19.895 I1.061 J-1.061
G1 X23.185 Y15.059
G3 X23.892 Y15.766 I0.354 J0.354
G1 X19.056 Y20.602
G2 X19.056 Y22.724 I1.061 J1.061
G1 X23.892 Y27.559
G3 X23.892 Y28.266 I-0.354 J0.354
X23.185 Y28.266 I-0.354 J-0.354
G1 X18.349 Y23.431
G2 X16.228 Y23.431 I-1.061 J1.061
G1 X11.392 Y28.266
G3 X10.685 Y27.559 I-0.354 J-0.354
G1 X14.231 Y24.013
X15.521 Y22.724 Z-0.664 F333.3
G2 X15.954 Y21.801 Z-0.7 I-1.061 J-1.061
X15.521 Y20.602 I-1.494 J-0.138 F250
G1 X10.685 Y15.766
G3 X11.392 Y15.059 I0.354 J-0.354
G1 X16.228 Y19.895
G2 X18.349 Y19.895 I1.061 J-1.061
G1 X23.185 Y15.059
G3 X23.892 Y15.766 I0.354 J0.354
G1 X19.056 Y20.602
G2 X19.056 Y22.724 I1.061 J1.061
G1 X23.892 Y27.559
G3 X23.892 Y28.266 I-0.354 J0.354
X23.185 Y28.266 I-0.354 J-0.354
G1 X18.349 Y23.431
G2 X16.228 Y23.431 I-1.061 J1.061
G1 X11.392 Y28.266
G3 X10.685 Y27.559 I-0.354 J-0.354
G1 X14.231 Y24.013
X15.521 Y22.724
G2 X15.954 Y21.801 I-1.061 J-1.061
X15.521 Y20.602 Z-0.746 I-1.494 J-0.138 F333.3
G1 X14.426 Y19.508 Z-0.8
X10.685 Y15.766 F250
G3 X11.392 Y15.059 I0.354 J-0.354
G1 X16.228 Y19.895
G2 X18.349 Y19.895 I1.061 J-1.061
G1 X23.185 Y15.059
G3 X23.892 Y15.766 I0.354 J0.354
G1 X19.056 Y20.602
G2 X19.056 Y22.724 I1.061 J1.061
G1 X23.892 Y27.559
G3 X23.892 Y28.266 I-0.354 J0.354
X23.185 Y28.266 I-0.354 J-0.354
G1 X18.349 Y23.431
G2 X16.228 Y23.431 I-1.061 J1.061
G1 X11.392 Y28.266
G3 X10.685 Y27.559 I-0.354 J-0.354
G1 X15.521 Y22.724
G2 X15.521 Y20.602 I-1.061 J-1.061
G1 X14.426 Y19.508
X12.402 Y17.483 Z-0.9 F333.3
X10.685 Y15.766 F250
G3 X11.392 Y15.059 I0.354 J-0.354
G1 X16.228 Y19.895
G2 X18.349 Y19.895 I1.061 J-1.061
G1 X23.185 Y15.059
G3 X23.892 Y15.766 I0.354 J0.354
G1 X19.056 Y20.602
G2 X19.056 Y22.724 I1.061 J1.061
G1 X23.892 Y27.559
G3 X23.892 Y28.266 I-0.354 J0.354
X23.185 Y28.266 I-0.354 J-0.354
G1 X18.349 Y23.431
G2 X16.228 Y23.431 I-1.061 J1.061
G1 X11.392 Y28.266
G3 X10.685 Y27.559 I-0.354 J-0.354
G1 X15.521 Y22.724
G2 X15.521 Y20.602 I-1.061 J-1.061
G1 X12.402 Y17.483
X10.685 Y15.766 Z-0.985 F333.3
G3 X10.54 Y15.37 Z-1 I0.354 J-0.354
X11.392 Y15.059 I0.498 J0.043 F250
G1 X16.228 Y19.895
G2 X18.349 Y19.895 I1.061 J-1.061
G1 X23.185 Y15.059
G3 X23.892 Y15.766 I0.354 J0.354
G1 X19.056 Y20.602
G2 X19.056 Y22.724 I1.061 J1.061
G1 X23.892 Y27.559
G3 X23.892 Y28.266 I-0.354 J0.354
X23.185 Y28.266 I-0.354 J-0.354
G1 X18.349 Y23.431
G2 X16.228 Y23.431 I-1.061 J1.061
G1 X11.392 Y28.266
G3 X10.685 Y27.559 I-0.354 J-0.354
G1 X15.521 Y22.724
G2 X15.521 Y20.602 I-1.061 J-1.061
G1 X12.402 Y17.483
X10.685 Y15.766
G3 X10.54 Y15.37 I0.354 J-0.354
X11.392 Y15.059 Z-1.04 I0.498 J0.043 F333.3
G1 X12.615 Y16.282 Z-1.1
X16.228 Y19.895 F250
G2 X18.349 Y19.895 I1.061 J-1.061
G1 X23.185 Y15.059
G3 X23.892 Y15.766 I0.354 J0.354
G1 X19.056 Y20.602
G2 X19.056 Y22.724 I1.061 J1.061
G1 X23.892 Y27.559
G3 X23.892 Y28.266 I-0.354 J0.354
X23.185 Y28.266 I-0.354 J-0.354
G1 X18.349 Y23.431
G2 X16.228 Y23.431 I-1.061 J1.061
G1 X11.392 Y28.266
G3 X10.685 Y27.559 I-0.354 J-0.354
G1 X15.521 Y22.724
G2 X15.521 Y20.602 I-1.061 J-1.061
G1 X10.685 Y15.766
G3 X11.392 Y15.059 I0.354 J-0.354
G1 X12.615 Y16.282
X14.639 Y18.307 Z-1.2 F333.3
X16.228 Y19.895 F250
G2 X18.349 Y19.895 I1.061 J-1.061
G1 X23.185 Y15.059
G3 X23.892 Y15.766 I0.354 J0.354
G1 X19.056 Y20.602
G2 X19.056 Y22.724 I1.061 J1.061
G1 X23.892 Y27.559
G3 X23.892 Y28.266 I-0.354 J0.354
X23.185 Y28.266 I-0.354 J-0.354
G1 X18.349 Y23.431
G2 X16.228 Y23.431 I-1.061 J1.061
G1 X11.392 Y28.266
G3 X10.685 Y27.559 I-0.354 J-0.354
G1 X15.521 Y22.724
G2 X15.521 Y20.602 I-1.061 J-1.061
G1 X10.685 Y15.766
G3 X11.392 Y15.059 I0.354 J-0.354
G1 X14.639 Y18.307
X16.228 Y19.895 Z-1.278 F333.3
G2 X16.741 Y20.231 Z-1.3 I1.061 J-1.061
X18.349 Y19.895 I0.548 J-1.396 F250
G1 X23.185 Y15.059
G3 X23.892 Y15.766 I0.354 J0.354
G1 X19.056 Y20.602
G2 X19.056 Y22.724 I1.061 J1.061
G1 X23.892 Y27.559
G3 X23.892 Y28.266 I-0.354 J0.354
X23.185 Y28.266 I-0.354 J-0.354
G1 X18.349 Y23.431
G2 X16.228 Y23.431 I-1.061 J1.061
G1 X11.392 Y28.266
G3 X10.685 Y27.559 I-0.354 J-0.354
G1 X15.521 Y22.724
G2 X15.521 Y20.602 I-1.061 J-1.061
G1 X10.685 Y15.766
G3 X11.392 Y15.059 I0.354 J-0.354
G1 X14.639 Y18.307
X16.228 Y19.895
G2 X16.741 Y20.231 I1.061 J-1.061
G1 X16.792 Y20.257 Z-1.289
X16.837 Y20.292 Z-1.277
X16.87 Y20.328 Z-1.245
X16.896 Y20.369 Z-1.212
X16.92 Y20.429 Z-1.115
X16.925 Y20.451 Z-1
G0 Z15
X14.038 Y-20.593
Z5
G1 Z2.8 F250
G19 G3 Y-20.304 Z2.5 J0.3 K0 F333.3
G1 Y-17.587 Z2.405
G17 G2 X15.538 Y-16.087 Z2.323 I1.5 J0
G1 X19.038 Z2.201
G2 X20.538 Y-17.587 Z2.118 I0 J-1.5
G1 Y-21.087 Z1.996
G2 X19.038 Y-22.587 Z1.914 I-1.5 J0
G1 X15.538 Z1.792
G2 X14.038 Y-21.087 Z1.709 I0 J1.5
G1 Y-17.587 Z1.587
G2 X15.538 Y-16.087 Z1.505 I1.5 J0
G1 X19.038 Z1.383
G2 X20.538 Y-17.587 Z1.3 I0 J-1.5
G1 Y-21.087 Z1.178
G2 X19.038 Y-22.587 Z1.096 I-1.5 J0
G1 X15.538 Z0.974
G2 X14.038 Y-21.087 Z0.891 I0 J1.5
G1 Y-17.587 Z0.769
G2 X15.538 Y-16.087 Z0.687 I1.5 J0
G1 X19.038 Z0.565
G2 X20.538 Y-17.587 Z0.482 I0 J-1.5
G1 Y-21.087 Z0.36
G2 X19.038 Y-22.587 Z0.278 I-1.5 J0
G1 X15.538 Z0.156
G2 X14.038 Y-21.087 Z0.073 I0 J1.5
G1 Y-17.587 Z-0.049
G2 X14.697 Y-16.345 Z-0.1 I1.5 J0
X15.538 Y-16.087 I0.841 J-1.242 F250
G1 X19.038
G2 X20.538 Y-17.587 I0 J-1.5
G1 Y-21.087
G2 X19.038 Y-22.587 I-1.5 J0
G1 X15.538
G2 X14.038 Y-21.087 I0 J1.5
G1 Y-17.587
G2 X14.697 Y-16.345 I1.5 J0
G3 X14.743 Y-16.056 I-0.112 J0.166
G1 X14.044 Y-15.164
X14.012 Y-15.132
X13.974 Y-15.107
X13.931 Y-15.092
X13.886 Y-15.087
X13.538
G3 X13.038 Y-15.587 I0 J-0.5
G1 Y-23.087
G3 X13.538 Y-23.587 I0.5 J0
G1 X21.038
G3 X21.538 Y-23.087 I0 J0.5
G1 Y-15.587
G3 X21.038 Y-15.087 I-0.5 J0
G1 X13.886
X13.538 Z-0.112 F333.3
G3 X13.038 Y-15.587 Z-0.14 I0 J-0.5
G1 Y-17.318 Z-0.2
Y-23.087 F250
G3 X13.538 Y-23.587 I0.5 J0
G1 X21.038
G3 X21.538 Y-23.087 I0 J0.5
G1 Y-15.587
G3 X21.038 Y-15.087 I-0.5 J0
G1 X13.886
X13.538
G3 X13.038 Y-15.587 I0 J-0.5
G1 Y-17.318
G3 X13.368 Y-17.47 I0.2 J0
G1 X14.479 Y-16.525
G2 X15.538 Y-16.087 I1.06 J-1.062
G1 X19.038
G2 X20.538 Y-17.587 I0 J-1.5
G1 Y-21.087
G2 X19.038 Y-22.587 I-1.5 J0
G1 X15.538
G2 X14.038 Y-21.087 I0 J1.5
G1 Y-17.587
G2 X14.479 Y-16.525 I1.5 J0
G3 X14.463 Y-16.3 I-0.106 J0.106
X14.242 Y-16.346 I-0.09 J-0.12
G1 X14.097 Y-16.607
X14.086 Y-16.632
X14.079 Y-16.659
X13.796 Y-18.709
X13.853 Y-19.007
X13.866 Y-19.039
X13.89 Y-19.063
X13.92 Y-19.078
X13.954 Y-19.081
X13.987 Y-19.071
X14.014 Y-19.05
X14.032 Y-19.021
X14.038 Y-18.988
Y-17.587 Z-0.249 F333.3
G2 X14.697 Y-16.345 Z-0.3 I1.5 J0
X15.538 Y-16.087 I0.841 J-1.242 F250
G1 X19.038
G2 X20.538 Y-17.587 I0 J-1.5
G1 Y-21.087
G2 X19.038 Y-22.587 I-1.5 J0
G1 X15.538
G2 X14.038 Y-21.087 I0 J1.5
G1 Y-17.587
G2 X14.697 Y-16.345 I1.5 J0
G3 X14.743 Y-16.056 I-0.112 J0.166
G1 X14.044 Y-15.164
X14.012 Y-15.132
X13.974 Y-15.107
X13.931 Y-15.092
X13.886 Y-15.087
X13.538
G3 X13.038 Y-15.587 I0 J-0.5
G1 Y-23.087
G3 X13.538 Y-23.587 I0.5 J0
G1 X21.038
G3 X21.538 Y-23.087 I0 J0.5
G1 Y-15.587
G3 X21.038 Y-15.087 I-0.5 J0
G1 X13.886
X13.538 Z-0.312 F333.3
G3 X13.038 Y-15.587 Z-0.34 I0 J-0.5
G1 Y-17.318 Z-0.4
Y-23.087 F250
G3 X13.538 Y-23.587 I0.5 J0
G1 X21.038
G3 X21.538 Y-23.087 I0 J0.5
G1 Y-15.587
G3 X21.038 Y-15.087 I-0.5 J0
G1 X13.886
X13.538
G3 X13.038 Y-15.587 I0 J-0.5
G1 Y-17.318
G3 X13.368 Y-17.47 I0.2 J0
G1 X14.479 Y-16.525
G2 X15.538 Y-16.087 I1.06 J-1.062
G1 X19.038
G2 X20.538 Y-17.587 I0 J-1.5
G1 Y-21.087
G2 X19.038 Y-22.587 I-1.5 J0
G1 X15.538
G2 X14.038 Y-21.087 I0 J1.5
G1 Y-17.587
G2 X14.479 Y-16.525 I1.5 J0
G3 X14.463 Y-16.3 I-0.106 J0.106
X14.242 Y-16.346 I-0.09 J-0.12
G1 X14.097 Y-16.607
X14.086 Y-16.632
X14.079 Y-16.659
X13.796 Y-18.709
X13.853 Y-19.007
X13.866 Y-19.039
X13.89 Y-19.063
X13.92 Y-19.078
X13.954 Y-19.081
X13.987 Y-19.071
X14.014 Y-19.05
X14.032 Y-19.021
X14.038 Y-18.988
Y-17.587 Z-0.449 F333.3
G2 X14.697 Y-16.345 Z-0.5 I1.5 J0
X15.538 Y-16.087 I0.841 J-1.242 F250
G1 X19.038
G2 X20.538 Y-17.587 I0 J-1.5
G1 Y-21.087
G2 X19.038 Y-22.587 I-1.5 J0
G1 X15.538
G2 X14.038 Y-21.087 I0 J1.5
G1 Y-17.587
G2 X14.697 Y-16.345 I1.5 J0
G3 X14.743 Y-16.056 I-0.112 J0.166
G1 X14.044 Y-15.164
X14.012 Y-15.132
X13.974 Y-15.107
X13.931 Y-15.092
X13.886 Y-15.087
X13.538
G3 X13.038 Y-15.587 I0 J-0.5
G1 Y-23.087
G3 X13.538 Y-23.587 I0.5 J0
G1 X21.038
G3 X21.538 Y-23.087 I0 J0.5
G1 Y-15.587
G3 X21.038 Y-15.087 I-0.5 J0
G1 X13.886
X13.538 Z-0.512 F333.3
G3 X13.038 Y-15.587 Z-0.54 I0 J-0.5
G1 Y-17.318 Z-0.6
Y-23.087 F250
G3 X13.538 Y-23.587 I0.5 J0
G1 X21.038
G3 X21.538 Y-23.087 I0 J0.5
G1 Y-15.587
G3 X21.038 Y-15.087 I-0.5 J0
G1 X13.886
X13.538
G3 X13.038 Y-15.587 I0 J-0.5
G1 Y-17.318
G3 X13.368 Y-17.47 I0.2 J0
G1 X14.479 Y-16.525
G2 X15.538 Y-16.087 I1.06 J-1.062
G1 X19.038
G2 X20.538 Y-17.587 I0 J-1.5
G1 Y-21.087
G2 X19.038 Y-22.587 I-1.5 J0
G1 X15.538
G2 X14.038 Y-21.087 I0 J1.5
G1 Y-17.587
G2 X14.479 Y-16.525 I1.5 J0
G3 X14.463 Y-16.3 I-0.106 J0.106
X14.242 Y-16.346 I-0.09 J-0.12
G1 X14.097 Y-16.607
X14.086 Y-16.632
X14.079 Y-16.659
X13.796 Y-18.709
X13.853 Y-19.007
X13.866 Y-19.039
X13.89 Y-19.063
X13.92 Y-19.078
X13.954 Y-19.081
X13.987 Y-19.071
X14.014 Y-19.05
X14.032 Y-19.021
X14.038 Y-18.988
Y-17.587 Z-0.649 F333.3
G2 X14.697 Y-16.345 Z-0.7 I1.5 J0
X15.538 Y-16.087 I0.841 J-1.242 F250
G1 X19.038
G2 X20.538 Y-17.587 I0 J-1.5
G1 Y-21.087
G2 X19.038 Y-22.587 I-1.5 J0
G1 X15.538
G2 X14.038 Y-21.087 I0 J1.5
G1 Y-17.587
G2 X14.697 Y-16.345 I1.5 J0
G3 X14.743 Y-16.056 I-0.112 J0.166
G1 X14.044 Y-15.164
X14.012 Y-15.132
X13.974 Y-15.107
X13.931 Y-15.092
X13.886 Y-15.087
X13.538
G3 X13.038 Y-15.587 I0 J-0.5
G1 Y-23.087
G3 X13.538 Y-23.587 I0.5 J0
G1 X21.038
G3 X21.538 Y-23.087 I0 J0.5
G1 Y-15.587
G3 X21.038 Y-15.087 I-0.5 J0
G1 X13.886
X13.538 Z-0.712 F333.3
G3 X13.038 Y-15.587 Z-0.74 I0 J-0.5
G1 Y-17.318 Z-0.8
Y-23.087 F250
G3 X13.538 Y-23.587 I0.5 J0
G1 X21.038
G3 X21.538 Y-23.087 I0 J0.5
G1 Y-15.587
G3 X21.038 Y-15.087 I-0.5 J0
G1 X13.886
X13.538
G3 X13.038 Y-15.587 I0 J-0.5
G1 Y-17.318
G3 X13.368 Y-17.47 I0.2 J0
G1 X14.479 Y-16.525
G2 X15.538 Y-16.087 I1.06 J-1.062
G1 X19.038
G2 X20.538 Y-17.587 I0 J-1.5
G1 Y-21.087
G2 X19.038 Y-22.587 I-1.5 J0
G1 X15.538
G2 X14.038 Y-21.087 I0 J1.5
G1 Y-17.587
G2 X14.479 Y-16.525 I1.5 J0
G3 X14.463 Y-16.3 I-0.106 J0.106
X14.242 Y-16.346 I-0.09 J-0.12
G1 X14.097 Y-16.607
X14.086 Y-16.632
X14.079 Y-16.659
X13.796 Y-18.709
X13.853 Y-19.007
X13.866 Y-19.039
X13.89 Y-19.063
X13.92 Y-19.078
X13.954 Y-19.081
X13.987 Y-19.071
X14.014 Y-19.05
X14.032 Y-19.021
X14.038 Y-18.988
Y-17.587 Z-0.849 F333.3
G2 X14.697 Y-16.345 Z-0.9 I1.5 J0
X15.538 Y-16.087 I0.841 J-1.242 F250
G1 X19.038
G2 X20.538 Y-17.587 I0 J-1.5
G1 Y-21.087
G2 X19.038 Y-22.587 I-1.5 J0
G1 X15.538
G2 X14.038 Y-21.087 I0 J1.5
G1 Y-17.587
G2 X14.697 Y-16.345 I1.5 J0
G3 X14.743 Y-16.056 I-0.112 J0.166
G1 X14.044 Y-15.164
X14.012 Y-15.132
X13.974 Y-15.107
X13.931 Y-15.092
X13.886 Y-15.087
X13.538
G3 X13.038 Y-15.587 I0 J-0.5
G1 Y-23.087
G3 X13.538 Y-23.587 I0.5 J0
G1 X21.038
G3 X21.538 Y-23.087 I0 J0.5
G1 Y-15.587
G3 X21.038 Y-15.087 I-0.5 J0
G1 X13.886
X13.538 Z-0.912 F333.3
G3 X13.038 Y-15.587 Z-0.94 I0 J-0.5
G1 Y-17.318 Z-1
Y-23.087 F250
G3 X13.538 Y-23.587 I0.5 J0
G1 X21.038
G3 X21.538 Y-23.087 I0 J0.5
G1 Y-15.587
G3 X21.038 Y-15.087 I-0.5 J0
G1 X13.886
X13.538
G3 X13.038 Y-15.587 I0 J-0.5
G1 Y-17.318
G3 X13.368 Y-17.47 I0.2 J0
G1 X14.479 Y-16.525
G2 X15.538 Y-16.087 I1.06 J-1.062
G1 X19.038
G2 X20.538 Y-17.587 I0 J-1.5
G1 Y-21.087
G2 X19.038 Y-22.587 I-1.5 J0
G1 X15.538
G2 X14.038 Y-21.087 I0 J1.5
G1 Y-17.587
G2 X14.479 Y-16.525 I1.5 J0
G3 X14.463 Y-16.3 I-0.106 J0.106
X14.242 Y-16.346 I-0.09 J-0.12
G1 X14.097 Y-16.607
X14.086 Y-16.632
X14.079 Y-16.659
X13.796 Y-18.709
X13.853 Y-19.007
X13.866 Y-19.039
X13.89 Y-19.063
X13.92 Y-19.078
X13.954 Y-19.081
X13.987 Y-19.071
X14.014 Y-19.05
X14.032 Y-19.021
X14.038 Y-18.988
Y-17.587 Z-1.049 F333.3
G2 X14.697 Y-16.345 Z-1.1 I1.5 J0
X15.538 Y-16.087 I0.841 J-1.242 F250
G1 X19.038
G2 X20.538 Y-17.587 I0 J-1.5
G1 Y-21.087
G2 X19.038 Y-22.587 I-1.5 J0
G1 X15.538
G2 X14.038 Y-21.087 I0 J1.5
G1 Y-17.587
G2 X14.697 Y-16.345 I1.5 J0
G3 X14.743 Y-16.056 I-0.112 J0.166
G1 X14.044 Y-15.164
X14.012 Y-15.132
X13.974 Y-15.107
X13.931 Y-15.092
X13.886 Y-15.087
X13.538
G3 X13.038 Y-15.587 I0 J-0.5
G1 Y-23.087
G3 X13.538 Y-23.587 I0.5 J0
G1 X21.038
G3 X21.538 Y-23.087 I0 J0.5
G1 Y-15.587
G3 X21.038 Y-15.087 I-0.5 J0
G1 X13.886
X13.538 Z-1.112 F333.3
G3 X13.038 Y-15.587 Z-1.14 I0 J-0.5
G1 Y-17.318 Z-1.2
Y-23.087 F250
G3 X13.538 Y-23.587 I0.5 J0
G1 X21.038
G3 X21.538 Y-23.087 I0 J0.5
G1 Y-15.587
G3 X21.038 Y-15.087 I-0.5 J0
G1 X13.886
X13.538
G3 X13.038 Y-15.587 I0 J-0.5
G1 Y-17.318
G3 X13.368 Y-17.47 I0.2 J0
G1 X14.479 Y-16.525
G2 X15.538 Y-16.087 I1.06 J-1.062
G1 X19.038
G2 X20.538 Y-17.587 I0 J-1.5
G1 Y-21.087
G2 X19.038 Y-22.587 I-1.5 J0
G1 X15.538
G2 X14.038 Y-21.087 I0 J1.5
G1 Y-17.587
G2 X14.479 Y-16.525 I1.5 J0
G3 X14.463 Y-16.3 I-0.106 J0.106
X14.242 Y-16.346 I-0.09 J-0.12
G1 X14.097 Y-16.607
X14.086 Y-16.632
X14.079 Y-16.659
X13.796 Y-18.709
X13.853 Y-19.007
X13.866 Y-19.039
X13.89 Y-19.063
X13.92 Y-19.078
X13.954 Y-19.081
X13.987 Y-19.071
X14.014 Y-19.05
X14.032 Y-19.021
X14.038 Y-18.988
Y-17.587 Z-1.249 F333.3
G2 X14.697 Y-16.345 Z-1.3 I1.5 J0
X15.538 Y-16.087 I0.841 J-1.242 F250
G1 X19.038
G2 X20.538 Y-17.587 I0 J-1.5
G1 Y-21.087
G2 X19.038 Y-22.587 I-1.5 J0
G1 X15.538
G2 X14.038 Y-21.087 I0 J1.5
G1 Y-17.587
G2 X14.697 Y-16.345 I1.5 J0
G3 X14.743 Y-16.056 I-0.112 J0.166
G1 X14.044 Y-15.164
X14.012 Y-15.132
X13.974 Y-15.107
X13.931 Y-15.092
X13.886 Y-15.087
X13.538
G3 X13.038 Y-15.587 I0 J-0.5
G1 Y-23.087
G3 X13.538 Y-23.587 I0.5 J0
G1 X21.038
G3 X21.538 Y-23.087 I0 J0.5
G1 Y-15.587
G3 X21.038 Y-15.087 I-0.5 J0
G1 X13.886
X13.829 Y-15.093 Z-1.289
X13.774 Y-15.109 Z-1.277
X13.731 Y-15.131 Z-1.245
X13.691 Y-15.159 Z-1.212
X13.647 Y-15.206 Z-1.115
X13.634 Y-15.225 Z-1
G0 Z15
X53.157 Y22.678
Z5
G1 Z2.8 F250
X53.133 Y22.707 Z2.653 F333.3
X53.068 Y22.791 Z2.544
X52.989 Y22.913 Z2.5
G2 X52.789 Y23.663 Z2.473 I1.299 J0.75
G1 Y27.913 Z2.324
G3 X51.789 Y27.913 Z2.269 I-0.5 J0
G1 Y23.663 Z2.121
G2 X50.289 Y22.163 Z2.039 I-1.5 J0
G1 X46.039 Z1.89
G3 X46.039 Y21.163 Z1.835 I0 J-0.5
G1 X50.289 Z1.687
G2 X51.789 Y19.663 Z1.605 I0 J-1.5
G1 Y15.413 Z1.456
G3 X52.789 Y15.413 Z1.401 I0.5 J0
G1 Y19.663 Z1.253
G2 X54.289 Y21.163 Z1.171 I1.5 J0
G1 X58.539 Z1.022
G3 X58.539 Y22.163 Z0.967 I0 J0.5
G1 X54.289 Z0.819
G2 X52.789 Y23.663 Z0.737 I0 J1.5
G1 Y27.913 Z0.588
G3 X51.789 Y27.913 Z0.533 I-0.5 J0
G1 Y23.663 Z0.385
G2 X50.289 Y22.163 Z0.303 I-1.5 J0
G1 X46.039 Z0.154
G3 X46.039 Y21.163 Z0.1 I0 J-0.5
G1 X50.289 Z-0.049
G2 X51.53 Y20.504 Z-0.1 I0 J-1.5
X51.789 Y19.663 I-1.242 J-0.841 F250
G1 Y15.413
G3 X52.789 Y15.413 I0.5 J0
G1 Y19.663
G2 X54.289 Y21.163 I1.5 J0
G1 X58.539
G3 X58.539 Y22.163 I0 J0.5
G1 X54.289
G2 X52.789 Y23.663 I0 J1.5
G1 Y27.913
G3 X51.789 Y27.913 I-0.5 J0
G1 Y23.663
G2 X50.289 Y22.163 I-1.5 J0
G1 X46.039
G3 X46.039 Y21.163 I0 J-0.5
G1 X50.289
G2 X51.53 Y20.504 I0 J-1.5
X51.789 Y19.663 Z-0.131 I-1.242 J-0.841 F333.3
G1 Y17.692 Z-0.2
Y15.413 F250
G3 X52.789 Y15.413 I0.5 J0
G1 Y19.663
G2 X54.289 Y21.163 I1.5 J0
G1 X58.539
G3 X58.539 Y22.163 I0 J0.5
G1 X54.289
G2 X52.789 Y23.663 I0 J1.5
G1 Y27.913
G3 X51.789 Y27.913 I-0.5 J0
G1 Y23.663
G2 X50.289 Y22.163 I-1.5 J0
G1 X46.039
G3 X46.039 Y21.163 I0 J-0.5
G1 X50.289
G2 X51.789 Y19.663 I0 J-1.5
G1 Y17.692
Y15.413 Z-0.28 F333.3
G3 X52.093 Y14.953 Z-0.3 I0.5 J0
X52.789 Y15.413 I0.196 J0.46 F250
G1 Y19.663
G2 X54.289 Y21.163 I1.5 J0
G1 X58.539
G3 X58.539 Y22.163 I0 J0.5
G1 X54.289
G2 X52.789 Y23.663 I0 J1.5
G1 Y27.913
G3 X51.789 Y27.913 I-0.5 J0
G1 Y23.663
G2 X50.289 Y22.163 I-1.5 J0
G1 X46.039
G3 X46.039 Y21.163 I0 J-0.5
G1 X50.289
G2 X51.789 Y19.663 I0 J-1.5
G1 Y15.413
G3 X52.093 Y14.953 I0.5 J0
X52.789 Y15.413 Z-0.334 I0.196 J0.46 F333.3
G1 Y17.29 Z-0.4
Y19.663 F250
G2 X54.289 Y21.163 I1.5 J0
G1 X58.539
G3 X58.539 Y22.163 I0 J0.5
G1 X54.289
G2 X52.789 Y23.663 I0 J1.5
G1 Y27.913
G3 X51.789 Y27.913 I-0.5 J0
G1 Y23.663
G2 X50.289 Y22.163 I-1.5 J0
G1 X46.039
G3 X46.039 Y21.163 I0 J-0.5
G1 X50.289
G2 X51.789 Y19.663 I0 J-1.5
G1 Y15.413
G3 X52.789 Y15.413 I0.5 J0
G1 Y17.29
Y19.663 Z-0.483 F333.3
G2 X52.868 Y20.145 Z-0.5 I1.5 J0
X54.289 Y21.163 I1.42 J-0.482 F250
G1 X58.539
G3 X58.539 Y22.163 I0 J0.5
G1 X54.289
G2 X52.789 Y23.663 I0 J1.5
G1 Y27.913
G3 X51.789 Y27.913 I-0.5 J0
G1 Y23.663
G2 X50.289 Y22.163 I-1.5 J0
G1 X46.039
G3 X46.039 Y21.163 I0 J-0.5
G1 X50.289
G2 X51.789 Y19.663 I0 J-1.5
G1 Y15.413
G3 X52.789 Y15.413 I0.5 J0
G1 Y19.663
G2 X52.868 Y20.145 I1.5 J0
X54.289 Y21.163 Z-0.565 I1.42 J-0.482 F333.3
G1 X55.287 Z-0.6
X58.539 F250
G3 X58.539 Y22.163 I0 J0.5
G1 X54.289
G2 X52.789 Y23.663 I0 J1.5
G1 Y27.913
G3 X51.789 Y27.913 I-0.5 J0
G1 Y23.663
G2 X50.289 Y22.163 I-1.5 J0
G1 X46.039
G3 X46.039 Y21.163 I0 J-0.5
G1 X50.289
G2 X51.789 Y19.663 I0 J-1.5
G1 Y15.413
G3 X52.789 Y15.413 I0.5 J0
G1 Y19.663
G2 X54.289 Y21.163 I1.5 J0
G1 X55.287
X58.15 Z-0.7 F333.3
X58.539 F250
G3 X58.539 Y22.163 I0 J0.5
G1 X54.289
G2 X52.789 Y23.663 I0 J1.5
G1 Y27.913
G3 X51.789 Y27.913 I-0.5 J0
G1 Y23.663
G2 X50.289 Y22.163 I-1.5 J0
G1 X46.039
G3 X46.039 Y21.163 I0 J-0.5
G1 X50.289
G2 X51.789 Y19.663 I0 J-1.5
G1 Y15.413
G3 X52.789 Y15.413 I0.5 J0
G1 Y19.663
G2 X54.289 Y21.163 I1.5 J0
G1 X58.15
X58.539 Z-0.714 F333.3
G3 X58.539 Y22.163 Z-0.768 I0 J0.5
G1 X57.634 Z-0.8
X54.289 F250
G2 X52.789 Y23.663 I0 J1.5
G1 Y27.913
G3 X51.789 Y27.913 I-0.5 J0
G1 Y23.663
G2 X50.289 Y22.163 I-1.5 J0
G1 X46.039
G3 X46.039 Y21.163 I0 J-0.5
G1 X50.289
G2 X51.789 Y19.663 I0 J-1.5
G1 Y15.413
G3 X52.789 Y15.413 I0.5 J0
G1 Y19.663
G2 X54.289 Y21.163 I1.5 J0
G1 X58.15
X58.539
G3 X58.539 Y22.163 I0 J0.5
G1 X57.634
X54.77 Z-0.9 F333.3
X54.289 F250
G2 X52.789 Y23.663 I0 J1.5
G1 Y27.913
G3 X51.789 Y27.913 I-0.5 J0
G1 Y23.663
G2 X50.289 Y22.163 I-1.5 J0
G1 X46.039
G3 X46.039 Y21.163 I0 J-0.5
G1 X50.289
G2 X51.789 Y19.663 I0 J-1.5
G1 Y15.413
G3 X52.789 Y15.413 I0.5 J0
G1 Y19.663
G2 X54.289 Y21.163 I1.5 J0
G1 X58.539
G3 X58.539 Y22.163 I0 J0.5
G1 X54.77
X54.289 Z-0.917 F333.3
G2 X52.789 Y23.663 Z-0.999 I0 J1.5
G1 Y23.688 Z-1
Y27.913 F250
G3 X51.789 Y27.913 I-0.5 J0
G1 Y23.663
G2 X50.289 Y22.163 I-1.5 J0
G1 X46.039
G3 X46.039 Y21.163 I0 J-0.5
G1 X50.289
G2 X51.789 Y19.663 I0 J-1.5
G1 Y15.413
G3 X52.789 Y15.413 I0.5 J0
G1 Y19.663
G2 X54.289 Y21.163 I1.5 J0
G1 X58.539
G3 X58.539 Y22.163 I0 J0.5
G1 X54.77
X54.289
G2 X52.789 Y23.663 I0 J1.5
G1 Y23.688
Y26.552 Z-1.1 F333.3
Y27.913 F250
G3 X51.789 Y27.913 I-0.5 J0
G1 Y23.663
G2 X50.289 Y22.163 I-1.5 J0
G1 X46.039
G3 X46.039 Y21.163 I0 J-0.5
G1 X50.289
G2 X51.789 Y19.663 I0 J-1.5
G1 Y15.413
G3 X52.789 Y15.413 I0.5 J0
G1 Y19.663
G2 X54.289 Y21.163 I1.5 J0
G1 X58.539
G3 X58.539 Y22.163 I0 J0.5
G1 X54.289
G2 X52.789 Y23.663 I0 J1.5
G1 Y26.552
Y27.913 Z-1.148 F333.3
G3 X51.793 Y27.981 Z-1.2 I-0.5 J0
G1 X51.789 Y27.913 F250
Y23.663
G2 X50.289 Y22.163 I-1.5 J0
G1 X46.039
G3 X46.039 Y21.163 I0 J-0.5
G1 X50.289
G2 X51.789 Y19.663 I0 J-1.5
G1 Y15.413
G3 X52.789 Y15.413 I0.5 J0
G1 Y19.663
G2 X54.289 Y21.163 I1.5 J0
G1 X58.539
G3 X58.539 Y22.163 I0 J0.5
G1 X54.289
G2 X52.789 Y23.663 I0 J1.5
G1 Y26.552
Y27.913
G3 X51.793 Y27.981 I-0.5 J0
G1 X51.789 Y27.913 Z-1.202 F333.3
Y25.117 Z-1.3
Y23.663 F250
G2 X50.289 Y22.163 I-1.5 J0
G1 X46.039
G3 X46.039 Y21.163 I0 J-0.5
G1 X50.289
G2 X51.789 Y19.663 I0 J-1.5
G1 Y15.413
G3 X52.789 Y15.413 I0.5 J0
G1 Y19.663
G2 X54.289 Y21.163 I1.5 J0
G1 X58.539
G3 X58.539 Y22.163 I0 J0.5
G1 X54.289
G2 X52.789 Y23.663 I0 J1.5
G1 Y27.913
G3 X51.789 Y27.913 I-0.5 J0
G1 Y25.117
X51.794 Y25.06 Z-1.289
X51.81 Y25.005 Z-1.277
X51.832 Y24.962 Z-1.245
X51.86 Y24.922 Z-1.212
X51.908 Y24.878 Z-1.115
X51.926 Y24.865 Z-1
G0 Z15
X-52.211 Y25.412
Z5
G1 Z2.8 F250
G19 G3 Y25.702 Z2.5 J0.3 K0 F333.3
G1 Y27.913 Z2.423
G17 G3 X-53.211 Y27.913 Z2.368 I-0.5 J0
G1 Y21.663 Z2.15
G3 X-52.211 Y21.663 Z2.095 I0.5 J0
G1 Y27.913 Z1.877
G3 X-53.211 Y27.913 Z1.822 I-0.5 J0
G1 Y21.663 Z1.603
G3 X-52.211 Y21.663 Z1.549 I0.5 J0
G1 Y27.913 Z1.33
G3 X-53.211 Y27.913 Z1.275 I-0.5 J0
G1 Y21.663 Z1.057
G3 X-52.211 Y21.663 Z1.002 I0.5 J0
G1 Y27.913 Z0.784
G3 X-53.211 Y27.913 Z0.729 I-0.5 J0
G1 Y21.663 Z0.511
G3 X-52.211 Y21.663 Z0.456 I0.5 J0
G1 Y27.913 Z0.238
G3 X-53.211 Y27.913 Z0.183 I-0.5 J0
G1 Y21.663 Z-0.035
G3 X-52.211 Y21.663 Z-0.09 I0.5 J0
G1 Y21.948 Z-0.1
Y27.913 F250
G3 X-53.211 Y27.913 I-0.5 J0
G1 Y21.663
G3 X-52.211 Y21.663 I0.5 J0
G1 Y21.948
Y24.812 Z-0.2 F333.3
Y27.913 F250
G3 X-53.211 Y27.913 I-0.5 J0
G1 Y21.663
G3 X-52.211 Y21.663 I0.5 J0
G1 Y24.812
Y27.675 Z-0.3 F333.3
Y27.913 F250
G3 X-53.211 Y27.913 I-0.5 J0
G1 Y21.663
G3 X-52.211 Y21.663 I0.5 J0
G1 Y24.812
Y27.675
Y27.913 Z-0.308 F333.3
G3 X-53.211 Y27.913 Z-0.363 I-0.5 J0
G1 Y26.858 Z-0.4
Y21.663 F250
G3 X-52.211 Y21.663 I0.5 J0
G1 Y27.675
Y27.913
G3 X-53.211 Y27.913 I-0.5 J0
G1 Y26.858
Y23.994 Z-0.5 F333.3
Y21.663 F250
G3 X-52.211 Y21.663 I0.5 J0
G1 Y27.913
G3 X-53.211 Y27.913 I-0.5 J0
G1 Y23.994
Y21.663 Z-0.581 F333.3
G3 X-52.954 Y21.226 Z-0.6 I0.5 J0
X-52.211 Y21.663 I0.242 J0.437 F250
G1 Y27.913
G3 X-53.211 Y27.913 I-0.5 J0
G1 Y23.994
Y21.663
G3 X-52.954 Y21.226 I0.5 J0
X-52.211 Y21.663 Z-0.636 I0.242 J0.437 F333.3
G1 Y23.488 Z-0.7
Y27.913 F250
G3 X-53.211 Y27.913 I-0.5 J0
G1 Y21.663
G3 X-52.211 Y21.663 I0.5 J0
G1 Y23.488
Y26.352 Z-0.8 F333.3
Y27.913 F250
G3 X-53.211 Y27.913 I-0.5 J0
G1 Y21.663
G3 X-52.211 Y21.663 I0.5 J0
G1 Y26.352
Y27.913 Z-0.855 F333.3
G3 X-53.141 Y28.169 Z-0.9 I-0.5 J0
X-53.211 Y27.913 I0.43 J-0.256 F250
G1 Y21.663
G3 X-52.211 Y21.663 I0.5 J0
G1 Y26.352
Y27.913
G3 X-53.141 Y28.169 I-0.5 J0
X-53.211 Y27.913 Z-0.909 I0.43 J-0.256 F333.3
G1 Y25.318 Z-1
Y21.663 F250
G3 X-52.211 Y21.663 I0.5 J0
G1 Y27.913
G3 X-53.211 Y27.913 I-0.5 J0
G1 Y25.318
Y22.454 Z-1.1 F333.3
Y21.663 F250
G3 X-52.211 Y21.663 I0.5 J0
G1 Y27.913
G3 X-53.211 Y27.913 I-0.5 J0
G1 Y22.454
Y21.663 Z-1.128 F333.3
G3 X-52.211 Y21.663 Z-1.182 I0.5 J0
G1 Y22.165 Z-1.2
Y27.913 F250
G3 X-53.211 Y27.913 I-0.5 J0
G1 Y22.454
Y21.663
G3 X-52.211 Y21.663 I0.5 J0
G1 Y22.165
Y25.028 Z-1.3 F333.3
Y27.913 F250
G3 X-53.211 Y27.913 I-0.5 J0
G1 Y21.663
G3 X-52.211 Y21.663 I0.5 J0
G1 Y25.028
X-52.217 Y25.085 Z-1.289
X-52.233 Y25.14 Z-1.277
X-52.255 Y25.184 Z-1.245
X-52.283 Y25.223 Z-1.212
X-52.331 Y25.268 Z-1.115
X-52.349 Y25.281 Z-1
G0 Z15
X-14.381 Y-23.225
Z5
G1 Z2.5 F250
Z0.2 F200
Y-23.248 Z0.085
X-14.374 Y-23.313 Z-0.012
X-14.36 Y-23.359 Z-0.045
X-14.338 Y-23.403 Z-0.077
X-14.304 Y-23.448 Z-0.089
X-14.262 Y-23.487 Z-0.1
G3 X-13.661 Y-22.687 I0.3 J0.4 F250
X-14.262 Y-23.487 I-0.3 J-0.4
X-13.662 Y-22.687 Z-0.155 I0.3 J0.4 F333.3
X-14.427 Y-23.269 Z-0.2 I-0.3 J-0.4
X-13.496 Y-22.906 I0.466 J0.181 F250
X-14.427 Y-23.269 I-0.466 J-0.181
X-13.496 Y-22.906 Z-0.255 I0.466 J0.181 F333.3
X-14.453 Y-22.995 Z-0.3 I-0.466 J-0.181
X-13.47 Y-23.179 I0.492 J-0.092 F250
X-14.453 Y-22.995 I-0.492 J0.092
X-13.47 Y-23.179 Z-0.355 I0.492 J-0.092 F333.3
X-14.331 Y-22.75 Z-0.4 I-0.492 J0.092
X-13.592 Y-23.424 I0.369 J-0.337 F250
X-14.331 Y-22.75 I-0.369 J0.337
X-13.592 Y-23.424 Z-0.455 I0.369 J-0.337 F333.3
X-14.097 Y-22.606 Z-0.5 I-0.369 J0.337
X-13.826 Y-23.568 I0.135 J-0.481 F250
X-14.097 Y-22.606 I-0.135 J0.481
X-13.826 Y-23.568 Z-0.555 I0.135 J-0.481 F333.3
X-13.823 Y-22.607 Z-0.6 I-0.135 J0.481
X-14.1 Y-23.567 I-0.139 J-0.48 F250
X-13.823 Y-22.607 I0.139 J0.48
X-14.1 Y-23.567 Z-0.655 I-0.139 J-0.48 F333.3
X-13.59 Y-22.752 Z-0.7 I0.139 J0.48
X-14.333 Y-23.422 I-0.371 J-0.335 F250
X-13.59 Y-22.752 I0.371 J0.335
X-14.333 Y-23.422 Z-0.755 I-0.371 J-0.335 F333.3
X-13.469 Y-22.999 Z-0.8 I0.371 J0.335
X-14.454 Y-23.175 I-0.492 J-0.088 F250
X-13.469 Y-22.999 I0.492 J0.088
X-14.454 Y-23.175 Z-0.855 I-0.492 J-0.088 F333.3
X-13.497 Y-23.272 Z-0.9 I0.492 J0.088
X-14.426 Y-22.902 I-0.465 J0.185 F250
X-13.497 Y-23.272 I0.465 J-0.185
X-14.426 Y-22.902 Z-0.955 I-0.465 J0.185 F333.3
X-13.664 Y-23.489 Z-1 I0.465 J-0.185
X-14.259 Y-22.685 I-0.297 J0.402 F250
X-13.664 Y-23.489 I0.297 J-0.402
X-14.259 Y-22.685 Z-1.055 I-0.297 J0.402 F333.3
X-13.921 Y-23.585 Z-1.1 I0.297 J-0.402
X-14.002 Y-22.589 I-0.04 J0.498 F250
X-13.921 Y-23.585 I0.04 J-0.498
X-14.002 Y-22.589 Z-1.155 I-0.04 J0.498 F333.3
X-14.19 Y-23.532 Z-1.2 I0.04 J-0.498
X-13.733 Y-22.643 I0.229 J0.445 F250
X-14.19 Y-23.532 I-0.229 J-0.445
X-13.733 Y-22.643 Z-1.255 I0.229 J0.445 F333.3
X-14.391 Y-23.344 Z-1.3 I-0.229 J-0.445
X-13.532 Y-22.83 I0.429 J0.257 F250
X-14.391 Y-23.344 I-0.429 J-0.257
G1 X-14.357 Y-23.39 Z-1.289
X-14.314 Y-23.429 Z-1.277
X-14.273 Y-23.455 Z-1.245
X-14.229 Y-23.474 Z-1.212
X-14.165 Y-23.488 Z-1.115
X-14.143 Y-23.49 Z-1
G0 Z15
X-21.881 Y-23.225
Z5
G1 Z2.5 F250
Z0.2 F200
Y-23.248 Z0.085
X-21.874 Y-23.313 Z-0.012
X-21.86 Y-23.359 Z-0.045
X-21.838 Y-23.403 Z-0.077
X-21.804 Y-23.448 Z-0.089
X-21.761 Y-23.487 Z-0.1
G3 X-21.162 Y-22.687 I0.3 J0.4 F250
X-21.761 Y-23.487 I-0.3 J-0.4
X-21.162 Y-22.687 Z-0.155 I0.3 J0.4 F333.3
X-21.927 Y-23.269 Z-0.2 I-0.3 J-0.4
X-20.996 Y-22.906 I0.466 J0.181 F250
X-21.927 Y-23.269 I-0.466 J-0.181
X-20.996 Y-22.906 Z-0.255 I0.466 J0.181 F333.3
X-21.953 Y-22.995 Z-0.3 I-0.466 J-0.181
X-20.97 Y-23.179 I0.492 J-0.092 F250
X-21.953 Y-22.995 I-0.492 J0.092
X-20.97 Y-23.179 Z-0.355 I0.492 J-0.092 F333.3
X-21.831 Y-22.75 Z-0.4 I-0.492 J0.092
X-21.092 Y-23.424 I0.369 J-0.337 F250
X-21.831 Y-22.75 I-0.369 J0.337
X-21.092 Y-23.424 Z-0.455 I0.369 J-0.337 F333.3
X-21.597 Y-22.606 Z-0.5 I-0.369 J0.337
X-21.326 Y-23.568 I0.135 J-0.481 F250
X-21.597 Y-22.606 I-0.135 J0.481
X-21.326 Y-23.568 Z-0.555 I0.135 J-0.481 F333.3
X-21.323 Y-22.607 Z-0.6 I-0.135 J0.481
X-21.6 Y-23.567 I-0.139 J-0.48 F250
X-21.323 Y-22.607 I0.139 J0.48
X-21.6 Y-23.567 Z-0.655 I-0.139 J-0.48 F333.3
X-21.09 Y-22.752 Z-0.7 I0.139 J0.48
X-21.833 Y-23.422 I-0.371 J-0.335 F250
X-21.09 Y-22.752 I0.371 J0.335
X-21.833 Y-23.422 Z-0.755 I-0.371 J-0.335 F333.3
X-20.969 Y-22.999 Z-0.8 I0.371 J0.335
X-21.954 Y-23.175 I-0.492 J-0.088 F250
X-20.969 Y-22.999 I0.492 J0.088
X-21.954 Y-23.175 Z-0.855 I-0.492 J-0.088 F333.3
X-20.997 Y-23.272 Z-0.9 I0.492 J0.088
X-21.926 Y-22.902 I-0.465 J0.185 F250
X-20.997 Y-23.272 I0.465 J-0.185
X-21.926 Y-22.902 Z-0.955 I-0.465 J0.185 F333.3
X-21.164 Y-23.489 Z-1 I0.465 J-0.185
X-21.759 Y-22.685 I-0.297 J0.402 F250
X-21.164 Y-23.489 I0.297 J-0.402
X-21.759 Y-22.685 Z-1.055 I-0.297 J0.402 F333.3
X-21.421 Y-23.585 Z-1.1 I0.297 J-0.402
X-21.502 Y-22.589 I-0.04 J0.498 F250
X-21.421 Y-23.585 I0.04 J-0.498
X-21.502 Y-22.589 Z-1.155 I-0.04 J0.498 F333.3
X-21.69 Y-23.532 Z-1.2 I0.04 J-0.498
X-21.233 Y-22.643 I0.229 J0.445 F250
X-21.69 Y-23.532 I-0.229 J-0.445
X-21.233 Y-22.643 Z-1.255 I0.229 J0.445 F333.3
X-21.891 Y-23.344 Z-1.3 I-0.229 J-0.445
X-21.032 Y-22.83 I0.429 J0.257 F250
X-21.891 Y-23.344 I-0.429 J-0.257
G1 X-21.857 Y-23.39 Z-1.289
X-21.814 Y-23.429 Z-1.277
X-21.773 Y-23.455 Z-1.245
X-21.729 Y-23.474 Z-1.212
X-21.665 Y-23.488 Z-1.115
X-21.643 Y-23.49 Z-1
G0 Z15
X-17.727 Y18.354
Z5
G1 Z2.5 F250
Z0.2 F200
X-17.748 Y18.361 Z0.085
X-17.812 Y18.372 Z-0.012
X-17.861 Y18.371 Z-0.045
X-17.909 Y18.363 Z-0.077
X-17.963 Y18.343 Z-0.089
X-18.011 Y18.313 Z-0.1
G3 X-17.412 Y17.513 I0.3 J-0.4 F250
X-18.011 Y18.313 I-0.3 J0.4
X-17.412 Y17.513 Z-0.155 I0.3 J-0.4 F333.3
X-17.755 Y18.411 Z-0.2 I-0.3 J0.4
X-17.668 Y17.415 I0.044 J-0.498 F250
X-17.755 Y18.411 I-0.044 J0.498
X-17.668 Y17.415 Z-0.255 I0.044 J-0.498 F333.3
X-17.486 Y18.359 Z-0.3 I-0.044 J0.498
X-17.937 Y17.467 I-0.226 J-0.446 F250
X-17.486 Y18.359 I0.226 J0.446
X-17.937 Y17.467 Z-0.355 I-0.226 J-0.446 F333.3
X-17.284 Y18.173 Z-0.4 I0.226 J0.446
X-18.139 Y17.653 I-0.427 J-0.26 F250
X-17.284 Y18.173 I0.427 J0.26
X-18.139 Y17.653 Z-0.455 I-0.427 J-0.26 F333.3
X-17.212 Y17.908 Z-0.5 I0.427 J0.26
X-18.211 Y17.918 I-0.5 J0.005 F250
X-17.212 Y17.908 I0.5 J-0.005
X-18.211 Y17.918 Z-0.555 I-0.5 J0.005 F333.3
X-17.289 Y17.645 Z-0.6 I0.5 J-0.005
X-18.134 Y18.181 I-0.422 J0.268 F250
X-17.289 Y17.645 I0.422 J-0.268
X-18.134 Y18.181 Z-0.655 I-0.422 J0.268 F333.3
X-17.494 Y17.463 Z-0.7 I0.422 J-0.268
X-17.929 Y18.363 I-0.217 J0.45 F250
X-17.494 Y17.463 I0.217 J-0.45
X-17.929 Y18.363 Z-0.755 I-0.217 J0.45 F333.3
X-17.765 Y17.416 Z-0.8 I0.217 J-0.45
X-17.658 Y18.41 I0.053 J0.497 F250
X-17.765 Y17.416 I-0.053 J-0.497
X-17.658 Y18.41 Z-0.855 I0.053 J0.497 F333.3
X-18.019 Y17.519 Z-0.9 I-0.053 J-0.497
X-17.404 Y18.307 I0.307 J0.394 F250
X-18.019 Y17.519 I-0.307 J-0.394
X-17.404 Y18.307 Z-0.955 I0.307 J0.394 F333.3
X-18.181 Y17.74 Z-1 I-0.307 J-0.394
X-17.242 Y18.086 I0.469 J0.173 F250
X-18.181 Y17.74 I-0.469 J-0.173
X-17.242 Y18.086 Z-1.055 I0.469 J0.173 F333.3
X-18.201 Y18.014 Z-1.1 I-0.469 J-0.173
X-17.222 Y17.812 I0.49 J-0.101 F250
X-18.201 Y18.014 I-0.49 J0.101
X-17.222 Y17.812 Z-1.155 I0.49 J-0.101 F333.3
X-18.074 Y18.257 Z-1.2 I-0.49 J0.101
X-17.349 Y17.569 I0.363 J-0.344 F250
X-18.074 Y18.257 I-0.363 J0.344
X-17.349 Y17.569 Z-1.255 I0.363 J-0.344 F333.3
X-17.838 Y18.397 Z-1.3 I-0.363 J0.344
X-17.585 Y17.429 I0.126 J-0.484 F250
X-17.838 Y18.397 I-0.126 J0.484
G1 X-17.892 Y18.377 Z-1.289
X-17.941 Y18.347 Z-1.277
X-17.977 Y18.315 Z-1.245
X-18.008 Y18.278 Z-1.212
X-18.039 Y18.221 Z-1.115
X-18.047 Y18.199 Z-1
G0 Z15
X45.276 Y-12.835
Z5
G1 Z2.5 F250
Z0.2 F200
X45.258 Y-12.848 Z0.085
X45.21 Y-12.892 Z-0.012
X45.182 Y-12.932 Z-0.045
X45.16 Y-12.975 Z-0.077
X45.144 Y-13.03 Z-0.089
X45.139 Y-13.087 Z-0.1
G3 X46.939 Y-13.087 I0.9 J0 F250
X45.139 Y-13.087 I-0.9 J0
X46.057 Y-13.987 Z-0.15 I0.9 J0 F333.3
X46.938 Y-13.051 Z-0.2 I-0.018 J0.9
X45.139 Y-13.123 I-0.899 J-0.036 F250
X46.938 Y-13.051 I0.899 J0.036
X45.984 Y-12.189 Z-0.25 I-0.899 J-0.036 F333.3
X45.141 Y-13.159 Z-0.3 I0.054 J-0.898
X46.936 Y-13.015 I0.897 J0.072 F250
X45.141 Y-13.159 I-0.897 J-0.072
X46.129 Y-13.983 Z-0.35 I0.897 J0.072 F333.3
X46.932 Y-12.979 Z-0.4 I-0.09 J0.895
X45.145 Y-13.195 I-0.893 J-0.108 F250
X46.932 Y-12.979 I0.893 J0.108
X45.912 Y-12.196 Z-0.45 I-0.893 J-0.108 F333.3
X45.15 Y-13.231 Z-0.5 I0.126 J-0.891
X46.927 Y-12.943 I0.888 J0.144 F250
X45.15 Y-13.231 I-0.888 J-0.144
X46.2 Y-13.972 Z-0.55 I0.888 J0.144 F333.3
X46.92 Y-12.907 Z-0.6 I-0.162 J0.885
X45.157 Y-13.267 I-0.882 J-0.18 F250
X46.92 Y-12.907 I0.882 J0.18
X45.841 Y-12.209 Z-0.65 I-0.882 J-0.18 F333.3
X45.165 Y-13.302 Z-0.7 I0.197 J-0.878
X46.912 Y-12.872 I0.874 J0.215 F250
X45.165 Y-13.302 I-0.874 J-0.215
X46.271 Y-13.957 Z-0.75 I0.874 J0.215 F333.3
X46.903 Y-12.837 Z-0.8 I-0.233 J0.869
X45.174 Y-13.337 I-0.865 J-0.25 F250
X46.903 Y-12.837 I0.865 J0.25
X45.771 Y-12.228 Z-0.85 I-0.865 J-0.25 F333.3
X45.185 Y-13.372 Z-0.9 I0.267 J-0.859
X46.892 Y-12.803 I0.854 J0.285 F250
X45.185 Y-13.372 I-0.854 J-0.285
X46.34 Y-13.935 Z-0.95 I0.854 J0.285 F333.3
X46.88 Y-12.768 Z-1 I-0.302 J0.848
X45.197 Y-13.406 I-0.842 J-0.319 F250
X46.88 Y-12.768 I0.842 J0.319
X45.703 Y-12.252 Z-1.05 I-0.842 J-0.319 F333.3
X45.21 Y-13.439 Z-1.1 I0.336 J-0.835
X46.867 Y-12.735 I0.828 J0.352 F250
X45.21 Y-13.439 I-0.828 J-0.352
X46.407 Y-13.908 Z-1.15 I0.828 J0.352 F333.3
X46.852 Y-12.702 Z-1.2 I-0.369 J0.821
X45.225 Y-13.472 I-0.813 J-0.385 F250
X46.852 Y-12.702 I0.813 J0.385
X45.637 Y-12.282 Z-1.25 I-0.813 J-0.385 F333.3
X45.241 Y-13.505 Z-1.3 I0.402 J-0.805
X46.836 Y-12.669 I0.797 J0.418 F250
X45.241 Y-13.505 I-0.797 J-0.418
G1 X45.273 Y-13.553 Z-1.289
X45.312 Y-13.594 Z-1.277
X45.352 Y-13.622 Z-1.245
X45.395 Y-13.644 Z-1.212
X45.458 Y-13.661 Z-1.115
X45.481 Y-13.664 Z-1
G0 Z5
X53.051 Y-23.34
G1 Z2.5 F250
Z0.2 F200
X53.069 Y-23.326 Z0.085
X53.117 Y-23.282 Z-0.012
X53.145 Y-23.243 Z-0.045
X53.167 Y-23.199 Z-0.077
X53.183 Y-23.144 Z-0.089
X53.188 Y-23.087 Z-0.1
G3 X51.389 Y-23.087 I-0.9 J0 F250
X53.188 Y-23.087 I0.9 J0
X52.27 Y-22.187 Z-0.15 I-0.9 J0 F333.3
X51.389 Y-23.123 Z-0.2 I0.018 J-0.9
X53.188 Y-23.051 I0.899 J0.036 F250
X51.389 Y-23.123 I-0.899 J-0.036
X52.343 Y-23.985 Z-0.25 I0.899 J0.036 F333.3
X53.186 Y-23.015 Z-0.3 I-0.054 J0.898
X51.391 Y-23.159 I-0.897 J-0.072 F250
X53.186 Y-23.015 I0.897 J0.072
X52.198 Y-22.192 Z-0.35 I-0.897 J-0.072 F333.3
X51.395 Y-23.195 Z-0.4 I0.09 J-0.895
X53.182 Y-22.979 I0.893 J0.108 F250
X51.395 Y-23.195 I-0.893 J-0.108
X52.415 Y-23.978 Z-0.45 I0.893 J0.108 F333.3
X53.177 Y-22.943 Z-0.5 I-0.126 J0.891
X51.4 Y-23.231 I-0.888 J-0.144 F250
X53.177 Y-22.943 I0.888 J0.144
X52.127 Y-22.202 Z-0.55 I-0.888 J-0.144 F333.3
X51.407 Y-23.267 Z-0.6 I0.162 J-0.885
X53.17 Y-22.907 I0.882 J0.18 F250
X51.407 Y-23.267 I-0.882 J-0.18
X52.486 Y-23.965 Z-0.65 I0.882 J0.18 F333.3
X53.162 Y-22.872 Z-0.7 I-0.197 J0.878
X51.415 Y-23.302 I-0.874 J-0.215 F250
X53.162 Y-22.872 I0.874 J0.215
X52.056 Y-22.218 Z-0.75 I-0.874 J-0.215 F333.3
X51.424 Y-23.337 Z-0.8 I0.233 J-0.869
X53.153 Y-22.837 I0.865 J0.25 F250
X51.424 Y-23.337 I-0.865 J-0.25
X52.556 Y-23.946 Z-0.85 I0.865 J0.25 F333.3
X53.142 Y-22.803 Z-0.9 I-0.267 J0.859
X51.435 Y-23.372 I-0.854 J-0.285 F250
X53.142 Y-22.803 I0.854 J0.285
X51.987 Y-22.239 Z-0.95 I-0.854 J-0.285 F333.3
X51.447 Y-23.406 Z-1 I0.302 J-0.848
X53.13 Y-22.768 I0.842 J0.319 F250
X51.447 Y-23.406 I-0.842 J-0.319
X52.624 Y-23.922 Z-1.05 I0.842 J0.319 F333.3
X53.117 Y-22.735 Z-1.1 I-0.336 J0.835
X51.46 Y-23.439 I-0.828 J-0.352 F250
X53.117 Y-22.735 I0.828 J0.352
X51.92 Y-22.266 Z-1.15 I-0.828 J-0.352 F333.3
X51.475 Y-23.472 Z-1.2 I0.369 J-0.821
X53.102 Y-22.702 I0.813 J0.385 F250
X51.475 Y-23.472 I-0.813 J-0.385
X52.69 Y-23.893 Z-1.25 I0.813 J0.385 F333.3
X53.086 Y-22.669 Z-1.3 I-0.402 J0.805
X51.491 Y-23.505 I-0.797 J-0.418 F250
X53.086 Y-22.669 I0.797 J0.418
G1 X53.054 Y-22.621 Z-1.289
X53.015 Y-22.58 Z-1.277
X52.975 Y-22.552 Z-1.245
X52.932 Y-22.53 Z-1.212
X52.869 Y-22.513 Z-1.115
X52.846 Y-22.51 Z-1
G0 Z5
X57.776 Y-12.835
G1 Z2.5 F250
Z0.2 F200
X57.758 Y-12.848 Z0.085
X57.71 Y-12.892 Z-0.012
X57.682 Y-12.932 Z-0.045
X57.66 Y-12.975 Z-0.077
X57.644 Y-13.03 Z-0.089
X57.639 Y-13.087 Z-0.1
G3 X59.439 Y-13.087 I0.9 J0 F250
X57.639 Y-13.087 I-0.9 J0
X58.557 Y-13.987 Z-0.15 I0.9 J0 F333.3
X59.438 Y-13.051 Z-0.2 I-0.018 J0.9
X57.639 Y-13.123 I-0.899 J-0.036 F250
X59.438 Y-13.051 I0.899 J0.036
X58.484 Y-12.189 Z-0.25 I-0.899 J-0.036 F333.3
X57.641 Y-13.159 Z-0.3 I0.054 J-0.898
X59.436 Y-13.015 I0.897 J0.072 F250
X57.641 Y-13.159 I-0.897 J-0.072
X58.629 Y-13.983 Z-0.35 I0.897 J0.072 F333.3
X59.432 Y-12.979 Z-0.4 I-0.09 J0.895
X57.645 Y-13.195 I-0.893 J-0.108 F250
X59.432 Y-12.979 I0.893 J0.108
X58.412 Y-12.196 Z-0.45 I-0.893 J-0.108 F333.3
X57.65 Y-13.231 Z-0.5 I0.126 J-0.891
X59.427 Y-12.943 I0.888 J0.144 F250
X57.65 Y-13.231 I-0.888 J-0.144
X58.7 Y-13.972 Z-0.55 I0.888 J0.144 F333.3
X59.42 Y-12.907 Z-0.6 I-0.162 J0.885
X57.657 Y-13.267 I-0.882 J-0.18 F250
X59.42 Y-12.907 I0.882 J0.18
X58.341 Y-12.209 Z-0.65 I-0.882 J-0.18 F333.3
X57.665 Y-13.302 Z-0.7 I0.197 J-0.878
X59.412 Y-12.872 I0.874 J0.215 F250
X57.665 Y-13.302 I-0.874 J-0.215
X58.771 Y-13.957 Z-0.75 I0.874 J0.215 F333.3
X59.403 Y-12.837 Z-0.8 I-0.233 J0.869
X57.674 Y-13.337 I-0.865 J-0.25 F250
X59.403 Y-12.837 I0.865 J0.25
X58.271 Y-12.228 Z-0.85 I-0.865 J-0.25 F333.3
X57.685 Y-13.372 Z-0.9 I0.267 J-0.859
X59.392 Y-12.803 I0.854 J0.285 F250
X57.685 Y-13.372 I-0.854 J-0.285
X58.84 Y-13.935 Z-0.95 I0.854 J0.285 F333.3
X59.38 Y-12.768 Z-1 I-0.302 J0.848
X57.697 Y-13.406 I-0.842 J-0.319 F250
X59.38 Y-12.768 I0.842 J0.319
X58.203 Y-12.252 Z-1.05 I-0.842 J-0.319 F333.3
X57.71 Y-13.439 Z-1.1 I0.336 J-0.835
X59.367 Y-12.735 I0.828 J0.352 F250
X57.71 Y-13.439 I-0.828 J-0.352
X58.907 Y-13.908 Z-1.15 I0.828 J0.352 F333.3
X59.352 Y-12.702 Z-1.2 I-0.369 J0.821
X57.725 Y-13.472 I-0.813 J-0.385 F250
X59.352 Y-12.702 I0.813 J0.385
X58.137 Y-12.282 Z-1.25 I-0.813 J-0.385 F333.3
X57.741 Y-13.505 Z-1.3 I0.402 J-0.805
X59.336 Y-12.669 I0.797 J0.418 F250
X57.741 Y-13.505 I-0.797 J-0.418
G1 X57.773 Y-13.553 Z-1.289
X57.812 Y-13.594 Z-1.277
X57.852 Y-13.622 Z-1.245
X57.895 Y-13.644 Z-1.212
X57.958 Y-13.661 Z-1.115
X57.981 Y-13.664 Z-1
G0 Z5
X-53.534 Y-16.751
G1 Z2.8 F250
X-53.503 Y-16.772 Z2.653 F333.3
X-53.413 Y-16.828 Z2.544
X-53.283 Y-16.893 Z2.5
G3 X-52.14 Y-14.282 Z2.344 I0.571 J1.306
X-53.283 Y-16.893 Z2.187 I-0.571 J-1.306
X-52.14 Y-14.282 Z2.031 I0.571 J1.306
X-53.283 Y-16.893 Z1.875 I-0.571 J-1.306
X-52.14 Y-14.282 Z1.718 I0.571 J1.306
X-53.283 Y-16.893 Z1.562 I-0.571 J-1.306
X-52.14 Y-14.282 Z1.406 I0.571 J1.306
X-53.283 Y-16.893 Z1.249 I-0.571 J-1.306
X-52.14 Y-14.282 Z1.093 I0.571 J1.306
X-53.283 Y-16.893 Z0.937 I-0.571 J-1.306
X-52.14 Y-14.282 Z0.78 I0.571 J1.306
X-53.283 Y-16.893 Z0.624 I-0.571 J-1.306
X-52.14 Y-14.282 Z0.468 I0.571 J1.306
X-53.283 Y-16.893 Z0.311 I-0.571 J-1.306
X-52.14 Y-14.282 Z0.155 I0.571 J1.306
X-53.283 Y-16.893 Z-0.001 I-0.571 J-1.306
X-51.286 Y-15.587 Z-0.1 I0.571 J1.306
G1 X-51.294 Y-15.565
X-51.312 Y-15.551
X-51.336
X-51.354 Y-15.565
X-51.361 Y-15.587
X-51.354 Y-15.62 F250
X-51.333 Y-15.646
X-51.303 Y-15.66
X-51.27
X-51.24 Y-15.646
X-51.219 Y-15.62
X-51.211 Y-15.587
G3 X-54.211 Y-15.587 I-1.5 J0
X-51.211 Y-15.587 I1.5 J0
X-51.516 Y-15.416 I-0.2 J0
G1 X-53.336 Y-16.525
G3 X-53.317 Y-16.877 I0.104 J-0.171
X-51.286 Y-15.587 Z-0.2 I0.605 J1.29 F333.3
G1 X-51.294 Y-15.565
X-51.312 Y-15.551
X-51.336
X-51.354 Y-15.565
X-51.361 Y-15.587
X-51.354 Y-15.62 F250
X-51.333 Y-15.646
X-51.303 Y-15.66
X-51.27
X-51.24 Y-15.646
X-51.219 Y-15.62
X-51.211 Y-15.587
G3 X-54.211 Y-15.587 I-1.5 J0
X-51.211 Y-15.587 I1.5 J0
X-51.516 Y-15.416 I-0.2 J0
G1 X-53.336 Y-16.525
G3 X-53.317 Y-16.877 I0.104 J-0.171
X-51.286 Y-15.587 Z-0.3 I0.605 J1.29 F333.3
G1 X-51.294 Y-15.565
X-51.312 Y-15.551
X-51.336
X-51.354 Y-15.565
X-51.361 Y-15.587
X-51.354 Y-15.62 F250
X-51.333 Y-15.646
X-51.303 Y-15.66
X-51.27
X-51.24 Y-15.646
X-51.219 Y-15.62
X-51.211 Y-15.587
G3 X-54.211 Y-15.587 I-1.5 J0
X-51.211 Y-15.587 I1.5 J0
X-51.516 Y-15.416 I-0.2 J0
G1 X-53.336 Y-16.525
G3 X-53.317 Y-16.877 I0.104 J-0.171
X-51.286 Y-15.587 Z-0.4 I0.605 J1.29 F333.3
G1 X-51.294 Y-15.565
X-51.312 Y-15.551
X-51.336
X-51.354 Y-15.565
X-51.361 Y-15.587
X-51.354 Y-15.62 F250
X-51.333 Y-15.646
X-51.303 Y-15.66
X-51.27
X-51.24 Y-15.646
X-51.219 Y-15.62
X-51.211 Y-15.587
G3 X-54.211 Y-15.587 I-1.5 J0
X-51.211 Y-15.587 I1.5 J0
X-51.516 Y-15.416 I-0.2 J0
G1 X-53.336 Y-16.525
G3 X-53.317 Y-16.877 I0.104 J-0.171
X-51.286 Y-15.587 Z-0.5 I0.605 J1.29 F333.3
G1 X-51.294 Y-15.565
X-51.312 Y-15.551
X-51.336
X-51.354 Y-15.565
X-51.361 Y-15.587
X-51.354 Y-15.62 F250
X-51.333 Y-15.646
X-51.303 Y-15.66
X-51.27
X-51.24 Y-15.646
X-51.219 Y-15.62
X-51.211 Y-15.587
G3 X-54.211 Y-15.587 I-1.5 J0
X-51.211 Y-15.587 I1.5 J0
X-51.516 Y-15.416 I-0.2 J0
G1 X-53.336 Y-16.525
G3 X-53.317 Y-16.877 I0.104 J-0.171
X-51.286 Y-15.587 Z-0.6 I0.605 J1.29 F333.3
G1 X-51.294 Y-15.565
X-51.312 Y-15.551
X-51.336
X-51.354 Y-15.565
X-51.361 Y-15.587
X-51.354 Y-15.62 F250
X-51.333 Y-15.646
X-51.303 Y-15.66
X-51.27
X-51.24 Y-15.646
X-51.219 Y-15.62
X-51.211 Y-15.587
G3 X-54.211 Y-15.587 I-1.5 J0
X-51.211 Y-15.587 I1.5 J0
X-51.516 Y-15.416 I-0.2 J0
G1 X-53.336 Y-16.525
G3 X-53.317 Y-16.877 I0.104 J-0.171
X-51.286 Y-15.587 Z-0.7 I0.605 J1.29 F333.3
G1 X-51.294 Y-15.565
X-51.312 Y-15.551
X-51.336
X-51.354 Y-15.565
X-51.361 Y-15.587
X-51.354 Y-15.62 F250
X-51.333 Y-15.646
X-51.303 Y-15.66
X-51.27
X-51.24 Y-15.646
X-51.219 Y-15.62
X-51.211 Y-15.587
G3 X-54.211 Y-15.587 I-1.5 J0
X-51.211 Y-15.587 I1.5 J0
X-51.516 Y-15.416 I-0.2 J0
G1 X-53.336 Y-16.525
G3 X-53.317 Y-16.877 I0.104 J-0.171
X-51.286 Y-15.587 Z-0.8 I0.605 J1.29 F333.3
G1 X-51.294 Y-15.565
X-51.312 Y-15.551
X-51.336
X-51.354 Y-15.565
X-51.361 Y-15.587
X-51.354 Y-15.62 F250
X-51.333 Y-15.646
X-51.303 Y-15.66
X-51.27
X-51.24 Y-15.646
X-51.219 Y-15.62
X-51.211 Y-15.587
G3 X-54.211 Y-15.587 I-1.5 J0
X-51.211 Y-15.587 I1.5 J0
X-51.516 Y-15.416 I-0.2 J0
G1 X-53.336 Y-16.525
G3 X-53.317 Y-16.877 I0.104 J-0.171
X-51.286 Y-15.587 Z-0.9 I0.605 J1.29 F333.3
G1 X-51.294 Y-15.565
X-51.312 Y-15.551
X-51.336
X-51.354 Y-15.565
X-51.361 Y-15.587
X-51.354 Y-15.62 F250
X-51.333 Y-15.646
X-51.303 Y-15.66
X-51.27
X-51.24 Y-15.646
X-51.219 Y-15.62
X-51.211 Y-15.587
G3 X-54.211 Y-15.587 I-1.5 J0
X-51.211 Y-15.587 I1.5 J0
X-51.516 Y-15.416 I-0.2 J0
G1 X-53.336 Y-16.525
G3 X-53.317 Y-16.877 I0.104 J-0.171
X-51.286 Y-15.587 Z-1 I0.605 J1.29 F333.3
G1 X-51.294 Y-15.565
X-51.312 Y-15.551
X-51.336
X-51.354 Y-15.565
X-51.361 Y-15.587
X-51.354 Y-15.62 F250
X-51.333 Y-15.646
X-51.303 Y-15.66
X-51.27
X-51.24 Y-15.646
X-51.219 Y-15.62
X-51.211 Y-15.587
G3 X-54.211 Y-15.587 I-1.5 J0
X-51.211 Y-15.587 I1.5 J0
X-51.516 Y-15.416 I-0.2 J0
G1 X-53.336 Y-16.525
G3 X-53.317 Y-16.877 I0.104 J-0.171
X-51.286 Y-15.587 Z-1.1 I0.605 J1.29 F333.3
G1 X-51.294 Y-15.565
X-51.312 Y-15.551
X-51.336
X-51.354 Y-15.565
X-51.361 Y-15.587
X-51.354 Y-15.62 F250
X-51.333 Y-15.646
X-51.303 Y-15.66
X-51.27
X-51.24 Y-15.646
X-51.219 Y-15.62
X-51.211 Y-15.587
G3 X-54.211 Y-15.587 I-1.5 J0
X-51.211 Y-15.587 I1.5 J0
X-51.516 Y-15.416 I-0.2 J0
G1 X-53.336 Y-16.525
G3 X-53.317 Y-16.877 I0.104 J-0.171
X-51.286 Y-15.587 Z-1.2 I0.605 J1.29 F333.3
G1 X-51.294 Y-15.565
X-51.312 Y-15.551
X-51.336
X-51.354 Y-15.565
X-51.361 Y-15.587
X-51.354 Y-15.62 F250
X-51.333 Y-15.646
X-51.303 Y-15.66
X-51.27
X-51.24 Y-15.646
X-51.219 Y-15.62
X-51.211 Y-15.587
G3 X-54.211 Y-15.587 I-1.5 J0
X-51.211 Y-15.587 I1.5 J0
X-51.516 Y-15.416 I-0.2 J0
G1 X-53.336 Y-16.525
G3 X-53.317 Y-16.877 I0.104 J-0.171
X-51.286 Y-15.587 Z-1.3 I0.605 J1.29 F333.3
G1 X-51.294 Y-15.565
X-51.312 Y-15.551
X-51.336
X-51.354 Y-15.565
X-51.361 Y-15.587
X-51.354 Y-15.62 F250
X-51.333 Y-15.646
X-51.303 Y-15.66
X-51.27
X-51.24 Y-15.646
X-51.219 Y-15.62
X-51.211 Y-15.587
G3 X-54.211 Y-15.587 I-1.5 J0
X-51.211 Y-15.587 I1.5 J0
G1 X-51.217 Y-15.53 Z-1.289
X-51.233 Y-15.475 Z-1.277
X-51.255 Y-15.432 Z-1.245
X-51.283 Y-15.392 Z-1.212
X-51.331 Y-15.348 Z-1.115
X-51.349 Y-15.335 Z-1
G0 Z15
M9
M5
M30
