(1001)
(Machine)
(  vendor: Autodesk)
(  description: Generic 3-axis)
(T3  D=3 CR=0 - ZMIN=-1.3 - flat end mill)
G90 G94
G17
G21

(2D Pocket3)
T3
S1000 M3
G54
M8
G0 X-48.461 Y23.218
Z23
Z21
G1 Z3.8 F250
G19 G3 Y23.507 Z3.5 J0.3 K0 F333.3
G1 Y25.413 Z3.433
G17 G3 X-48.961 Y25.913 Z3.406 I-0.5 J0
G1 X-56.461 Z3.144
G3 X-56.961 Y25.413 Z3.117 I0 J-0.5
G1 Y21.663 Z2.986
G3 X-55.961 Y21.663 Z2.931 I0.5 J0
G1 Y23.413 Z2.87
G2 X-54.461 Y24.913 Z2.787 I1.5 J0
G1 X-50.961 Z2.665
G2 X-49.461 Y23.413 Z2.583 I0 J-1.5
G1 Y21.663 Z2.522
G3 X-48.461 Y21.663 Z2.467 I0.5 J0
G1 Y25.413 Z2.336
G3 X-48.961 Y25.913 Z2.309 I-0.5 J0
G1 X-56.461 Z2.047
G3 X-56.961 Y25.413 Z2.019 I0 J-0.5
G1 Y21.663 Z1.888
G3 X-55.961 Y21.663 Z1.834 I0.5 J0
G1 Y23.413 Z1.772
G2 X-54.461 Y24.913 Z1.69 I1.5 J0
G1 X-50.961 Z1.568
G2 X-49.461 Y23.413 Z1.486 I0 J-1.5
G1 Y21.663 Z1.425
G3 X-48.461 Y21.663 Z1.37 I0.5 J0
G1 Y25.413 Z1.239
G3 X-48.961 Y25.913 Z1.211 I-0.5 J0
G1 X-56.461 Z0.949
G3 X-56.961 Y25.413 Z0.922 I0 J-0.5
G1 Y24.785 Z0.9
Y21.663 F250
G3 X-55.961 Y21.663 I0.5 J0
G1 Y23.413
G2 X-54.461 Y24.913 I1.5 J0
G1 X-50.961
G2 X-49.461 Y23.413 I0 J-1.5
G1 Y21.663
G3 X-48.461 Y21.663 I0.5 J0
G1 Y25.413
G3 X-48.961 Y25.913 I-0.5 J0
G1 X-56.461
G3 X-56.961 Y25.413 I0 J-0.5
G1 Y24.785
Y21.921 Z0.8 F333.3
Y21.663 F250
G3 X-55.961 Y21.663 I0.5 J0
G1 Y23.413
G2 X-54.461 Y24.913 I1.5 J0
G1 X-50.961
G2 X-49.461 Y23.413 I0 J-1.5
G1 Y21.663
G3 X-48.461 Y21.663 I0.5 J0
G1 Y25.413
G3 X-48.961 Y25.913 I-0.5 J0
G1 X-56.461
G3 X-56.961 Y25.413 I0 J-0.5
G1 Y21.921
Y21.663 Z0.791 F333.3
G3 X-55.961 Y21.663 Z0.736 I0.5 J0
G1 Y22.698 Z0.7
Y23.413 F250
G2 X-54.461 Y24.913 I1.5 J0
G1 X-50.961
G2 X-49.461 Y23.413 I0 J-1.5
G1 Y21.663
G3 X-48.461 Y21.663 I0.5 J0
G1 Y25.413
G3 X-48.961 Y25.913 I-0.5 J0
G1 X-56.461
G3 X-56.961 Y25.413 I0 J-0.5
G1 Y21.921
Y21.663
G3 X-55.961 Y21.663 I0.5 J0
G1 Y22.698
Y23.413 Z0.675 F333.3
G2 X-54.669 Y24.899 Z0.6 I1.5 J0
G1 X-54.565 Y24.909 F250
X-54.461 Y24.913
X-50.961
G2 X-49.461 Y23.413 I0 J-1.5
G1 Y21.663
G3 X-48.461 Y21.663 I0.5 J0
G1 Y25.413
G3 X-48.961 Y25.913 I-0.5 J0
G1 X-56.461
G3 X-56.961 Y25.413 I0 J-0.5
G1 Y21.663
G3 X-55.961 Y21.663 I0.5 J0
G1 Y22.698
Y23.413
G2 X-54.669 Y24.899 I1.5 J0
G1 X-54.565 Y24.909 Z0.596 F333.3
X-54.461 Y24.913 Z0.593
X-51.806 Z0.5
X-50.961 F250
G2 X-49.461 Y23.413 I0 J-1.5
G1 Y21.663
G3 X-48.461 Y21.663 I0.5 J0
G1 Y25.413
G3 X-48.961 Y25.913 I-0.5 J0
G1 X-56.461
G3 X-56.961 Y25.413 I0 J-0.5
G1 Y21.663
G3 X-55.961 Y21.663 I0.5 J0
G1 Y23.413
G2 X-54.461 Y24.913 I1.5 J0
G1 X-51.806
X-50.961 Z0.471 F333.3
G2 X-49.499 Y23.747 Z0.4 I0 J-1.5
X-49.461 Y23.413 I-1.462 J-0.334 F250
G1 Y21.663
G3 X-48.461 Y21.663 I0.5 J0
G1 Y25.413
G3 X-48.961 Y25.913 I-0.5 J0
G1 X-56.461
G3 X-56.961 Y25.413 I0 J-0.5
G1 Y21.663
G3 X-55.961 Y21.663 I0.5 J0
G1 Y23.413
G2 X-54.461 Y24.913 I1.5 J0
G1 X-51.806
X-50.961
G2 X-49.499 Y23.747 I0 J-1.5
X-49.461 Y23.413 Z0.388 I-1.462 J-0.334 F333.3
G1 Y21.663 Z0.327
G3 X-48.97 Y21.163 Z0.3 I0.5 J0
X-48.461 Y21.663 I0.009 J0.5 F250
G1 Y25.413
G3 X-48.961 Y25.913 I-0.5 J0
G1 X-56.461
G3 X-56.961 Y25.413 I0 J-0.5
G1 Y21.663
G3 X-55.961 Y21.663 I0.5 J0
G1 Y23.413
G2 X-54.461 Y24.913 I1.5 J0
G1 X-50.961
G2 X-49.461 Y23.413 I0 J-1.5
G1 Y21.663
G3 X-48.97 Y21.163 I0.5 J0
X-48.461 Y21.663 Z0.272 I0.009 J0.5 F333.3
G1 Y23.732 Z0.2
Y25.413 F250
G3 X-48.961 Y25.913 I-0.5 J0
G1 X-56.461
G3 X-56.961 Y25.413 I0 J-0.5
G1 Y21.663
G3 X-55.961 Y21.663 I0.5 J0
G1 Y23.413
G2 X-54.461 Y24.913 I1.5 J0
G1 X-50.961
G2 X-49.461 Y23.413 I0 J-1.5
G1 Y21.663
G3 X-48.461 Y21.663 I0.5 J0
G1 Y23.732
Y25.413 Z0.141 F333.3
G3 X-48.961 Y25.913 Z0.114 I-0.5 J0
G1 X-49.359 Z0.1
X-56.461 F250
G3 X-56.961 Y25.413 I0 J-0.5
G1 Y21.663
G3 X-55.961 Y21.663 I0.5 J0
G1 Y23.413
G2 X-54.461 Y24.913 I1.5 J0
G1 X-50.961
G2 X-49.461 Y23.413 I0 J-1.5
G1 Y21.663
G3 X-48.461 Y21.663 I0.5 J0
G1 Y23.732
Y25.413
G3 X-48.961 Y25.913 I-0.5 J0
G1 X-49.359
X-52.223 Z0 F333.3
X-56.461 F250
G3 X-56.961 Y25.413 I0 J-0.5
G1 Y21.663
G3 X-55.961 Y21.663 I0.5 J0
G1 Y23.413
G2 X-54.461 Y24.913 I1.5 J0
G1 X-50.961
G2 X-49.461 Y23.413 I0 J-1.5
G1 Y21.663
G3 X-48.461 Y21.663 I0.5 J0
G1 Y25.413
G3 X-48.961 Y25.913 I-0.5 J0
G1 X-52.223
X-55.087 Z-0.1 F333.3
X-56.461 F250
G3 X-56.961 Y25.413 I0 J-0.5
G1 Y21.663
G3 X-55.961 Y21.663 I0.5 J0
G1 Y23.413
G2 X-54.461 Y24.913 I1.5 J0
G1 X-50.961
G2 X-49.461 Y23.413 I0 J-1.5
G1 Y21.663
G3 X-48.461 Y21.663 I0.5 J0
G1 Y25.413
G3 X-48.961 Y25.913 I-0.5 J0
G1 X-52.223
X-55.087
X-56.461 Z-0.148 F333.3
G3 X-56.961 Y25.413 Z-0.175 I0 J-0.5
G1 Y24.71 Z-0.2
Y21.663 F250
G3 X-55.961 Y21.663 I0.5 J0
G1 Y23.413
G2 X-54.461 Y24.913 I1.5 J0
G1 X-50.961
G2 X-49.461 Y23.413 I0 J-1.5
G1 Y21.663
G3 X-48.461 Y21.663 I0.5 J0
G1 Y25.413
G3 X-48.961 Y25.913 I-0.5 J0
G1 X-55.087
X-56.461
G3 X-56.961 Y25.413 I0 J-0.5
G1 Y24.71
Y21.846 Z-0.3 F333.3
Y21.663 F250
G3 X-55.961 Y21.663 I0.5 J0
G1 Y23.413
G2 X-54.461 Y24.913 I1.5 J0
G1 X-50.961
G2 X-49.461 Y23.413 I0 J-1.5
G1 Y21.663
G3 X-48.461 Y21.663 I0.5 J0
G1 Y25.413
G3 X-48.961 Y25.913 I-0.5 J0
G1 X-56.461
G3 X-56.961 Y25.413 I0 J-0.5
G1 Y21.846
Y21.663 Z-0.306 F333.3
G3 X-55.961 Y21.663 Z-0.361 I0.5 J0
G1 Y22.773 Z-0.4
Y23.413 F250
G2 X-54.461 Y24.913 I1.5 J0
G1 X-50.961
G2 X-49.461 Y23.413 I0 J-1.5
G1 Y21.663
G3 X-48.461 Y21.663 I0.5 J0
G1 Y25.413
G3 X-48.961 Y25.913 I-0.5 J0
G1 X-56.461
G3 X-56.961 Y25.413 I0 J-0.5
G1 Y21.846
Y21.663
G3 X-55.961 Y21.663 I0.5 J0
G1 Y22.773
Y23.413 Z-0.422 F333.3
G2 X-54.594 Y24.907 Z-0.5 I1.5 J0
G1 X-54.461 Y24.913 F250
X-50.961
G2 X-49.461 Y23.413 I0 J-1.5
G1 Y21.663
G3 X-48.461 Y21.663 I0.5 J0
G1 Y25.413
G3 X-48.961 Y25.913 I-0.5 J0
G1 X-56.461
G3 X-56.961 Y25.413 I0 J-0.5
G1 Y21.663
G3 X-55.961 Y21.663 I0.5 J0
G1 Y22.773
Y23.413
G2 X-54.594 Y24.907 I1.5 J0
G1 X-54.461 Y24.913 Z-0.505 F333.3
X-51.731 Z-0.6
X-50.961 F250
G2 X-49.461 Y23.413 I0 J-1.5
G1 Y21.663
G3 X-48.461 Y21.663 I0.5 J0
G1 Y25.413
G3 X-48.961 Y25.913 I-0.5 J0
G1 X-56.461
G3 X-56.961 Y25.413 I0 J-0.5
G1 Y21.663
G3 X-55.961 Y21.663 I0.5 J0
G1 Y23.413
G2 X-54.461 Y24.913 I1.5 J0
G1 X-51.731
X-50.961 Z-0.627 F333.3
G2 X-49.484 Y23.673 Z-0.7 I0 J-1.5
X-49.461 Y23.413 I-1.477 J-0.26 F250
G1 Y21.663
G3 X-48.461 Y21.663 I0.5 J0
G1 Y25.413
G3 X-48.961 Y25.913 I-0.5 J0
G1 X-56.461
G3 X-56.961 Y25.413 I0 J-0.5
G1 Y21.663
G3 X-55.961 Y21.663 I0.5 J0
G1 Y23.413
G2 X-54.461 Y24.913 I1.5 J0
G1 X-51.731
X-50.961
G2 X-49.484 Y23.673 I0 J-1.5
X-49.461 Y23.413 Z-0.709 I-1.477 J-0.26 F333.3
G1 Y21.663 Z-0.77
G3 X-48.895 Y21.167 Z-0.8 I0.5 J0
X-48.461 Y21.663 I-0.066 J0.496 F250
G1 Y25.413
G3 X-48.961 Y25.913 I-0.5 J0
G1 X-56.461
G3 X-56.961 Y25.413 I0 J-0.5
G1 Y21.663
G3 X-55.961 Y21.663 I0.5 J0
G1 Y23.413
G2 X-54.461 Y24.913 I1.5 J0
G1 X-50.961
G2 X-49.461 Y23.413 I0 J-1.5
G1 Y21.663
G3 X-48.895 Y21.167 I0.5 J0
X-48.461 Y21.663 Z-0.825 I-0.066 J0.496 F333.3
G1 Y23.808 Z-0.9
Y25.413 F250
G3 X-48.961 Y25.913 I-0.5 J0
G1 X-56.461
G3 X-56.961 Y25.413 I0 J-0.5
G1 Y21.663
G3 X-55.961 Y21.663 I0.5 J0
G1 Y23.413
G2 X-54.461 Y24.913 I1.5 J0
G1 X-50.961
G2 X-49.461 Y23.413 I0 J-1.5
G1 Y21.663
G3 X-48.461 Y21.663 I0.5 J0
G1 Y23.808
Y25.413 Z-0.956 F333.3
G3 X-48.961 Y25.913 Z-0.983 I-0.5 J0
G1 X-49.434 Z-1
X-56.461 F250
G3 X-56.961 Y25.413 I0 J-0.5
G1 Y21.663
G3 X-55.961 Y21.663 I0.5 J0
G1 Y23.413
G2 X-54.461 Y24.913 I1.5 J0
G1 X-50.961
G2 X-49.461 Y23.413 I0 J-1.5
G1 Y21.663
G3 X-48.461 Y21.663 I0.5 J0
G1 Y23.808
Y25.413
G3 X-48.961 Y25.913 I-0.5 J0
G1 X-49.434
X-52.298 Z-1.1 F333.3
X-56.461 F250
G3 X-56.961 Y25.413 I0 J-0.5
G1 Y21.663
G3 X-55.961 Y21.663 I0.5 J0
G1 Y23.413
G2 X-54.461 Y24.913 I1.5 J0
G1 X-50.961
G2 X-49.461 Y23.413 I0 J-1.5
G1 Y21.663
G3 X-48.461 Y21.663 I0.5 J0
G1 Y25.413
G3 X-48.961 Y25.913 I-0.5 J0
G1 X-52.298
X-55.162 Z-1.2 F333.3
X-56.461 F250
G3 X-56.961 Y25.413 I0 J-0.5
G1 Y21.663
G3 X-55.961 Y21.663 I0.5 J0
G1 Y23.413
G2 X-54.461 Y24.913 I1.5 J0
G1 X-50.961
G2 X-49.461 Y23.413 I0 J-1.5
G1 Y21.663
G3 X-48.461 Y21.663 I0.5 J0
G1 Y25.413
G3 X-48.961 Y25.913 I-0.5 J0
G1 X-52.298
X-55.162
X-56.461 Z-1.245 F333.3
G3 X-56.961 Y25.413 Z-1.273 I0 J-0.5
G1 Y24.635 Z-1.3
Y21.663 F250
G3 X-55.961 Y21.663 I0.5 J0
G1 Y23.413
G2 X-54.461 Y24.913 I1.5 J0
G1 X-50.961
G2 X-49.461 Y23.413 I0 J-1.5
G1 Y21.663
G3 X-48.461 Y21.663 I0.5 J0
G1 Y25.413
G3 X-48.961 Y25.913 I-0.5 J0
G1 X-55.162
X-56.461
G3 X-56.961 Y25.413 I0 J-0.5
G1 Y24.635
X-56.956 Y24.577 Z-1.289
X-56.94 Y24.523 Z-1.277
X-56.918 Y24.479 Z-1.245
X-56.89 Y24.44 Z-1.212
X-56.842 Y24.395 Z-1.115
X-56.824 Y24.382 Z-1
G0 Z23
X-53.131 Y17.775
Z21
G1 Z3.5 F250
Z1.2 F200
Y17.752 Z1.085
X-53.124 Y17.687 Z0.988
X-53.11 Y17.641 Z0.955
X-53.088 Y17.597 Z0.923
X-53.054 Y17.552 Z0.911
X-53.012 Y17.513 Z0.9
G3 X-52.411 Y18.313 I0.3 J0.4 F250
X-53.012 Y17.513 I-0.3 J-0.4
X-52.411 Y18.313 Z0.845 I0.3 J0.4 F333.3
X-53.177 Y17.731 Z0.8 I-0.3 J-0.4
X-52.246 Y18.094 I0.466 J0.181 F250
X-53.177 Y17.731 I-0.466 J-0.181
X-52.246 Y18.094 Z0.745 I0.466 J0.181 F333.3
X-53.203 Y18.005 Z0.7 I-0.466 J-0.181
X-52.22 Y17.821 I0.492 J-0.092 F250
X-53.203 Y18.005 I-0.492 J0.092
X-52.22 Y17.821 Z0.645 I0.492 J-0.092 F333.3
X-53.081 Y18.25 Z0.6 I-0.492 J0.092
X-52.342 Y17.576 I0.369 J-0.337 F250
X-53.081 Y18.25 I-0.369 J0.337
X-52.342 Y17.576 Z0.545 I0.369 J-0.337 F333.3
X-52.847 Y18.394 Z0.5 I-0.369 J0.337
X-52.576 Y17.432 I0.135 J-0.481 F250
X-52.847 Y18.394 I-0.135 J0.481
X-52.576 Y17.432 Z0.445 I0.135 J-0.481 F333.3
X-52.573 Y18.393 Z0.4 I-0.135 J0.481
X-52.85 Y17.433 I-0.139 J-0.48 F250
X-52.573 Y18.393 I0.139 J0.48
X-52.85 Y17.433 Z0.345 I-0.139 J-0.48 F333.3
X-52.34 Y18.248 Z0.3 I0.139 J0.48
X-53.083 Y17.578 I-0.371 J-0.335 F250
X-52.34 Y18.248 I0.371 J0.335
X-53.083 Y17.578 Z0.245 I-0.371 J-0.335 F333.3
X-52.219 Y18.001 Z0.2 I0.371 J0.335
X-53.204 Y17.825 I-0.492 J-0.088 F250
X-52.219 Y18.001 I0.492 J0.088
X-53.204 Y17.825 Z0.145 I-0.492 J-0.088 F333.3
X-52.247 Y17.728 Z0.1 I0.492 J0.088
X-53.176 Y18.098 I-0.465 J0.185 F250
X-52.247 Y17.728 I0.465 J-0.185
X-53.176 Y18.098 Z0.045 I-0.465 J0.185 F333.3
X-52.414 Y17.511 Z0 I0.465 J-0.185
X-53.009 Y18.315 I-0.297 J0.402 F250
X-52.414 Y17.511 I0.297 J-0.402
X-53.009 Y18.315 Z-0.055 I-0.297 J0.402 F333.3
X-52.671 Y17.415 Z-0.1 I0.297 J-0.402
X-52.752 Y18.411 I-0.04 J0.498 F250
X-52.671 Y17.415 I0.04 J-0.498
X-52.752 Y18.411 Z-0.155 I-0.04 J0.498 F333.3
X-52.94 Y17.468 Z-0.2 I0.04 J-0.498
X-52.483 Y18.357 I0.229 J0.445 F250
X-52.94 Y17.468 I-0.229 J-0.445
X-52.483 Y18.357 Z-0.255 I0.229 J0.445 F333.3
X-53.141 Y17.656 Z-0.3 I-0.229 J-0.445
X-52.282 Y18.17 I0.429 J0.257 F250
X-53.141 Y17.656 I-0.429 J-0.257
X-52.282 Y18.17 Z-0.355 I0.429 J0.257 F333.3
X-53.211 Y17.921 Z-0.4 I-0.429 J-0.257
X-52.212 Y17.905 I0.5 J-0.008 F250
X-53.211 Y17.921 I-0.5 J0.008
X-52.212 Y17.905 Z-0.455 I0.5 J-0.008 F333.3
X-53.132 Y18.184 Z-0.5 I-0.5 J0.008
X-52.291 Y17.642 I0.42 J-0.271 F250
X-53.132 Y18.184 I-0.42 J0.271
X-52.291 Y17.642 Z-0.555 I0.42 J-0.271 F333.3
X-52.925 Y18.365 Z-0.6 I-0.42 J0.271
X-52.498 Y17.461 I0.214 J-0.452 F250
X-52.925 Y18.365 I-0.214 J0.452
X-52.498 Y17.461 Z-0.655 I0.214 J-0.452 F333.3
X-52.655 Y18.41 Z-0.7 I-0.214 J0.452
X-52.768 Y17.416 I-0.057 J-0.497 F250
X-52.655 Y18.41 I0.057 J0.497
X-52.768 Y17.416 Z-0.755 I-0.057 J-0.497 F333.3
X-52.401 Y18.305 Z-0.8 I0.057 J0.497
X-53.022 Y17.521 I-0.31 J-0.392 F250
X-52.401 Y18.305 I0.31 J0.392
X-53.022 Y17.521 Z-0.855 I-0.31 J-0.392 F333.3
X-52.241 Y18.082 Z-0.9 I0.31 J0.392
X-53.182 Y17.744 I-0.47 J-0.169 F250
X-52.241 Y18.082 I0.47 J0.169
X-53.182 Y17.744 Z-0.955 I-0.47 J-0.169 F333.3
X-52.223 Y17.808 Z-1 I0.47 J0.169
X-53.2 Y18.017 I-0.489 J0.105 F250
X-52.223 Y17.808 I0.489 J-0.105
X-53.2 Y18.017 Z-1.055 I-0.489 J0.105 F333.3
X-52.351 Y17.566 Z-1.1 I0.489 J-0.105
X-53.072 Y18.26 I-0.36 J0.347 F250
X-52.351 Y17.566 I0.36 J-0.347
X-53.072 Y18.26 Z-1.155 I-0.36 J0.347 F333.3
X-52.589 Y17.428 Z-1.2 I0.36 J-0.347
X-52.834 Y18.398 I-0.123 J0.485 F250
X-52.589 Y17.428 I0.123 J-0.485
X-52.834 Y18.398 Z-1.255 I-0.123 J0.485 F333.3
X-52.863 Y17.436 Z-1.3 I0.123 J-0.485
X-52.56 Y18.389 I0.151 J0.477 F250
X-52.863 Y17.436 I-0.151 J-0.477
G1 X-52.807 Y17.424 Z-1.289
X-52.75 Y17.423 Z-1.277
X-52.702 Y17.431 Z-1.245
X-52.655 Y17.446 Z-1.212
X-52.599 Y17.477 Z-1.115
X-52.581 Y17.491 Z-1
G0 Z23
X-13.462 Y23.218
Z21
G1 Z3.8 F250
G19 G3 Y23.507 Z3.5 J0.3 K0 F333.3
G1 Y25.413 Z3.433
G17 G3 X-13.962 Y25.913 Z3.406 I-0.5 J0
G1 X-21.462 Z3.144
G3 X-21.962 Y25.413 Z3.117 I0 J-0.5
G1 Y21.663 Z2.986
G3 X-20.962 Y21.663 Z2.931 I0.5 J0
G1 Y23.413 Z2.87
G2 X-19.462 Y24.913 Z2.787 I1.5 J0
G1 X-15.962 Z2.665
G2 X-14.462 Y23.413 Z2.583 I0 J-1.5
G1 Y21.663 Z2.522
G3 X-13.462 Y21.663 Z2.467 I0.5 J0
G1 Y25.413 Z2.336
G3 X-13.962 Y25.913 Z2.309 I-0.5 J0
G1 X-21.462 Z2.047
G3 X-21.962 Y25.413 Z2.019 I0 J-0.5
G1 Y21.663 Z1.888
G3 X-20.962 Y21.663 Z1.834 I0.5 J0
G1 Y23.413 Z1.772
G2 X-19.462 Y24.913 Z1.69 I1.5 J0
G1 X-15.962 Z1.568
G2 X-14.462 Y23.413 Z1.486 I0 J-1.5
G1 Y21.663 Z1.425
G3 X-13.462 Y21.663 Z1.37 I0.5 J0
G1 Y25.413 Z1.239
G3 X-13.962 Y25.913 Z1.211 I-0.5 J0
G1 X-21.462 Z0.949
G3 X-21.962 Y25.413 Z0.922 I0 J-0.5
G1 Y24.785 Z0.9
Y21.663 F250
G3 X-20.962 Y21.663 I0.5 J0
G1 Y23.413
G2 X-19.462 Y24.913 I1.5 J0
G1 X-15.962
G2 X-14.462 Y23.413 I0 J-1.5
G1 Y21.663
G3 X-13.462 Y21.663 I0.5 J0
G1 Y25.413
G3 X-13.962 Y25.913 I-0.5 J0
G1 X-21.462
G3 X-21.962 Y25.413 I0 J-0.5
G1 Y24.785
Y21.921 Z0.8 F333.3
Y21.663 F250
G3 X-20.962 Y21.663 I0.5 J0
G1 Y23.413
G2 X-19.462 Y24.913 I1.5 J0
G1 X-15.962
G2 X-14.462 Y23.413 I0 J-1.5
G1 Y21.663
G3 X-13.462 Y21.663 I0.5 J0
G1 Y25.413
G3 X-13.962 Y25.913 I-0.5 J0
G1 X-21.462
G3 X-21.962 Y25.413 I0 J-0.5
G1 Y21.921
Y21.663 Z0.791 F333.3
G3 X-20.962 Y21.663 Z0.736 I0.5 J0
G1 Y22.698 Z0.7
Y23.413 F250
G2 X-19.462 Y24.913 I1.5 J0
G1 X-15.962
G2 X-14.462 Y23.413 I0 J-1.5
G1 Y21.663
G3 X-13.462 Y21.663 I0.5 J0
G1 Y25.413
G3 X-13.962 Y25.913 I-0.5 J0
G1 X-21.462
G3 X-21.962 Y25.413 I0 J-0.5
G1 Y21.921
Y21.663
G3 X-20.962 Y21.663 I0.5 J0
G1 Y22.698
Y23.413 Z0.675 F333.3
G2 X-19.669 Y24.899 Z0.6 I1.5 J0
G1 X-19.565 Y24.909 F250
X-19.462 Y24.913
X-15.962
G2 X-14.462 Y23.413 I0 J-1.5
G1 Y21.663
G3 X-13.462 Y21.663 I0.5 J0
G1 Y25.413
G3 X-13.962 Y25.913 I-0.5 J0
G1 X-21.462
G3 X-21.962 Y25.413 I0 J-0.5
G1 Y21.663
G3 X-20.962 Y21.663 I0.5 J0
G1 Y22.698
Y23.413
G2 X-19.669 Y24.899 I1.5 J0
G1 X-19.565 Y24.909 Z0.596 F333.3
X-19.462 Y24.913 Z0.593
X-16.806 Z0.5
X-15.962 F250
G2 X-14.462 Y23.413 I0 J-1.5
G1 Y21.663
G3 X-13.462 Y21.663 I0.5 J0
G1 Y25.413
G3 X-13.962 Y25.913 I-0.5 J0
G1 X-21.462
G3 X-21.962 Y25.413 I0 J-0.5
G1 Y21.663
G3 X-20.962 Y21.663 I0.5 J0
G1 Y23.413
G2 X-19.462 Y24.913 I1.5 J0
G1 X-16.806
X-15.962 Z0.471 F333.3
G2 X-14.499 Y23.747 Z0.4 I0 J-1.5
X-14.462 Y23.413 I-1.462 J-0.334 F250
G1 Y21.663
G3 X-13.462 Y21.663 I0.5 J0
G1 Y25.413
G3 X-13.962 Y25.913 I-0.5 J0
G1 X-21.462
G3 X-21.962 Y25.413 I0 J-0.5
G1 Y21.663
G3 X-20.962 Y21.663 I0.5 J0
G1 Y23.413
G2 X-19.462 Y24.913 I1.5 J0
G1 X-16.806
X-15.962
G2 X-14.499 Y23.747 I0 J-1.5
X-14.462 Y23.413 Z0.388 I-1.462 J-0.334 F333.3
G1 Y21.663 Z0.327
G3 X-13.97 Y21.163 Z0.3 I0.5 J0
X-13.462 Y21.663 I0.009 J0.5 F250
G1 Y25.413
G3 X-13.962 Y25.913 I-0.5 J0
G1 X-21.462
G3 X-21.962 Y25.413 I0 J-0.5
G1 Y21.663
G3 X-20.962 Y21.663 I0.5 J0
G1 Y23.413
G2 X-19.462 Y24.913 I1.5 J0
G1 X-15.962
G2 X-14.462 Y23.413 I0 J-1.5
G1 Y21.663
G3 X-13.97 Y21.163 I0.5 J0
X-13.462 Y21.663 Z0.272 I0.009 J0.5 F333.3
G1 Y23.732 Z0.2
Y25.413 F250
G3 X-13.962 Y25.913 I-0.5 J0
G1 X-21.462
G3 X-21.962 Y25.413 I0 J-0.5
G1 Y21.663
G3 X-20.962 Y21.663 I0.5 J0
G1 Y23.413
G2 X-19.462 Y24.913 I1.5 J0
G1 X-15.962
G2 X-14.462 Y23.413 I0 J-1.5
G1 Y21.663
G3 X-13.462 Y21.663 I0.5 J0
G1 Y23.732
Y25.413 Z0.141 F333.3
G3 X-13.962 Y25.913 Z0.114 I-0.5 J0
G1 X-14.359 Z0.1
X-21.462 F250
G3 X-21.962 Y25.413 I0 J-0.5
G1 Y21.663
G3 X-20.962 Y21.663 I0.5 J0
G1 Y23.413
G2 X-19.462 Y24.913 I1.5 J0
G1 X-15.962
G2 X-14.462 Y23.413 I0 J-1.5
G1 Y21.663
G3 X-13.462 Y21.663 I0.5 J0
G1 Y23.732
Y25.413
G3 X-13.962 Y25.913 I-0.5 J0
G1 X-14.359
X-17.223 Z0 F333.3
X-21.462 F250
G3 X-21.962 Y25.413 I0 J-0.5
G1 Y21.663
G3 X-20.962 Y21.663 I0.5 J0
G1 Y23.413
G2 X-19.462 Y24.913 I1.5 J0
G1 X-15.962
G2 X-14.462 Y23.413 I0 J-1.5
G1 Y21.663
G3 X-13.462 Y21.663 I0.5 J0
G1 Y25.413
G3 X-13.962 Y25.913 I-0.5 J0
G1 X-17.223
X-20.087 Z-0.1 F333.3
X-21.462 F250
G3 X-21.962 Y25.413 I0 J-0.5
G1 Y21.663
G3 X-20.962 Y21.663 I0.5 J0
G1 Y23.413
G2 X-19.462 Y24.913 I1.5 J0
G1 X-15.962
G2 X-14.462 Y23.413 I0 J-1.5
G1 Y21.663
G3 X-13.462 Y21.663 I0.5 J0
G1 Y25.413
G3 X-13.962 Y25.913 I-0.5 J0
G1 X-17.223
X-20.087
X-21.462 Z-0.148 F333.3
G3 X-21.962 Y25.413 Z-0.175 I0 J-0.5
G1 Y24.71 Z-0.2
Y21.663 F250
G3 X-20.962 Y21.663 I0.5 J0
G1 Y23.413
G2 X-19.462 Y24.913 I1.5 J0
G1 X-15.962
G2 X-14.462 Y23.413 I0 J-1.5
G1 Y21.663
G3 X-13.462 Y21.663 I0.5 J0
G1 Y25.413
G3 X-13.962 Y25.913 I-0.5 J0
G1 X-20.087
X-21.462
G3 X-21.962 Y25.413 I0 J-0.5
G1 Y24.71
Y21.846 Z-0.3 F333.3
Y21.663 F250
G3 X-20.962 Y21.663 I0.5 J0
G1 Y23.413
G2 X-19.462 Y24.913 I1.5 J0
G1 X-15.962
G2 X-14.462 Y23.413 I0 J-1.5
G1 Y21.663
G3 X-13.462 Y21.663 I0.5 J0
G1 Y25.413
G3 X-13.962 Y25.913 I-0.5 J0
G1 X-21.462
G3 X-21.962 Y25.413 I0 J-0.5
G1 Y21.846
Y21.663 Z-0.306 F333.3
G3 X-20.962 Y21.663 Z-0.361 I0.5 J0
G1 Y22.773 Z-0.4
Y23.413 F250
G2 X-19.462 Y24.913 I1.5 J0
G1 X-15.962
G2 X-14.462 Y23.413 I0 J-1.5
G1 Y21.663
G3 X-13.462 Y21.663 I0.5 J0
G1 Y25.413
G3 X-13.962 Y25.913 I-0.5 J0
G1 X-21.462
G3 X-21.962 Y25.413 I0 J-0.5
G1 Y21.846
Y21.663
G3 X-20.962 Y21.663 I0.5 J0
G1 Y22.773
Y23.413 Z-0.422 F333.3
G2 X-19.594 Y24.907 Z-0.5 I1.5 J0
G1 X-19.462 Y24.913 F250
X-15.962
G2 X-14.462 Y23.413 I0 J-1.5
G1 Y21.663
G3 X-13.462 Y21.663 I0.5 J0
G1 Y25.413
G3 X-13.962 Y25.913 I-0.5 J0
G1 X-21.462
G3 X-21.962 Y25.413 I0 J-0.5
G1 Y21.663
G3 X-20.962 Y21.663 I0.5 J0
G1 Y22.773
Y23.413
G2 X-19.594 Y24.907 I1.5 J0
G1 X-19.462 Y24.913 Z-0.505 F333.3
X-16.731 Z-0.6
X-15.962 F250
G2 X-14.462 Y23.413 I0 J-1.5
G1 Y21.663
G3 X-13.462 Y21.663 I0.5 J0
G1 Y25.413
G3 X-13.962 Y25.913 I-0.5 J0
G1 X-21.462
G3 X-21.962 Y25.413 I0 J-0.5
G1 Y21.663
G3 X-20.962 Y21.663 I0.5 J0
G1 Y23.413
G2 X-19.462 Y24.913 I1.5 J0
G1 X-16.731
X-15.962 Z-0.627 F333.3
G2 X-14.484 Y23.673 Z-0.7 I0 J-1.5
X-14.462 Y23.413 I-1.477 J-0.26 F250
G1 Y21.663
G3 X-13.462 Y21.663 I0.5 J0
G1 Y25.413
G3 X-13.962 Y25.913 I-0.5 J0
G1 X-21.462
G3 X-21.962 Y25.413 I0 J-0.5
G1 Y21.663
G3 X-20.962 Y21.663 I0.5 J0
G1 Y23.413
G2 X-19.462 Y24.913 I1.5 J0
G1 X-16.731
X-15.962
G2 X-14.484 Y23.673 I0 J-1.5
X-14.462 Y23.413 Z-0.709 I-1.477 J-0.26 F333.3
G1 Y21.663 Z-0.77
G3 X-13.895 Y21.167 Z-0.8 I0.5 J0
X-13.462 Y21.663 I-0.066 J0.496 F250
G1 Y25.413
G3 X-13.962 Y25.913 I-0.5 J0
G1 X-21.462
G3 X-21.962 Y25.413 I0 J-0.5
G1 Y21.663
G3 X-20.962 Y21.663 I0.5 J0
G1 Y23.413
G2 X-19.462 Y24.913 I1.5 J0
G1 X-15.962
G2 X-14.462 Y23.413 I0 J-1.5
G1 Y21.663
G3 X-13.895 Y21.167 I0.5 J0
X-13.462 Y21.663 Z-0.825 I-0.066 J0.496 F333.3
G1 Y23.808 Z-0.9
Y25.413 F250
G3 X-13.962 Y25.913 I-0.5 J0
G1 X-21.462
G3 X-21.962 Y25.413 I0 J-0.5
G1 Y21.663
G3 X-20.962 Y21.663 I0.5 J0
G1 Y23.413
G2 X-19.462 Y24.913 I1.5 J0
G1 X-15.962
G2 X-14.462 Y23.413 I0 J-1.5
G1 Y21.663
G3 X-13.462 Y21.663 I0.5 J0
G1 Y23.808
Y25.413 Z-0.956 F333.3
G3 X-13.962 Y25.913 Z-0.983 I-0.5 J0
G1 X-14.434 Z-1
X-21.462 F250
G3 X-21.962 Y25.413 I0 J-0.5
G1 Y21.663
G3 X-20.962 Y21.663 I0.5 J0
G1 Y23.413
G2 X-19.462 Y24.913 I1.5 J0
G1 X-15.962
G2 X-14.462 Y23.413 I0 J-1.5
G1 Y21.663
G3 X-13.462 Y21.663 I0.5 J0
G1 Y23.808
Y25.413
G3 X-13.962 Y25.913 I-0.5 J0
G1 X-14.434
X-17.298 Z-1.1 F333.3
X-21.462 F250
G3 X-21.962 Y25.413 I0 J-0.5
G1 Y21.663
G3 X-20.962 Y21.663 I0.5 J0
G1 Y23.413
G2 X-19.462 Y24.913 I1.5 J0
G1 X-15.962
G2 X-14.462 Y23.413 I0 J-1.5
G1 Y21.663
G3 X-13.462 Y21.663 I0.5 J0
G1 Y25.413
G3 X-13.962 Y25.913 I-0.5 J0
G1 X-17.298
X-20.162 Z-1.2 F333.3
X-21.462 F250
G3 X-21.962 Y25.413 I0 J-0.5
G1 Y21.663
G3 X-20.962 Y21.663 I0.5 J0
G1 Y23.413
G2 X-19.462 Y24.913 I1.5 J0
G1 X-15.962
G2 X-14.462 Y23.413 I0 J-1.5
G1 Y21.663
G3 X-13.462 Y21.663 I0.5 J0
G1 Y25.413
G3 X-13.962 Y25.913 I-0.5 J0
G1 X-17.298
X-20.162
X-21.462 Z-1.245 F333.3
G3 X-21.962 Y25.413 Z-1.273 I0 J-0.5
G1 Y24.635 Z-1.3
Y21.663 F250
G3 X-20.962 Y21.663 I0.5 J0
G1 Y23.413
G2 X-19.462 Y24.913 I1.5 J0
G1 X-15.962
G2 X-14.462 Y23.413 I0 J-1.5
G1 Y21.663
G3 X-13.462 Y21.663 I0.5 J0
G1 Y25.413
G3 X-13.962 Y25.913 I-0.5 J0
G1 X-20.162
X-21.462
G3 X-21.962 Y25.413 I0 J-0.5
G1 Y24.635
X-21.956 Y24.577 Z-1.289
X-21.94 Y24.523 Z-1.277
X-21.918 Y24.479 Z-1.245
X-21.89 Y24.44 Z-1.212
X-21.842 Y24.395 Z-1.115
X-21.824 Y24.382 Z-1
G0 Z23
X-17.727 Y18.354
Z21
G1 Z3.5 F250
Z1.2 F200
X-17.748 Y18.361 Z1.085
X-17.812 Y18.372 Z0.988
X-17.861 Y18.371 Z0.955
X-17.909 Y18.363 Z0.923
X-17.963 Y18.343 Z0.911
X-18.011 Y18.313 Z0.9
G3 X-17.412 Y17.513 I0.3 J-0.4 F250
X-18.011 Y18.313 I-0.3 J0.4
X-17.412 Y17.513 Z0.845 I0.3 J-0.4 F333.3
X-17.755 Y18.411 Z0.8 I-0.3 J0.4
X-17.668 Y17.415 I0.044 J-0.498 F250
X-17.755 Y18.411 I-0.044 J0.498
X-17.668 Y17.415 Z0.745 I0.044 J-0.498 F333.3
X-17.486 Y18.359 Z0.7 I-0.044 J0.498
X-17.937 Y17.467 I-0.226 J-0.446 F250
X-17.486 Y18.359 I0.226 J0.446
X-17.937 Y17.467 Z0.645 I-0.226 J-0.446 F333.3
X-17.284 Y18.173 Z0.6 I0.226 J0.446
X-18.139 Y17.653 I-0.427 J-0.26 F250
X-17.284 Y18.173 I0.427 J0.26
X-18.139 Y17.653 Z0.545 I-0.427 J-0.26 F333.3
X-17.212 Y17.908 Z0.5 I0.427 J0.26
X-18.211 Y17.918 I-0.5 J0.005 F250
X-17.212 Y17.908 I0.5 J-0.005
X-18.211 Y17.918 Z0.445 I-0.5 J0.005 F333.3
X-17.289 Y17.645 Z0.4 I0.5 J-0.005
X-18.134 Y18.181 I-0.422 J0.268 F250
X-17.289 Y17.645 I0.422 J-0.268
X-18.134 Y18.181 Z0.345 I-0.422 J0.268 F333.3
X-17.494 Y17.463 Z0.3 I0.422 J-0.268
X-17.929 Y18.363 I-0.217 J0.45 F250
X-17.494 Y17.463 I0.217 J-0.45
X-17.929 Y18.363 Z0.245 I-0.217 J0.45 F333.3
X-17.765 Y17.416 Z0.2 I0.217 J-0.45
X-17.658 Y18.41 I0.053 J0.497 F250
X-17.765 Y17.416 I-0.053 J-0.497
X-17.658 Y18.41 Z0.145 I0.053 J0.497 F333.3
X-18.019 Y17.519 Z0.1 I-0.053 J-0.497
X-17.404 Y18.307 I0.307 J0.394 F250
X-18.019 Y17.519 I-0.307 J-0.394
X-17.404 Y18.307 Z0.045 I0.307 J0.394 F333.3
X-18.181 Y17.74 Z0 I-0.307 J-0.394
X-17.242 Y18.086 I0.469 J0.173 F250
X-18.181 Y17.74 I-0.469 J-0.173
X-17.242 Y18.086 Z-0.055 I0.469 J0.173 F333.3
X-18.201 Y18.014 Z-0.1 I-0.469 J-0.173
X-17.222 Y17.812 I0.49 J-0.101 F250
X-18.201 Y18.014 I-0.49 J0.101
X-17.222 Y17.812 Z-0.155 I0.49 J-0.101 F333.3
X-18.074 Y18.257 Z-0.2 I-0.49 J0.101
X-17.349 Y17.569 I0.363 J-0.344 F250
X-18.074 Y18.257 I-0.363 J0.344
X-17.349 Y17.569 Z-0.255 I0.363 J-0.344 F333.3
X-17.838 Y18.397 Z-0.3 I-0.363 J0.344
X-17.585 Y17.429 I0.126 J-0.484 F250
X-17.838 Y18.397 I-0.126 J0.484
X-17.585 Y17.429 Z-0.355 I0.126 J-0.484 F333.3
X-17.564 Y18.39 Z-0.4 I-0.126 J0.484
X-17.859 Y17.435 I-0.148 J-0.478 F250
X-17.564 Y18.39 I0.148 J0.478
X-17.859 Y17.435 Z-0.455 I-0.148 J-0.478 F333.3
X-17.334 Y18.24 Z-0.5 I0.148 J0.478
X-18.089 Y17.585 I-0.378 J-0.328 F250
X-17.334 Y18.24 I0.378 J0.328
X-18.089 Y17.585 Z-0.555 I-0.378 J-0.328 F333.3
X-17.218 Y17.992 Z-0.6 I0.378 J0.328
X-18.205 Y17.834 I-0.494 J-0.079 F250
X-17.218 Y17.992 I0.494 J0.079
X-18.205 Y17.834 Z-0.655 I-0.494 J-0.079 F333.3
X-17.25 Y17.719 Z-0.7 I0.494 J0.079
X-18.173 Y18.106 I-0.461 J0.194 F250
X-17.25 Y17.719 I0.461 J-0.194
X-18.173 Y18.106 Z-0.755 I-0.461 J0.194 F333.3
X-17.422 Y17.505 Z-0.8 I0.461 J-0.194
X-18.001 Y18.321 I-0.289 J0.408 F250
X-17.422 Y17.505 I0.289 J-0.408
X-18.001 Y18.321 Z-0.855 I-0.289 J0.408 F333.3
X-17.681 Y17.414 Z-0.9 I0.289 J-0.408
X-17.742 Y18.412 I-0.031 J0.499 F250
X-17.681 Y17.414 I0.031 J-0.499
X-17.742 Y18.412 Z-0.955 I-0.031 J0.499 F333.3
X-17.949 Y17.473 Z-1 I0.031 J-0.499
X-17.474 Y18.353 I0.237 J0.44 F250
X-17.949 Y17.473 I-0.237 J-0.44
X-17.474 Y18.353 Z-1.055 I0.237 J0.44 F333.3
X-18.145 Y17.664 Z-1.1 I-0.237 J-0.44
X-17.278 Y18.162 I0.434 J0.249 F250
X-18.145 Y17.664 I-0.434 J-0.249
X-17.278 Y18.162 Z-1.155 I0.434 J0.249 F333.3
X-18.211 Y17.931 Z-1.2 I-0.434 J-0.249
X-17.212 Y17.895 I0.5 J-0.018 F250
X-18.211 Y17.931 I-0.5 J0.018
X-17.212 Y17.895 Z-1.255 I0.5 J-0.018 F333.3
X-18.127 Y18.192 Z-1.3 I-0.5 J0.018
X-17.296 Y17.634 I0.415 J-0.279 F250
X-18.127 Y18.192 I-0.415 J0.279
G1 X-18.154 Y18.141 Z-1.289
X-18.171 Y18.087 Z-1.277
X-18.177 Y18.038 Z-1.245
X-18.176 Y17.99 Z-1.212
X-18.161 Y17.927 Z-1.115
X-18.153 Y17.905 Z-1
G0 Z23
X18.93 Y22.826
Z21
G1 Z3.8 F250
X18.898 Y22.848 Z3.653 F333.3
X18.808 Y22.903 Z3.544
X18.678 Y22.968 Z3.5
G3 X17.536 Y20.357 Z3.344 I-0.571 J-1.306
X18.678 Y22.968 Z3.187 I0.571 J1.306
X17.536 Y20.357 Z3.031 I-0.571 J-1.306
X18.678 Y22.968 Z2.875 I0.571 J1.306
X17.536 Y20.357 Z2.718 I-0.571 J-1.306
X18.678 Y22.968 Z2.562 I0.571 J1.306
X17.536 Y20.357 Z2.406 I-0.571 J-1.306
X18.678 Y22.968 Z2.249 I0.571 J1.306
X17.536 Y20.357 Z2.093 I-0.571 J-1.306
X18.678 Y22.968 Z1.937 I0.571 J1.306
X17.536 Y20.357 Z1.78 I-0.571 J-1.306
X18.678 Y22.968 Z1.624 I0.571 J1.306
X17.536 Y20.357 Z1.468 I-0.571 J-1.306
X18.678 Y22.968 Z1.311 I0.571 J1.306
X17.536 Y20.357 Z1.155 I-0.571 J-1.306
X18.678 Y22.968 Z0.999 I0.571 J1.306
X16.682 Y21.663 Z0.9 I-0.571 J-1.306
G1 Y21.376 F250
G3 X17.002 Y21.057 I0.319 J0
G1 X17.575
G3 X17.895 Y21.376 I0 J0.319
G1 Y21.95
G3 X17.575 Y22.269 I-0.319 J0
G1 X17.002
G3 X16.682 Y21.95 I0 J-0.319
G1 Y21.663
G2 X16.219 Y20.773 I-1.087 J0
G3 X16.521 Y19.815 I0.302 J-0.431
G1 X18.823
G3 X19.136 Y20.128 I0 J0.313
G1 Y23.197
G3 X18.823 Y23.51 I-0.313 J0
G1 X15.754
G3 X15.441 Y23.197 I0 J-0.313
G1 Y20.128
G3 X15.754 Y19.815 I0.313 J0
G1 X16.521
G2 X18.322 Y18.614 I0 J-1.952
G3 X20.124 Y17.413 I1.802 J0.751
G1 X20.21
G2 X21.271 Y16.974 I0 J-1.5
G1 X23.185 Y15.059
G3 X23.892 Y15.766 I0.354 J0.354
G1 X21.978 Y17.681
G2 X21.538 Y18.741 I1.061 J1.061
G1 Y24.584
G2 X21.978 Y25.645 I1.5 J0
G1 X23.892 Y27.559
G3 X23.185 Y28.266 I-0.354 J0.354
G1 X21.271 Y26.352
G2 X20.21 Y25.913 I-1.061 J1.061
G1 X14.367
G2 X13.306 Y26.352 I0 J1.5
G1 X11.392 Y28.266
G3 X10.685 Y27.559 I-0.354 J-0.354
G1 X12.599 Y25.645
G2 X13.038 Y24.584 I-1.061 J-1.061
G1 Y18.741
G2 X12.599 Y17.681 I-1.5 J0
G1 X10.685 Y15.766
G3 X11.392 Y15.059 I0.354 J-0.354
G1 X13.306 Y16.974
G2 X14.367 Y17.413 I1.061 J-1.061
G1 X20.124
G3 X20.359 Y17.9 I0 J0.3 F333.3
G1 X17.217 Y21.85 Z0.8
G3 X16.682 Y21.663 I-0.235 J-0.187
G1 Y21.376 F250
G3 X17.002 Y21.057 I0.319 J0
G1 X17.575
G3 X17.895 Y21.376 I0 J0.319
G1 Y21.95
G3 X17.575 Y22.269 I-0.319 J0
G1 X17.002
G3 X16.682 Y21.95 I0 J-0.319
G1 Y21.663
G2 X16.219 Y20.773 I-1.087 J0
G3 X16.521 Y19.815 I0.302 J-0.431
G1 X18.823
G3 X19.136 Y20.128 I0 J0.313
G1 Y23.197
G3 X18.823 Y23.51 I-0.313 J0
G1 X15.754
G3 X15.441 Y23.197 I0 J-0.313
G1 Y20.128
G3 X15.754 Y19.815 I0.313 J0
G1 X16.521
G2 X18.322 Y18.614 I0 J-1.952
G3 X20.124 Y17.413 I1.802 J0.751
G1 X20.21
G2 X21.271 Y16.974 I0 J-1.5
G1 X23.185 Y15.059
G3 X23.892 Y15.766 I0.354 J0.354
G1 X21.978 Y17.681
G2 X21.538 Y18.741 I1.061 J1.061
G1 Y24.584
G2 X21.978 Y25.645 I1.5 J0
G1 X23.892 Y27.559
G3 X23.185 Y28.266 I-0.354 J0.354
G1 X21.271 Y26.352
G2 X20.21 Y25.913 I-1.061 J1.061
G1 X14.367
G2 X13.306 Y26.352 I0 J1.5
G1 X11.392 Y28.266
G3 X10.685 Y27.559 I-0.354 J-0.354
G1 X12.599 Y25.645
G2 X13.038 Y24.584 I-1.061 J-1.061
G1 Y18.741
G2 X12.599 Y17.681 I-1.5 J0
G1 X10.685 Y15.766
G3 X11.392 Y15.059 I0.354 J-0.354
G1 X13.306 Y16.974
G2 X14.367 Y17.413 I1.061 J-1.061
G1 X20.124
G3 X20.359 Y17.9 I0 J0.3 F333.3
G1 X17.217 Y21.85 Z0.7
G3 X16.682 Y21.663 I-0.235 J-0.187
G1 Y21.376 F250
G3 X17.002 Y21.057 I0.319 J0
G1 X17.575
G3 X17.895 Y21.376 I0 J0.319
G1 Y21.95
G3 X17.575 Y22.269 I-0.319 J0
G1 X17.002
G3 X16.682 Y21.95 I0 J-0.319
G1 Y21.663
G2 X16.219 Y20.773 I-1.087 J0
G3 X16.521 Y19.815 I0.302 J-0.431
G1 X18.823
G3 X19.136 Y20.128 I0 J0.313
G1 Y23.197
G3 X18.823 Y23.51 I-0.313 J0
G1 X15.754
G3 X15.441 Y23.197 I0 J-0.313
G1 Y20.128
G3 X15.754 Y19.815 I0.313 J0
G1 X16.521
G2 X18.322 Y18.614 I0 J-1.952
G3 X20.124 Y17.413 I1.802 J0.751
G1 X20.21
G2 X21.271 Y16.974 I0 J-1.5
G1 X23.185 Y15.059
G3 X23.892 Y15.766 I0.354 J0.354
G1 X21.978 Y17.681
G2 X21.538 Y18.741 I1.061 J1.061
G1 Y24.584
G2 X21.978 Y25.645 I1.5 J0
G1 X23.892 Y27.559
G3 X23.185 Y28.266 I-0.354 J0.354
G1 X21.271 Y26.352
G2 X20.21 Y25.913 I-1.061 J1.061
G1 X14.367
G2 X13.306 Y26.352 I0 J1.5
G1 X11.392 Y28.266
G3 X10.685 Y27.559 I-0.354 J-0.354
G1 X12.599 Y25.645
G2 X13.038 Y24.584 I-1.061 J-1.061
G1 Y18.741
G2 X12.599 Y17.681 I-1.5 J0
G1 X10.685 Y15.766
G3 X11.392 Y15.059 I0.354 J-0.354
G1 X13.306 Y16.974
G2 X14.367 Y17.413 I1.061 J-1.061
G1 X20.124
G3 X20.359 Y17.9 I0 J0.3 F333.3
G1 X17.217 Y21.85 Z0.6
G3 X16.682 Y21.663 I-0.235 J-0.187
G1 Y21.376 F250
G3 X17.002 Y21.057 I0.319 J0
G1 X17.575
G3 X17.895 Y21.376 I0 J0.319
G1 Y21.95
G3 X17.575 Y22.269 I-0.319 J0
G1 X17.002
G3 X16.682 Y21.95 I0 J-0.319
G1 Y21.663
G2 X16.219 Y20.773 I-1.087 J0
G3 X16.521 Y19.815 I0.302 J-0.431
G1 X18.823
G3 X19.136 Y20.128 I0 J0.313
G1 Y23.197
G3 X18.823 Y23.51 I-0.313 J0
G1 X15.754
G3 X15.441 Y23.197 I0 J-0.313
G1 Y20.128
G3 X15.754 Y19.815 I0.313 J0
G1 X16.521
G2 X18.322 Y18.614 I0 J-1.952
G3 X20.124 Y17.413 I1.802 J0.751
G1 X20.21
G2 X21.271 Y16.974 I0 J-1.5
G1 X23.185 Y15.059
G3 X23.892 Y15.766 I0.354 J0.354
G1 X21.978 Y17.681
G2 X21.538 Y18.741 I1.061 J1.061
G1 Y24.584
G2 X21.978 Y25.645 I1.5 J0
G1 X23.892 Y27.559
G3 X23.185 Y28.266 I-0.354 J0.354
G1 X21.271 Y26.352
G2 X20.21 Y25.913 I-1.061 J1.061
G1 X14.367
G2 X13.306 Y26.352 I0 J1.5
G1 X11.392 Y28.266
G3 X10.685 Y27.559 I-0.354 J-0.354
G1 X12.599 Y25.645
G2 X13.038 Y24.584 I-1.061 J-1.061
G1 Y18.741
G2 X12.599 Y17.681 I-1.5 J0
G1 X10.685 Y15.766
G3 X11.392 Y15.059 I0.354 J-0.354
G1 X13.306 Y16.974
G2 X14.367 Y17.413 I1.061 J-1.061
G1 X20.124
G3 X20.359 Y17.9 I0 J0.3 F333.3
G1 X17.217 Y21.85 Z0.5
G3 X16.682 Y21.663 I-0.235 J-0.187
G1 Y21.376 F250
G3 X17.002 Y21.057 I0.319 J0
G1 X17.575
G3 X17.895 Y21.376 I0 J0.319
G1 Y21.95
G3 X17.575 Y22.269 I-0.319 J0
G1 X17.002
G3 X16.682 Y21.95 I0 J-0.319
G1 Y21.663
G2 X16.219 Y20.773 I-1.087 J0
G3 X16.521 Y19.815 I0.302 J-0.431
G1 X18.823
G3 X19.136 Y20.128 I0 J0.313
G1 Y23.197
G3 X18.823 Y23.51 I-0.313 J0
G1 X15.754
G3 X15.441 Y23.197 I0 J-0.313
G1 Y20.128
G3 X15.754 Y19.815 I0.313 J0
G1 X16.521
G2 X18.322 Y18.614 I0 J-1.952
G3 X20.124 Y17.413 I1.802 J0.751
G1 X20.21
G2 X21.271 Y16.974 I0 J-1.5
G1 X23.185 Y15.059
G3 X23.892 Y15.766 I0.354 J0.354
G1 X21.978 Y17.681
G2 X21.538 Y18.741 I1.061 J1.061
G1 Y24.584
G2 X21.978 Y25.645 I1.5 J0
G1 X23.892 Y27.559
G3 X23.185 Y28.266 I-0.354 J0.354
G1 X21.271 Y26.352
G2 X20.21 Y25.913 I-1.061 J1.061
G1 X14.367
G2 X13.306 Y26.352 I0 J1.5
G1 X11.392 Y28.266
G3 X10.685 Y27.559 I-0.354 J-0.354
G1 X12.599 Y25.645
G2 X13.038 Y24.584 I-1.061 J-1.061
G1 Y18.741
G2 X12.599 Y17.681 I-1.5 J0
G1 X10.685 Y15.766
G3 X11.392 Y15.059 I0.354 J-0.354
G1 X13.306 Y16.974
G2 X14.367 Y17.413 I1.061 J-1.061
G1 X20.124
G3 X20.359 Y17.9 I0 J0.3 F333.3
G1 X17.217 Y21.85 Z0.4
G3 X16.682 Y21.663 I-0.235 J-0.187
G1 Y21.376 F250
G3 X17.002 Y21.057 I0.319 J0
G1 X17.575
G3 X17.895 Y21.376 I0 J0.319
G1 Y21.95
G3 X17.575 Y22.269 I-0.319 J0
G1 X17.002
G3 X16.682 Y21.95 I0 J-0.319
G1 Y21.663
G2 X16.219 Y20.773 I-1.087 J0
G3 X16.521 Y19.815 I0.302 J-0.431
G1 X18.823
G3 X19.136 Y20.128 I0 J0.313
G1 Y23.197
G3 X18.823 Y23.51 I-0.313 J0
G1 X15.754
G3 X15.441 Y23.197 I0 J-0.313
G1 Y20.128
G3 X15.754 Y19.815 I0.313 J0
G1 X16.521
G2 X18.322 Y18.614 I0 J-1.952
G3 X20.124 Y17.413 I1.802 J0.751
G1 X20.21
G2 X21.271 Y16.974 I0 J-1.5
G1 X23.185 Y15.059
G3 X23.892 Y15.766 I0.354 J0.354
G1 X21.978 Y17.681
G2 X21.538 Y18.741 I1.061 J1.061
G1 Y24.584
G2 X21.978 Y25.645 I1.5 J0
G1 X23.892 Y27.559
G3 X23.185 Y28.266 I-0.354 J0.354
G1 X21.271 Y26.352
G2 X20.21 Y25.913 I-1.061 J1.061
G1 X14.367
G2 X13.306 Y26.352 I0 J1.5
G1 X11.392 Y28.266
G3 X10.685 Y27.559 I-0.354 J-0.354
G1 X12.599 Y25.645
G2 X13.038 Y24.584 I-1.061 J-1.061
G1 Y18.741
G2 X12.599 Y17.681 I-1.5 J0
G1 X10.685 Y15.766
G3 X11.392 Y15.059 I0.354 J-0.354
G1 X13.306 Y16.974
G2 X14.367 Y17.413 I1.061 J-1.061
G1 X20.124
G3 X20.359 Y17.9 I0 J0.3 F333.3
G1 X17.217 Y21.85 Z0.3
G3 X16.682 Y21.663 I-0.235 J-0.187
G1 Y21.376 F250
G3 X17.002 Y21.057 I0.319 J0
G1 X17.575
G3 X17.895 Y21.376 I0 J0.319
G1 Y21.95
G3 X17.575 Y22.269 I-0.319 J0
G1 X17.002
G3 X16.682 Y21.95 I0 J-0.319
G1 Y21.663
G2 X16.219 Y20.773 I-1.087 J0
G3 X16.521 Y19.815 I0.302 J-0.431
G1 X18.823
G3 X19.136 Y20.128 I0 J0.313
G1 Y23.197
G3 X18.823 Y23.51 I-0.313 J0
G1 X15.754
G3 X15.441 Y23.197 I0 J-0.313
G1 Y20.128
G3 X15.754 Y19.815 I0.313 J0
G1 X16.521
G2 X18.322 Y18.614 I0 J-1.952
G3 X20.124 Y17.413 I1.802 J0.751
G1 X20.21
G2 X21.271 Y16.974 I0 J-1.5
G1 X23.185 Y15.059
G3 X23.892 Y15.766 I0.354 J0.354
G1 X21.978 Y17.681
G2 X21.538 Y18.741 I1.061 J1.061
G1 Y24.584
G2 X21.978 Y25.645 I1.5 J0
G1 X23.892 Y27.559
G3 X23.185 Y28.266 I-0.354 J0.354
G1 X21.271 Y26.352
G2 X20.21 Y25.913 I-1.061 J1.061
G1 X14.367
G2 X13.306 Y26.352 I0 J1.5
G1 X11.392 Y28.266
G3 X10.685 Y27.559 I-0.354 J-0.354
G1 X12.599 Y25.645
G2 X13.038 Y24.584 I-1.061 J-1.061
G1 Y18.741
G2 X12.599 Y17.681 I-1.5 J0
G1 X10.685 Y15.766
G3 X11.392 Y15.059 I0.354 J-0.354
G1 X13.306 Y16.974
G2 X14.367 Y17.413 I1.061 J-1.061
G1 X20.124
G3 X20.359 Y17.9 I0 J0.3 F333.3
G1 X17.217 Y21.85 Z0.2
G3 X16.682 Y21.663 I-0.235 J-0.187
G1 Y21.376 F250
G3 X17.002 Y21.057 I0.319 J0
G1 X17.575
G3 X17.895 Y21.376 I0 J0.319
G1 Y21.95
G3 X17.575 Y22.269 I-0.319 J0
G1 X17.002
G3 X16.682 Y21.95 I0 J-0.319
G1 Y21.663
G2 X16.219 Y20.773 I-1.087 J0
G3 X16.521 Y19.815 I0.302 J-0.431
G1 X18.823
G3 X19.136 Y20.128 I0 J0.313
G1 Y23.197
G3 X18.823 Y23.51 I-0.313 J0
G1 X15.754
G3 X15.441 Y23.197 I0 J-0.313
G1 Y20.128
G3 X15.754 Y19.815 I0.313 J0
G1 X16.521
G2 X18.322 Y18.614 I0 J-1.952
G3 X20.124 Y17.413 I1.802 J0.751
G1 X20.21
G2 X21.271 Y16.974 I0 J-1.5
G1 X23.185 Y15.059
G3 X23.892 Y15.766 I0.354 J0.354
G1 X21.978 Y17.681
G2 X21.538 Y18.741 I1.061 J1.061
G1 Y24.584
G2 X21.978 Y25.645 I1.5 J0
G1 X23.892 Y27.559
G3 X23.185 Y28.266 I-0.354 J0.354
G1 X21.271 Y26.352
G2 X20.21 Y25.913 I-1.061 J1.061
G1 X14.367
G2 X13.306 Y26.352 I0 J1.5
G1 X11.392 Y28.266
G3 X10.685 Y27.559 I-0.354 J-0.354
G1 X12.599 Y25.645
G2 X13.038 Y24.584 I-1.061 J-1.061
G1 Y18.741
G2 X12.599 Y17.681 I-1.5 J0
G1 X10.685 Y15.766
G3 X11.392 Y15.059 I0.354 J-0.354
G1 X13.306 Y16.974
G2 X14.367 Y17.413 I1.061 J-1.061
G1 X20.124
G3 X20.359 Y17.9 I0 J0.3 F333.3
G1 X17.217 Y21.85 Z0.1
G3 X16.682 Y21.663 I-0.235 J-0.187
G1 Y21.376 F250
G3 X17.002 Y21.057 I0.319 J0
G1 X17.575
G3 X17.895 Y21.376 I0 J0.319
G1 Y21.95
G3 X17.575 Y22.269 I-0.319 J0
G1 X17.002
G3 X16.682 Y21.95 I0 J-0.319
G1 Y21.663
G2 X16.219 Y20.773 I-1.087 J0
G3 X16.521 Y19.815 I0.302 J-0.431
G1 X18.823
G3 X19.136 Y20.128 I0 J0.313
G1 Y23.197
G3 X18.823 Y23.51 I-0.313 J0
G1 X15.754
G3 X15.441 Y23.197 I0 J-0.313
G1 Y20.128
G3 X15.754 Y19.815 I0.313 J0
G1 X16.521
G2 X18.322 Y18.614 I0 J-1.952
G3 X20.124 Y17.413 I1.802 J0.751
G1 X20.21
G2 X21.271 Y16.974 I0 J-1.5
G1 X23.185 Y15.059
G3 X23.892 Y15.766 I0.354 J0.354
G1 X21.978 Y17.681
G2 X21.538 Y18.741 I1.061 J1.061
G1 Y24.584
G2 X21.978 Y25.645 I1.5 J0
G1 X23.892 Y27.559
G3 X23.185 Y28.266 I-0.354 J0.354
G1 X21.271 Y26.352
G2 X20.21 Y25.913 I-1.061 J1.061
G1 X14.367
G2 X13.306 Y26.352 I0 J1.5
G1 X11.392 Y28.266
G3 X10.685 Y27.559 I-0.354 J-0.354
G1 X12.599 Y25.645
G2 X13.038 Y24.584 I-1.061 J-1.061
G1 Y18.741
G2 X12.599 Y17.681 I-1.5 J0
G1 X10.685 Y15.766
G3 X11.392 Y15.059 I0.354 J-0.354
G1 X13.306 Y16.974
G2 X14.367 Y17.413 I1.061 J-1.061
G1 X20.124
G3 X20.359 Y17.9 I0 J0.3 F333.3
G1 X17.217 Y21.85 Z0
G3 X16.682 Y21.663 I-0.235 J-0.187
G1 Y21.376 F250
G3 X17.002 Y21.057 I0.319 J0
G1 X17.575
G3 X17.895 Y21.376 I0 J0.319
G1 Y21.95
G3 X17.575 Y22.269 I-0.319 J0
G1 X17.002
G3 X16.682 Y21.95 I0 J-0.319
G1 Y21.663
G2 X16.219 Y20.773 I-1.087 J0
G3 X16.521 Y19.815 I0.302 J-0.431
G1 X18.823
G3 X19.136 Y20.128 I0 J0.313
G1 Y23.197
G3 X18.823 Y23.51 I-0.313 J0
G1 X15.754
G3 X15.441 Y23.197 I0 J-0.313
G1 Y20.128
G3 X15.754 Y19.815 I0.313 J0
G1 X16.521
G2 X18.322 Y18.614 I0 J-1.952
G3 X20.124 Y17.413 I1.802 J0.751
G1 X20.21
G2 X21.271 Y16.974 I0 J-1.5
G1 X23.185 Y15.059
G3 X23.892 Y15.766 I0.354 J0.354
G1 X21.978 Y17.681
G2 X21.538 Y18.741 I1.061 J1.061
G1 Y24.584
G2 X21.978 Y25.645 I1.5 J0
G1 X23.892 Y27.559
G3 X23.185 Y28.266 I-0.354 J0.354
G1 X21.271 Y26.352
G2 X20.21 Y25.913 I-1.061 J1.061
G1 X14.367
G2 X13.306 Y26.352 I0 J1.5
G1 X11.392 Y28.266
G3 X10.685 Y27.559 I-0.354 J-0.354
G1 X12.599 Y25.645
G2 X13.038 Y24.584 I-1.061 J-1.061
G1 Y18.741
G2 X12.599 Y17.681 I-1.5 J0
G1 X10.685 Y15.766
G3 X11.392 Y15.059 I0.354 J-0.354
G1 X13.306 Y16.974
G2 X14.367 Y17.413 I1.061 J-1.061
G1 X20.124
G3 X20.359 Y17.9 I0 J0.3 F333.3
G1 X17.217 Y21.85 Z-0.1
G3 X16.682 Y21.663 I-0.235 J-0.187
G1 Y21.376 F250
G3 X17.002 Y21.057 I0.319 J0
G1 X17.575
G3 X17.895 Y21.376 I0 J0.319
G1 Y21.95
G3 X17.575 Y22.269 I-0.319 J0
G1 X17.002
G3 X16.682 Y21.95 I0 J-0.319
G1 Y21.663
G2 X16.219 Y20.773 I-1.087 J0
G3 X16.521 Y19.815 I0.302 J-0.431
G1 X18.823
G3 X19.136 Y20.128 I0 J0.313
G1 Y23.197
G3 X18.823 Y23.51 I-0.313 J0
G1 X15.754
G3 X15.441 Y23.197 I0 J-0.313
G1 Y20.128
G3 X15.754 Y19.815 I0.313 J0
G1 X16.521
G2 X18.322 Y18.614 I0 J-1.952
G3 X20.124 Y17.413 I1.802 J0.751
G1 X20.21
G2 X21.271 Y16.974 I0 J-1.5
G1 X23.185 Y15.059
G3 X23.892 Y15.766 I0.354 J0.354
G1 X21.978 Y17.681
G2 X21.538 Y18.741 I1.061 J1.061
G1 Y24.584
G2 X21.978 Y25.645 I1.5 J0
G1 X23.892 Y27.559
G3 X23.185 Y28.266 I-0.354 J0.354
G1 X21.271 Y26.352
G2 X20.21 Y25.913 I-1.061 J1.061
G1 X14.367
G2 X13.306 Y26.352 I0 J1.5
G1 X11.392 Y28.266
G3 X10.685 Y27.559 I-0.354 J-0.354
G1 X12.599 Y25.645
G2 X13.038 Y24.584 I-1.061 J-1.061
G1 Y18.741
G2 X12.599 Y17.681 I-1.5 J0
G1 X10.685 Y15.766
G3 X11.392 Y15.059 I0.354 J-0.354
G1 X13.306 Y16.974
G2 X14.367 Y17.413 I1.061 J-1.061
G1 X20.124
G3 X20.359 Y17.9 I0 J0.3 F333.3
G1 X17.217 Y21.85 Z-0.2
G3 X16.682 Y21.663 I-0.235 J-0.187
G1 Y21.376 F250
G3 X17.002 Y21.057 I0.319 J0
G1 X17.575
G3 X17.895 Y21.376 I0 J0.319
G1 Y21.95
G3 X17.575 Y22.269 I-0.319 J0
G1 X17.002
G3 X16.682 Y21.95 I0 J-0.319
G1 Y21.663
G2 X16.219 Y20.773 I-1.087 J0
G3 X16.521 Y19.815 I0.302 J-0.431
G1 X18.823
G3 X19.136 Y20.128 I0 J0.313
G1 Y23.197
G3 X18.823 Y23.51 I-0.313 J0
G1 X15.754
G3 X15.441 Y23.197 I0 J-0.313
G1 Y20.128
G3 X15.754 Y19.815 I0.313 J0
G1 X16.521
G2 X18.322 Y18.614 I0 J-1.952
G3 X20.124 Y17.413 I1.802 J0.751
G1 X20.21
G2 X21.271 Y16.974 I0 J-1.5
G1 X23.185 Y15.059
G3 X23.892 Y15.766 I0.354 J0.354
G1 X21.978 Y17.681
G2 X21.538 Y18.741 I1.061 J1.061
G1 Y24.584
G2 X21.978 Y25.645 I1.5 J0
G1 X23.892 Y27.559
G3 X23.185 Y28.266 I-0.354 J0.354
G1 X21.271 Y26.352
G2 X20.21 Y25.913 I-1.061 J1.061
G1 X14.367
G2 X13.306 Y26.352 I0 J1.5
G1 X11.392 Y28.266
G3 X10.685 Y27.559 I-0.354 J-0.354
G1 X12.599 Y25.645
G2 X13.038 Y24.584 I-1.061 J-1.061
G1 Y18.741
G2 X12.599 Y17.681 I-1.5 J0
G1 X10.685 Y15.766
G3 X11.392 Y15.059 I0.354 J-0.354
G1 X13.306 Y16.974
G2 X14.367 Y17.413 I1.061 J-1.061
G1 X20.124
G3 X20.359 Y17.9 I0 J0.3 F333.3
G1 X17.217 Y21.85 Z-0.3
G3 X16.682 Y21.663 I-0.235 J-0.187
G1 Y21.376 F250
G3 X17.002 Y21.057 I0.319 J0
G1 X17.575
G3 X17.895 Y21.376 I0 J0.319
G1 Y21.95
G3 X17.575 Y22.269 I-0.319 J0
G1 X17.002
G3 X16.682 Y21.95 I0 J-0.319
G1 Y21.663
G2 X16.219 Y20.773 I-1.087 J0
G3 X16.521 Y19.815 I0.302 J-0.431
G1 X18.823
G3 X19.136 Y20.128 I0 J0.313
G1 Y23.197
G3 X18.823 Y23.51 I-0.313 J0
G1 X15.754
G3 X15.441 Y23.197 I0 J-0.313
G1 Y20.128
G3 X15.754 Y19.815 I0.313 J0
G1 X16.521
G2 X18.322 Y18.614 I0 J-1.952
G3 X20.124 Y17.413 I1.802 J0.751
G1 X20.21
G2 X21.271 Y16.974 I0 J-1.5
G1 X23.185 Y15.059
G3 X23.892 Y15.766 I0.354 J0.354
G1 X21.978 Y17.681
G2 X21.538 Y18.741 I1.061 J1.061
G1 Y24.584
G2 X21.978 Y25.645 I1.5 J0
G1 X23.892 Y27.559
G3 X23.185 Y28.266 I-0.354 J0.354
G1 X21.271 Y26.352
G2 X20.21 Y25.913 I-1.061 J1.061
G1 X14.367
G2 X13.306 Y26.352 I0 J1.5
G1 X11.392 Y28.266
G3 X10.685 Y27.559 I-0.354 J-0.354
G1 X12.599 Y25.645
G2 X13.038 Y24.584 I-1.061 J-1.061
G1 Y18.741
G2 X12.599 Y17.681 I-1.5 J0
G1 X10.685 Y15.766
G3 X11.392 Y15.059 I0.354 J-0.354
G1 X13.306 Y16.974
G2 X14.367 Y17.413 I1.061 J-1.061
G1 X20.124
G3 X20.359 Y17.9 I0 J0.3 F333.3
G1 X17.217 Y21.85 Z-0.4
G3 X16.682 Y21.663 I-0.235 J-0.187
G1 Y21.376 F250
G3 X17.002 Y21.057 I0.319 J0
G1 X17.575
G3 X17.895 Y21.376 I0 J0.319
G1 Y21.95
G3 X17.575 Y22.269 I-0.319 J0
G1 X17.002
G3 X16.682 Y21.95 I0 J-0.319
G1 Y21.663
G2 X16.219 Y20.773 I-1.087 J0
G3 X16.521 Y19.815 I0.302 J-0.431
G1 X18.823
G3 X19.136 Y20.128 I0 J0.313
G1 Y23.197
G3 X18.823 Y23.51 I-0.313 J0
G1 X15.754
G3 X15.441 Y23.197 I0 J-0.313
G1 Y20.128
G3 X15.754 Y19.815 I0.313 J0
G1 X16.521
G2 X18.322 Y18.614 I0 J-1.952
G3 X20.124 Y17.413 I1.802 J0.751
G1 X20.21
G2 X21.271 Y16.974 I0 J-1.5
G1 X23.185 Y15.059
G3 X23.892 Y15.766 I0.354 J0.354
G1 X21.978 Y17.681
G2 X21.538 Y18.741 I1.061 J1.061
G1 Y24.584
G2 X21.978 Y25.645 I1.5 J0
G1 X23.892 Y27.559
G3 X23.185 Y28.266 I-0.354 J0.354
G1 X21.271 Y26.352
G2 X20.21 Y25.913 I-1.061 J1.061
G1 X14.367
G2 X13.306 Y26.352 I0 J1.5
G1 X11.392 Y28.266
G3 X10.685 Y27.559 I-0.354 J-0.354
G1 X12.599 Y25.645
G2 X13.038 Y24.584 I-1.061 J-1.061
G1 Y18.741
G2 X12.599 Y17.681 I-1.5 J0
G1 X10.685 Y15.766
G3 X11.392 Y15.059 I0.354 J-0.354
G1 X13.306 Y16.974
G2 X14.367 Y17.413 I1.061 J-1.061
G1 X20.124
G3 X20.359 Y17.9 I0 J0.3 F333.3
G1 X17.217 Y21.85 Z-0.5
G3 X16.682 Y21.663 I-0.235 J-0.187
G1 Y21.376 F250
G3 X17.002 Y21.057 I0.319 J0
G1 X17.575
G3 X17.895 Y21.376 I0 J0.319
G1 Y21.95
G3 X17.575 Y22.269 I-0.319 J0
G1 X17.002
G3 X16.682 Y21.95 I0 J-0.319
G1 Y21.663
G2 X16.219 Y20.773 I-1.087 J0
G3 X16.521 Y19.815 I0.302 J-0.431
G1 X18.823
G3 X19.136 Y20.128 I0 J0.313
G1 Y23.197
G3 X18.823 Y23.51 I-0.313 J0
G1 X15.754
G3 X15.441 Y23.197 I0 J-0.313
G1 Y20.128
G3 X15.754 Y19.815 I0.313 J0
G1 X16.521
G2 X18.322 Y18.614 I0 J-1.952
G3 X20.124 Y17.413 I1.802 J0.751
G1 X20.21
G2 X21.271 Y16.974 I0 J-1.5
G1 X23.185 Y15.059
G3 X23.892 Y15.766 I0.354 J0.354
G1 X21.978 Y17.681
G2 X21.538 Y18.741 I1.061 J1.061
G1 Y24.584
G2 X21.978 Y25.645 I1.5 J0
G1 X23.892 Y27.559
G3 X23.185 Y28.266 I-0.354 J0.354
G1 X21.271 Y26.352
G2 X20.21 Y25.913 I-1.061 J1.061
G1 X14.367
G2 X13.306 Y26.352 I0 J1.5
G1 X11.392 Y28.266
G3 X10.685 Y27.559 I-0.354 J-0.354
G1 X12.599 Y25.645
G2 X13.038 Y24.584 I-1.061 J-1.061
G1 Y18.741
G2 X12.599 Y17.681 I-1.5 J0
G1 X10.685 Y15.766
G3 X11.392 Y15.059 I0.354 J-0.354
G1 X13.306 Y16.974
G2 X14.367 Y17.413 I1.061 J-1.061
G1 X20.124
G3 X20.359 Y17.9 I0 J0.3 F333.3
G1 X17.217 Y21.85 Z-0.6
G3 X16.682 Y21.663 I-0.235 J-0.187
G1 Y21.376 F250
G3 X17.002 Y21.057 I0.319 J0
G1 X17.575
G3 X17.895 Y21.376 I0 J0.319
G1 Y21.95
G3 X17.575 Y22.269 I-0.319 J0
G1 X17.002
G3 X16.682 Y21.95 I0 J-0.319
G1 Y21.663
G2 X16.219 Y20.773 I-1.087 J0
G3 X16.521 Y19.815 I0.302 J-0.431
G1 X18.823
G3 X19.136 Y20.128 I0 J0.313
G1 Y23.197
G3 X18.823 Y23.51 I-0.313 J0
G1 X15.754
G3 X15.441 Y23.197 I0 J-0.313
G1 Y20.128
G3 X15.754 Y19.815 I0.313 J0
G1 X16.521
G2 X18.322 Y18.614 I0 J-1.952
G3 X20.124 Y17.413 I1.802 J0.751
G1 X20.21
G2 X21.271 Y16.974 I0 J-1.5
G1 X23.185 Y15.059
G3 X23.892 Y15.766 I0.354 J0.354
G1 X21.978 Y17.681
G2 X21.538 Y18.741 I1.061 J1.061
G1 Y24.584
G2 X21.978 Y25.645 I1.5 J0
G1 X23.892 Y27.559
G3 X23.185 Y28.266 I-0.354 J0.354
G1 X21.271 Y26.352
G2 X20.21 Y25.913 I-1.061 J1.061
G1 X14.367
G2 X13.306 Y26.352 I0 J1.5
G1 X11.392 Y28.266
G3 X10.685 Y27.559 I-0.354 J-0.354
G1 X12.599 Y25.645
G2 X13.038 Y24.584 I-1.061 J-1.061
G1 Y18.741
G2 X12.599 Y17.681 I-1.5 J0
G1 X10.685 Y15.766
G3 X11.392 Y15.059 I0.354 J-0.354
G1 X13.306 Y16.974
G2 X14.367 Y17.413 I1.061 J-1.061
G1 X20.124
G3 X20.359 Y17.9 I0 J0.3 F333.3
G1 X17.217 Y21.85 Z-0.7
G3 X16.682 Y21.663 I-0.235 J-0.187
G1 Y21.376 F250
G3 X17.002 Y21.057 I0.319 J0
G1 X17.575
G3 X17.895 Y21.376 I0 J0.319
G1 Y21.95
G3 X17.575 Y22.269 I-0.319 J0
G1 X17.002
G3 X16.682 Y21.95 I0 J-0.319
G1 Y21.663
G2 X16.219 Y20.773 I-1.087 J0
G3 X16.521 Y19.815 I0.302 J-0.431
G1 X18.823
G3 X19.136 Y20.128 I0 J0.313
G1 Y23.197
G3 X18.823 Y23.51 I-0.313 J0
G1 X15.754
G3 X15.441 Y23.197 I0 J-0.313
G1 Y20.128
G3 X15.754 Y19.815 I0.313 J0
G1 X16.521
G2 X18.322 Y18.614 I0 J-1.952
G3 X20.124 Y17.413 I1.802 J0.751
G1 X20.21
G2 X21.271 Y16.974 I0 J-1.5
G1 X23.185 Y15.059
G3 X23.892 Y15.766 I0.354 J0.354
G1 X21.978 Y17.681
G2 X21.538 Y18.741 I1.061 J1.061
G1 Y24.584
G2 X21.978 Y25.645 I1.5 J0
G1 X23.892 Y27.559
G3 X23.185 Y28.266 I-0.354 J0.354
G1 X21.271 Y26.352
G2 X20.21 Y25.913 I-1.061 J1.061
G1 X14.367
G2 X13.306 Y26.352 I0 J1.5
G1 X11.392 Y28.266
G3 X10.685 Y27.559 I-0.354 J-0.354
G1 X12.599 Y25.645
G2 X13.038 Y24.584 I-1.061 J-1.061
G1 Y18.741
G2 X12.599 Y17.681 I-1.5 J0
G1 X10.685 Y15.766
G3 X11.392 Y15.059 I0.354 J-0.354
G1 X13.306 Y16.974
G2 X14.367 Y17.413 I1.061 J-1.061
G1 X20.124
G3 X20.359 Y17.9 I0 J0.3 F333.3
G1 X17.217 Y21.85 Z-0.8
G3 X16.682 Y21.663 I-0.235 J-0.187
G1 Y21.376 F250
G3 X17.002 Y21.057 I0.319 J0
G1 X17.575
G3 X17.895 Y21.376 I0 J0.319
G1 Y21.95
G3 X17.575 Y22.269 I-0.319 J0
G1 X17.002
G3 X16.682 Y21.95 I0 J-0.319
G1 Y21.663
G2 X16.219 Y20.773 I-1.087 J0
G3 X16.521 Y19.815 I0.302 J-0.431
G1 X18.823
G3 X19.136 Y20.128 I0 J0.313
G1 Y23.197
G3 X18.823 Y23.51 I-0.313 J0
G1 X15.754
G3 X15.441 Y23.197 I0 J-0.313
G1 Y20.128
G3 X15.754 Y19.815 I0.313 J0
G1 X16.521
G2 X18.322 Y18.614 I0 J-1.952
G3 X20.124 Y17.413 I1.802 J0.751
G1 X20.21
G2 X21.271 Y16.974 I0 J-1.5
G1 X23.185 Y15.059
G3 X23.892 Y15.766 I0.354 J0.354
G1 X21.978 Y17.681
G2 X21.538 Y18.741 I1.061 J1.061
G1 Y24.584
G2 X21.978 Y25.645 I1.5 J0
G1 X23.892 Y27.559
G3 X23.185 Y28.266 I-0.354 J0.354
G1 X21.271 Y26.352
G2 X20.21 Y25.913 I-1.061 J1.061
G1 X14.367
G2 X13.306 Y26.352 I0 J1.5
G1 X11.392 Y28.266
G3 X10.685 Y27.559 I-0.354 J-0.354
G1 X12.599 Y25.645
G2 X13.038 Y24.584 I-1.061 J-1.061
G1 Y18.741
G2 X12.599 Y17.681 I-1.5 J0
G1 X10.685 Y15.766
G3 X11.392 Y15.059 I0.354 J-0.354
G1 X13.306 Y16.974
G2 X14.367 Y17.413 I1.061 J-1.061
G1 X20.124
G3 X20.359 Y17.9 I0 J0.3 F333.3
G1 X17.217 Y21.85 Z-0.9
G3 X16.682 Y21.663 I-0.235 J-0.187
G1 Y21.376 F250
G3 X17.002 Y21.057 I0.319 J0
G1 X17.575
G3 X17.895 Y21.376 I0 J0.319
G1 Y21.95
G3 X17.575 Y22.269 I-0.319 J0
G1 X17.002
G3 X16.682 Y21.95 I0 J-0.319
G1 Y21.663
G2 X16.219 Y20.773 I-1.087 J0
G3 X16.521 Y19.815 I0.302 J-0.431
G1 X18.823
G3 X19.136 Y20.128 I0 J0.313
G1 Y23.197
G3 X18.823 Y23.51 I-0.313 J0
G1 X15.754
G3 X15.441 Y23.197 I0 J-0.313
G1 Y20.128
G3 X15.754 Y19.815 I0.313 J0
G1 X16.521
G2 X18.322 Y18.614 I0 J-1.952
G3 X20.124 Y17.413 I1.802 J0.751
G1 X20.21
G2 X21.271 Y16.974 I0 J-1.5
G1 X23.185 Y15.059
G3 X23.892 Y15.766 I0.354 J0.354
G1 X21.978 Y17.681
G2 X21.538 Y18.741 I1.061 J1.061
G1 Y24.584
G2 X21.978 Y25.645 I1.5 J0
G1 X23.892 Y27.559
G3 X23.185 Y28.266 I-0.354 J0.354
G1 X21.271 Y26.352
G2 X20.21 Y25.913 I-1.061 J1.061
G1 X14.367
G2 X13.306 Y26.352 I0 J1.5
G1 X11.392 Y28.266
G3 X10.685 Y27.559 I-0.354 J-0.354
G1 X12.599 Y25.645
G2 X13.038 Y24.584 I-1.061 J-1.061
G1 Y18.741
G2 X12.599 Y17.681 I-1.5 J0
G1 X10.685 Y15.766
G3 X11.392 Y15.059 I0.354 J-0.354
G1 X13.306 Y16.974
G2 X14.367 Y17.413 I1.061 J-1.061
G1 X20.124
G3 X20.359 Y17.9 I0 J0.3 F333.3
G1 X17.217 Y21.85 Z-1
G3 X16.682 Y21.663 I-0.235 J-0.187
G1 Y21.376 F250
G3 X17.002 Y21.057 I0.319 J0
G1 X17.575
G3 X17.895 Y21.376 I0 J0.319
G1 Y21.95
G3 X17.575 Y22.269 I-0.319 J0
G1 X17.002
G3 X16.682 Y21.95 I0 J-0.319
G1 Y21.663
G2 X16.219 Y20.773 I-1.087 J0
G3 X16.521 Y19.815 I0.302 J-0.431
G1 X18.823
G3 X19.136 Y20.128 I0 J0.313
G1 Y23.197
G3 X18.823 Y23.51 I-0.313 J0
G1 X15.754
G3 X15.441 Y23.197 I0 J-0.313
G1 Y20.128
G3 X15.754 Y19.815 I0.313 J0
G1 X16.521
G2 X18.322 Y18.614 I0 J-1.952
G3 X20.124 Y17.413 I1.802 J0.751
G1 X20.21
G2 X21.271 Y16.974 I0 J-1.5
G1 X23.185 Y15.059
G3 X23.892 Y15.766 I0.354 J0.354
G1 X21.978 Y17.681
G2 X21.538 Y18.741 I1.061 J1.061
G1 Y24.584
G2 X21.978 Y25.645 I1.5 J0
G1 X23.892 Y27.559
G3 X23.185 Y28.266 I-0.354 J0.354
G1 X21.271 Y26.352
G2 X20.21 Y25.913 I-1.061 J1.061
G1 X14.367
G2 X13.306 Y26.352 I0 J1.5
G1 X11.392 Y28.266
G3 X10.685 Y27.559 I-0.354 J-0.354
G1 X12.599 Y25.645
G2 X13.038 Y24.584 I-1.061 J-1.061
G1 Y18.741
G2 X12.599 Y17.681 I-1.5 J0
G1 X10.685 Y15.766
G3 X11.392 Y15.059 I0.354 J-0.354
G1 X13.306 Y16.974
G2 X14.367 Y17.413 I1.061 J-1.061
G1 X20.124
G3 X20.359 Y17.9 I0 J0.3 F333.3
G1 X17.217 Y21.85 Z-1.1
G3 X16.682 Y21.663 I-0.235 J-0.187
G1 Y21.376 F250
G3 X17.002 Y21.057 I0.319 J0
G1 X17.575
G3 X17.895 Y21.376 I0 J0.319
G1 Y21.95
G3 X17.575 Y22.269 I-0.319 J0
G1 X17.002
G3 X16.682 Y21.95 I0 J-0.319
G1 Y21.663
G2 X16.219 Y20.773 I-1.087 J0
G3 X16.521 Y19.815 I0.302 J-0.431
G1 X18.823
G3 X19.136 Y20.128 I0 J0.313
G1 Y23.197
G3 X18.823 Y23.51 I-0.313 J0
G1 X15.754
G3 X15.441 Y23.197 I0 J-0.313
G1 Y20.128
G3 X15.754 Y19.815 I0.313 J0
G1 X16.521
G2 X18.322 Y18.614 I0 J-1.952
G3 X20.124 Y17.413 I1.802 J0.751
G1 X20.21
G2 X21.271 Y16.974 I0 J-1.5
G1 X23.185 Y15.059
G3 X23.892 Y15.766 I0.354 J0.354
G1 X21.978 Y17.681
G2 X21.538 Y18.741 I1.061 J1.061
G1 Y24.584
G2 X21.978 Y25.645 I1.5 J0
G1 X23.892 Y27.559
G3 X23.185 Y28.266 I-0.354 J0.354
G1 X21.271 Y26.352
G2 X20.21 Y25.913 I-1.061 J1.061
G1 X14.367
G2 X13.306 Y26.352 I0 J1.5
G1 X11.392 Y28.266
G3 X10.685 Y27.559 I-0.354 J-0.354
G1 X12.599 Y25.645
G2 X13.038 Y24.584 I-1.061 J-1.061
G1 Y18.741
G2 X12.599 Y17.681 I-1.5 J0
G1 X10.685 Y15.766
G3 X11.392 Y15.059 I0.354 J-0.354
G1 X13.306 Y16.974
G2 X14.367 Y17.413 I1.061 J-1.061
G1 X20.124
G3 X20.359 Y17.9 I0 J0.3 F333.3
G1 X17.217 Y21.85 Z-1.2
G3 X16.682 Y21.663 I-0.235 J-0.187
G1 Y21.376 F250
G3 X17.002 Y21.057 I0.319 J0
G1 X17.575
G3 X17.895 Y21.376 I0 J0.319
G1 Y21.95
G3 X17.575 Y22.269 I-0.319 J0
G1 X17.002
G3 X16.682 Y21.95 I0 J-0.319
G1 Y21.663
G2 X16.219 Y20.773 I-1.087 J0
G3 X16.521 Y19.815 I0.302 J-0.431
G1 X18.823
G3 X19.136 Y20.128 I0 J0.313
G1 Y23.197
G3 X18.823 Y23.51 I-0.313 J0
G1 X15.754
G3 X15.441 Y23.197 I0 J-0.313
G1 Y20.128
G3 X15.754 Y19.815 I0.313 J0
G1 X16.521
G2 X18.322 Y18.614 I0 J-1.952
G3 X20.124 Y17.413 I1.802 J0.751
G1 X20.21
G2 X21.271 Y16.974 I0 J-1.5
G1 X23.185 Y15.059
G3 X23.892 Y15.766 I0.354 J0.354
G1 X21.978 Y17.681
G2 X21.538 Y18.741 I1.061 J1.061
G1 Y24.584
G2 X21.978 Y25.645 I1.5 J0
G1 X23.892 Y27.559
G3 X23.185 Y28.266 I-0.354 J0.354
G1 X21.271 Y26.352
G2 X20.21 Y25.913 I-1.061 J1.061
G1 X14.367
G2 X13.306 Y26.352 I0 J1.5
G1 X11.392 Y28.266
G3 X10.685 Y27.559 I-0.354 J-0.354
G1 X12.599 Y25.645
G2 X13.038 Y24.584 I-1.061 J-1.061
G1 Y18.741
G2 X12.599 Y17.681 I-1.5 J0
G1 X10.685 Y15.766
G3 X11.392 Y15.059 I0.354 J-0.354
G1 X13.306 Y16.974
G2 X14.367 Y17.413 I1.061 J-1.061
G1 X20.124
G3 X20.359 Y17.9 I0 J0.3 F333.3
G1 X17.217 Y21.85 Z-1.3
G3 X16.682 Y21.663 I-0.235 J-0.187
G1 Y21.376 F250
G3 X17.002 Y21.057 I0.319 J0
G1 X17.575
G3 X17.895 Y21.376 I0 J0.319
G1 Y21.95
G3 X17.575 Y22.269 I-0.319 J0
G1 X17.002
G3 X16.682 Y21.95 I0 J-0.319
G1 Y21.663
G2 X16.219 Y20.773 I-1.087 J0
G3 X16.521 Y19.815 I0.302 J-0.431
G1 X18.823
G3 X19.136 Y20.128 I0 J0.313
G1 Y23.197
G3 X18.823 Y23.51 I-0.313 J0
G1 X15.754
G3 X15.441 Y23.197 I0 J-0.313
G1 Y20.128
G3 X15.754 Y19.815 I0.313 J0
G1 X16.521
G2 X18.322 Y18.614 I0 J-1.952
G3 X20.124 Y17.413 I1.802 J0.751
G1 X20.21
G2 X21.271 Y16.974 I0 J-1.5
G1 X23.185 Y15.059
G3 X23.892 Y15.766 I0.354 J0.354
G1 X21.978 Y17.681
G2 X21.538 Y18.741 I1.061 J1.061
G1 Y24.584
G2 X21.978 Y25.645 I1.5 J0
G1 X23.892 Y27.559
G3 X23.185 Y28.266 I-0.354 J0.354
G1 X21.271 Y26.352
G2 X20.21 Y25.913 I-1.061 J1.061
G1 X14.367
G2 X13.306 Y26.352 I0 J1.5
G1 X11.392 Y28.266
G3 X10.685 Y27.559 I-0.354 J-0.354
G1 X12.599 Y25.645
G2 X13.038 Y24.584 I-1.061 J-1.061
G1 Y18.741
G2 X12.599 Y17.681 I-1.5 J0
G1 X10.685 Y15.766
G3 X11.392 Y15.059 I0.354 J-0.354
G1 X13.306 Y16.974
G2 X14.367 Y17.413 I1.061 J-1.061
G1 X20.124
X20.181 Y17.418 Z-1.289
X20.236 Y17.435 Z-1.277
X20.28 Y17.456 Z-1.245
X20.319 Y17.485 Z-1.212
X20.364 Y17.532 Z-1.115
X20.377 Y17.551 Z-1
G0 Z23
X51.693 Y23.493
Z21
G1 Z3.8 F250
X51.662 Y23.47 Z3.653 F333.3
X51.58 Y23.403 Z3.544
X51.476 Y23.302 Z3.5
G3 X53.567 Y21.365 Z3.344 I1.046 J-0.968
X51.476 Y23.302 Z3.187 I-1.046 J0.968
X53.567 Y21.365 Z3.031 I1.046 J-0.968
X51.476 Y23.301 Z2.875 I-1.046 J0.968
X53.567 Y21.365 Z2.718 I1.046 J-0.968
X51.476 Y23.301 Z2.562 I-1.046 J0.968
X53.567 Y21.365 Z2.406 I1.046 J-0.968
X51.476 Y23.301 Z2.249 I-1.046 J0.968
X53.567 Y21.365 Z2.093 I1.046 J-0.968
X51.476 Y23.301 Z1.937 I-1.046 J0.968
X53.567 Y21.365 Z1.78 I1.046 J-0.968
X51.476 Y23.301 Z1.624 I-1.046 J0.968
X53.567 Y21.365 Z1.468 I1.046 J-0.968
X51.476 Y23.301 Z1.311 I-1.046 J0.968
X53.567 Y21.365 Z1.155 I1.046 J-0.968
X51.476 Y23.301 Z0.999 I-1.046 J0.968
X52.054 Y20.987 Z0.9 I1.046 J-0.968
G1 X52.098 Y20.972 F250
G3 X52.479 Y20.972 I0.19 J0.532
G1 X52.586 Y21.009
G3 X52.943 Y21.365 I-0.179 J0.535
G1 X52.98 Y21.473
G3 X52.98 Y21.853 I-0.532 J0.19
G1 X52.943 Y21.961
G3 X52.586 Y22.317 I-0.535 J-0.179
G1 X52.479 Y22.354
G3 X52.098 Y22.354 I-0.19 J-0.532
G1 X51.991 Y22.317
G3 X51.634 Y21.961 I0.179 J-0.535
G1 X51.597 Y21.853
G3 X51.597 Y21.473 I0.532 J-0.19
G1 X51.634 Y21.365
G3 X51.991 Y21.009 I0.535 J0.179
G1 X52.054 Y20.987
G2 X52.783 Y20.28 I-0.396 J-1.139
G3 X53.664 Y19.773 I0.752 J0.288
G1 X53.811 Y19.794
G3 X54.158 Y20.14 I-0.049 J0.395
G2 X54.494 Y21.314 I3.881 J-0.477
G3 X54.494 Y22.012 I-0.748 J0.349
G2 X54.158 Y23.185 I3.544 J1.651
G3 X53.811 Y23.532 I-0.395 J-0.049
G2 X52.637 Y23.869 I0.477 J3.881
G3 X51.94 Y23.869 I-0.349 J-0.748
G2 X50.766 Y23.532 I-1.651 J3.544
G3 X50.419 Y23.185 I0.049 J-0.395
G2 X50.083 Y22.012 I-3.881 J0.477
G3 X50.083 Y21.314 I0.748 J-0.349
G2 X50.419 Y20.14 I-3.544 J-1.651
G3 X50.766 Y19.794 I0.395 J0.049
G2 X51.94 Y19.457 I-0.477 J-3.881
G3 X52.637 Y19.457 I0.349 J0.748
G2 X53.664 Y19.773 I1.651 J-3.544
X55.024 Y19.035 I0.202 J-1.25
G3 X56.539 Y19.355 I0.723 J0.32
G1 Y19.663
G2 X58.039 Y21.163 I1.5 J0
G1 X58.539
G3 X58.539 Y22.163 I0 J0.5
G1 X58.039
G2 X56.539 Y23.663 I0 J1.5
G1 Y25.413
G3 X56.039 Y25.913 I-0.5 J0
G1 X54.289
G2 X52.789 Y27.413 I0 J1.5
G1 Y27.913
G3 X51.789 Y27.913 I-0.5 J0
G1 Y27.413
G2 X50.289 Y25.913 I-1.5 J0
G1 X48.539
G3 X48.039 Y25.413 I0 J-0.5
G1 Y23.663
G2 X46.539 Y22.163 I-1.5 J0
G1 X46.039
G3 X46.039 Y21.163 I0 J-0.5
G1 X46.539
G2 X48.039 Y19.663 I0 J-1.5
G1 Y17.913
G3 X48.539 Y17.413 I0.5 J0
G1 X50.289
G2 X51.789 Y15.913 I0 J-1.5
G1 Y15.413
G3 X52.789 Y15.413 I0.5 J0
G1 Y15.913
G2 X54.289 Y17.413 I1.5 J0
G1 X56.039
G3 X56.539 Y17.913 I0 J0.5
G1 Y19.355
G3 X56.188 Y20.29 Z0.89 I-1.425 J0 F333.3
G1 X53.597 Y23.269 Z0.851
G3 X51.447 Y21.398 Z0.807 I-1.075 J-0.935
X52.054 Y20.987 Z0.8 I1.075 J0.935
G1 X52.098 Y20.972 F250
G3 X52.479 Y20.972 I0.19 J0.532
G1 X52.586 Y21.009
G3 X52.943 Y21.365 I-0.179 J0.535
G1 X52.98 Y21.473
G3 X52.98 Y21.853 I-0.532 J0.19
G1 X52.943 Y21.961
G3 X52.586 Y22.317 I-0.535 J-0.179
G1 X52.479 Y22.354
G3 X52.098 Y22.354 I-0.19 J-0.532
G1 X51.991 Y22.317
G3 X51.634 Y21.961 I0.179 J-0.535
G1 X51.597 Y21.853
G3 X51.597 Y21.473 I0.532 J-0.19
G1 X51.634 Y21.365
G3 X51.991 Y21.009 I0.535 J0.179
G1 X52.054 Y20.987
G2 X52.783 Y20.28 I-0.396 J-1.139
G3 X53.664 Y19.773 I0.752 J0.288
G1 X53.811 Y19.794
G3 X54.158 Y20.14 I-0.049 J0.395
G2 X54.494 Y21.314 I3.881 J-0.477
G3 X54.494 Y22.012 I-0.748 J0.349
G2 X54.158 Y23.185 I3.544 J1.651
G3 X53.811 Y23.532 I-0.395 J-0.049
G2 X52.637 Y23.869 I0.477 J3.881
G3 X51.94 Y23.869 I-0.349 J-0.748
G2 X50.766 Y23.532 I-1.651 J3.544
G3 X50.419 Y23.185 I0.049 J-0.395
G2 X50.083 Y22.012 I-3.881 J0.477
G3 X50.083 Y21.314 I0.748 J-0.349
G2 X50.419 Y20.14 I-3.544 J-1.651
G3 X50.766 Y19.794 I0.395 J0.049
G2 X51.94 Y19.457 I-0.477 J-3.881
G3 X52.637 Y19.457 I0.349 J0.748
G2 X53.664 Y19.773 I1.651 J-3.544
X55.024 Y19.035 I0.202 J-1.25
G3 X56.539 Y19.355 I0.723 J0.32
G1 Y19.663
G2 X58.039 Y21.163 I1.5 J0
G1 X58.539
G3 X58.539 Y22.163 I0 J0.5
G1 X58.039
G2 X56.539 Y23.663 I0 J1.5
G1 Y25.413
G3 X56.039 Y25.913 I-0.5 J0
G1 X54.289
G2 X52.789 Y27.413 I0 J1.5
G1 Y27.913
G3 X51.789 Y27.913 I-0.5 J0
G1 Y27.413
G2 X50.289 Y25.913 I-1.5 J0
G1 X48.539
G3 X48.039 Y25.413 I0 J-0.5
G1 Y23.663
G2 X46.539 Y22.163 I-1.5 J0
G1 X46.039
G3 X46.039 Y21.163 I0 J-0.5
G1 X46.539
G2 X48.039 Y19.663 I0 J-1.5
G1 Y17.913
G3 X48.539 Y17.413 I0.5 J0
G1 X50.289
G2 X51.789 Y15.913 I0 J-1.5
G1 Y15.413
G3 X52.789 Y15.413 I0.5 J0
G1 Y15.913
G2 X54.289 Y17.413 I1.5 J0
G1 X56.039
G3 X56.539 Y17.913 I0 J0.5
G1 Y19.355
G3 X56.188 Y20.29 Z0.79 I-1.425 J0 F333.3
G1 X53.597 Y23.269 Z0.751
G3 X51.447 Y21.398 Z0.707 I-1.075 J-0.935
X52.054 Y20.987 Z0.7 I1.075 J0.935
G1 X52.098 Y20.972 F250
G3 X52.479 Y20.972 I0.19 J0.532
G1 X52.586 Y21.009
G3 X52.943 Y21.365 I-0.179 J0.535
G1 X52.98 Y21.473
G3 X52.98 Y21.853 I-0.532 J0.19
G1 X52.943 Y21.961
G3 X52.586 Y22.317 I-0.535 J-0.179
G1 X52.479 Y22.354
G3 X52.098 Y22.354 I-0.19 J-0.532
G1 X51.991 Y22.317
G3 X51.634 Y21.961 I0.179 J-0.535
G1 X51.597 Y21.853
G3 X51.597 Y21.473 I0.532 J-0.19
G1 X51.634 Y21.365
G3 X51.991 Y21.009 I0.535 J0.179
G1 X52.054 Y20.987
G2 X52.783 Y20.28 I-0.396 J-1.139
G3 X53.664 Y19.773 I0.752 J0.288
G1 X53.811 Y19.794
G3 X54.158 Y20.14 I-0.049 J0.395
G2 X54.494 Y21.314 I3.881 J-0.477
G3 X54.494 Y22.012 I-0.748 J0.349
G2 X54.158 Y23.185 I3.544 J1.651
G3 X53.811 Y23.532 I-0.395 J-0.049
G2 X52.637 Y23.869 I0.477 J3.881
G3 X51.94 Y23.869 I-0.349 J-0.748
G2 X50.766 Y23.532 I-1.651 J3.544
G3 X50.419 Y23.185 I0.049 J-0.395
G2 X50.083 Y22.012 I-3.881 J0.477
G3 X50.083 Y21.314 I0.748 J-0.349
G2 X50.419 Y20.14 I-3.544 J-1.651
G3 X50.766 Y19.794 I0.395 J0.049
G2 X51.94 Y19.457 I-0.477 J-3.881
G3 X52.637 Y19.457 I0.349 J0.748
G2 X53.664 Y19.773 I1.651 J-3.544
X55.024 Y19.035 I0.202 J-1.25
G3 X56.539 Y19.355 I0.723 J0.32
G1 Y19.663
G2 X58.039 Y21.163 I1.5 J0
G1 X58.539
G3 X58.539 Y22.163 I0 J0.5
G1 X58.039
G2 X56.539 Y23.663 I0 J1.5
G1 Y25.413
G3 X56.039 Y25.913 I-0.5 J0
G1 X54.289
G2 X52.789 Y27.413 I0 J1.5
G1 Y27.913
G3 X51.789 Y27.913 I-0.5 J0
G1 Y27.413
G2 X50.289 Y25.913 I-1.5 J0
G1 X48.539
G3 X48.039 Y25.413 I0 J-0.5
G1 Y23.663
G2 X46.539 Y22.163 I-1.5 J0
G1 X46.039
G3 X46.039 Y21.163 I0 J-0.5
G1 X46.539
G2 X48.039 Y19.663 I0 J-1.5
G1 Y17.913
G3 X48.539 Y17.413 I0.5 J0
G1 X50.289
G2 X51.789 Y15.913 I0 J-1.5
G1 Y15.413
G3 X52.789 Y15.413 I0.5 J0
G1 Y15.913
G2 X54.289 Y17.413 I1.5 J0
G1 X56.039
G3 X56.539 Y17.913 I0 J0.5
G1 Y19.355
G3 X56.188 Y20.29 Z0.69 I-1.425 J0 F333.3
G1 X53.597 Y23.269 Z0.651
G3 X51.447 Y21.398 Z0.607 I-1.075 J-0.935
X52.054 Y20.987 Z0.6 I1.075 J0.935
G1 X52.098 Y20.972 F250
G3 X52.479 Y20.972 I0.19 J0.532
G1 X52.586 Y21.009
G3 X52.943 Y21.365 I-0.179 J0.535
G1 X52.98 Y21.473
G3 X52.98 Y21.853 I-0.532 J0.19
G1 X52.943 Y21.961
G3 X52.586 Y22.317 I-0.535 J-0.179
G1 X52.479 Y22.354
G3 X52.098 Y22.354 I-0.19 J-0.532
G1 X51.991 Y22.317
G3 X51.634 Y21.961 I0.179 J-0.535
G1 X51.597 Y21.853
G3 X51.597 Y21.473 I0.532 J-0.19
G1 X51.634 Y21.365
G3 X51.991 Y21.009 I0.535 J0.179
G1 X52.054 Y20.987
G2 X52.783 Y20.28 I-0.396 J-1.139
G3 X53.664 Y19.773 I0.752 J0.288
G1 X53.811 Y19.794
G3 X54.158 Y20.14 I-0.049 J0.395
G2 X54.494 Y21.314 I3.881 J-0.477
G3 X54.494 Y22.012 I-0.748 J0.349
G2 X54.158 Y23.185 I3.544 J1.651
G3 X53.811 Y23.532 I-0.395 J-0.049
G2 X52.637 Y23.869 I0.477 J3.881
G3 X51.94 Y23.869 I-0.349 J-0.748
G2 X50.766 Y23.532 I-1.651 J3.544
G3 X50.419 Y23.185 I0.049 J-0.395
G2 X50.083 Y22.012 I-3.881 J0.477
G3 X50.083 Y21.314 I0.748 J-0.349
G2 X50.419 Y20.14 I-3.544 J-1.651
G3 X50.766 Y19.794 I0.395 J0.049
G2 X51.94 Y19.457 I-0.477 J-3.881
G3 X52.637 Y19.457 I0.349 J0.748
G2 X53.664 Y19.773 I1.651 J-3.544
X55.024 Y19.035 I0.202 J-1.25
G3 X56.539 Y19.355 I0.723 J0.32
G1 Y19.663
G2 X58.039 Y21.163 I1.5 J0
G1 X58.539
G3 X58.539 Y22.163 I0 J0.5
G1 X58.039
G2 X56.539 Y23.663 I0 J1.5
G1 Y25.413
G3 X56.039 Y25.913 I-0.5 J0
G1 X54.289
G2 X52.789 Y27.413 I0 J1.5
G1 Y27.913
G3 X51.789 Y27.913 I-0.5 J0
G1 Y27.413
G2 X50.289 Y25.913 I-1.5 J0
G1 X48.539
G3 X48.039 Y25.413 I0 J-0.5
G1 Y23.663
G2 X46.539 Y22.163 I-1.5 J0
G1 X46.039
G3 X46.039 Y21.163 I0 J-0.5
G1 X46.539
G2 X48.039 Y19.663 I0 J-1.5
G1 Y17.913
G3 X48.539 Y17.413 I0.5 J0
G1 X50.289
G2 X51.789 Y15.913 I0 J-1.5
G1 Y15.413
G3 X52.789 Y15.413 I0.5 J0
G1 Y15.913
G2 X54.289 Y17.413 I1.5 J0
G1 X56.039
G3 X56.539 Y17.913 I0 J0.5
G1 Y19.355
G3 X56.188 Y20.29 Z0.59 I-1.425 J0 F333.3
G1 X53.597 Y23.269 Z0.551
G3 X51.447 Y21.398 Z0.507 I-1.075 J-0.935
X52.054 Y20.987 Z0.5 I1.075 J0.935
G1 X52.098 Y20.972 F250
G3 X52.479 Y20.972 I0.19 J0.532
G1 X52.586 Y21.009
G3 X52.943 Y21.365 I-0.179 J0.535
G1 X52.98 Y21.473
G3 X52.98 Y21.853 I-0.532 J0.19
G1 X52.943 Y21.961
G3 X52.586 Y22.317 I-0.535 J-0.179
G1 X52.479 Y22.354
G3 X52.098 Y22.354 I-0.19 J-0.532
G1 X51.991 Y22.317
G3 X51.634 Y21.961 I0.179 J-0.535
G1 X51.597 Y21.853
G3 X51.597 Y21.473 I0.532 J-0.19
G1 X51.634 Y21.365
G3 X51.991 Y21.009 I0.535 J0.179
G1 X52.054 Y20.987
G2 X52.783 Y20.28 I-0.396 J-1.139
G3 X53.664 Y19.773 I0.752 J0.288
G1 X53.811 Y19.794
G3 X54.158 Y20.14 I-0.049 J0.395
G2 X54.494 Y21.314 I3.881 J-0.477
G3 X54.494 Y22.012 I-0.748 J0.349
G2 X54.158 Y23.185 I3.544 J1.651
G3 X53.811 Y23.532 I-0.395 J-0.049
G2 X52.637 Y23.869 I0.477 J3.881
G3 X51.94 Y23.869 I-0.349 J-0.748
G2 X50.766 Y23.532 I-1.651 J3.544
G3 X50.419 Y23.185 I0.049 J-0.395
G2 X50.083 Y22.012 I-3.881 J0.477
G3 X50.083 Y21.314 I0.748 J-0.349
G2 X50.419 Y20.14 I-3.544 J-1.651
G3 X50.766 Y19.794 I0.395 J0.049
G2 X51.94 Y19.457 I-0.477 J-3.881
G3 X52.637 Y19.457 I0.349 J0.748
G2 X53.664 Y19.773 I1.651 J-3.544
X55.024 Y19.035 I0.202 J-1.25
G3 X56.539 Y19.355 I0.723 J0.32
G1 Y19.663
G2 X58.039 Y21.163 I1.5 J0
G1 X58.539
G3 X58.539 Y22.163 I0 J0.5
G1 X58.039
G2 X56.539 Y23.663 I0 J1.5
G1 Y25.413
G3 X56.039 Y25.913 I-0.5 J0
G1 X54.289
G2 X52.789 Y27.413 I0 J1.5
G1 Y27.913
G3 X51.789 Y27.913 I-0.5 J0
G1 Y27.413
G2 X50.289 Y25.913 I-1.5 J0
G1 X48.539
G3 X48.039 Y25.413 I0 J-0.5
G1 Y23.663
G2 X46.539 Y22.163 I-1.5 J0
G1 X46.039
G3 X46.039 Y21.163 I0 J-0.5
G1 X46.539
G2 X48.039 Y19.663 I0 J-1.5
G1 Y17.913
G3 X48.539 Y17.413 I0.5 J0
G1 X50.289
G2 X51.789 Y15.913 I0 J-1.5
G1 Y15.413
G3 X52.789 Y15.413 I0.5 J0
G1 Y15.913
G2 X54.289 Y17.413 I1.5 J0
G1 X56.039
G3 X56.539 Y17.913 I0 J0.5
G1 Y19.355
G3 X56.188 Y20.29 Z0.49 I-1.425 J0 F333.3
G1 X53.597 Y23.269 Z0.451
G3 X51.447 Y21.398 Z0.407 I-1.075 J-0.935
X52.054 Y20.987 Z0.4 I1.075 J0.935
G1 X52.098 Y20.972 F250
G3 X52.479 Y20.972 I0.19 J0.532
G1 X52.586 Y21.009
G3 X52.943 Y21.365 I-0.179 J0.535
G1 X52.98 Y21.473
G3 X52.98 Y21.853 I-0.532 J0.19
G1 X52.943 Y21.961
G3 X52.586 Y22.317 I-0.535 J-0.179
G1 X52.479 Y22.354
G3 X52.098 Y22.354 I-0.19 J-0.532
G1 X51.991 Y22.317
G3 X51.634 Y21.961 I0.179 J-0.535
G1 X51.597 Y21.853
G3 X51.597 Y21.473 I0.532 J-0.19
G1 X51.634 Y21.365
G3 X51.991 Y21.009 I0.535 J0.179
G1 X52.054 Y20.987
G2 X52.783 Y20.28 I-0.396 J-1.139
G3 X53.664 Y19.773 I0.752 J0.288
G1 X53.811 Y19.794
G3 X54.158 Y20.14 I-0.049 J0.395
G2 X54.494 Y21.314 I3.881 J-0.477
G3 X54.494 Y22.012 I-0.748 J0.349
G2 X54.158 Y23.185 I3.544 J1.651
G3 X53.811 Y23.532 I-0.395 J-0.049
G2 X52.637 Y23.869 I0.477 J3.881
G3 X51.94 Y23.869 I-0.349 J-0.748
G2 X50.766 Y23.532 I-1.651 J3.544
G3 X50.419 Y23.185 I0.049 J-0.395
G2 X50.083 Y22.012 I-3.881 J0.477
G3 X50.083 Y21.314 I0.748 J-0.349
G2 X50.419 Y20.14 I-3.544 J-1.651
G3 X50.766 Y19.794 I0.395 J0.049
G2 X51.94 Y19.457 I-0.477 J-3.881
G3 X52.637 Y19.457 I0.349 J0.748
G2 X53.664 Y19.773 I1.651 J-3.544
X55.024 Y19.035 I0.202 J-1.25
G3 X56.539 Y19.355 I0.723 J0.32
G1 Y19.663
G2 X58.039 Y21.163 I1.5 J0
G1 X58.539
G3 X58.539 Y22.163 I0 J0.5
G1 X58.039
G2 X56.539 Y23.663 I0 J1.5
G1 Y25.413
G3 X56.039 Y25.913 I-0.5 J0
G1 X54.289
G2 X52.789 Y27.413 I0 J1.5
G1 Y27.913
G3 X51.789 Y27.913 I-0.5 J0
G1 Y27.413
G2 X50.289 Y25.913 I-1.5 J0
G1 X48.539
G3 X48.039 Y25.413 I0 J-0.5
G1 Y23.663
G2 X46.539 Y22.163 I-1.5 J0
G1 X46.039
G3 X46.039 Y21.163 I0 J-0.5
G1 X46.539
G2 X48.039 Y19.663 I0 J-1.5
G1 Y17.913
G3 X48.539 Y17.413 I0.5 J0
G1 X50.289
G2 X51.789 Y15.913 I0 J-1.5
G1 Y15.413
G3 X52.789 Y15.413 I0.5 J0
G1 Y15.913
G2 X54.289 Y17.413 I1.5 J0
G1 X56.039
G3 X56.539 Y17.913 I0 J0.5
G1 Y19.355
G3 X56.188 Y20.29 Z0.39 I-1.425 J0 F333.3
G1 X53.597 Y23.269 Z0.351
G3 X51.447 Y21.398 Z0.307 I-1.075 J-0.935
X52.054 Y20.987 Z0.3 I1.075 J0.935
G1 X52.098 Y20.972 F250
G3 X52.479 Y20.972 I0.19 J0.532
G1 X52.586 Y21.009
G3 X52.943 Y21.365 I-0.179 J0.535
G1 X52.98 Y21.473
G3 X52.98 Y21.853 I-0.532 J0.19
G1 X52.943 Y21.961
G3 X52.586 Y22.317 I-0.535 J-0.179
G1 X52.479 Y22.354
G3 X52.098 Y22.354 I-0.19 J-0.532
G1 X51.991 Y22.317
G3 X51.634 Y21.961 I0.179 J-0.535
G1 X51.597 Y21.853
G3 X51.597 Y21.473 I0.532 J-0.19
G1 X51.634 Y21.365
G3 X51.991 Y21.009 I0.535 J0.179
G1 X52.054 Y20.987
G2 X52.783 Y20.28 I-0.396 J-1.139
G3 X53.664 Y19.773 I0.752 J0.288
G1 X53.811 Y19.794
G3 X54.158 Y20.14 I-0.049 J0.395
G2 X54.494 Y21.314 I3.881 J-0.477
G3 X54.494 Y22.012 I-0.748 J0.349
G2 X54.158 Y23.185 I3.544 J1.651
G3 X53.811 Y23.532 I-0.395 J-0.049
G2 X52.637 Y23.869 I0.477 J3.881
G3 X51.94 Y23.869 I-0.349 J-0.748
G2 X50.766 Y23.532 I-1.651 J3.544
G3 X50.419 Y23.185 I0.049 J-0.395
G2 X50.083 Y22.012 I-3.881 J0.477
G3 X50.083 Y21.314 I0.748 J-0.349
G2 X50.419 Y20.14 I-3.544 J-1.651
G3 X50.766 Y19.794 I0.395 J0.049
G2 X51.94 Y19.457 I-0.477 J-3.881
G3 X52.637 Y19.457 I0.349 J0.748
G2 X53.664 Y19.773 I1.651 J-3.544
X55.024 Y19.035 I0.202 J-1.25
G3 X56.539 Y19.355 I0.723 J0.32
G1 Y19.663
G2 X58.039 Y21.163 I1.5 J0
G1 X58.539
G3 X58.539 Y22.163 I0 J0.5
G1 X58.039
G2 X56.539 Y23.663 I0 J1.5
G1 Y25.413
G3 X56.039 Y25.913 I-0.5 J0
G1 X54.289
G2 X52.789 Y27.413 I0 J1.5
G1 Y27.913
G3 X51.789 Y27.913 I-0.5 J0
G1 Y27.413
G2 X50.289 Y25.913 I-1.5 J0
G1 X48.539
G3 X48.039 Y25.413 I0 J-0.5
G1 Y23.663
G2 X46.539 Y22.163 I-1.5 J0
G1 X46.039
G3 X46.039 Y21.163 I0 J-0.5
G1 X46.539
G2 X48.039 Y19.663 I0 J-1.5
G1 Y17.913
G3 X48.539 Y17.413 I0.5 J0
G1 X50.289
G2 X51.789 Y15.913 I0 J-1.5
G1 Y15.413
G3 X52.789 Y15.413 I0.5 J0
G1 Y15.913
G2 X54.289 Y17.413 I1.5 J0
G1 X56.039
G3 X56.539 Y17.913 I0 J0.5
G1 Y19.355
G3 X56.188 Y20.29 Z0.29 I-1.425 J0 F333.3
G1 X53.597 Y23.269 Z0.251
G3 X51.447 Y21.398 Z0.207 I-1.075 J-0.935
X52.054 Y20.987 Z0.2 I1.075 J0.935
G1 X52.098 Y20.972 F250
G3 X52.479 Y20.972 I0.19 J0.532
G1 X52.586 Y21.009
G3 X52.943 Y21.365 I-0.179 J0.535
G1 X52.98 Y21.473
G3 X52.98 Y21.853 I-0.532 J0.19
G1 X52.943 Y21.961
G3 X52.586 Y22.317 I-0.535 J-0.179
G1 X52.479 Y22.354
G3 X52.098 Y22.354 I-0.19 J-0.532
G1 X51.991 Y22.317
G3 X51.634 Y21.961 I0.179 J-0.535
G1 X51.597 Y21.853
G3 X51.597 Y21.473 I0.532 J-0.19
G1 X51.634 Y21.365
G3 X51.991 Y21.009 I0.535 J0.179
G1 X52.054 Y20.987
G2 X52.783 Y20.28 I-0.396 J-1.139
G3 X53.664 Y19.773 I0.752 J0.288
G1 X53.811 Y19.794
G3 X54.158 Y20.14 I-0.049 J0.395
G2 X54.494 Y21.314 I3.881 J-0.477
G3 X54.494 Y22.012 I-0.748 J0.349
G2 X54.158 Y23.185 I3.544 J1.651
G3 X53.811 Y23.532 I-0.395 J-0.049
G2 X52.637 Y23.869 I0.477 J3.881
G3 X51.94 Y23.869 I-0.349 J-0.748
G2 X50.766 Y23.532 I-1.651 J3.544
G3 X50.419 Y23.185 I0.049 J-0.395
G2 X50.083 Y22.012 I-3.881 J0.477
G3 X50.083 Y21.314 I0.748 J-0.349
G2 X50.419 Y20.14 I-3.544 J-1.651
G3 X50.766 Y19.794 I0.395 J0.049
G2 X51.94 Y19.457 I-0.477 J-3.881
G3 X52.637 Y19.457 I0.349 J0.748
G2 X53.664 Y19.773 I1.651 J-3.544
X55.024 Y19.035 I0.202 J-1.25
G3 X56.539 Y19.355 I0.723 J0.32
G1 Y19.663
G2 X58.039 Y21.163 I1.5 J0
G1 X58.539
G3 X58.539 Y22.163 I0 J0.5
G1 X58.039
G2 X56.539 Y23.663 I0 J1.5
G1 Y25.413
G3 X56.039 Y25.913 I-0.5 J0
G1 X54.289
G2 X52.789 Y27.413 I0 J1.5
G1 Y27.913
G3 X51.789 Y27.913 I-0.5 J0
G1 Y27.413
G2 X50.289 Y25.913 I-1.5 J0
G1 X48.539
G3 X48.039 Y25.413 I0 J-0.5
G1 Y23.663
G2 X46.539 Y22.163 I-1.5 J0
G1 X46.039
G3 X46.039 Y21.163 I0 J-0.5
G1 X46.539
G2 X48.039 Y19.663 I0 J-1.5
G1 Y17.913
G3 X48.539 Y17.413 I0.5 J0
G1 X50.289
G2 X51.789 Y15.913 I0 J-1.5
G1 Y15.413
G3 X52.789 Y15.413 I0.5 J0
G1 Y15.913
G2 X54.289 Y17.413 I1.5 J0
G1 X56.039
G3 X56.539 Y17.913 I0 J0.5
G1 Y19.355
G3 X56.188 Y20.29 Z0.19 I-1.425 J0 F333.3
G1 X53.597 Y23.269 Z0.151
G3 X51.447 Y21.398 Z0.107 I-1.075 J-0.935
X52.054 Y20.987 Z0.1 I1.075 J0.935
G1 X52.098 Y20.972 F250
G3 X52.479 Y20.972 I0.19 J0.532
G1 X52.586 Y21.009
G3 X52.943 Y21.365 I-0.179 J0.535
G1 X52.98 Y21.473
G3 X52.98 Y21.853 I-0.532 J0.19
G1 X52.943 Y21.961
G3 X52.586 Y22.317 I-0.535 J-0.179
G1 X52.479 Y22.354
G3 X52.098 Y22.354 I-0.19 J-0.532
G1 X51.991 Y22.317
G3 X51.634 Y21.961 I0.179 J-0.535
G1 X51.597 Y21.853
G3 X51.597 Y21.473 I0.532 J-0.19
G1 X51.634 Y21.365
G3 X51.991 Y21.009 I0.535 J0.179
G1 X52.054 Y20.987
G2 X52.783 Y20.28 I-0.396 J-1.139
G3 X53.664 Y19.773 I0.752 J0.288
G1 X53.811 Y19.794
G3 X54.158 Y20.14 I-0.049 J0.395
G2 X54.494 Y21.314 I3.881 J-0.477
G3 X54.494 Y22.012 I-0.748 J0.349
G2 X54.158 Y23.185 I3.544 J1.651
G3 X53.811 Y23.532 I-0.395 J-0.049
G2 X52.637 Y23.869 I0.477 J3.881
G3 X51.94 Y23.869 I-0.349 J-0.748
G2 X50.766 Y23.532 I-1.651 J3.544
G3 X50.419 Y23.185 I0.049 J-0.395
G2 X50.083 Y22.012 I-3.881 J0.477
G3 X50.083 Y21.314 I0.748 J-0.349
G2 X50.419 Y20.14 I-3.544 J-1.651
G3 X50.766 Y19.794 I0.395 J0.049
G2 X51.94 Y19.457 I-0.477 J-3.881
G3 X52.637 Y19.457 I0.349 J0.748
G2 X53.664 Y19.773 I1.651 J-3.544
X55.024 Y19.035 I0.202 J-1.25
G3 X56.539 Y19.355 I0.723 J0.32
G1 Y19.663
G2 X58.039 Y21.163 I1.5 J0
G1 X58.539
G3 X58.539 Y22.163 I0 J0.5
G1 X58.039
G2 X56.539 Y23.663 I0 J1.5
G1 Y25.413
G3 X56.039 Y25.913 I-0.5 J0
G1 X54.289
G2 X52.789 Y27.413 I0 J1.5
G1 Y27.913
G3 X51.789 Y27.913 I-0.5 J0
G1 Y27.413
G2 X50.289 Y25.913 I-1.5 J0
G1 X48.539
G3 X48.039 Y25.413 I0 J-0.5
G1 Y23.663
G2 X46.539 Y22.163 I-1.5 J0
G1 X46.039
G3 X46.039 Y21.163 I0 J-0.5
G1 X46.539
G2 X48.039 Y19.663 I0 J-1.5
G1 Y17.913
G3 X48.539 Y17.413 I0.5 J0
G1 X50.289
G2 X51.789 Y15.913 I0 J-1.5
G1 Y15.413
G3 X52.789 Y15.413 I0.5 J0
G1 Y15.913
G2 X54.289 Y17.413 I1.5 J0
G1 X56.039
G3 X56.539 Y17.913 I0 J0.5
G1 Y19.355
G3 X56.188 Y20.29 Z0.09 I-1.425 J0 F333.3
G1 X53.597 Y23.269 Z0.051
G3 X51.447 Y21.398 Z0.007 I-1.075 J-0.935
X52.054 Y20.987 Z0 I1.075 J0.935
G1 X52.098 Y20.972 F250
G3 X52.479 Y20.972 I0.19 J0.532
G1 X52.586 Y21.009
G3 X52.943 Y21.365 I-0.179 J0.535
G1 X52.98 Y21.473
G3 X52.98 Y21.853 I-0.532 J0.19
G1 X52.943 Y21.961
G3 X52.586 Y22.317 I-0.535 J-0.179
G1 X52.479 Y22.354
G3 X52.098 Y22.354 I-0.19 J-0.532
G1 X51.991 Y22.317
G3 X51.634 Y21.961 I0.179 J-0.535
G1 X51.597 Y21.853
G3 X51.597 Y21.473 I0.532 J-0.19
G1 X51.634 Y21.365
G3 X51.991 Y21.009 I0.535 J0.179
G1 X52.054 Y20.987
G2 X52.783 Y20.28 I-0.396 J-1.139
G3 X53.664 Y19.773 I0.752 J0.288
G1 X53.811 Y19.794
G3 X54.158 Y20.14 I-0.049 J0.395
G2 X54.494 Y21.314 I3.881 J-0.477
G3 X54.494 Y22.012 I-0.748 J0.349
G2 X54.158 Y23.185 I3.544 J1.651
G3 X53.811 Y23.532 I-0.395 J-0.049
G2 X52.637 Y23.869 I0.477 J3.881
G3 X51.94 Y23.869 I-0.349 J-0.748
G2 X50.766 Y23.532 I-1.651 J3.544
G3 X50.419 Y23.185 I0.049 J-0.395
G2 X50.083 Y22.012 I-3.881 J0.477
G3 X50.083 Y21.314 I0.748 J-0.349
G2 X50.419 Y20.14 I-3.544 J-1.651
G3 X50.766 Y19.794 I0.395 J0.049
G2 X51.94 Y19.457 I-0.477 J-3.881
G3 X52.637 Y19.457 I0.349 J0.748
G2 X53.664 Y19.773 I1.651 J-3.544
X55.024 Y19.035 I0.202 J-1.25
G3 X56.539 Y19.355 I0.723 J0.32
G1 Y19.663
G2 X58.039 Y21.163 I1.5 J0
G1 X58.539
G3 X58.539 Y22.163 I0 J0.5
G1 X58.039
G2 X56.539 Y23.663 I0 J1.5
G1 Y25.413
G3 X56.039 Y25.913 I-0.5 J0
G1 X54.289
G2 X52.789 Y27.413 I0 J1.5
G1 Y27.913
G3 X51.789 Y27.913 I-0.5 J0
G1 Y27.413
G2 X50.289 Y25.913 I-1.5 J0
G1 X48.539
G3 X48.039 Y25.413 I0 J-0.5
G1 Y23.663
G2 X46.539 Y22.163 I-1.5 J0
G1 X46.039
G3 X46.039 Y21.163 I0 J-0.5
G1 X46.539
G2 X48.039 Y19.663 I0 J-1.5
G1 Y17.913
G3 X48.539 Y17.413 I0.5 J0
G1 X50.289
G2 X51.789 Y15.913 I0 J-1.5
G1 Y15.413
G3 X52.789 Y15.413 I0.5 J0
G1 Y15.913
G2 X54.289 Y17.413 I1.5 J0
G1 X56.039
G3 X56.539 Y17.913 I0 J0.5
G1 Y19.355
G3 X56.188 Y20.29 Z-0.01 I-1.425 J0 F333.3
G1 X53.597 Y23.269 Z-0.049
G3 X51.447 Y21.398 Z-0.093 I-1.075 J-0.935
X52.054 Y20.987 Z-0.1 I1.075 J0.935
G1 X52.098 Y20.972 F250
G3 X52.479 Y20.972 I0.19 J0.532
G1 X52.586 Y21.009
G3 X52.943 Y21.365 I-0.179 J0.535
G1 X52.98 Y21.473
G3 X52.98 Y21.853 I-0.532 J0.19
G1 X52.943 Y21.961
G3 X52.586 Y22.317 I-0.535 J-0.179
G1 X52.479 Y22.354
G3 X52.098 Y22.354 I-0.19 J-0.532
G1 X51.991 Y22.317
G3 X51.634 Y21.961 I0.179 J-0.535
G1 X51.597 Y21.853
G3 X51.597 Y21.473 I0.532 J-0.19
G1 X51.634 Y21.365
G3 X51.991 Y21.009 I0.535 J0.179
G1 X52.054 Y20.987
G2 X52.783 Y20.28 I-0.396 J-1.139
G3 X53.664 Y19.773 I0.752 J0.288
G1 X53.811 Y19.794
G3 X54.158 Y20.14 I-0.049 J0.395
G2 X54.494 Y21.314 I3.881 J-0.477
G3 X54.494 Y22.012 I-0.748 J0.349
G2 X54.158 Y23.185 I3.544 J1.651
G3 X53.811 Y23.532 I-0.395 J-0.049
G2 X52.637 Y23.869 I0.477 J3.881
G3 X51.94 Y23.869 I-0.349 J-0.748
G2 X50.766 Y23.532 I-1.651 J3.544
G3 X50.419 Y23.185 I0.049 J-0.395
G2 X50.083 Y22.012 I-3.881 J0.477
G3 X50.083 Y21.314 I0.748 J-0.349
G2 X50.419 Y20.14 I-3.544 J-1.651
G3 X50.766 Y19.794 I0.395 J0.049
G2 X51.94 Y19.457 I-0.477 J-3.881
G3 X52.637 Y19.457 I0.349 J0.748
G2 X53.664 Y19.773 I1.651 J-3.544
X55.024 Y19.035 I0.202 J-1.25
G3 X56.539 Y19.355 I0.723 J0.32
G1 Y19.663
G2 X58.039 Y21.163 I1.5 J0
G1 X58.539
G3 X58.539 Y22.163 I0 J0.5
G1 X58.039
G2 X56.539 Y23.663 I0 J1.5
G1 Y25.413
G3 X56.039 Y25.913 I-0.5 J0
G1 X54.289
G2 X52.789 Y27.413 I0 J1.5
G1 Y27.913
G3 X51.789 Y27.913 I-0.5 J0
G1 Y27.413
G2 X50.289 Y25.913 I-1.5 J0
G1 X48.539
G3 X48.039 Y25.413 I0 J-0.5
G1 Y23.663
G2 X46.539 Y22.163 I-1.5 J0
G1 X46.039
G3 X46.039 Y21.163 I0 J-0.5
G1 X46.539
G2 X48.039 Y19.663 I0 J-1.5
G1 Y17.913
G3 X48.539 Y17.413 I0.5 J0
G1 X50.289
G2 X51.789 Y15.913 I0 J-1.5
G1 Y15.413
G3 X52.789 Y15.413 I0.5 J0
G1 Y15.913
G2 X54.289 Y17.413 I1.5 J0
G1 X56.039
G3 X56.539 Y17.913 I0 J0.5
G1 Y19.355
G3 X56.188 Y20.29 Z-0.11 I-1.425 J0 F333.3
G1 X53.597 Y23.269 Z-0.149
G3 X51.447 Y21.398 Z-0.193 I-1.075 J-0.935
X52.054 Y20.987 Z-0.2 I1.075 J0.935
G1 X52.098 Y20.972 F250
G3 X52.479 Y20.972 I0.19 J0.532
G1 X52.586 Y21.009
G3 X52.943 Y21.365 I-0.179 J0.535
G1 X52.98 Y21.473
G3 X52.98 Y21.853 I-0.532 J0.19
G1 X52.943 Y21.961
G3 X52.586 Y22.317 I-0.535 J-0.179
G1 X52.479 Y22.354
G3 X52.098 Y22.354 I-0.19 J-0.532
G1 X51.991 Y22.317
G3 X51.634 Y21.961 I0.179 J-0.535
G1 X51.597 Y21.853
G3 X51.597 Y21.473 I0.532 J-0.19
G1 X51.634 Y21.365
G3 X51.991 Y21.009 I0.535 J0.179
G1 X52.054 Y20.987
G2 X52.783 Y20.28 I-0.396 J-1.139
G3 X53.664 Y19.773 I0.752 J0.288
G1 X53.811 Y19.794
G3 X54.158 Y20.14 I-0.049 J0.395
G2 X54.494 Y21.314 I3.881 J-0.477
G3 X54.494 Y22.012 I-0.748 J0.349
G2 X54.158 Y23.185 I3.544 J1.651
G3 X53.811 Y23.532 I-0.395 J-0.049
G2 X52.637 Y23.869 I0.477 J3.881
G3 X51.94 Y23.869 I-0.349 J-0.748
G2 X50.766 Y23.532 I-1.651 J3.544
G3 X50.419 Y23.185 I0.049 J-0.395
G2 X50.083 Y22.012 I-3.881 J0.477
G3 X50.083 Y21.314 I0.748 J-0.349
G2 X50.419 Y20.14 I-3.544 J-1.651
G3 X50.766 Y19.794 I0.395 J0.049
G2 X51.94 Y19.457 I-0.477 J-3.881
G3 X52.637 Y19.457 I0.349 J0.748
G2 X53.664 Y19.773 I1.651 J-3.544
X55.024 Y19.035 I0.202 J-1.25
G3 X56.539 Y19.355 I0.723 J0.32
G1 Y19.663
G2 X58.039 Y21.163 I1.5 J0
G1 X58.539
G3 X58.539 Y22.163 I0 J0.5
G1 X58.039
G2 X56.539 Y23.663 I0 J1.5
G1 Y25.413
G3 X56.039 Y25.913 I-0.5 J0
G1 X54.289
G2 X52.789 Y27.413 I0 J1.5
G1 Y27.913
G3 X51.789 Y27.913 I-0.5 J0
G1 Y27.413
G2 X50.289 Y25.913 I-1.5 J0
G1 X48.539
G3 X48.039 Y25.413 I0 J-0.5
G1 Y23.663
G2 X46.539 Y22.163 I-1.5 J0
G1 X46.039
G3 X46.039 Y21.163 I0 J-0.5
G1 X46.539
G2 X48.039 Y19.663 I0 J-1.5
G1 Y17.913
G3 X48.539 Y17.413 I0.5 J0
G1 X50.289
G2 X51.789 Y15.913 I0 J-1.5
G1 Y15.413
G3 X52.789 Y15.413 I0.5 J0
G1 Y15.913
G2 X54.289 Y17.413 I1.5 J0
G1 X56.039
G3 X56.539 Y17.913 I0 J0.5
G1 Y19.355
G3 X56.188 Y20.29 Z-0.21 I-1.425 J0 F333.3
G1 X53.597 Y23.269 Z-0.249
G3 X51.447 Y21.398 Z-0.293 I-1.075 J-0.935
X52.054 Y20.987 Z-0.3 I1.075 J0.935
G1 X52.098 Y20.972 F250
G3 X52.479 Y20.972 I0.19 J0.532
G1 X52.586 Y21.009
G3 X52.943 Y21.365 I-0.179 J0.535
G1 X52.98 Y21.473
G3 X52.98 Y21.853 I-0.532 J0.19
G1 X52.943 Y21.961
G3 X52.586 Y22.317 I-0.535 J-0.179
G1 X52.479 Y22.354
G3 X52.098 Y22.354 I-0.19 J-0.532
G1 X51.991 Y22.317
G3 X51.634 Y21.961 I0.179 J-0.535
G1 X51.597 Y21.853
G3 X51.597 Y21.473 I0.532 J-0.19
G1 X51.634 Y21.365
G3 X51.991 Y21.009 I0.535 J0.179
G1 X52.054 Y20.987
G2 X52.783 Y20.28 I-0.396 J-1.139
G3 X53.664 Y19.773 I0.752 J0.288
G1 X53.811 Y19.794
G3 X54.158 Y20.14 I-0.049 J0.395
G2 X54.494 Y21.314 I3.881 J-0.477
G3 X54.494 Y22.012 I-0.748 J0.349
G2 X54.158 Y23.185 I3.544 J1.651
G3 X53.811 Y23.532 I-0.395 J-0.049
G2 X52.637 Y23.869 I0.477 J3.881
G3 X51.94 Y23.869 I-0.349 J-0.748
G2 X50.766 Y23.532 I-1.651 J3.544
G3 X50.419 Y23.185 I0.049 J-0.395
G2 X50.083 Y22.012 I-3.881 J0.477
G3 X50.083 Y21.314 I0.748 J-0.349
G2 X50.419 Y20.14 I-3.544 J-1.651
G3 X50.766 Y19.794 I0.395 J0.049
G2 X51.94 Y19.457 I-0.477 J-3.881
G3 X52.637 Y19.457 I0.349 J0.748
G2 X53.664 Y19.773 I1.651 J-3.544
X55.024 Y19.035 I0.202 J-1.25
G3 X56.539 Y19.355 I0.723 J0.32
G1 Y19.663
G2 X58.039 Y21.163 I1.5 J0
G1 X58.539
G3 X58.539 Y22.163 I0 J0.5
G1 X58.039
G2 X56.539 Y23.663 I0 J1.5
G1 Y25.413
G3 X56.039 Y25.913 I-0.5 J0
G1 X54.289
G2 X52.789 Y27.413 I0 J1.5
G1 Y27.913
G3 X51.789 Y27.913 I-0.5 J0
G1 Y27.413
G2 X50.289 Y25.913 I-1.5 J0
G1 X48.539
G3 X48.039 Y25.413 I0 J-0.5
G1 Y23.663
G2 X46.539 Y22.163 I-1.5 J0
G1 X46.039
G3 X46.039 Y21.163 I0 J-0.5
G1 X46.539
G2 X48.039 Y19.663 I0 J-1.5
G1 Y17.913
G3 X48.539 Y17.413 I0.5 J0
G1 X50.289
G2 X51.789 Y15.913 I0 J-1.5
G1 Y15.413
G3 X52.789 Y15.413 I0.5 J0
G1 Y15.913
G2 X54.289 Y17.413 I1.5 J0
G1 X56.039
G3 X56.539 Y17.913 I0 J0.5
G1 Y19.355
G3 X56.188 Y20.29 Z-0.31 I-1.425 J0 F333.3
G1 X53.597 Y23.269 Z-0.349
G3 X51.447 Y21.398 Z-0.393 I-1.075 J-0.935
X52.054 Y20.987 Z-0.4 I1.075 J0.935
G1 X52.098 Y20.972 F250
G3 X52.479 Y20.972 I0.19 J0.532
G1 X52.586 Y21.009
G3 X52.943 Y21.365 I-0.179 J0.535
G1 X52.98 Y21.473
G3 X52.98 Y21.853 I-0.532 J0.19
G1 X52.943 Y21.961
G3 X52.586 Y22.317 I-0.535 J-0.179
G1 X52.479 Y22.354
G3 X52.098 Y22.354 I-0.19 J-0.532
G1 X51.991 Y22.317
G3 X51.634 Y21.961 I0.179 J-0.535
G1 X51.597 Y21.853
G3 X51.597 Y21.473 I0.532 J-0.19
G1 X51.634 Y21.365
G3 X51.991 Y21.009 I0.535 J0.179
G1 X52.054 Y20.987
G2 X52.783 Y20.28 I-0.396 J-1.139
G3 X53.664 Y19.773 I0.752 J0.288
G1 X53.811 Y19.794
G3 X54.158 Y20.14 I-0.049 J0.395
G2 X54.494 Y21.314 I3.881 J-0.477
G3 X54.494 Y22.012 I-0.748 J0.349
G2 X54.158 Y23.185 I3.544 J1.651
G3 X53.811 Y23.532 I-0.395 J-0.049
G2 X52.637 Y23.869 I0.477 J3.881
G3 X51.94 Y23.869 I-0.349 J-0.748
G2 X50.766 Y23.532 I-1.651 J3.544
G3 X50.419 Y23.185 I0.049 J-0.395
G2 X50.083 Y22.012 I-3.881 J0.477
G3 X50.083 Y21.314 I0.748 J-0.349
G2 X50.419 Y20.14 I-3.544 J-1.651
G3 X50.766 Y19.794 I0.395 J0.049
G2 X51.94 Y19.457 I-0.477 J-3.881
G3 X52.637 Y19.457 I0.349 J0.748
G2 X53.664 Y19.773 I1.651 J-3.544
X55.024 Y19.035 I0.202 J-1.25
G3 X56.539 Y19.355 I0.723 J0.32
G1 Y19.663
G2 X58.039 Y21.163 I1.5 J0
G1 X58.539
G3 X58.539 Y22.163 I0 J0.5
G1 X58.039
G2 X56.539 Y23.663 I0 J1.5
G1 Y25.413
G3 X56.039 Y25.913 I-0.5 J0
G1 X54.289
G2 X52.789 Y27.413 I0 J1.5
G1 Y27.913
G3 X51.789 Y27.913 I-0.5 J0
G1 Y27.413
G2 X50.289 Y25.913 I-1.5 J0
G1 X48.539
G3 X48.039 Y25.413 I0 J-0.5
G1 Y23.663
G2 X46.539 Y22.163 I-1.5 J0
G1 X46.039
G3 X46.039 Y21.163 I0 J-0.5
G1 X46.539
G2 X48.039 Y19.663 I0 J-1.5
G1 Y17.913
G3 X48.539 Y17.413 I0.5 J0
G1 X50.289
G2 X51.789 Y15.913 I0 J-1.5
G1 Y15.413
G3 X52.789 Y15.413 I0.5 J0
G1 Y15.913
G2 X54.289 Y17.413 I1.5 J0
G1 X56.039
G3 X56.539 Y17.913 I0 J0.5
G1 Y19.355
G3 X56.188 Y20.29 Z-0.41 I-1.425 J0 F333.3
G1 X53.597 Y23.269 Z-0.449
G3 X51.447 Y21.398 Z-0.493 I-1.075 J-0.935
X52.054 Y20.987 Z-0.5 I1.075 J0.935
G1 X52.098 Y20.972 F250
G3 X52.479 Y20.972 I0.19 J0.532
G1 X52.586 Y21.009
G3 X52.943 Y21.365 I-0.179 J0.535
G1 X52.98 Y21.473
G3 X52.98 Y21.853 I-0.532 J0.19
G1 X52.943 Y21.961
G3 X52.586 Y22.317 I-0.535 J-0.179
G1 X52.479 Y22.354
G3 X52.098 Y22.354 I-0.19 J-0.532
G1 X51.991 Y22.317
G3 X51.634 Y21.961 I0.179 J-0.535
G1 X51.597 Y21.853
G3 X51.597 Y21.473 I0.532 J-0.19
G1 X51.634 Y21.365
G3 X51.991 Y21.009 I0.535 J0.179
G1 X52.054 Y20.987
G2 X52.783 Y20.28 I-0.396 J-1.139
G3 X53.664 Y19.773 I0.752 J0.288
G1 X53.811 Y19.794
G3 X54.158 Y20.14 I-0.049 J0.395
G2 X54.494 Y21.314 I3.881 J-0.477
G3 X54.494 Y22.012 I-0.748 J0.349
G2 X54.158 Y23.185 I3.544 J1.651
G3 X53.811 Y23.532 I-0.395 J-0.049
G2 X52.637 Y23.869 I0.477 J3.881
G3 X51.94 Y23.869 I-0.349 J-0.748
G2 X50.766 Y23.532 I-1.651 J3.544
G3 X50.419 Y23.185 I0.049 J-0.395
G2 X50.083 Y22.012 I-3.881 J0.477
G3 X50.083 Y21.314 I0.748 J-0.349
G2 X50.419 Y20.14 I-3.544 J-1.651
G3 X50.766 Y19.794 I0.395 J0.049
G2 X51.94 Y19.457 I-0.477 J-3.881
G3 X52.637 Y19.457 I0.349 J0.748
G2 X53.664 Y19.773 I1.651 J-3.544
X55.024 Y19.035 I0.202 J-1.25
G3 X56.539 Y19.355 I0.723 J0.32
G1 Y19.663
G2 X58.039 Y21.163 I1.5 J0
G1 X58.539
G3 X58.539 Y22.163 I0 J0.5
G1 X58.039
G2 X56.539 Y23.663 I0 J1.5
G1 Y25.413
G3 X56.039 Y25.913 I-0.5 J0
G1 X54.289
G2 X52.789 Y27.413 I0 J1.5
G1 Y27.913
G3 X51.789 Y27.913 I-0.5 J0
G1 Y27.413
G2 X50.289 Y25.913 I-1.5 J0
G1 X48.539
G3 X48.039 Y25.413 I0 J-0.5
G1 Y23.663
G2 X46.539 Y22.163 I-1.5 J0
G1 X46.039
G3 X46.039 Y21.163 I0 J-0.5
G1 X46.539
G2 X48.039 Y19.663 I0 J-1.5
G1 Y17.913
G3 X48.539 Y17.413 I0.5 J0
G1 X50.289
G2 X51.789 Y15.913 I0 J-1.5
G1 Y15.413
G3 X52.789 Y15.413 I0.5 J0
G1 Y15.913
G2 X54.289 Y17.413 I1.5 J0
G1 X56.039
G3 X56.539 Y17.913 I0 J0.5
G1 Y19.355
G3 X56.188 Y20.29 Z-0.51 I-1.425 J0 F333.3
G1 X53.597 Y23.269 Z-0.549
G3 X51.447 Y21.398 Z-0.593 I-1.075 J-0.935
X52.054 Y20.987 Z-0.6 I1.075 J0.935
G1 X52.098 Y20.972 F250
G3 X52.479 Y20.972 I0.19 J0.532
G1 X52.586 Y21.009
G3 X52.943 Y21.365 I-0.179 J0.535
G1 X52.98 Y21.473
G3 X52.98 Y21.853 I-0.532 J0.19
G1 X52.943 Y21.961
G3 X52.586 Y22.317 I-0.535 J-0.179
G1 X52.479 Y22.354
G3 X52.098 Y22.354 I-0.19 J-0.532
G1 X51.991 Y22.317
G3 X51.634 Y21.961 I0.179 J-0.535
G1 X51.597 Y21.853
G3 X51.597 Y21.473 I0.532 J-0.19
G1 X51.634 Y21.365
G3 X51.991 Y21.009 I0.535 J0.179
G1 X52.054 Y20.987
G2 X52.783 Y20.28 I-0.396 J-1.139
G3 X53.664 Y19.773 I0.752 J0.288
G1 X53.811 Y19.794
G3 X54.158 Y20.14 I-0.049 J0.395
G2 X54.494 Y21.314 I3.881 J-0.477
G3 X54.494 Y22.012 I-0.748 J0.349
G2 X54.158 Y23.185 I3.544 J1.651
G3 X53.811 Y23.532 I-0.395 J-0.049
G2 X52.637 Y23.869 I0.477 J3.881
G3 X51.94 Y23.869 I-0.349 J-0.748
G2 X50.766 Y23.532 I-1.651 J3.544
G3 X50.419 Y23.185 I0.049 J-0.395
G2 X50.083 Y22.012 I-3.881 J0.477
G3 X50.083 Y21.314 I0.748 J-0.349
G2 X50.419 Y20.14 I-3.544 J-1.651
G3 X50.766 Y19.794 I0.395 J0.049
G2 X51.94 Y19.457 I-0.477 J-3.881
G3 X52.637 Y19.457 I0.349 J0.748
G2 X53.664 Y19.773 I1.651 J-3.544
X55.024 Y19.035 I0.202 J-1.25
G3 X56.539 Y19.355 I0.723 J0.32
G1 Y19.663
G2 X58.039 Y21.163 I1.5 J0
G1 X58.539
G3 X58.539 Y22.163 I0 J0.5
G1 X58.039
G2 X56.539 Y23.663 I0 J1.5
G1 Y25.413
G3 X56.039 Y25.913 I-0.5 J0
G1 X54.289
G2 X52.789 Y27.413 I0 J1.5
G1 Y27.913
G3 X51.789 Y27.913 I-0.5 J0
G1 Y27.413
G2 X50.289 Y25.913 I-1.5 J0
G1 X48.539
G3 X48.039 Y25.413 I0 J-0.5
G1 Y23.663
G2 X46.539 Y22.163 I-1.5 J0
G1 X46.039
G3 X46.039 Y21.163 I0 J-0.5
G1 X46.539
G2 X48.039 Y19.663 I0 J-1.5
G1 Y17.913
G3 X48.539 Y17.413 I0.5 J0
G1 X50.289
G2 X51.789 Y15.913 I0 J-1.5
G1 Y15.413
G3 X52.789 Y15.413 I0.5 J0
G1 Y15.913
G2 X54.289 Y17.413 I1.5 J0
G1 X56.039
G3 X56.539 Y17.913 I0 J0.5
G1 Y19.355
G3 X56.188 Y20.29 Z-0.61 I-1.425 J0 F333.3
G1 X53.597 Y23.269 Z-0.649
G3 X51.447 Y21.398 Z-0.693 I-1.075 J-0.935
X52.054 Y20.987 Z-0.7 I1.075 J0.935
G1 X52.098 Y20.972 F250
G3 X52.479 Y20.972 I0.19 J0.532
G1 X52.586 Y21.009
G3 X52.943 Y21.365 I-0.179 J0.535
G1 X52.98 Y21.473
G3 X52.98 Y21.853 I-0.532 J0.19
G1 X52.943 Y21.961
G3 X52.586 Y22.317 I-0.535 J-0.179
G1 X52.479 Y22.354
G3 X52.098 Y22.354 I-0.19 J-0.532
G1 X51.991 Y22.317
G3 X51.634 Y21.961 I0.179 J-0.535
G1 X51.597 Y21.853
G3 X51.597 Y21.473 I0.532 J-0.19
G1 X51.634 Y21.365
G3 X51.991 Y21.009 I0.535 J0.179
G1 X52.054 Y20.987
G2 X52.783 Y20.28 I-0.396 J-1.139
G3 X53.664 Y19.773 I0.752 J0.288
G1 X53.811 Y19.794
G3 X54.158 Y20.14 I-0.049 J0.395
G2 X54.494 Y21.314 I3.881 J-0.477
G3 X54.494 Y22.012 I-0.748 J0.349
G2 X54.158 Y23.185 I3.544 J1.651
G3 X53.811 Y23.532 I-0.395 J-0.049
G2 X52.637 Y23.869 I0.477 J3.881
G3 X51.94 Y23.869 I-0.349 J-0.748
G2 X50.766 Y23.532 I-1.651 J3.544
G3 X50.419 Y23.185 I0.049 J-0.395
G2 X50.083 Y22.012 I-3.881 J0.477
G3 X50.083 Y21.314 I0.748 J-0.349
G2 X50.419 Y20.14 I-3.544 J-1.651
G3 X50.766 Y19.794 I0.395 J0.049
G2 X51.94 Y19.457 I-0.477 J-3.881
G3 X52.637 Y19.457 I0.349 J0.748
G2 X53.664 Y19.773 I1.651 J-3.544
X55.024 Y19.035 I0.202 J-1.25
G3 X56.539 Y19.355 I0.723 J0.32
G1 Y19.663
G2 X58.039 Y21.163 I1.5 J0
G1 X58.539
G3 X58.539 Y22.163 I0 J0.5
G1 X58.039
G2 X56.539 Y23.663 I0 J1.5
G1 Y25.413
G3 X56.039 Y25.913 I-0.5 J0
G1 X54.289
G2 X52.789 Y27.413 I0 J1.5
G1 Y27.913
G3 X51.789 Y27.913 I-0.5 J0
G1 Y27.413
G2 X50.289 Y25.913 I-1.5 J0
G1 X48.539
G3 X48.039 Y25.413 I0 J-0.5
G1 Y23.663
G2 X46.539 Y22.163 I-1.5 J0
G1 X46.039
G3 X46.039 Y21.163 I0 J-0.5
G1 X46.539
G2 X48.039 Y19.663 I0 J-1.5
G1 Y17.913
G3 X48.539 Y17.413 I0.5 J0
G1 X50.289
G2 X51.789 Y15.913 I0 J-1.5
G1 Y15.413
G3 X52.789 Y15.413 I0.5 J0
G1 Y15.913
G2 X54.289 Y17.413 I1.5 J0
G1 X56.039
G3 X56.539 Y17.913 I0 J0.5
G1 Y19.355
G3 X56.188 Y20.29 Z-0.71 I-1.425 J0 F333.3
G1 X53.597 Y23.269 Z-0.749
G3 X51.447 Y21.398 Z-0.793 I-1.075 J-0.935
X52.054 Y20.987 Z-0.8 I1.075 J0.935
G1 X52.098 Y20.972 F250
G3 X52.479 Y20.972 I0.19 J0.532
G1 X52.586 Y21.009
G3 X52.943 Y21.365 I-0.179 J0.535
G1 X52.98 Y21.473
G3 X52.98 Y21.853 I-0.532 J0.19
G1 X52.943 Y21.961
G3 X52.586 Y22.317 I-0.535 J-0.179
G1 X52.479 Y22.354
G3 X52.098 Y22.354 I-0.19 J-0.532
G1 X51.991 Y22.317
G3 X51.634 Y21.961 I0.179 J-0.535
G1 X51.597 Y21.853
G3 X51.597 Y21.473 I0.532 J-0.19
G1 X51.634 Y21.365
G3 X51.991 Y21.009 I0.535 J0.179
G1 X52.054 Y20.987
G2 X52.783 Y20.28 I-0.396 J-1.139
G3 X53.664 Y19.773 I0.752 J0.288
G1 X53.811 Y19.794
G3 X54.158 Y20.14 I-0.049 J0.395
G2 X54.494 Y21.314 I3.881 J-0.477
G3 X54.494 Y22.012 I-0.748 J0.349
G2 X54.158 Y23.185 I3.544 J1.651
G3 X53.811 Y23.532 I-0.395 J-0.049
G2 X52.637 Y23.869 I0.477 J3.881
G3 X51.94 Y23.869 I-0.349 J-0.748
G2 X50.766 Y23.532 I-1.651 J3.544
G3 X50.419 Y23.185 I0.049 J-0.395
G2 X50.083 Y22.012 I-3.881 J0.477
G3 X50.083 Y21.314 I0.748 J-0.349
G2 X50.419 Y20.14 I-3.544 J-1.651
G3 X50.766 Y19.794 I0.395 J0.049
G2 X51.94 Y19.457 I-0.477 J-3.881
G3 X52.637 Y19.457 I0.349 J0.748
G2 X53.664 Y19.773 I1.651 J-3.544
X55.024 Y19.035 I0.202 J-1.25
G3 X56.539 Y19.355 I0.723 J0.32
G1 Y19.663
G2 X58.039 Y21.163 I1.5 J0
G1 X58.539
G3 X58.539 Y22.163 I0 J0.5
G1 X58.039
G2 X56.539 Y23.663 I0 J1.5
G1 Y25.413
G3 X56.039 Y25.913 I-0.5 J0
G1 X54.289
G2 X52.789 Y27.413 I0 J1.5
G1 Y27.913
G3 X51.789 Y27.913 I-0.5 J0
G1 Y27.413
G2 X50.289 Y25.913 I-1.5 J0
G1 X48.539
G3 X48.039 Y25.413 I0 J-0.5
G1 Y23.663
G2 X46.539 Y22.163 I-1.5 J0
G1 X46.039
G3 X46.039 Y21.163 I0 J-0.5
G1 X46.539
G2 X48.039 Y19.663 I0 J-1.5
G1 Y17.913
G3 X48.539 Y17.413 I0.5 J0
G1 X50.289
G2 X51.789 Y15.913 I0 J-1.5
G1 Y15.413
G3 X52.789 Y15.413 I0.5 J0
G1 Y15.913
G2 X54.289 Y17.413 I1.5 J0
G1 X56.039
G3 X56.539 Y17.913 I0 J0.5
G1 Y19.355
G3 X56.188 Y20.29 Z-0.81 I-1.425 J0 F333.3
G1 X53.597 Y23.269 Z-0.849
G3 X51.447 Y21.398 Z-0.893 I-1.075 J-0.935
X52.054 Y20.987 Z-0.9 I1.075 J0.935
G1 X52.098 Y20.972 F250
G3 X52.479 Y20.972 I0.19 J0.532
G1 X52.586 Y21.009
G3 X52.943 Y21.365 I-0.179 J0.535
G1 X52.98 Y21.473
G3 X52.98 Y21.853 I-0.532 J0.19
G1 X52.943 Y21.961
G3 X52.586 Y22.317 I-0.535 J-0.179
G1 X52.479 Y22.354
G3 X52.098 Y22.354 I-0.19 J-0.532
G1 X51.991 Y22.317
G3 X51.634 Y21.961 I0.179 J-0.535
G1 X51.597 Y21.853
G3 X51.597 Y21.473 I0.532 J-0.19
G1 X51.634 Y21.365
G3 X51.991 Y21.009 I0.535 J0.179
G1 X52.054 Y20.987
G2 X52.783 Y20.28 I-0.396 J-1.139
G3 X53.664 Y19.773 I0.752 J0.288
G1 X53.811 Y19.794
G3 X54.158 Y20.14 I-0.049 J0.395
G2 X54.494 Y21.314 I3.881 J-0.477
G3 X54.494 Y22.012 I-0.748 J0.349
G2 X54.158 Y23.185 I3.544 J1.651
G3 X53.811 Y23.532 I-0.395 J-0.049
G2 X52.637 Y23.869 I0.477 J3.881
G3 X51.94 Y23.869 I-0.349 J-0.748
G2 X50.766 Y23.532 I-1.651 J3.544
G3 X50.419 Y23.185 I0.049 J-0.395
G2 X50.083 Y22.012 I-3.881 J0.477
G3 X50.083 Y21.314 I0.748 J-0.349
G2 X50.419 Y20.14 I-3.544 J-1.651
G3 X50.766 Y19.794 I0.395 J0.049
G2 X51.94 Y19.457 I-0.477 J-3.881
G3 X52.637 Y19.457 I0.349 J0.748
G2 X53.664 Y19.773 I1.651 J-3.544
X55.024 Y19.035 I0.202 J-1.25
G3 X56.539 Y19.355 I0.723 J0.32
G1 Y19.663
G2 X58.039 Y21.163 I1.5 J0
G1 X58.539
G3 X58.539 Y22.163 I0 J0.5
G1 X58.039
G2 X56.539 Y23.663 I0 J1.5
G1 Y25.413
G3 X56.039 Y25.913 I-0.5 J0
G1 X54.289
G2 X52.789 Y27.413 I0 J1.5
G1 Y27.913
G3 X51.789 Y27.913 I-0.5 J0
G1 Y27.413
G2 X50.289 Y25.913 I-1.5 J0
G1 X48.539
G3 X48.039 Y25.413 I0 J-0.5
G1 Y23.663
G2 X46.539 Y22.163 I-1.5 J0
G1 X46.039
G3 X46.039 Y21.163 I0 J-0.5
G1 X46.539
G2 X48.039 Y19.663 I0 J-1.5
G1 Y17.913
G3 X48.539 Y17.413 I0.5 J0
G1 X50.289
G2 X51.789 Y15.913 I0 J-1.5
G1 Y15.413
G3 X52.789 Y15.413 I0.5 J0
G1 Y15.913
G2 X54.289 Y17.413 I1.5 J0
G1 X56.039
G3 X56.539 Y17.913 I0 J0.5
G1 Y19.355
G3 X56.188 Y20.29 Z-0.91 I-1.425 J0 F333.3
G1 X53.597 Y23.269 Z-0.949
G3 X51.447 Y21.398 Z-0.993 I-1.075 J-0.935
X52.054 Y20.987 Z-1 I1.075 J0.935
G1 X52.098 Y20.972 F250
G3 X52.479 Y20.972 I0.19 J0.532
G1 X52.586 Y21.009
G3 X52.943 Y21.365 I-0.179 J0.535
G1 X52.98 Y21.473
G3 X52.98 Y21.853 I-0.532 J0.19
G1 X52.943 Y21.961
G3 X52.586 Y22.317 I-0.535 J-0.179
G1 X52.479 Y22.354
G3 X52.098 Y22.354 I-0.19 J-0.532
G1 X51.991 Y22.317
G3 X51.634 Y21.961 I0.179 J-0.535
G1 X51.597 Y21.853
G3 X51.597 Y21.473 I0.532 J-0.19
G1 X51.634 Y21.365
G3 X51.991 Y21.009 I0.535 J0.179
G1 X52.054 Y20.987
G2 X52.783 Y20.28 I-0.396 J-1.139
G3 X53.664 Y19.773 I0.752 J0.288
G1 X53.811 Y19.794
G3 X54.158 Y20.14 I-0.049 J0.395
G2 X54.494 Y21.314 I3.881 J-0.477
G3 X54.494 Y22.012 I-0.748 J0.349
G2 X54.158 Y23.185 I3.544 J1.651
G3 X53.811 Y23.532 I-0.395 J-0.049
G2 X52.637 Y23.869 I0.477 J3.881
G3 X51.94 Y23.869 I-0.349 J-0.748
G2 X50.766 Y23.532 I-1.651 J3.544
G3 X50.419 Y23.185 I0.049 J-0.395
G2 X50.083 Y22.012 I-3.881 J0.477
G3 X50.083 Y21.314 I0.748 J-0.349
G2 X50.419 Y20.14 I-3.544 J-1.651
G3 X50.766 Y19.794 I0.395 J0.049
G2 X51.94 Y19.457 I-0.477 J-3.881
G3 X52.637 Y19.457 I0.349 J0.748
G2 X53.664 Y19.773 I1.651 J-3.544
X55.024 Y19.035 I0.202 J-1.25
G3 X56.539 Y19.355 I0.723 J0.32
G1 Y19.663
G2 X58.039 Y21.163 I1.5 J0
G1 X58.539
G3 X58.539 Y22.163 I0 J0.5
G1 X58.039
G2 X56.539 Y23.663 I0 J1.5
G1 Y25.413
G3 X56.039 Y25.913 I-0.5 J0
G1 X54.289
G2 X52.789 Y27.413 I0 J1.5
G1 Y27.913
G3 X51.789 Y27.913 I-0.5 J0
G1 Y27.413
G2 X50.289 Y25.913 I-1.5 J0
G1 X48.539
G3 X48.039 Y25.413 I0 J-0.5
G1 Y23.663
G2 X46.539 Y22.163 I-1.5 J0
G1 X46.039
G3 X46.039 Y21.163 I0 J-0.5
G1 X46.539
G2 X48.039 Y19.663 I0 J-1.5
G1 Y17.913
G3 X48.539 Y17.413 I0.5 J0
G1 X50.289
G2 X51.789 Y15.913 I0 J-1.5
G1 Y15.413
G3 X52.789 Y15.413 I0.5 J0
G1 Y15.913
G2 X54.289 Y17.413 I1.5 J0
G1 X56.039
G3 X56.539 Y17.913 I0 J0.5
G1 Y19.355
G3 X56.188 Y20.29 Z-1.01 I-1.425 J0 F333.3
G1 X53.597 Y23.269 Z-1.049
G3 X51.447 Y21.398 Z-1.093 I-1.075 J-0.935
X52.054 Y20.987 Z-1.1 I1.075 J0.935
G1 X52.098 Y20.972 F250
G3 X52.479 Y20.972 I0.19 J0.532
G1 X52.586 Y21.009
G3 X52.943 Y21.365 I-0.179 J0.535
G1 X52.98 Y21.473
G3 X52.98 Y21.853 I-0.532 J0.19
G1 X52.943 Y21.961
G3 X52.586 Y22.317 I-0.535 J-0.179
G1 X52.479 Y22.354
G3 X52.098 Y22.354 I-0.19 J-0.532
G1 X51.991 Y22.317
G3 X51.634 Y21.961 I0.179 J-0.535
G1 X51.597 Y21.853
G3 X51.597 Y21.473 I0.532 J-0.19
G1 X51.634 Y21.365
G3 X51.991 Y21.009 I0.535 J0.179
G1 X52.054 Y20.987
G2 X52.783 Y20.28 I-0.396 J-1.139
G3 X53.664 Y19.773 I0.752 J0.288
G1 X53.811 Y19.794
G3 X54.158 Y20.14 I-0.049 J0.395
G2 X54.494 Y21.314 I3.881 J-0.477
G3 X54.494 Y22.012 I-0.748 J0.349
G2 X54.158 Y23.185 I3.544 J1.651
G3 X53.811 Y23.532 I-0.395 J-0.049
G2 X52.637 Y23.869 I0.477 J3.881
G3 X51.94 Y23.869 I-0.349 J-0.748
G2 X50.766 Y23.532 I-1.651 J3.544
G3 X50.419 Y23.185 I0.049 J-0.395
G2 X50.083 Y22.012 I-3.881 J0.477
G3 X50.083 Y21.314 I0.748 J-0.349
G2 X50.419 Y20.14 I-3.544 J-1.651
G3 X50.766 Y19.794 I0.395 J0.049
G2 X51.94 Y19.457 I-0.477 J-3.881
G3 X52.637 Y19.457 I0.349 J0.748
G2 X53.664 Y19.773 I1.651 J-3.544
X55.024 Y19.035 I0.202 J-1.25
G3 X56.539 Y19.355 I0.723 J0.32
G1 Y19.663
G2 X58.039 Y21.163 I1.5 J0
G1 X58.539
G3 X58.539 Y22.163 I0 J0.5
G1 X58.039
G2 X56.539 Y23.663 I0 J1.5
G1 Y25.413
G3 X56.039 Y25.913 I-0.5 J0
G1 X54.289
G2 X52.789 Y27.413 I0 J1.5
G1 Y27.913
G3 X51.789 Y27.913 I-0.5 J0
G1 Y27.413
G2 X50.289 Y25.913 I-1.5 J0
G1 X48.539
G3 X48.039 Y25.413 I0 J-0.5
G1 Y23.663
G2 X46.539 Y22.163 I-1.5 J0
G1 X46.039
G3 X46.039 Y21.163 I0 J-0.5
G1 X46.539
G2 X48.039 Y19.663 I0 J-1.5
G1 Y17.913
G3 X48.539 Y17.413 I0.5 J0
G1 X50.289
G2 X51.789 Y15.913 I0 J-1.5
G1 Y15.413
G3 X52.789 Y15.413 I0.5 J0
G1 Y15.913
G2 X54.289 Y17.413 I1.5 J0
G1 X56.039
G3 X56.539 Y17.913 I0 J0.5
G1 Y19.355
G3 X56.188 Y20.29 Z-1.11 I-1.425 J0 F333.3
G1 X53.597 Y23.269 Z-1.149
G3 X51.447 Y21.398 Z-1.193 I-1.075 J-0.935
X52.054 Y20.987 Z-1.2 I1.075 J0.935
G1 X52.098 Y20.972 F250
G3 X52.479 Y20.972 I0.19 J0.532
G1 X52.586 Y21.009
G3 X52.943 Y21.365 I-0.179 J0.535
G1 X52.98 Y21.473
G3 X52.98 Y21.853 I-0.532 J0.19
G1 X52.943 Y21.961
G3 X52.586 Y22.317 I-0.535 J-0.179
G1 X52.479 Y22.354
G3 X52.098 Y22.354 I-0.19 J-0.532
G1 X51.991 Y22.317
G3 X51.634 Y21.961 I0.179 J-0.535
G1 X51.597 Y21.853
G3 X51.597 Y21.473 I0.532 J-0.19
G1 X51.634 Y21.365
G3 X51.991 Y21.009 I0.535 J0.179
G1 X52.054 Y20.987
G2 X52.783 Y20.28 I-0.396 J-1.139
G3 X53.664 Y19.773 I0.752 J0.288
G1 X53.811 Y19.794
G3 X54.158 Y20.14 I-0.049 J0.395
G2 X54.494 Y21.314 I3.881 J-0.477
G3 X54.494 Y22.012 I-0.748 J0.349
G2 X54.158 Y23.185 I3.544 J1.651
G3 X53.811 Y23.532 I-0.395 J-0.049
G2 X52.637 Y23.869 I0.477 J3.881
G3 X51.94 Y23.869 I-0.349 J-0.748
G2 X50.766 Y23.532 I-1.651 J3.544
G3 X50.419 Y23.185 I0.049 J-0.395
G2 X50.083 Y22.012 I-3.881 J0.477
G3 X50.083 Y21.314 I0.748 J-0.349
G2 X50.419 Y20.14 I-3.544 J-1.651
G3 X50.766 Y19.794 I0.395 J0.049
G2 X51.94 Y19.457 I-0.477 J-3.881
G3 X52.637 Y19.457 I0.349 J0.748
G2 X53.664 Y19.773 I1.651 J-3.544
X55.024 Y19.035 I0.202 J-1.25
G3 X56.539 Y19.355 I0.723 J0.32
G1 Y19.663
G2 X58.039 Y21.163 I1.5 J0
G1 X58.539
G3 X58.539 Y22.163 I0 J0.5
G1 X58.039
G2 X56.539 Y23.663 I0 J1.5
G1 Y25.413
G3 X56.039 Y25.913 I-0.5 J0
G1 X54.289
G2 X52.789 Y27.413 I0 J1.5
G1 Y27.913
G3 X51.789 Y27.913 I-0.5 J0
G1 Y27.413
G2 X50.289 Y25.913 I-1.5 J0
G1 X48.539
G3 X48.039 Y25.413 I0 J-0.5
G1 Y23.663
G2 X46.539 Y22.163 I-1.5 J0
G1 X46.039
G3 X46.039 Y21.163 I0 J-0.5
G1 X46.539
G2 X48.039 Y19.663 I0 J-1.5
G1 Y17.913
G3 X48.539 Y17.413 I0.5 J0
G1 X50.289
G2 X51.789 Y15.913 I0 J-1.5
G1 Y15.413
G3 X52.789 Y15.413 I0.5 J0
G1 Y15.913
G2 X54.289 Y17.413 I1.5 J0
G1 X56.039
G3 X56.539 Y17.913 I0 J0.5
G1 Y19.355
G3 X56.188 Y20.29 Z-1.21 I-1.425 J0 F333.3
G1 X53.597 Y23.269 Z-1.249
G3 X51.447 Y21.398 Z-1.293 I-1.075 J-0.935
X52.054 Y20.987 Z-1.3 I1.075 J0.935
G1 X52.098 Y20.972 F250
G3 X52.479 Y20.972 I0.19 J0.532
G1 X52.586 Y21.009
G3 X52.943 Y21.365 I-0.179 J0.535
G1 X52.98 Y21.473
G3 X52.98 Y21.853 I-0.532 J0.19
G1 X52.943 Y21.961
G3 X52.586 Y22.317 I-0.535 J-0.179
G1 X52.479 Y22.354
G3 X52.098 Y22.354 I-0.19 J-0.532
G1 X51.991 Y22.317
G3 X51.634 Y21.961 I0.179 J-0.535
G1 X51.597 Y21.853
G3 X51.597 Y21.473 I0.532 J-0.19
G1 X51.634 Y21.365
G3 X51.991 Y21.009 I0.535 J0.179
G1 X52.054 Y20.987
G2 X52.783 Y20.28 I-0.396 J-1.139
G3 X53.664 Y19.773 I0.752 J0.288
G1 X53.811 Y19.794
G3 X54.158 Y20.14 I-0.049 J0.395
G2 X54.494 Y21.314 I3.881 J-0.477
G3 X54.494 Y22.012 I-0.748 J0.349
G2 X54.158 Y23.185 I3.544 J1.651
G3 X53.811 Y23.532 I-0.395 J-0.049
G2 X52.637 Y23.869 I0.477 J3.881
G3 X51.94 Y23.869 I-0.349 J-0.748
G2 X50.766 Y23.532 I-1.651 J3.544
G3 X50.419 Y23.185 I0.049 J-0.395
G2 X50.083 Y22.012 I-3.881 J0.477
G3 X50.083 Y21.314 I0.748 J-0.349
G2 X50.419 Y20.14 I-3.544 J-1.651
G3 X50.766 Y19.794 I0.395 J0.049
G2 X51.94 Y19.457 I-0.477 J-3.881
G3 X52.637 Y19.457 I0.349 J0.748
G2 X53.664 Y19.773 I1.651 J-3.544
X55.024 Y19.035 I0.202 J-1.25
G3 X56.539 Y19.355 I0.723 J0.32
G1 Y19.663
G2 X58.039 Y21.163 I1.5 J0
G1 X58.539
G3 X58.539 Y22.163 I0 J0.5
G1 X58.039
G2 X56.539 Y23.663 I0 J1.5
G1 Y25.413
G3 X56.039 Y25.913 I-0.5 J0
G1 X54.289
G2 X52.789 Y27.413 I0 J1.5
G1 Y27.913
G3 X51.789 Y27.913 I-0.5 J0
G1 Y27.413
G2 X50.289 Y25.913 I-1.5 J0
G1 X48.539
G3 X48.039 Y25.413 I0 J-0.5
G1 Y23.663
G2 X46.539 Y22.163 I-1.5 J0
G1 X46.039
G3 X46.039 Y21.163 I0 J-0.5
G1 X46.539
G2 X48.039 Y19.663 I0 J-1.5
G1 Y17.913
G3 X48.539 Y17.413 I0.5 J0
G1 X50.289
G2 X51.789 Y15.913 I0 J-1.5
G1 Y15.413
G3 X52.789 Y15.413 I0.5 J0
G1 Y15.913
G2 X54.289 Y17.413 I1.5 J0
G1 X56.039
G3 X56.539 Y17.913 I0 J0.5
G1 Y19.355
X56.533 Y19.412 Z-1.289
X56.517 Y19.467 Z-1.277
X56.495 Y19.51 Z-1.245
X56.467 Y19.55 Z-1.212
X56.419 Y19.594 Z-1.115
X56.401 Y19.607 Z-1
G0 Z23
X56.539 Y-17.782
Z21
G1 Z3.8 F250
G19 G3 Y-17.493 Z3.5 J0.3 K0 F333.3
G1 Y-15.587 Z3.433
G17 G3 X56.039 Y-15.087 Z3.406 I-0.5 J0
G1 X48.539 Z3.144
G3 X48.039 Y-15.587 Z3.117 I0 J-0.5
G1 Y-19.337 Z2.986
G3 X49.039 Y-19.337 Z2.931 I0.5 J0
G1 Y-17.587 Z2.87
G2 X50.539 Y-16.087 Z2.787 I1.5 J0
G1 X54.039 Z2.665
G2 X55.539 Y-17.587 Z2.583 I0 J-1.5
G1 Y-19.337 Z2.522
G3 X56.539 Y-19.337 Z2.467 I0.5 J0
G1 Y-15.587 Z2.336
G3 X56.039 Y-15.087 Z2.309 I-0.5 J0
G1 X48.539 Z2.047
G3 X48.039 Y-15.587 Z2.019 I0 J-0.5
G1 Y-19.337 Z1.888
G3 X49.039 Y-19.337 Z1.834 I0.5 J0
G1 Y-17.587 Z1.772
G2 X50.539 Y-16.087 Z1.69 I1.5 J0
G1 X54.039 Z1.568
G2 X55.539 Y-17.587 Z1.486 I0 J-1.5
G1 Y-19.337 Z1.425
G3 X56.539 Y-19.337 Z1.37 I0.5 J0
G1 Y-15.587 Z1.239
G3 X56.039 Y-15.087 Z1.211 I-0.5 J0
G1 X48.539 Z0.949
G3 X48.039 Y-15.587 Z0.922 I0 J-0.5
G1 Y-16.215 Z0.9
Y-19.337 F250
G3 X49.039 Y-19.337 I0.5 J0
G1 Y-17.587
G2 X50.539 Y-16.087 I1.5 J0
G1 X54.039
G2 X55.539 Y-17.587 I0 J-1.5
G1 Y-19.337
G3 X56.539 Y-19.337 I0.5 J0
G1 Y-15.587
G3 X56.039 Y-15.087 I-0.5 J0
G1 X48.539
G3 X48.039 Y-15.587 I0 J-0.5
G1 Y-16.215
Y-19.079 Z0.8 F333.3
Y-19.337 F250
G3 X49.039 Y-19.337 I0.5 J0
G1 Y-17.587
G2 X50.539 Y-16.087 I1.5 J0
G1 X54.039
G2 X55.539 Y-17.587 I0 J-1.5
G1 Y-19.337
G3 X56.539 Y-19.337 I0.5 J0
G1 Y-15.587
G3 X56.039 Y-15.087 I-0.5 J0
G1 X48.539
G3 X48.039 Y-15.587 I0 J-0.5
G1 Y-19.079
Y-19.337 Z0.791 F333.3
G3 X49.039 Y-19.337 Z0.736 I0.5 J0
G1 Y-18.302 Z0.7
Y-17.587 F250
G2 X50.539 Y-16.087 I1.5 J0
G1 X54.039
G2 X55.539 Y-17.587 I0 J-1.5
G1 Y-19.337
G3 X56.539 Y-19.337 I0.5 J0
G1 Y-15.587
G3 X56.039 Y-15.087 I-0.5 J0
G1 X48.539
G3 X48.039 Y-15.587 I0 J-0.5
G1 Y-19.079
Y-19.337
G3 X49.039 Y-19.337 I0.5 J0
G1 Y-18.302
Y-17.587 Z0.675 F333.3
G2 X50.331 Y-16.101 Z0.6 I1.5 J0
G1 X50.435 Y-16.091 F250
X50.539 Y-16.087
X54.039
G2 X55.539 Y-17.587 I0 J-1.5
G1 Y-19.337
G3 X56.539 Y-19.337 I0.5 J0
G1 Y-15.587
G3 X56.039 Y-15.087 I-0.5 J0
G1 X48.539
G3 X48.039 Y-15.587 I0 J-0.5
G1 Y-19.337
G3 X49.039 Y-19.337 I0.5 J0
G1 Y-18.302
Y-17.587
G2 X50.331 Y-16.101 I1.5 J0
G1 X50.435 Y-16.091 Z0.596 F333.3
X50.539 Y-16.087 Z0.593
X53.194 Z0.5
X54.039 F250
G2 X55.539 Y-17.587 I0 J-1.5
G1 Y-19.337
G3 X56.539 Y-19.337 I0.5 J0
G1 Y-15.587
G3 X56.039 Y-15.087 I-0.5 J0
G1 X48.539
G3 X48.039 Y-15.587 I0 J-0.5
G1 Y-19.337
G3 X49.039 Y-19.337 I0.5 J0
G1 Y-17.587
G2 X50.539 Y-16.087 I1.5 J0
G1 X53.194
X54.039 Z0.471 F333.3
G2 X55.501 Y-17.253 Z0.4 I0 J-1.5
X55.539 Y-17.587 I-1.462 J-0.334 F250
G1 Y-19.337
G3 X56.539 Y-19.337 I0.5 J0
G1 Y-15.587
G3 X56.039 Y-15.087 I-0.5 J0
G1 X48.539
G3 X48.039 Y-15.587 I0 J-0.5
G1 Y-19.337
G3 X49.039 Y-19.337 I0.5 J0
G1 Y-17.587
G2 X50.539 Y-16.087 I1.5 J0
G1 X53.194
X54.039
G2 X55.501 Y-17.253 I0 J-1.5
X55.539 Y-17.587 Z0.388 I-1.462 J-0.334 F333.3
G1 Y-19.337 Z0.327
G3 X56.03 Y-19.837 Z0.3 I0.5 J0
X56.539 Y-19.337 I0.009 J0.5 F250
G1 Y-15.587
G3 X56.039 Y-15.087 I-0.5 J0
G1 X48.539
G3 X48.039 Y-15.587 I0 J-0.5
G1 Y-19.337
G3 X49.039 Y-19.337 I0.5 J0
G1 Y-17.587
G2 X50.539 Y-16.087 I1.5 J0
G1 X54.039
G2 X55.539 Y-17.587 I0 J-1.5
G1 Y-19.337
G3 X56.03 Y-19.837 I0.5 J0
X56.539 Y-19.337 Z0.272 I0.009 J0.5 F333.3
G1 Y-17.268 Z0.2
Y-15.587 F250
G3 X56.039 Y-15.087 I-0.5 J0
G1 X48.539
G3 X48.039 Y-15.587 I0 J-0.5
G1 Y-19.337
G3 X49.039 Y-19.337 I0.5 J0
G1 Y-17.587
G2 X50.539 Y-16.087 I1.5 J0
G1 X54.039
G2 X55.539 Y-17.587 I0 J-1.5
G1 Y-19.337
G3 X56.539 Y-19.337 I0.5 J0
G1 Y-17.268
Y-15.587 Z0.141 F333.3
G3 X56.039 Y-15.087 Z0.114 I-0.5 J0
G1 X55.641 Z0.1
X48.539 F250
G3 X48.039 Y-15.587 I0 J-0.5
G1 Y-19.337
G3 X49.039 Y-19.337 I0.5 J0
G1 Y-17.587
G2 X50.539 Y-16.087 I1.5 J0
G1 X54.039
G2 X55.539 Y-17.587 I0 J-1.5
G1 Y-19.337
G3 X56.539 Y-19.337 I0.5 J0
G1 Y-17.268
Y-15.587
G3 X56.039 Y-15.087 I-0.5 J0
G1 X55.641
X52.777 Z0 F333.3
X48.539 F250
G3 X48.039 Y-15.587 I0 J-0.5
G1 Y-19.337
G3 X49.039 Y-19.337 I0.5 J0
G1 Y-17.587
G2 X50.539 Y-16.087 I1.5 J0
G1 X54.039
G2 X55.539 Y-17.587 I0 J-1.5
G1 Y-19.337
G3 X56.539 Y-19.337 I0.5 J0
G1 Y-15.587
