(1001)
(Machine)
(  vendor: Autodesk)
(  description: Generic 3-axis)
(T3  D=3 CR=0 - ZMIN=-4.8 - flat end mill)
G90 G94
G17
G21

(2D Pocket2)
T3
S1000 M3
G54
M8
G0 X-51.121 Y17.932
Z15
Z1
G1 Z-1.2 F250
X-51.099 Y17.963 Z-1.347 F333.3
X-51.041 Y18.052 Z-1.456
X-50.973 Y18.18 Z-1.5
G3 X-53.551 Y19.393 Z-1.656 I-1.289 J0.607
X-50.973 Y18.18 Z-1.813 I1.289 J-0.607
X-53.551 Y19.393 Z-1.969 I-1.289 J0.607
X-50.973 Y18.18 Z-2.125 I1.289 J-0.607
X-53.551 Y19.393 Z-2.282 I-1.289 J0.607
X-50.973 Y18.18 Z-2.438 I1.289 J-0.607
X-53.551 Y19.393 Z-2.594 I-1.289 J0.607
X-50.973 Y18.18 Z-2.751 I1.289 J-0.607
X-53.551 Y19.393 Z-2.907 I-1.289 J0.607
X-50.973 Y18.18 Z-3.063 I1.289 J-0.607
X-53.551 Y19.393 Z-3.22 I-1.289 J0.607
X-50.973 Y18.18 Z-3.376 I1.289 J-0.607
X-53.551 Y19.393 Z-3.532 I-1.289 J0.607
X-50.973 Y18.18 Z-3.689 I1.289 J-0.607
X-53.551 Y19.393 Z-3.845 I-1.289 J0.607
X-50.973 Y18.18 Z-4.001 I1.289 J-0.607
X-53.551 Y19.393 Z-4.158 I-1.289 J0.607
X-50.973 Y18.18 Z-4.314 I1.289 J-0.607
X-53.551 Y19.393 Z-4.47 I-1.289 J0.607
X-50.973 Y18.18 Z-4.627 I1.289 J-0.607
X-53.551 Y19.393 Z-4.783 I-1.289 J0.607
X-53.68 Y18.926 Z-4.8 I1.289 J-0.607
G1 X-53.754 Y18.17 F250
G3 X-53.471 Y17.857 I0.283 J-0.028
G1 X-51.952
G3 X-51.669 Y18.17 I0 J0.284
G1 X-52.26 Y24.196
G3 X-52.527 Y24.548 I-0.42 J-0.041
G1 X-52.558 Y24.56
G3 X-52.865 Y24.56 I-0.154 J-0.393
G1 X-52.896 Y24.548
G3 X-53.163 Y24.196 I0.152 J-0.394
G1 X-53.68 Y18.926
G2 X-54.604 Y17.293 I-2.303 J0.226
G3 X-54.015 Y15.513 I0.589 J-0.793
G1 X-49.366
G3 X-49.083 Y15.825 I0 J0.284
G1 X-50.075 Y25.948
G3 X-50.453 Y26.37 I-0.477 J-0.047
G2 X-52.344 Y27.026 I1.664 J7.842
G3 X-53.079 Y27.026 I-0.368 J-0.744
G2 X-54.97 Y26.37 I-3.554 J7.185
G3 X-55.348 Y25.948 I0.1 J-0.469
G1 X-56.34 Y15.825
G3 X-56.057 Y15.513 I0.283 J-0.028
G1 X-54.015
G2 X-52.256 Y14.34 I0 J-1.905
G3 X-50.498 Y13.168 I1.759 J0.733
G1 X-46.773
G3 X-46.496 Y13.473 I0 J0.279
G1 X-47.912 Y27.914
G3 X-48.286 Y28.328 I-0.466 J-0.046
X-49.098 Y28.467 I-3.018 J-15.091
G2 X-49.91 Y28.607 I2.206 J15.23
X-51.276 Y29.09 I1.001 J5.005
X-52.476 Y29.902 I2.987 J5.706
G3 X-52.947 Y29.902 I-0.235 J-0.275
G2 X-54.147 Y29.09 I-4.187 J4.893
X-55.513 Y28.607 I-2.367 J4.522
X-56.325 Y28.467 I-3.018 J15.091
G3 X-57.137 Y28.328 I2.206 J-15.23
X-57.511 Y27.914 I0.092 J-0.459
G1 X-58.927 Y13.473
G3 X-58.65 Y13.168 I0.277 J-0.027
G1 X-50.498
G2 X-48.749 Y12.002 I0 J-1.894
G3 X-47.001 Y10.836 I1.748 J0.729
G1 X-44.18
G3 X-43.923 Y11.12 I0.002 J0.256
G1 X-45.689 Y28.685
G2 X-45.635 Y29.585 I2.847 J0.279
X-45.344 Y30.437 I3.986 J-0.886
G3 X-45.52 Y30.632 I-0.129 J0.061
G2 X-47.504 Y30.497 I-1.234 J3.489
G3 X-49.453 Y30.893 I-60.335 J-291.589
G2 X-52.108 Y34.875 I0.664 J3.319
G3 X-53.315 Y35.117 I-0.604 J0.121
X-53.315 Y34.875 I0.604 J-0.121
G2 X-55.97 Y30.893 I-3.319 J-0.664
G3 X-57.919 Y30.497 I58.386 J-291.986
G2 X-59.903 Y30.632 I-0.75 J3.624
G3 X-60.079 Y30.437 I-0.047 J-0.134
G2 X-59.788 Y29.585 I-3.695 J-1.738
X-59.734 Y28.685 I-2.792 J-0.62
G1 X-61.5 Y11.12
G3 X-61.243 Y10.836 I0.255 J-0.027
G1 X-47.001
X-46.944 Y10.842 Z-4.789
X-46.889 Y10.858 Z-4.777
X-46.845 Y10.88 Z-4.745
X-46.806 Y10.908 Z-4.712
X-46.761 Y10.955 Z-4.615
X-46.748 Y10.974 Z-4.5
Z-2
X-45.696 Y12.46
Z-4.5
X-45.69 Y12.455 Z-4.567
X-45.674 Y12.441 Z-4.63
X-45.647 Y12.417 Z-4.687
X-45.611 Y12.386 Z-4.735
X-45.568 Y12.349 Z-4.77
X-45.52 Y12.308 Z-4.792
X-45.469 Y12.264 Z-4.8
X-40.448 Y7.913
X-40.417 Y7.877
X-40.4 Y7.832
X-40.397 Y7.785
X-40.409 Y7.739
X-40.435 Y7.699
X-40.468 Y7.652
X-40.488 Y7.598
X-40.495 Y7.541
Y7.496
G3 X-39.928 Y7.496 I0.283 J0
X-40.239 Y7.778 I-0.283 J0
G1 X-40.284 Y7.774
X-40.34 Y7.762
X-40.392 Y7.736
X-40.435 Y7.699
X-40.462 Y7.663 Z-4.793
X-40.481 Y7.622 Z-4.786
X-40.492 Y7.582 Z-4.766
X-40.495 Y7.541 Z-4.745
Y7.496 Z-4.706
X-40.488 Y7.436 Z-4.611
X-40.483 Y7.415 Z-4.5
G0 Z5
X-59.736 Y12.47
Z1
G1 Z-2 F250
Z-4.5
X-59.741 Y12.465 Z-4.567
X-59.758 Y12.45 Z-4.63
X-59.783 Y12.425 Z-4.687
X-59.818 Y12.393 Z-4.735
X-59.859 Y12.353 Z-4.77
X-59.905 Y12.31 Z-4.792
X-59.954 Y12.264 Z-4.8
X-64.774 Y7.691
X-64.813 Y7.664
X-64.859 Y7.651
X-64.906 Y7.653
X-64.951 Y7.669
X-64.988 Y7.699
X-65.031 Y7.736
X-65.083 Y7.762
X-65.139 Y7.774
X-65.184 Y7.778
G3 X-65.239 Y7.214 I-0.028 J-0.282
X-64.928 Y7.496 I0.028 J0.282
G1 Y7.541
X-64.935 Y7.598
X-64.955 Y7.652
X-64.988 Y7.699
X-65.021 Y7.729 Z-4.793
X-65.06 Y7.753 Z-4.786
X-65.099 Y7.767 Z-4.766
X-65.139 Y7.774 Z-4.745
X-65.184 Y7.778 Z-4.706
X-65.214 Y7.779 Z-4.669
X-65.263 Y7.775 Z-4.544
X-65.266 Y7.774 Z-4.5
G0 Z5
X-58.306 Y29.096
Z1
G1 Z-2 F250
Z-4.5
X-58.312 Y29.101 Z-4.567
X-58.329 Y29.115 Z-4.63
X-58.356 Y29.137 Z-4.687
X-58.393 Y29.168 Z-4.735
X-58.437 Y29.204 Z-4.77
X-58.486 Y29.244 Z-4.792
X-58.537 Y29.287 Z-4.8
X-61.817 Y31.989
X-61.849 Y32.025
X-61.867 Y32.069
X-61.871 Y32.117
X-61.859 Y32.164
X-61.834 Y32.204
X-61.811 Y32.239
X-61.8 Y32.278
Y32.319
X-61.812 Y32.359
G2 X-61.974 Y32.731 I6.187 J2.911
X-62.089 Y33.121 I2.065 J0.825
G3 X-62.54 Y33.597 I-0.606 J-0.121
X-63.292 Y32.765 I-0.159 J-0.613
X-62.773 Y32.365 I0.579 J0.214
G2 X-62.374 Y32.288 I-0.217 J-2.213
X-61.988 Y32.164 I-1.894 J-6.57
G1 X-61.946 Y32.156
X-61.905 Y32.161
X-61.866 Y32.177
X-61.834 Y32.204
X-61.811 Y32.24 Z-4.794
X-61.799 Y32.282 Z-4.787
X-61.8 Y32.321 Z-4.769
X-61.812 Y32.359 Z-4.75
X-61.853 Y32.448 Z-4.642
X-61.868 Y32.481 Z-4.5
Z-2
X-47.103 Y29.08
Z-4.5
X-47.098 Y29.085 Z-4.567
X-47.082 Y29.1 Z-4.63
X-47.056 Y29.125 Z-4.687
X-47.021 Y29.158 Z-4.735
X-46.98 Y29.197 Z-4.77
X-46.934 Y29.241 Z-4.792
X-46.886 Y29.287 Z-4.8
X-43.805 Y32.213
X-43.765 Y32.24
X-43.719 Y32.254
X-43.671 Y32.252
X-43.626 Y32.234
X-43.589 Y32.204
X-43.557 Y32.177
X-43.518 Y32.161
X-43.477 Y32.156
X-43.435 Y32.164
G2 X-43.049 Y32.288 I2.28 J-6.446
X-42.65 Y32.365 I0.616 J-2.137
G3 X-42.131 Y32.765 I-0.06 J0.615
X-42.883 Y33.597 I-0.594 J0.219
X-43.334 Y33.121 I0.155 J-0.598
G2 X-43.449 Y32.731 I-2.181 J0.436
X-43.611 Y32.359 I-6.349 J2.538
G1 X-43.623 Y32.319
Y32.278
X-43.612 Y32.239
X-43.589 Y32.204
G3 X-41.736 Y31.371 I1.85 J1.637
X-40.226 Y32.731 I-0.002 J1.521
X-45.163 Y33.487 I-2.486 J0.266
G2 X-46.928 Y32.31 I-1.471 J0.294
G1 X-49.083 Y32.741
G2 X-50.26 Y34.506 I0.294 J1.471
G3 X-55.163 Y35.487 I-2.451 J0.49
X-55.163 Y34.506 I2.451 J-0.49
G2 X-56.34 Y32.741 I-1.471 J-0.294
G1 X-58.495 Y32.31
G2 X-60.26 Y33.487 I-0.294 J1.471
G3 X-65.163 Y32.506 I-2.451 J-0.49
X-62.955 Y30.508 I2.451 J0.49
G2 X-61.609 Y28.869 I-0.146 J-1.493
G1 X-63.328 Y11.331
G2 X-64.968 Y9.984 I-1.493 J0.146
G3 X-65.455 Y5.008 I-0.244 J-2.488
X-62.711 Y7.496 I0.244 J2.488
G2 X-61.211 Y8.996 I1.5 J0
G1 X-44.211
G2 X-42.711 Y7.496 I0 J-1.5
G3 X-37.712 Y7.496 I2.5 J0
X-40.455 Y9.984 I-2.5 J0
G2 X-42.095 Y11.331 I-0.146 J1.493
G1 X-43.814 Y28.869
G2 X-42.468 Y30.508 I1.493 J0.146
G3 X-40.226 Y32.731 I-0.244 J2.488
G1 X-40.225 Y32.788 Z-4.789
X-40.235 Y32.844 Z-4.777
X-40.252 Y32.89 Z-4.745
X-40.276 Y32.932 Z-4.712
X-40.319 Y32.981 Z-4.615
X-40.336 Y32.996 Z-4.5
G0 Z15
X-16.972 Y20.501
Z1
G1 Z-1.2 F250
X-17.006 Y20.52 Z-1.347 F333.3
X-17.099 Y20.569 Z-1.456
X-17.233 Y20.625 Z-1.5
G3 X-18.19 Y17.94 Z-1.656 I-0.478 J-1.342
X-17.233 Y20.625 Z-1.813 I0.478 J1.342
X-18.19 Y17.94 Z-1.969 I-0.478 J-1.342
X-17.233 Y20.625 Z-2.125 I0.478 J1.342
X-18.19 Y17.94 Z-2.282 I-0.478 J-1.342
X-17.233 Y20.625 Z-2.438 I0.478 J1.342
X-18.19 Y17.94 Z-2.594 I-0.478 J-1.342
X-17.233 Y20.625 Z-2.751 I0.478 J1.342
X-18.19 Y17.94 Z-2.907 I-0.478 J-1.342
X-17.233 Y20.625 Z-3.063 I0.478 J1.342
X-18.19 Y17.94 Z-3.22 I-0.478 J-1.342
X-17.233 Y20.625 Z-3.376 I0.478 J1.342
X-18.19 Y17.94 Z-3.532 I-0.478 J-1.342
X-17.233 Y20.625 Z-3.689 I0.478 J1.342
X-18.19 Y17.94 Z-3.845 I-0.478 J-1.342
X-17.233 Y20.625 Z-4.001 I0.478 J1.342
X-18.19 Y17.94 Z-4.158 I-0.478 J-1.342
X-17.233 Y20.625 Z-4.314 I0.478 J1.342
X-18.19 Y17.94 Z-4.47 I-0.478 J-1.342
X-17.233 Y20.625 Z-4.627 I0.478 J1.342
X-18.19 Y17.94 Z-4.783 I-0.478 J-1.342
X-17.712 Y17.857 Z-4.8 I0.478 J1.342
G1 X-16.952 F250
G3 X-16.669 Y18.17 I0 J0.284
G1 X-17.26 Y24.196
G3 X-17.527 Y24.548 I-0.42 J-0.041
G1 X-17.558 Y24.56
G3 X-17.865 Y24.56 I-0.154 J-0.393
G1 X-17.896 Y24.548
G3 X-18.163 Y24.196 I0.152 J-0.394
G1 X-18.754 Y18.17
G3 X-18.471 Y17.857 I0.283 J-0.028
G1 X-17.712
G2 X-15.997 Y17.097 I0 J-2.314
G3 X-14.282 Y17.857 I0.732 J0.663
G1 X-15.075 Y25.948
G3 X-15.453 Y26.37 I-0.477 J-0.047
G2 X-17.344 Y27.026 I1.664 J7.842
G3 X-18.079 Y27.026 I-0.368 J-0.744
G2 X-19.97 Y26.37 I-3.554 J7.185
G3 X-20.348 Y25.948 I0.1 J-0.469
G1 X-21.34 Y15.825
G3 X-21.057 Y15.513 I0.283 J-0.028
G1 X-14.366
G3 X-14.083 Y15.825 I0 J0.284
G1 X-14.282 Y17.857
G2 X-13.287 Y19.722 I1.896 J0.186
G3 X-12.291 Y21.586 I-0.901 J1.679
G1 X-12.912 Y27.914
G3 X-13.286 Y28.328 I-0.466 J-0.046
X-14.098 Y28.467 I-3.017 J-15.09
G2 X-14.91 Y28.607 I2.206 J15.23
X-16.276 Y29.09 I1.001 J5.005
X-17.476 Y29.902 I2.987 J5.706
G3 X-17.947 Y29.902 I-0.235 J-0.275
G2 X-19.147 Y29.09 I-4.187 J4.893
X-20.513 Y28.607 I-2.367 J4.522
X-21.325 Y28.467 I-3.018 J15.091
G3 X-22.137 Y28.328 I2.206 J-15.23
X-22.511 Y27.914 I0.092 J-0.459
G1 X-23.927 Y13.473
G3 X-23.65 Y13.168 I0.277 J-0.027
G1 X-11.773
G3 X-11.496 Y13.473 I0 J0.279
G1 X-12.291 Y21.586
G2 X-11.318 Y23.418 I1.866 J0.183
G3 X-10.344 Y25.25 I-0.885 J1.645
G1 X-10.689 Y28.685
G2 X-10.635 Y29.585 I2.847 J0.279
X-10.344 Y30.437 I3.986 J-0.886
G3 X-10.52 Y30.632 I-0.129 J0.061
G2 X-12.504 Y30.497 I-1.234 J3.489
G3 X-14.453 Y30.893 I-60.322 J-291.522
G2 X-17.108 Y34.875 I0.664 J3.319
G3 X-18.315 Y35.117 I-0.604 J0.121
X-18.315 Y34.875 I0.604 J-0.121
G2 X-20.97 Y30.893 I-3.319 J-0.664
G3 X-22.919 Y30.497 I58.392 J-292.012
G2 X-24.903 Y30.632 I-0.75 J3.624
G3 X-25.079 Y30.437 I-0.047 J-0.134
G2 X-24.788 Y29.585 I-3.695 J-1.738
X-24.734 Y28.685 I-2.792 J-0.62
G1 X-26.5 Y11.12
G3 X-26.243 Y10.836 I0.255 J-0.027
G1 X-9.18
G3 X-8.923 Y11.12 I0.002 J0.256
G1 X-10.344 Y25.25
G3 X-10.676 Y25.379 I-0.199 J-0.02
G1 X-30.4 Y7.707
G3 X-30.023 Y7.285 I0.189 J-0.211
X-29.928 Y7.496 I-0.189 J0.211
G1 Y7.541
G3 X-30.139 Y7.774 I-0.231 J0.003
G1 X-30.184 Y7.778
X-30.242
X-30.299 Y7.765
X-30.353 Y7.741
X-30.4 Y7.707
X-30.439 Y7.665 Z-4.789
X-30.468 Y7.616 Z-4.777
X-30.485 Y7.57 Z-4.745
X-30.493 Y7.522 Z-4.712
X-30.492 Y7.457 Z-4.615
X-30.488 Y7.435 Z-4.5
G0 Z5
X-23.306 Y29.096
Z1
G1 Z-2 F250
Z-4.5
X-23.312 Y29.101 Z-4.567
X-23.329 Y29.115 Z-4.63
X-23.356 Y29.137 Z-4.687
X-23.393 Y29.168 Z-4.735
X-23.437 Y29.204 Z-4.77
X-23.486 Y29.244 Z-4.792
X-23.537 Y29.287 Z-4.8
X-26.817 Y31.989
X-26.849 Y32.025
X-26.867 Y32.069
X-26.871 Y32.117
X-26.859 Y32.164
X-26.834 Y32.204
X-26.811 Y32.239
X-26.8 Y32.278
Y32.319
X-26.812 Y32.359
G2 X-26.974 Y32.731 I6.187 J2.911
X-27.089 Y33.121 I2.065 J0.825
G3 X-27.54 Y33.597 I-0.606 J-0.121
X-28.292 Y32.765 I-0.159 J-0.613
X-27.773 Y32.365 I0.579 J0.214
G2 X-27.374 Y32.288 I-0.217 J-2.213
X-26.988 Y32.164 I-1.894 J-6.57
G1 X-26.946 Y32.156
X-26.905 Y32.161
X-26.866 Y32.177
X-26.834 Y32.204
X-26.811 Y32.24 Z-4.794
X-26.799 Y32.282 Z-4.787
X-26.8 Y32.321 Z-4.769
X-26.812 Y32.359 Z-4.75
X-26.853 Y32.448 Z-4.642
X-26.868 Y32.481 Z-4.5
Z-2
X-12.103 Y29.08
Z-4.5
X-12.098 Y29.085 Z-4.567
X-12.082 Y29.1 Z-4.63
X-12.056 Y29.125 Z-4.687
X-12.021 Y29.158 Z-4.735
X-11.98 Y29.197 Z-4.77
X-11.934 Y29.241 Z-4.792
X-11.886 Y29.287 Z-4.8
X-8.805 Y32.213
X-8.765 Y32.24
X-8.719 Y32.254
X-8.671 Y32.252
X-8.626 Y32.234
X-8.589 Y32.204
X-8.557 Y32.177
X-8.518 Y32.161
X-8.477 Y32.156
X-8.435 Y32.164
G2 X-8.049 Y32.288 I2.28 J-6.446
X-7.65 Y32.365 I0.616 J-2.137
G3 X-7.131 Y32.765 I-0.06 J0.615
X-7.883 Y33.597 I-0.594 J0.219
X-8.334 Y33.121 I0.155 J-0.598
G2 X-8.449 Y32.731 I-2.181 J0.436
X-8.611 Y32.359 I-6.349 J2.538
G1 X-8.623 Y32.319
Y32.278
X-8.612 Y32.239
X-8.589 Y32.204
X-8.588 Y32.203
G2 X-9.965 Y29.308 I-1.295 J-1.159
G3 X-12.982 Y28.226 I-0.198 J-4.198
X-15.492 Y20.2 I5.56 J-6.144
X-11.228 Y12.951 I13.744 J3.207
G1 X-7.407 Y9.487
X-5.912 Y8.131
X-5.594 Y7.843
X-5.559 Y7.804
X-5.533 Y7.76
X-5.516 Y7.711
X-5.509 Y7.659
X-5.503 Y7.558
X-5.492 Y7.458
G3 X-4.931 Y7.535 I0.28 J0.038
X-5.239 Y7.778 I-0.28 J-0.038
G1 X-5.284 Y7.774
G3 X-5.495 Y7.541 I0.02 J-0.23
G1 Y7.496
X-5.492 Y7.458
G2 X-5.905 Y6.231 I-1.443 J-0.197
G3 X-5.473 Y5.01 I0.507 J-0.507
X-2.712 Y7.487 I0.261 J2.486
X-5.455 Y9.984 I-2.5 J0.009
G2 X-7.095 Y11.331 I-0.146 J1.493
G1 X-8.814 Y28.869
G2 X-7.468 Y30.508 I1.493 J0.146
G3 X-7.955 Y35.484 I-0.244 J2.488
X-10.163 Y33.487 I0.244 J-2.488
G2 X-11.928 Y32.31 I-1.471 J0.294
G1 X-14.083 Y32.741
G2 X-15.26 Y34.506 I0.294 J1.471
G3 X-20.163 Y35.487 I-2.451 J0.49
X-20.163 Y34.506 I2.451 J-0.49
G2 X-21.34 Y32.741 I-1.471 J-0.294
G1 X-23.495 Y32.31
G2 X-25.26 Y33.487 I-0.294 J1.471
G3 X-30.163 Y32.506 I-2.451 J-0.49
X-27.955 Y30.508 I2.451 J0.49
G2 X-26.609 Y28.869 I-0.146 J-1.493
G1 X-28.328 Y11.331
G2 X-29.968 Y9.984 I-1.493 J0.146
G3 X-30.455 Y5.008 I-0.244 J-2.488
X-27.712 Y7.496 I0.244 J2.488
G2 X-26.212 Y8.996 I1.5 J0
G1 X-9.212
G2 X-7.712 Y7.496 I0 J-1.5
G3 X-5.473 Y5.01 I2.5 J0
G1 X-5.416 Y5.009 Z-4.789
X-5.359 Y5.02 Z-4.777
X-5.314 Y5.037 Z-4.745
X-5.272 Y5.061 Z-4.712
X-5.222 Y5.103 Z-4.615
X-5.207 Y5.121 Z-4.5
G0 Z15
X15.554 Y19.403
Z1
G1 Z-1.2 F250
X15.538 Y19.368 Z-1.347 F333.3
X15.499 Y19.271 Z-1.456
X15.456 Y19.131 Z-1.5
G3 X18.222 Y18.442 Z-1.656 I1.383 J-0.345
X15.456 Y19.131 Z-1.813 I-1.383 J0.345
X18.222 Y18.442 Z-1.969 I1.383 J-0.345
X15.456 Y19.131 Z-2.125 I-1.383 J0.345
X18.222 Y18.442 Z-2.282 I1.383 J-0.345
X15.456 Y19.131 Z-2.438 I-1.383 J0.345
X18.222 Y18.442 Z-2.594 I1.383 J-0.345
X15.456 Y19.131 Z-2.751 I-1.383 J0.345
X18.222 Y18.442 Z-2.907 I1.383 J-0.345
X15.456 Y19.131 Z-3.063 I-1.383 J0.345
X18.222 Y18.442 Z-3.22 I1.383 J-0.345
X15.456 Y19.131 Z-3.376 I-1.383 J0.345
X18.222 Y18.442 Z-3.532 I1.383 J-0.345
X15.456 Y19.131 Z-3.689 I-1.383 J0.345
X18.222 Y18.442 Z-3.845 I1.383 J-0.345
X15.456 Y19.131 Z-4.001 I-1.383 J0.345
X18.222 Y18.442 Z-4.158 I1.383 J-0.345
X15.456 Y19.131 Z-4.314 I-1.383 J0.345
X18.222 Y18.442 Z-4.47 I1.383 J-0.345
X15.456 Y19.131 Z-4.627 I-1.383 J0.345
X18.222 Y18.442 Z-4.783 I1.383 J-0.345
X18.257 Y18.926 Z-4.8 I-1.383 J0.345
G1 X17.74 Y24.196 F250
G3 X17.473 Y24.548 I-0.42 J-0.041
G1 X17.442 Y24.56
G3 X17.135 Y24.56 I-0.154 J-0.393
G1 X17.104 Y24.548
G3 X16.837 Y24.196 I0.152 J-0.394
G1 X16.246 Y18.17
G3 X16.529 Y17.857 I0.283 J-0.028
G1 X18.048
G3 X18.331 Y18.17 I0 J0.284
G1 X18.257 Y18.926
G2 X19.252 Y20.79 I1.896 J0.186
G3 X20.248 Y22.655 I-0.901 J1.679
G1 X19.925 Y25.948
G3 X19.547 Y26.37 I-0.477 J-0.047
G2 X17.656 Y27.026 I1.664 J7.842
G3 X16.921 Y27.026 I-0.368 J-0.744
G2 X15.03 Y26.37 I-3.554 J7.185
G3 X14.652 Y25.948 I0.1 J-0.469
G1 X13.66 Y15.825
G3 X13.943 Y15.513 I0.283 J-0.028
G1 X20.634
G3 X20.917 Y15.825 I0 J0.284
G1 X20.248 Y22.655
G2 X21.243 Y24.52 I1.896 J0.186
G3 X22.238 Y26.384 I-0.901 J1.679
G1 X22.088 Y27.914
G3 X21.714 Y28.328 I-0.466 J-0.046
X20.902 Y28.467 I-3.018 J-15.091
G2 X20.09 Y28.607 I2.206 J15.23
X18.724 Y29.09 I1.001 J5.005
X17.524 Y29.902 I2.987 J5.706
G3 X17.053 Y29.902 I-0.235 J-0.275
G2 X15.853 Y29.09 I-4.187 J4.893
X14.487 Y28.607 I-2.367 J4.522
X13.675 Y28.467 I-3.018 J15.091
G3 X12.863 Y28.328 I2.206 J-15.23
X12.489 Y27.914 I0.092 J-0.459
G1 X11.073 Y13.473
G3 X11.35 Y13.168 I0.277 J-0.027
G1 X23.227
G3 X23.504 Y13.473 I0 J0.279
G1 X22.238 Y26.384
G2 X23.168 Y28.319 I2.058 J0.202
G3 X24.485 Y30.014 I-1.792 J2.752
G2 X24.656 Y30.437 I3.866 J-1.315
G3 X24.48 Y30.632 I-0.129 J0.061
G2 X22.496 Y30.497 I-1.234 J3.489
G3 X20.547 Y30.893 I-60.335 J-291.589
G2 X17.892 Y34.875 I0.664 J3.319
G3 X16.685 Y35.117 I-0.604 J0.121
X16.685 Y34.875 I0.604 J-0.121
G2 X14.03 Y30.893 I-3.319 J-0.664
G3 X12.081 Y30.497 I58.386 J-291.986
G2 X10.097 Y30.632 I-0.75 J3.624
G3 X9.921 Y30.437 I-0.047 J-0.134
G2 X10.212 Y29.585 I-3.695 J-1.738
X10.266 Y28.685 I-2.792 J-0.62
G1 X8.5 Y11.12
G3 X8.757 Y10.836 I0.255 J-0.027
G1 X25.82
G3 X26.077 Y11.12 I0.002 J0.256
G1 X24.311 Y28.685
G2 X24.365 Y29.585 I2.847 J0.279
X24.485 Y30.014 I3.986 J-0.886
G3 X24.145 Y30.209 I-0.189 J0.064
G1 X4.575 Y7.683
G3 X5.002 Y7.31 I0.213 J-0.186
X5.072 Y7.496 I-0.213 J0.186
G1 Y7.541
G3 X4.861 Y7.774 I-0.231 J0.003
G1 X4.816 Y7.778
G3 X4.575 Y7.683 I-0.028 J-0.282
G1 X4.542 Y7.636 Z-4.789
X4.519 Y7.583 Z-4.777
X4.508 Y7.536 Z-4.745
X4.506 Y7.487 Z-4.712
X4.515 Y7.423 Z-4.615
X4.522 Y7.401 Z-4.5
G0 Z5
X11.694 Y29.096
Z1
G1 Z-2 F250
Z-4.5
X11.688 Y29.101 Z-4.567
X11.671 Y29.115 Z-4.63
X11.644 Y29.137 Z-4.687
X11.607 Y29.168 Z-4.735
X11.563 Y29.204 Z-4.77
X11.514 Y29.244 Z-4.792
X11.463 Y29.287 Z-4.8
X8.183 Y31.989
X8.151 Y32.025
X8.133 Y32.069
X8.129 Y32.117
X8.141 Y32.164
X8.166 Y32.204
X8.189 Y32.239
X8.2 Y32.278
Y32.319
X8.188 Y32.359
G2 X8.026 Y32.731 I6.187 J2.911
X7.911 Y33.121 I2.065 J0.825
G3 X7.46 Y33.597 I-0.606 J-0.121
X6.707 Y32.765 I-0.159 J-0.613
X7.227 Y32.365 I0.579 J0.214
G2 X7.625 Y32.288 I-0.217 J-2.213
X8.012 Y32.164 I-1.894 J-6.57
G1 X8.054 Y32.156
X8.095 Y32.161
X8.134 Y32.177
X8.166 Y32.204
X8.189 Y32.24 Z-4.794
X8.201 Y32.282 Z-4.787
X8.2 Y32.321 Z-4.769
X8.188 Y32.359 Z-4.75
X8.147 Y32.448 Z-4.642
X8.132 Y32.481 Z-4.5
Z-2
X22.897 Y29.08
Z-4.5
X22.902 Y29.085 Z-4.567
X22.918 Y29.1 Z-4.63
X22.944 Y29.125 Z-4.687
X22.979 Y29.158 Z-4.735
X23.02 Y29.197 Z-4.77
X23.066 Y29.241 Z-4.792
X23.114 Y29.287 Z-4.8
X26.195 Y32.213
X26.235 Y32.24
X26.281 Y32.254
X26.329 Y32.252
X26.374 Y32.234
X26.411 Y32.204
X26.443 Y32.177
X26.482 Y32.161
X26.523 Y32.156
X26.565 Y32.164
G2 X26.951 Y32.288 I2.28 J-6.446
X27.35 Y32.365 I0.616 J-2.137
G3 X27.869 Y32.765 I-0.06 J0.615
X27.117 Y33.597 I-0.594 J0.219
X26.666 Y33.121 I0.155 J-0.598
G2 X26.551 Y32.731 I-2.181 J0.436
X26.389 Y32.359 I-6.349 J2.538
G1 X26.377 Y32.319
Y32.278
X26.388 Y32.239
X26.411 Y32.204
X26.412 Y32.203
G2 X25.035 Y29.308 I-1.295 J-1.159
G3 X22.018 Y28.226 I-0.198 J-4.198
X19.508 Y20.2 I5.56 J-6.144
X23.772 Y12.951 I13.745 J3.207
G1 X27.593 Y9.487
X29.088 Y8.131
X29.406 Y7.843
X29.441 Y7.804
X29.467 Y7.76
X29.484 Y7.711
X29.491 Y7.659
X29.497 Y7.558
X29.508 Y7.458
G3 X30.069 Y7.535 I0.28 J0.038
X29.761 Y7.778 I-0.28 J-0.038
G1 X29.716 Y7.774
G3 X29.505 Y7.541 I0.02 J-0.23
G1 Y7.496
X29.508 Y7.458
G2 X29.095 Y6.231 I-1.443 J-0.197
G3 X29.527 Y5.01 I0.507 J-0.507
X32.288 Y7.487 I0.261 J2.486
X29.545 Y9.984 I-2.5 J0.009
G2 X27.905 Y11.331 I-0.146 J1.493
G1 X26.186 Y28.869
G2 X27.532 Y30.508 I1.493 J0.146
G3 X27.045 Y35.484 I-0.244 J2.488
X24.837 Y33.487 I0.244 J-2.488
G2 X23.072 Y32.31 I-1.471 J0.294
G1 X20.917 Y32.741
G2 X19.74 Y34.506 I0.294 J1.471
G3 X14.837 Y35.487 I-2.451 J0.49
X14.837 Y34.506 I2.451 J-0.49
G2 X13.66 Y32.741 I-1.471 J-0.294
G1 X11.505 Y32.31
G2 X9.74 Y33.487 I-0.294 J1.471
G3 X4.837 Y32.506 I-2.451 J-0.49
X7.045 Y30.508 I2.451 J0.49
G2 X8.391 Y28.869 I-0.146 J-1.493
G1 X6.672 Y11.331
G2 X5.032 Y9.984 I-1.493 J0.146
G3 X4.545 Y5.008 I-0.244 J-2.488
X7.288 Y7.496 I0.244 J2.488
G2 X8.788 Y8.996 I1.5 J0
G1 X25.788
G2 X27.288 Y7.496 I0 J-1.5
G3 X29.527 Y5.01 I2.5 J0
G1 X29.584 Y5.009 Z-4.789
X29.641 Y5.02 Z-4.777
X29.686 Y5.037 Z-4.745
X29.728 Y5.061 Z-4.712
X29.778 Y5.103 Z-4.615
X29.793 Y5.121 Z-4.5
G0 Z15
X53.028 Y20.501
Z1
G1 Z-1.2 F250
X52.994 Y20.52 Z-1.347 F333.3
X52.901 Y20.569 Z-1.456
X52.767 Y20.625 Z-1.5
G3 X51.81 Y17.94 Z-1.656 I-0.478 J-1.342
X52.767 Y20.625 Z-1.813 I0.478 J1.342
X51.81 Y17.94 Z-1.969 I-0.478 J-1.342
X52.767 Y20.625 Z-2.125 I0.478 J1.342
X51.81 Y17.94 Z-2.282 I-0.478 J-1.342
X52.767 Y20.625 Z-2.438 I0.478 J1.342
X51.81 Y17.94 Z-2.594 I-0.478 J-1.342
X52.767 Y20.625 Z-2.751 I0.478 J1.342
X51.81 Y17.94 Z-2.907 I-0.478 J-1.342
X52.767 Y20.625 Z-3.063 I0.478 J1.342
X51.81 Y17.94 Z-3.22 I-0.478 J-1.342
X52.767 Y20.625 Z-3.376 I0.478 J1.342
X51.81 Y17.94 Z-3.532 I-0.478 J-1.342
X52.767 Y20.625 Z-3.689 I0.478 J1.342
X51.81 Y17.94 Z-3.845 I-0.478 J-1.342
X52.767 Y20.625 Z-4.001 I0.478 J1.342
X51.81 Y17.94 Z-4.158 I-0.478 J-1.342
X52.767 Y20.625 Z-4.314 I0.478 J1.342
X51.81 Y17.94 Z-4.47 I-0.478 J-1.342
X52.767 Y20.625 Z-4.627 I0.478 J1.342
X51.81 Y17.94 Z-4.783 I-0.478 J-1.342
X52.289 Y17.857 Z-4.8 I0.478 J1.342
G1 X53.048 F250
G3 X53.331 Y18.17 I0 J0.284
G1 X52.74 Y24.196
G3 X52.473 Y24.548 I-0.42 J-0.041
G1 X52.442 Y24.56
G3 X52.135 Y24.56 I-0.154 J-0.393
G1 X52.104 Y24.548
G3 X51.837 Y24.196 I0.152 J-0.394
G1 X51.246 Y18.17
G3 X51.529 Y17.857 I0.283 J-0.028
G1 X52.289
G2 X54.003 Y17.097 I0 J-2.314
G3 X55.718 Y17.857 I0.732 J0.663
G1 X54.925 Y25.948
G3 X54.547 Y26.37 I-0.477 J-0.047
G2 X52.656 Y27.026 I1.664 J7.842
G3 X51.921 Y27.026 I-0.368 J-0.744
G2 X50.03 Y26.37 I-3.554 J7.185
G3 X49.652 Y25.948 I0.1 J-0.469
G1 X48.66 Y15.825
G3 X48.943 Y15.513 I0.283 J-0.028
G1 X55.634
G3 X55.917 Y15.825 I0 J0.284
G1 X55.718 Y17.857
G2 X56.713 Y19.722 I1.896 J0.186
G3 X57.709 Y21.586 I-0.901 J1.679
G1 X57.088 Y27.914
G3 X56.714 Y28.328 I-0.466 J-0.046
X55.902 Y28.467 I-3.018 J-15.091
G2 X55.09 Y28.607 I2.206 J15.23
X53.724 Y29.09 I1.001 J5.005
X52.524 Y29.902 I2.987 J5.706
G3 X52.053 Y29.902 I-0.235 J-0.275
G2 X50.853 Y29.09 I-4.187 J4.893
X49.487 Y28.607 I-2.367 J4.522
X48.675 Y28.467 I-3.018 J15.091
G3 X47.863 Y28.328 I2.206 J-15.23
X47.489 Y27.914 I0.092 J-0.459
G1 X46.073 Y13.473
G3 X46.35 Y13.168 I0.277 J-0.027
G1 X58.227
G3 X58.504 Y13.473 I0 J0.279
G1 X57.709 Y21.586
G2 X58.682 Y23.418 I1.866 J0.183
G3 X59.656 Y25.25 I-0.885 J1.645
G1 X59.311 Y28.685
G2 X59.365 Y29.585 I2.847 J0.279
X59.656 Y30.437 I3.986 J-0.886
G3 X59.48 Y30.632 I-0.129 J0.061
G2 X57.496 Y30.497 I-1.234 J3.489
G3 X55.547 Y30.893 I-60.335 J-291.589
G2 X52.892 Y34.875 I0.664 J3.319
G3 X51.685 Y35.117 I-0.604 J0.121
X51.685 Y34.875 I0.604 J-0.121
G2 X49.03 Y30.893 I-3.319 J-0.664
G3 X47.081 Y30.497 I58.386 J-291.986
G2 X45.097 Y30.632 I-0.75 J3.624
G3 X44.921 Y30.437 I-0.047 J-0.134
G2 X45.212 Y29.585 I-3.695 J-1.738
X45.266 Y28.685 I-2.792 J-0.62
G1 X43.5 Y11.12
G3 X43.757 Y10.836 I0.255 J-0.027
G1 X60.82
G3 X61.077 Y11.12 I0.002 J0.256
G1 X59.656 Y25.25
G3 X59.324 Y25.379 I-0.199 J-0.02
G1 X39.6 Y7.707
G3 X39.977 Y7.285 I0.189 J-0.211
X40.072 Y7.496 I-0.189 J0.211
G1 Y7.541
G3 X39.861 Y7.774 I-0.231 J0.003
G1 X39.816 Y7.778
X39.758
X39.701 Y7.765
X39.647 Y7.741
X39.6 Y7.707
X39.561 Y7.665 Z-4.789
X39.532 Y7.616 Z-4.777
X39.515 Y7.57 Z-4.745
X39.507 Y7.522 Z-4.712
X39.508 Y7.457 Z-4.615
X39.512 Y7.435 Z-4.5
G0 Z5
X46.694 Y29.096
Z1
G1 Z-2 F250
Z-4.5
X46.688 Y29.101 Z-4.567
X46.671 Y29.115 Z-4.63
X46.644 Y29.137 Z-4.687
X46.607 Y29.168 Z-4.735
X46.563 Y29.204 Z-4.77
X46.514 Y29.244 Z-4.792
X46.463 Y29.287 Z-4.8
X43.183 Y31.989
X43.151 Y32.025
X43.133 Y32.069
X43.129 Y32.117
X43.141 Y32.164
X43.166 Y32.204
X43.189 Y32.239
X43.2 Y32.278
Y32.319
X43.188 Y32.359
G2 X43.026 Y32.731 I6.187 J2.911
X42.911 Y33.121 I2.065 J0.825
G3 X42.46 Y33.597 I-0.606 J-0.121
X41.708 Y32.765 I-0.159 J-0.613
X42.227 Y32.365 I0.579 J0.214
G2 X42.626 Y32.288 I-0.217 J-2.213
X43.012 Y32.164 I-1.894 J-6.57
G1 X43.054 Y32.156
X43.095 Y32.161
X43.134 Y32.177
X43.166 Y32.204
X43.189 Y32.24 Z-4.794
X43.201 Y32.282 Z-4.787
X43.2 Y32.321 Z-4.769
X43.188 Y32.359 Z-4.75
X43.147 Y32.448 Z-4.642
X43.132 Y32.481 Z-4.5
Z-2
X57.897 Y29.08
Z-4.5
X57.902 Y29.085 Z-4.567
X57.918 Y29.1 Z-4.63
X57.944 Y29.125 Z-4.687
X57.979 Y29.158 Z-4.735
X58.02 Y29.197 Z-4.77
X58.066 Y29.241 Z-4.792
X58.114 Y29.287 Z-4.8
X61.195 Y32.213
X61.235 Y32.24
X61.281 Y32.254
X61.329 Y32.252
X61.374 Y32.234
X61.411 Y32.204
X61.443 Y32.177
X61.482 Y32.161
X61.523 Y32.156
X61.565 Y32.164
G2 X61.951 Y32.288 I2.28 J-6.446
X62.35 Y32.365 I0.616 J-2.137
G3 X62.869 Y32.765 I-0.06 J0.615
X62.117 Y33.597 I-0.594 J0.219
X61.666 Y33.121 I0.155 J-0.598
G2 X61.551 Y32.731 I-2.181 J0.436
X61.389 Y32.359 I-6.349 J2.538
G1 X61.377 Y32.319
Y32.278
X61.388 Y32.239
X61.411 Y32.204
X61.445 Y32.176 Z-4.793
X61.485 Y32.16 Z-4.787
X61.525 Y32.156 Z-4.767
X61.565 Y32.164 Z-4.748
X61.656 Y32.196 Z-4.64
X61.689 Y32.207 Z-4.5
G0 Z5
X59.304 Y12.46
Z1
G1 Z-2 F250
Z-4.5
X59.31 Y12.455 Z-4.567
X59.326 Y12.441 Z-4.63
X59.353 Y12.417 Z-4.687
X59.389 Y12.386 Z-4.735
X59.432 Y12.349 Z-4.77
X59.48 Y12.308 Z-4.792
X59.531 Y12.264 Z-4.8
X64.552 Y7.913
X64.583 Y7.877
X64.6 Y7.832
X64.603 Y7.785
X64.591 Y7.739
X64.565 Y7.699
X64.532 Y7.652
X64.512 Y7.598
X64.505 Y7.541
Y7.496
G3 X65.072 Y7.496 I0.283 J0
X64.761 Y7.778 I-0.283 J0
G1 X64.716 Y7.774
X64.66 Y7.762
X64.608 Y7.736
X64.565 Y7.699
G3 X64.527 Y5.77 I1.088 J-0.986
X66.451 Y5.629 I1.03 J0.863
X64.545 Y9.984 I-1.663 J1.867
G2 X62.905 Y11.331 I-0.146 J1.493
G1 X61.186 Y28.869
G2 X62.532 Y30.508 I1.493 J0.146
G3 X62.045 Y35.484 I-0.244 J2.488
X59.837 Y33.487 I0.244 J-2.488
G2 X58.072 Y32.31 I-1.471 J0.294
G1 X55.917 Y32.741
G2 X54.74 Y34.506 I0.294 J1.471
G3 X49.837 Y35.487 I-2.451 J0.49
X49.837 Y34.506 I2.451 J-0.49
G2 X48.66 Y32.741 I-1.471 J-0.294
G1 X46.505 Y32.31
G2 X44.74 Y33.487 I-0.294 J1.471
G3 X39.837 Y32.506 I-2.451 J-0.49
X42.045 Y30.508 I2.451 J0.49
G2 X43.391 Y28.869 I-0.146 J-1.493
G1 X41.672 Y11.331
G2 X40.032 Y9.984 I-1.493 J0.146
G3 X39.545 Y5.008 I-0.244 J-2.488
X42.289 Y7.496 I0.244 J2.488
G2 X43.789 Y8.996 I1.5 J0
G1 X60.789
G2 X62.289 Y7.496 I0 J-1.5
G3 X66.451 Y5.629 I2.5 J0
G1 X66.49 Y5.671 Z-4.789
X66.52 Y5.72 Z-4.777
X66.538 Y5.765 Z-4.745
X66.549 Y5.813 Z-4.712
X66.551 Y5.877 Z-4.615
X66.548 Y5.9 Z-4.5
G0 Z15
X53.028 Y-20.499
Z1
G1 Z-1.2 F250
X52.994 Y-20.48 Z-1.347 F333.3
X52.901 Y-20.431 Z-1.456
X52.767 Y-20.375 Z-1.5
G3 X51.81 Y-23.06 Z-1.656 I-0.478 J-1.342
X52.767 Y-20.375 Z-1.813 I0.478 J1.342
X51.81 Y-23.06 Z-1.969 I-0.478 J-1.342
X52.767 Y-20.375 Z-2.125 I0.478 J1.342
X51.81 Y-23.06 Z-2.282 I-0.478 J-1.342
X52.767 Y-20.375 Z-2.438 I0.478 J1.342
X51.81 Y-23.06 Z-2.594 I-0.478 J-1.342
X52.767 Y-20.375 Z-2.751 I0.478 J1.342
X51.81 Y-23.06 Z-2.907 I-0.478 J-1.342
X52.767 Y-20.375 Z-3.063 I0.478 J1.342
X51.81 Y-23.06 Z-3.22 I-0.478 J-1.342
X52.767 Y-20.375 Z-3.376 I0.478 J1.342
X51.81 Y-23.06 Z-3.532 I-0.478 J-1.342
X52.767 Y-20.375 Z-3.689 I0.478 J1.342
X51.81 Y-23.06 Z-3.845 I-0.478 J-1.342
X52.767 Y-20.375 Z-4.001 I0.478 J1.342
X51.81 Y-23.06 Z-4.158 I-0.478 J-1.342
X52.767 Y-20.375 Z-4.314 I0.478 J1.342
X51.81 Y-23.06 Z-4.47 I-0.478 J-1.342
X52.767 Y-20.375 Z-4.627 I0.478 J1.342
X51.81 Y-23.06 Z-4.783 I-0.478 J-1.342
X52.289 Y-23.143 Z-4.8 I0.478 J1.342
G1 X53.048 F250
G3 X53.331 Y-22.83 I0 J0.284
G1 X52.74 Y-16.804
G3 X52.473 Y-16.452 I-0.42 J-0.041
G1 X52.442 Y-16.44
G3 X52.135 Y-16.44 I-0.154 J-0.393
G1 X52.104 Y-16.452
G3 X51.837 Y-16.804 I0.152 J-0.394
G1 X51.246 Y-22.83
G3 X51.529 Y-23.143 I0.283 J-0.028
G1 X52.289
G2 X54.003 Y-23.903 I0 J-2.314
G3 X55.718 Y-23.143 I0.732 J0.663
G1 X54.925 Y-15.052
G3 X54.547 Y-14.63 I-0.477 J-0.047
G2 X52.656 Y-13.973 I1.664 J7.842
G3 X51.921 Y-13.973 I-0.368 J-0.744
G2 X50.03 Y-14.63 I-3.554 J7.185
G3 X49.652 Y-15.052 I0.1 J-0.469
G1 X48.66 Y-25.175
G3 X48.943 Y-25.488 I0.283 J-0.028
G1 X55.634
G3 X55.917 Y-25.175 I0 J0.284
G1 X55.718 Y-23.143
G2 X56.713 Y-21.278 I1.896 J0.186
G3 X57.709 Y-19.414 I-0.901 J1.679
G1 X57.088 Y-13.086
G3 X56.714 Y-12.672 I-0.466 J-0.046
X55.902 Y-12.533 I-3.019 J-15.094
G2 X55.09 Y-12.393 I2.207 J15.234
X53.724 Y-11.91 I1.001 J5.005
X52.524 Y-11.098 I2.987 J5.706
G3 X52.053 Y-11.098 I-0.235 J-0.275
G2 X50.853 Y-11.91 I-4.187 J4.894
X49.487 Y-12.393 I-2.367 J4.522
X48.675 Y-12.533 I-3.019 J15.094
G3 X47.863 Y-12.672 I2.207 J-15.234
X47.489 Y-13.086 I0.092 J-0.46
G1 X46.073 Y-27.527
G3 X46.35 Y-27.833 I0.277 J-0.027
G1 X58.227
G3 X58.504 Y-27.527 I0 J0.279
G1 X57.709 Y-19.414
G2 X58.682 Y-17.582 I1.866 J0.183
G3 X59.656 Y-15.75 I-0.885 J1.645
G1 X59.311 Y-12.315
G2 X59.365 Y-11.416 I2.847 J0.279
X59.656 Y-10.563 I3.986 J-0.886
G3 X59.48 Y-10.368 I-0.129 J0.061
G2 X57.496 Y-10.503 I-1.234 J3.489
G3 X55.547 Y-10.107 I-60.382 J-291.774
G2 X52.892 Y-6.125 I0.664 J3.319
G3 X51.685 Y-5.883 I-0.604 J0.121
X51.685 Y-6.125 I0.604 J-0.121
G2 X49.03 Y-10.107 I-3.319 J-0.664
G3 X47.081 Y-10.503 I58.433 J-292.171
G2 X45.097 Y-10.368 I-0.75 J3.624
G3 X44.921 Y-10.563 I-0.047 J-0.134
G2 X45.212 Y-11.416 I-3.695 J-1.738
X45.266 Y-12.315 I-2.792 J-0.62
G1 X43.5 Y-29.88
G3 X43.757 Y-30.164 I0.255 J-0.027
G1 X60.82
G3 X61.077 Y-29.88 I0.002 J0.256
G1 X59.656 Y-15.75
G3 X59.324 Y-15.621 I-0.199 J-0.02
G1 X39.6 Y-33.293
G3 X39.977 Y-33.715 I0.189 J-0.211
X40.072 Y-33.504 I-0.189 J0.211
G1 Y-33.459
G3 X39.861 Y-33.226 I-0.231 J0.003
G1 X39.816 Y-33.222
X39.758
X39.701 Y-33.235
X39.647 Y-33.259
X39.6 Y-33.293
X39.561 Y-33.335 Z-4.789
X39.532 Y-33.384 Z-4.777
X39.515 Y-33.43 Z-4.745
X39.507 Y-33.478 Z-4.712
X39.508 Y-33.543 Z-4.615
X39.512 Y-33.565 Z-4.5
G0 Z5
X46.694 Y-11.904
Z1
G1 Z-2 F250
Z-4.5
X46.688 Y-11.899 Z-4.567
X46.671 Y-11.885 Z-4.63
X46.644 Y-11.863 Z-4.687
X46.607 Y-11.832 Z-4.735
X46.563 Y-11.796 Z-4.77
X46.514 Y-11.756 Z-4.792
X46.463 Y-11.713 Z-4.8
X43.183 Y-9.011
X43.151 Y-8.975
X43.133 Y-8.931
X43.129 Y-8.883
X43.141 Y-8.836
X43.166 Y-8.796
X43.189 Y-8.761
X43.2 Y-8.722
Y-8.681
X43.188 Y-8.641
G2 X43.026 Y-8.269 I6.187 J2.91
X42.911 Y-7.879 I2.065 J0.825
G3 X42.46 Y-7.403 I-0.606 J-0.121
X41.707 Y-8.235 I-0.159 J-0.613
X42.227 Y-8.635 I0.579 J0.214
G2 X42.625 Y-8.712 I-0.217 J-2.213
X43.012 Y-8.836 I-1.894 J-6.57
G1 X43.054 Y-8.844
X43.095 Y-8.839
X43.134 Y-8.823
X43.166 Y-8.796
X43.189 Y-8.76 Z-4.794
X43.201 Y-8.718 Z-4.787
X43.2 Y-8.679 Z-4.769
X43.188 Y-8.641 Z-4.75
X43.147 Y-8.552 Z-4.642
X43.132 Y-8.519 Z-4.5
Z-2
X57.897 Y-11.92
Z-4.5
X57.902 Y-11.915 Z-4.567
X57.918 Y-11.9 Z-4.63
X57.944 Y-11.875 Z-4.687
X57.979 Y-11.842 Z-4.735
X58.02 Y-11.803 Z-4.77
X58.066 Y-11.759 Z-4.792
X58.114 Y-11.713 Z-4.8
X61.195 Y-8.787
X61.235 Y-8.76
X61.281 Y-8.746
X61.329 Y-8.748
X61.374 Y-8.766
X61.411 Y-8.796
X61.443 Y-8.823
X61.482 Y-8.839
X61.523 Y-8.844
X61.565 Y-8.836
G2 X61.952 Y-8.712 I2.28 J-6.446
X62.35 Y-8.635 I0.616 J-2.137
G3 X62.87 Y-8.235 I-0.06 J0.615
X62.117 Y-7.403 I-0.594 J0.219
X61.666 Y-7.879 I0.155 J-0.598
G2 X61.551 Y-8.269 I-2.181 J0.436
X61.389 Y-8.641 I-6.349 J2.538
G1 X61.377 Y-8.681
Y-8.722
X61.388 Y-8.761
X61.411 Y-8.796
X61.445 Y-8.824 Z-4.793
X61.486 Y-8.84 Z-4.787
X61.525 Y-8.844 Z-4.767
X61.565 Y-8.836 Z-4.748
X61.656 Y-8.804 Z-4.64
X61.689 Y-8.793 Z-4.5
G0 Z5
X59.304 Y-28.54
Z1
G1 Z-2 F250
Z-4.5
X59.31 Y-28.545 Z-4.567
X59.326 Y-28.559 Z-4.63
X59.353 Y-28.583 Z-4.687
X59.389 Y-28.614 Z-4.735
X59.432 Y-28.651 Z-4.77
X59.48 Y-28.692 Z-4.792
X59.531 Y-28.736 Z-4.8
X64.552 Y-33.087
X64.583 Y-33.123
X64.6 Y-33.168
X64.603 Y-33.215
X64.591 Y-33.261
X64.565 Y-33.301
X64.532 Y-33.348
X64.512 Y-33.402
X64.505 Y-33.459
Y-33.504
G3 X65.072 Y-33.504 I0.283 J0
X64.761 Y-33.222 I-0.283 J0
G1 X64.716 Y-33.226
X64.66 Y-33.238
X64.608 Y-33.264
X64.565 Y-33.301
G3 X64.527 Y-35.23 I1.088 J-0.986
X66.451 Y-35.371 I1.03 J0.863
X64.545 Y-31.016 I-1.663 J1.867
G2 X62.905 Y-29.669 I-0.146 J1.493
G1 X61.186 Y-12.131
G2 X62.532 Y-10.492 I1.493 J0.146
G3 X62.045 Y-5.516 I-0.244 J2.488
X59.837 Y-7.514 I0.244 J-2.488
G2 X58.072 Y-8.69 I-1.471 J0.294
G1 X55.917 Y-8.259
G2 X54.74 Y-6.494 I0.294 J1.471
G3 X49.837 Y-5.514 I-2.451 J0.49
X49.837 Y-6.494 I2.451 J-0.49
G2 X48.66 Y-8.259 I-1.471 J-0.294
G1 X46.505 Y-8.69
G2 X44.74 Y-7.514 I-0.294 J1.471
G3 X39.837 Y-8.494 I-2.451 J-0.49
X42.045 Y-10.492 I2.451 J0.49
G2 X43.391 Y-12.131 I-0.146 J-1.493
G1 X41.672 Y-29.669
G2 X40.032 Y-31.016 I-1.493 J0.146
G3 X39.545 Y-35.992 I-0.244 J-2.488
X42.289 Y-33.504 I0.244 J2.488
G2 X43.789 Y-32.004 I1.5 J0
G1 X60.789
G2 X62.289 Y-33.504 I0 J-1.5
G3 X66.451 Y-35.371 I2.5 J0
G1 X66.49 Y-35.329 Z-4.789
X66.52 Y-35.28 Z-4.777
X66.538 Y-35.235 Z-4.745
X66.549 Y-35.187 Z-4.712
X66.551 Y-35.123 Z-4.615
X66.548 Y-35.1 Z-4.5
G0 Z15
X15.554 Y-21.597
Z1
G1 Z-1.2 F250
X15.538 Y-21.632 Z-1.347 F333.3
X15.499 Y-21.729 Z-1.456
X15.456 Y-21.869 Z-1.5
G3 X18.222 Y-22.558 Z-1.656 I1.383 J-0.345
X15.456 Y-21.869 Z-1.813 I-1.383 J0.345
X18.222 Y-22.558 Z-1.969 I1.383 J-0.345
X15.456 Y-21.869 Z-2.125 I-1.383 J0.345
X18.222 Y-22.558 Z-2.282 I1.383 J-0.345
X15.456 Y-21.869 Z-2.438 I-1.383 J0.345
X18.222 Y-22.558 Z-2.594 I1.383 J-0.345
X15.456 Y-21.869 Z-2.751 I-1.383 J0.345
X18.222 Y-22.558 Z-2.907 I1.383 J-0.345
X15.456 Y-21.869 Z-3.063 I-1.383 J0.345
X18.222 Y-22.558 Z-3.22 I1.383 J-0.345
X15.456 Y-21.869 Z-3.376 I-1.383 J0.345
X18.222 Y-22.558 Z-3.532 I1.383 J-0.345
X15.456 Y-21.869 Z-3.689 I-1.383 J0.345
X18.222 Y-22.558 Z-3.845 I1.383 J-0.345
X15.456 Y-21.869 Z-4.001 I-1.383 J0.345
X18.222 Y-22.558 Z-4.158 I1.383 J-0.345
X15.456 Y-21.869 Z-4.314 I-1.383 J0.345
X18.222 Y-22.558 Z-4.47 I1.383 J-0.345
X15.456 Y-21.869 Z-4.627 I-1.383 J0.345
X18.222 Y-22.558 Z-4.783 I1.383 J-0.345
X18.257 Y-22.074 Z-4.8 I-1.383 J0.345
G1 X17.74 Y-16.804 F250
G3 X17.473 Y-16.452 I-0.42 J-0.041
G1 X17.442 Y-16.44
G3 X17.135 Y-16.44 I-0.154 J-0.393
G1 X17.104 Y-16.452
G3 X16.837 Y-16.804 I0.152 J-0.394
G1 X16.246 Y-22.83
G3 X16.529 Y-23.143 I0.283 J-0.028
G1 X18.048
G3 X18.331 Y-22.83 I0 J0.284
G1 X18.257 Y-22.074
G2 X19.252 Y-20.21 I1.896 J0.186
G3 X20.248 Y-18.345 I-0.901 J1.679
G1 X19.925 Y-15.052
G3 X19.547 Y-14.63 I-0.477 J-0.047
G2 X17.656 Y-13.973 I1.664 J7.842
G3 X16.921 Y-13.973 I-0.368 J-0.744
G2 X15.03 Y-14.63 I-3.554 J7.185
G3 X14.652 Y-15.052 I0.1 J-0.469
G1 X13.66 Y-25.175
G3 X13.943 Y-25.488 I0.283 J-0.028
G1 X20.634
G3 X20.917 Y-25.175 I0 J0.284
G1 X20.248 Y-18.345
G2 X21.243 Y-16.48 I1.896 J0.186
G3 X22.238 Y-14.616 I-0.901 J1.679
G1 X22.088 Y-13.086
G3 X21.714 Y-12.672 I-0.466 J-0.046
X20.902 Y-12.533 I-3.019 J-15.094
G2 X20.09 Y-12.393 I2.207 J15.234
X18.724 Y-11.91 I1.001 J5.005
X17.524 Y-11.098 I2.987 J5.706
G3 X17.053 Y-11.098 I-0.235 J-0.275
G2 X15.853 Y-11.91 I-4.187 J4.894
X14.487 Y-12.393 I-2.367 J4.522
X13.675 Y-12.533 I-3.019 J15.094
G3 X12.863 Y-12.672 I2.207 J-15.234
X12.489 Y-13.086 I0.092 J-0.46
G1 X11.073 Y-27.527
G3 X11.35 Y-27.833 I0.277 J-0.027
G1 X23.227
G3 X23.504 Y-27.527 I0 J0.279
G1 X22.238 Y-14.616
G2 X23.168 Y-12.681 I2.058 J0.202
G3 X24.485 Y-10.986 I-1.792 J2.752
G2 X24.656 Y-10.563 I3.866 J-1.315
G3 X24.48 Y-10.368 I-0.129 J0.061
G2 X22.496 Y-10.503 I-1.234 J3.489
G3 X20.547 Y-10.107 I-60.382 J-291.774
G2 X17.892 Y-6.125 I0.664 J3.319
G3 X16.685 Y-5.883 I-0.604 J0.121
X16.685 Y-6.125 I0.604 J-0.121
G2 X14.03 Y-10.107 I-3.319 J-0.664
G3 X12.081 Y-10.503 I58.433 J-292.171
G2 X10.097 Y-10.368 I-0.75 J3.624
G3 X9.921 Y-10.563 I-0.047 J-0.134
G2 X10.212 Y-11.416 I-3.695 J-1.738
X10.266 Y-12.315 I-2.792 J-0.62
G1 X8.5 Y-29.88
G3 X8.757 Y-30.164 I0.255 J-0.027
G1 X25.82
G3 X26.077 Y-29.88 I0.002 J0.256
G1 X24.311 Y-12.315
G2 X24.365 Y-11.416 I2.847 J0.279
X24.485 Y-10.986 I3.986 J-0.886
G3 X24.145 Y-10.791 I-0.189 J0.064
G1 X4.575 Y-33.317
G3 X5.002 Y-33.69 I0.213 J-0.186
X5.072 Y-33.504 I-0.213 J0.186
G1 Y-33.459
G3 X4.861 Y-33.226 I-0.231 J0.003
G1 X4.816 Y-33.222
G3 X4.575 Y-33.317 I-0.028 J-0.282
G1 X4.542 Y-33.364 Z-4.789
X4.519 Y-33.417 Z-4.777
X4.508 Y-33.464 Z-4.745
X4.506 Y-33.513 Z-4.712
X4.515 Y-33.577 Z-4.615
X4.522 Y-33.599 Z-4.5
G0 Z5
X11.694 Y-11.904
Z1
G1 Z-2 F250
Z-4.5
X11.688 Y-11.899 Z-4.567
X11.671 Y-11.885 Z-4.63
X11.644 Y-11.863 Z-4.687
X11.607 Y-11.832 Z-4.735
X11.563 Y-11.796 Z-4.77
X11.514 Y-11.756 Z-4.792
X11.463 Y-11.713 Z-4.8
X8.183 Y-9.011
X8.151 Y-8.975
X8.133 Y-8.931
X8.129 Y-8.883
X8.141 Y-8.836
X8.166 Y-8.796
X8.189 Y-8.761
X8.2 Y-8.722
Y-8.681
X8.188 Y-8.641
G2 X8.026 Y-8.269 I6.187 J2.91
X7.911 Y-7.879 I2.065 J0.825
G3 X7.46 Y-7.403 I-0.606 J-0.121
X6.707 Y-8.235 I-0.159 J-0.613
X7.227 Y-8.635 I0.579 J0.214
G2 X7.625 Y-8.712 I-0.217 J-2.213
X8.012 Y-8.836 I-1.894 J-6.57
G1 X8.054 Y-8.844
X8.095 Y-8.839
X8.134 Y-8.823
X8.166 Y-8.796
X8.189 Y-8.76 Z-4.794
X8.201 Y-8.718 Z-4.787
X8.2 Y-8.679 Z-4.769
X8.188 Y-8.641 Z-4.75
X8.147 Y-8.552 Z-4.642
X8.132 Y-8.519 Z-4.5
Z-2
X22.897 Y-11.92
Z-4.5
X22.902 Y-11.915 Z-4.567
X22.918 Y-11.9 Z-4.63
X22.944 Y-11.875 Z-4.687
X22.979 Y-11.842 Z-4.735
X23.02 Y-11.803 Z-4.77
X23.066 Y-11.759 Z-4.792
X23.114 Y-11.713 Z-4.8
X26.195 Y-8.787
X26.235 Y-8.76
X26.281 Y-8.746
X26.329 Y-8.748
X26.374 Y-8.766
X26.411 Y-8.796
X26.443 Y-8.823
X26.482 Y-8.839
X26.523 Y-8.844
X26.565 Y-8.836
G2 X26.952 Y-8.712 I2.28 J-6.446
X27.35 Y-8.635 I0.616 J-2.137
G3 X27.87 Y-8.235 I-0.06 J0.615
X27.117 Y-7.403 I-0.594 J0.219
X26.666 Y-7.879 I0.155 J-0.598
G2 X26.551 Y-8.269 I-2.181 J0.436
X26.389 Y-8.641 I-6.349 J2.538
G1 X26.377 Y-8.681
Y-8.722
X26.388 Y-8.761
X26.411 Y-8.796
X26.412 Y-8.797
G2 X25.035 Y-11.692 I-1.295 J-1.159
G3 X22.017 Y-12.774 I-0.198 J-4.198
X19.508 Y-20.801 I5.56 J-6.143
X23.772 Y-28.049 I13.745 J3.208
G1 X27.593 Y-31.513
X29.088 Y-32.869
X29.406 Y-33.157
X29.441 Y-33.196
X29.467 Y-33.24
X29.484 Y-33.289
X29.491 Y-33.341
X29.497 Y-33.442
X29.508 Y-33.542
G3 X30.069 Y-33.465 I0.28 J0.038
X29.761 Y-33.222 I-0.28 J-0.038
G1 X29.716 Y-33.226
G3 X29.505 Y-33.459 I0.02 J-0.23
G1 Y-33.504
X29.508 Y-33.542
G2 X29.095 Y-34.769 I-1.443 J-0.197
G3 X29.527 Y-35.99 I0.507 J-0.507
X32.288 Y-33.513 I0.261 J2.486
X29.545 Y-31.016 I-2.5 J0.009
G2 X27.905 Y-29.669 I-0.146 J1.493
G1 X26.186 Y-12.131
G2 X27.532 Y-10.492 I1.493 J0.146
G3 X27.045 Y-5.516 I-0.244 J2.488
X24.837 Y-7.514 I0.244 J-2.488
G2 X23.072 Y-8.69 I-1.471 J0.294
G1 X20.917 Y-8.259
G2 X19.74 Y-6.494 I0.294 J1.471
G3 X14.837 Y-5.514 I-2.451 J0.49
X14.837 Y-6.494 I2.451 J-0.49
G2 X13.66 Y-8.259 I-1.471 J-0.294
G1 X11.505 Y-8.69
G2 X9.74 Y-7.513 I-0.294 J1.471
G3 X4.837 Y-8.494 I-2.451 J-0.49
X7.045 Y-10.492 I2.451 J0.49
G2 X8.391 Y-12.131 I-0.146 J-1.493
G1 X6.672 Y-29.669
G2 X5.032 Y-31.016 I-1.493 J0.146
G3 X4.545 Y-35.992 I-0.244 J-2.488
X7.288 Y-33.504 I0.244 J2.488
G2 X8.788 Y-32.004 I1.5 J0
G1 X25.788
G2 X27.288 Y-33.504 I0 J-1.5
G3 X29.527 Y-35.99 I2.5 J0
G1 X29.584 Y-35.991 Z-4.789
X29.641 Y-35.98 Z-4.777
X29.686 Y-35.963 Z-4.745
X29.728 Y-35.939 Z-4.712
X29.778 Y-35.897 Z-4.615
X29.793 Y-35.879 Z-4.5
G0 Z15
X-19.446 Y-21.597
Z1
G1 Z-1.2 F250
X-19.462 Y-21.632 Z-1.347 F333.3
X-19.501 Y-21.73 Z-1.456
X-19.544 Y-21.869 Z-1.5
G3 X-16.778 Y-22.558 Z-1.656 I1.383 J-0.345
X-19.544 Y-21.869 Z-1.813 I-1.383 J0.345
X-16.778 Y-22.558 Z-1.969 I1.383 J-0.345
X-19.544 Y-21.869 Z-2.125 I-1.383 J0.345
X-16.778 Y-22.558 Z-2.282 I1.383 J-0.345
X-19.544 Y-21.869 Z-2.438 I-1.383 J0.345
X-16.778 Y-22.558 Z-2.594 I1.383 J-0.345
X-19.544 Y-21.869 Z-2.751 I-1.383 J0.345
X-16.778 Y-22.558 Z-2.907 I1.383 J-0.345
X-19.544 Y-21.869 Z-3.063 I-1.383 J0.345
X-16.778 Y-22.558 Z-3.22 I1.383 J-0.345
X-19.544 Y-21.869 Z-3.376 I-1.383 J0.345
X-16.778 Y-22.558 Z-3.532 I1.383 J-0.345
X-19.544 Y-21.869 Z-3.689 I-1.383 J0.345
X-16.778 Y-22.558 Z-3.845 I1.383 J-0.345
X-19.544 Y-21.869 Z-4.001 I-1.383 J0.345
X-16.778 Y-22.558 Z-4.158 I1.383 J-0.345
X-19.544 Y-21.869 Z-4.314 I-1.383 J0.345
X-16.778 Y-22.558 Z-4.47 I1.383 J-0.345
X-19.544 Y-21.869 Z-4.627 I-1.383 J0.345
X-16.778 Y-22.558 Z-4.783 I1.383 J-0.345
X-16.743 Y-22.074 Z-4.8 I-1.383 J0.345
G1 X-17.26 Y-16.804 F250
G3 X-17.527 Y-16.452 I-0.42 J-0.041
G1 X-17.558 Y-16.44
G3 X-17.865 Y-16.44 I-0.154 J-0.393
G1 X-17.896 Y-16.452
G3 X-18.163 Y-16.804 I0.152 J-0.394
G1 X-18.754 Y-22.83
G3 X-18.471 Y-23.143 I0.283 J-0.028
G1 X-16.952
G3 X-16.669 Y-22.83 I0 J0.284
G1 X-16.743 Y-22.074
G2 X-15.748 Y-20.21 I1.896 J0.186
G3 X-14.752 Y-18.345 I-0.901 J1.679
G1 X-15.075 Y-15.052
G3 X-15.453 Y-14.63 I-0.477 J-0.047
G2 X-17.344 Y-13.973 I1.664 J7.842
G3 X-18.079 Y-13.973 I-0.368 J-0.744
G2 X-19.97 Y-14.63 I-3.554 J7.185
G3 X-20.348 Y-15.052 I0.1 J-0.469
G1 X-21.34 Y-25.175
G3 X-21.057 Y-25.488 I0.283 J-0.028
G1 X-14.366
G3 X-14.083 Y-25.175 I0 J0.284
G1 X-14.752 Y-18.345
G2 X-13.757 Y-16.48 I1.896 J0.186
G3 X-12.762 Y-14.616 I-0.901 J1.679
G1 X-12.912 Y-13.086
G3 X-13.286 Y-12.672 I-0.466 J-0.046
X-14.098 Y-12.533 I-3.019 J-15.093
G2 X-14.91 Y-12.393 I2.207 J15.233
X-16.276 Y-11.91 I1.001 J5.005
X-17.476 Y-11.098 I2.987 J5.706
G3 X-17.947 Y-11.098 I-0.235 J-0.275
G2 X-19.147 Y-11.91 I-4.187 J4.894
X-20.513 Y-12.393 I-2.367 J4.522
X-21.325 Y-12.533 I-3.019 J15.094
G3 X-22.137 Y-12.672 I2.207 J-15.234
X-22.511 Y-13.086 I0.092 J-0.46
G1 X-23.927 Y-27.527
G3 X-23.65 Y-27.833 I0.277 J-0.027
G1 X-11.773
G3 X-11.496 Y-27.527 I0 J0.279
G1 X-12.762 Y-14.616
G2 X-11.832 Y-12.681 I2.058 J0.202
G3 X-10.515 Y-10.986 I-1.792 J2.752
G2 X-10.344 Y-10.563 I3.866 J-1.315
G3 X-10.52 Y-10.368 I-0.129 J0.061
G2 X-12.504 Y-10.503 I-1.234 J3.489
G3 X-14.453 Y-10.107 I-60.368 J-291.707
G2 X-17.108 Y-6.125 I0.664 J3.319
G3 X-18.315 Y-5.883 I-0.604 J0.121
X-18.315 Y-6.125 I0.604 J-0.121
G2 X-20.97 Y-10.107 I-3.319 J-0.664
G3 X-22.919 Y-10.503 I58.438 J-292.197
G2 X-24.903 Y-10.368 I-0.75 J3.624
G3 X-25.079 Y-10.563 I-0.047 J-0.134
G2 X-24.788 Y-11.415 I-3.695 J-1.738
X-24.734 Y-12.315 I-2.792 J-0.62
G1 X-26.5 Y-29.88
G3 X-26.243 Y-30.164 I0.255 J-0.027
G1 X-9.18
G3 X-8.923 Y-29.88 I0.002 J0.256
G1 X-10.689 Y-12.315
G2 X-10.635 Y-11.416 I2.847 J0.279
X-10.515 Y-10.986 I3.986 J-0.886
G3 X-10.855 Y-10.791 I-0.189 J0.064
G1 X-30.425 Y-33.317
G3 X-29.998 Y-33.69 I0.213 J-0.186
X-29.928 Y-33.504 I-0.213 J0.186
G1 Y-33.459
G3 X-30.139 Y-33.226 I-0.231 J0.003
G1 X-30.184 Y-33.222
G3 X-30.425 Y-33.317 I-0.028 J-0.282
G1 X-30.458 Y-33.364 Z-4.789
X-30.481 Y-33.417 Z-4.777
X-30.492 Y-33.464 Z-4.745
X-30.494 Y-33.513 Z-4.712
X-30.485 Y-33.577 Z-4.615
X-30.478 Y-33.599 Z-4.5
G0 Z5
X-23.306 Y-11.904
Z1
G1 Z-2 F250
Z-4.5
X-23.312 Y-11.899 Z-4.567
X-23.329 Y-11.885 Z-4.63
X-23.356 Y-11.863 Z-4.687
X-23.393 Y-11.832 Z-4.735
X-23.437 Y-11.796 Z-4.77
X-23.486 Y-11.756 Z-4.792
X-23.537 Y-11.713 Z-4.8
X-26.817 Y-9.011
X-26.849 Y-8.975
X-26.867 Y-8.931
X-26.871 Y-8.883
X-26.859 Y-8.836
X-26.834 Y-8.796
X-26.811 Y-8.761
X-26.8 Y-8.722
Y-8.681
X-26.812 Y-8.641
G2 X-26.974 Y-8.269 I6.187 J2.91
X-27.089 Y-7.879 I2.065 J0.825
G3 X-27.54 Y-7.403 I-0.606 J-0.121
X-28.293 Y-8.235 I-0.159 J-0.613
X-27.773 Y-8.635 I0.579 J0.214
G2 X-27.375 Y-8.712 I-0.217 J-2.213
X-26.988 Y-8.836 I-1.894 J-6.57
G1 X-26.946 Y-8.844
X-26.905 Y-8.839
X-26.866 Y-8.823
X-26.834 Y-8.796
X-26.811 Y-8.76 Z-4.794
X-26.799 Y-8.718 Z-4.787
X-26.8 Y-8.679 Z-4.769
X-26.812 Y-8.641 Z-4.75
X-26.853 Y-8.552 Z-4.642
X-26.868 Y-8.519 Z-4.5
Z-2
X-12.103 Y-11.92
Z-4.5
X-12.098 Y-11.915 Z-4.567
X-12.082 Y-11.9 Z-4.63
X-12.056 Y-11.875 Z-4.687
X-12.021 Y-11.842 Z-4.735
X-11.98 Y-11.803 Z-4.77
X-11.934 Y-11.759 Z-4.792
X-11.886 Y-11.713 Z-4.8
X-8.805 Y-8.787
X-8.765 Y-8.76
X-8.719 Y-8.746
X-8.671 Y-8.748
X-8.626 Y-8.766
X-8.589 Y-8.796
X-8.557 Y-8.823
X-8.518 Y-8.839
X-8.477 Y-8.844
X-8.435 Y-8.836
G2 X-8.049 Y-8.712 I2.28 J-6.446
X-7.65 Y-8.635 I0.616 J-2.137
G3 X-7.131 Y-8.235 I-0.06 J0.615
X-7.883 Y-7.403 I-0.594 J0.219
X-8.334 Y-7.879 I0.155 J-0.598
G2 X-8.449 Y-8.269 I-2.181 J0.436
X-8.611 Y-8.641 I-6.349 J2.538
G1 X-8.623 Y-8.681
Y-8.722
X-8.612 Y-8.761
X-8.589 Y-8.796
X-8.588 Y-8.797
G2 X-9.965 Y-11.692 I-1.295 J-1.159
G3 X-12.983 Y-12.774 I-0.198 J-4.198
X-15.492 Y-20.801 I5.56 J-6.143
X-11.228 Y-28.049 I13.745 J3.208
G1 X-7.407 Y-31.513
X-5.912 Y-32.869
X-5.594 Y-33.157
X-5.559 Y-33.196
X-5.533 Y-33.24
X-5.516 Y-33.289
X-5.509 Y-33.341
X-5.503 Y-33.442
X-5.492 Y-33.542
G3 X-4.931 Y-33.465 I0.28 J0.038
X-5.239 Y-33.222 I-0.28 J-0.038
G1 X-5.284 Y-33.226
G3 X-5.495 Y-33.459 I0.02 J-0.23
G1 Y-33.504
X-5.492 Y-33.542
G2 X-5.905 Y-34.769 I-1.443 J-0.197
G3 X-5.473 Y-35.99 I0.507 J-0.507
X-2.712 Y-33.513 I0.261 J2.486
X-5.455 Y-31.016 I-2.5 J0.009
G2 X-7.095 Y-29.669 I-0.146 J1.493
G1 X-8.814 Y-12.131
G2 X-7.468 Y-10.492 I1.493 J0.146
G3 X-7.955 Y-5.516 I-0.244 J2.488
X-10.163 Y-7.514 I0.244 J-2.488
G2 X-11.928 Y-8.69 I-1.471 J0.294
G1 X-14.083 Y-8.259
G2 X-15.26 Y-6.494 I0.294 J1.471
G3 X-20.163 Y-5.514 I-2.451 J0.49
X-20.163 Y-6.494 I2.451 J-0.49
G2 X-21.34 Y-8.259 I-1.471 J-0.294
G1 X-23.495 Y-8.69
G2 X-25.26 Y-7.514 I-0.294 J1.471
G3 X-30.163 Y-8.494 I-2.451 J-0.49
X-27.955 Y-10.492 I2.451 J0.49
G2 X-26.609 Y-12.131 I-0.146 J-1.493
G1 X-28.328 Y-29.669
G2 X-29.968 Y-31.016 I-1.493 J0.146
G3 X-30.455 Y-35.992 I-0.244 J-2.488
X-27.712 Y-33.504 I0.244 J2.488
G2 X-26.212 Y-32.004 I1.5 J0
G1 X-9.212
G2 X-7.712 Y-33.504 I0 J-1.5
G3 X-5.473 Y-35.99 I2.5 J0
G1 X-5.416 Y-35.991 Z-4.789
X-5.359 Y-35.98 Z-4.777
X-5.314 Y-35.963 Z-4.745
X-5.272 Y-35.939 Z-4.712
X-5.222 Y-35.897 Z-4.615
X-5.208 Y-35.879 Z-4.5
G0 Z15
X-51.121 Y-23.068
Z1
G1 Z-1.2 F250
X-51.099 Y-23.037 Z-1.347 F333.3
X-51.041 Y-22.948 Z-1.456
X-50.973 Y-22.82 Z-1.5
G3 X-53.551 Y-21.607 Z-1.656 I-1.289 J0.607
X-50.973 Y-22.82 Z-1.813 I1.289 J-0.607
X-53.551 Y-21.607 Z-1.969 I-1.289 J0.607
X-50.973 Y-22.82 Z-2.125 I1.289 J-0.607
X-53.551 Y-21.607 Z-2.282 I-1.289 J0.607
X-50.973 Y-22.82 Z-2.438 I1.289 J-0.607
X-53.551 Y-21.607 Z-2.594 I-1.289 J0.607
X-50.973 Y-22.82 Z-2.751 I1.289 J-0.607
X-53.551 Y-21.607 Z-2.907 I-1.289 J0.607
X-50.973 Y-22.82 Z-3.063 I1.289 J-0.607
X-53.551 Y-21.607 Z-3.22 I-1.289 J0.607
X-50.973 Y-22.82 Z-3.376 I1.289 J-0.607
X-53.551 Y-21.607 Z-3.532 I-1.289 J0.607
X-50.973 Y-22.82 Z-3.689 I1.289 J-0.607
X-53.551 Y-21.607 Z-3.845 I-1.289 J0.607
X-50.973 Y-22.82 Z-4.001 I1.289 J-0.607
X-53.551 Y-21.607 Z-4.158 I-1.289 J0.607
X-50.973 Y-22.82 Z-4.314 I1.289 J-0.607
X-53.551 Y-21.607 Z-4.47 I-1.289 J0.607
X-50.973 Y-22.82 Z-4.627 I1.289 J-0.607
X-53.551 Y-21.607 Z-4.783 I-1.289 J0.607
X-53.68 Y-22.074 Z-4.8 I1.289 J-0.607
G1 X-53.754 Y-22.83 F250
G3 X-53.471 Y-23.143 I0.283 J-0.028
G1 X-51.952
G3 X-51.669 Y-22.83 I0 J0.284
G1 X-52.26 Y-16.804
G3 X-52.527 Y-16.452 I-0.42 J-0.041
G1 X-52.558 Y-16.44
G3 X-52.865 Y-16.44 I-0.154 J-0.393
G1 X-52.896 Y-16.452
G3 X-53.163 Y-16.804 I0.152 J-0.394
G1 X-53.68 Y-22.074
G2 X-54.604 Y-23.707 I-2.303 J0.226
G3 X-54.015 Y-25.488 I0.589 J-0.793
G1 X-49.366
G3 X-49.083 Y-25.175 I0 J0.284
G1 X-50.075 Y-15.052
G3 X-50.453 Y-14.63 I-0.477 J-0.047
G2 X-52.344 Y-13.973 I1.664 J7.842
G3 X-53.079 Y-13.973 I-0.368 J-0.744
G2 X-54.97 Y-14.63 I-3.554 J7.185
G3 X-55.348 Y-15.052 I0.1 J-0.469
G1 X-56.34 Y-25.175
G3 X-56.057 Y-25.488 I0.283 J-0.028
G1 X-54.015
G2 X-52.256 Y-26.66 I0 J-1.905
G3 X-50.498 Y-27.833 I1.759 J0.733
G1 X-46.773
G3 X-46.496 Y-27.527 I0 J0.279
G1 X-47.912 Y-13.086
G3 X-48.286 Y-12.672 I-0.466 J-0.046
X-49.098 Y-12.533 I-3.019 J-15.094
G2 X-49.91 Y-12.393 I2.207 J15.234
X-51.276 Y-11.91 I1.001 J5.005
X-52.476 Y-11.098 I2.987 J5.706
G3 X-52.947 Y-11.098 I-0.235 J-0.275
G2 X-54.147 Y-11.91 I-4.187 J4.894
X-55.513 Y-12.393 I-2.367 J4.522
X-56.325 Y-12.533 I-3.019 J15.094
G3 X-57.137 Y-12.672 I2.207 J-15.234
X-57.511 Y-13.086 I0.092 J-0.46
G1 X-58.927 Y-27.527
G3 X-58.65 Y-27.833 I0.277 J-0.027
G1 X-50.498
G2 X-48.749 Y-28.998 I0 J-1.894
G3 X-47.001 Y-30.164 I1.748 J0.729
G1 X-44.18
G3 X-43.923 Y-29.88 I0.002 J0.256
G1 X-45.689 Y-12.315
G2 X-45.635 Y-11.416 I2.847 J0.279
X-45.344 Y-10.563 I3.986 J-0.886
G3 X-45.52 Y-10.368 I-0.129 J0.061
G2 X-47.504 Y-10.503 I-1.234 J3.489
G3 X-49.453 Y-10.107 I-60.382 J-291.774
G2 X-52.108 Y-6.125 I0.664 J3.319
G3 X-53.315 Y-5.883 I-0.604 J0.121
X-53.315 Y-6.125 I0.604 J-0.121
G2 X-55.97 Y-10.107 I-3.319 J-0.664
G3 X-57.919 Y-10.503 I58.433 J-292.171
G2 X-59.903 Y-10.368 I-0.75 J3.624
G3 X-60.079 Y-10.563 I-0.047 J-0.134
G2 X-59.788 Y-11.416 I-3.695 J-1.738
X-59.734 Y-12.315 I-2.792 J-0.62
G1 X-61.5 Y-29.88
G3 X-61.243 Y-30.164 I0.255 J-0.027
G1 X-47.001
X-46.944 Y-30.158 Z-4.789
X-46.889 Y-30.142 Z-4.777
X-46.845 Y-30.12 Z-4.745
X-46.806 Y-30.092 Z-4.712
X-46.761 Y-30.045 Z-4.615
X-46.748 Y-30.026 Z-4.5
Z-2
X-45.696 Y-28.54
Z-4.5
X-45.69 Y-28.545 Z-4.567
X-45.674 Y-28.559 Z-4.63
X-45.647 Y-28.583 Z-4.687
X-45.611 Y-28.614 Z-4.735
X-45.568 Y-28.651 Z-4.77
X-45.52 Y-28.692 Z-4.792
X-45.469 Y-28.736 Z-4.8
X-40.448 Y-33.087
X-40.417 Y-33.123
X-40.4 Y-33.168
X-40.397 Y-33.215
X-40.409 Y-33.261
X-40.435 Y-33.301
X-40.468 Y-33.348
X-40.488 Y-33.402
X-40.495 Y-33.459
Y-33.504
G3 X-39.928 Y-33.504 I0.283 J0
X-40.239 Y-33.222 I-0.283 J0
G1 X-40.284 Y-33.226
X-40.34 Y-33.238
X-40.392 Y-33.264
X-40.435 Y-33.301
X-40.462 Y-33.337 Z-4.793
X-40.481 Y-33.378 Z-4.786
X-40.492 Y-33.418 Z-4.766
X-40.495 Y-33.459 Z-4.745
Y-33.504 Z-4.706
X-40.488 Y-33.564 Z-4.611
X-40.483 Y-33.585 Z-4.5
G0 Z5
X-59.736 Y-28.53
Z1
G1 Z-2 F250
Z-4.5
X-59.741 Y-28.535 Z-4.567
X-59.758 Y-28.55 Z-4.63
X-59.783 Y-28.575 Z-4.687
X-59.818 Y-28.607 Z-4.735
X-59.859 Y-28.647 Z-4.77
X-59.905 Y-28.69 Z-4.792
X-59.954 Y-28.736 Z-4.8
X-64.774 Y-33.309
X-64.813 Y-33.336
X-64.859 Y-33.349
X-64.906 Y-33.347
X-64.951 Y-33.331
X-64.988 Y-33.301
X-65.031 Y-33.264
X-65.083 Y-33.238
X-65.139 Y-33.226
X-65.184 Y-33.222
G3 X-65.239 Y-33.786 I-0.028 J-0.282
X-64.928 Y-33.504 I0.028 J0.282
G1 Y-33.459
X-64.935 Y-33.402
X-64.955 Y-33.348
X-64.988 Y-33.301
X-65.021 Y-33.271 Z-4.793
X-65.06 Y-33.247 Z-4.786
X-65.099 Y-33.233 Z-4.766
X-65.139 Y-33.226 Z-4.745
X-65.184 Y-33.222 Z-4.706
X-65.214 Y-33.221 Z-4.669
X-65.263 Y-33.225 Z-4.544
X-65.266 Y-33.226 Z-4.5
G0 Z5
X-58.306 Y-11.904
Z1
G1 Z-2 F250
Z-4.5
X-58.312 Y-11.899 Z-4.567
X-58.329 Y-11.885 Z-4.63
X-58.356 Y-11.863 Z-4.687
X-58.393 Y-11.832 Z-4.735
X-58.437 Y-11.796 Z-4.77
X-58.486 Y-11.756 Z-4.792
X-58.537 Y-11.713 Z-4.8
X-61.817 Y-9.011
X-61.849 Y-8.975
X-61.867 Y-8.931
X-61.871 Y-8.883
X-61.859 Y-8.836
X-61.834 Y-8.796
X-61.811 Y-8.761
X-61.8 Y-8.722
Y-8.681
X-61.812 Y-8.641
G2 X-61.974 Y-8.269 I6.187 J2.91
X-62.089 Y-7.879 I2.065 J0.825
G3 X-62.54 Y-7.403 I-0.606 J-0.121
X-63.293 Y-8.235 I-0.159 J-0.613
X-62.773 Y-8.635 I0.579 J0.214
G2 X-62.375 Y-8.712 I-0.217 J-2.213
X-61.988 Y-8.836 I-1.894 J-6.57
G1 X-61.946 Y-8.844
X-61.905 Y-8.839
X-61.866 Y-8.823
X-61.834 Y-8.796
X-61.811 Y-8.76 Z-4.794
X-61.799 Y-8.718 Z-4.787
X-61.8 Y-8.679 Z-4.769
X-61.812 Y-8.641 Z-4.75
X-61.853 Y-8.552 Z-4.642
X-61.868 Y-8.519 Z-4.5
Z-2
X-47.103 Y-11.92
Z-4.5
X-47.098 Y-11.915 Z-4.567
X-47.082 Y-11.9 Z-4.63
X-47.056 Y-11.875 Z-4.687
X-47.021 Y-11.842 Z-4.735
X-46.98 Y-11.803 Z-4.77
X-46.934 Y-11.759 Z-4.792
X-46.886 Y-11.713 Z-4.8
X-43.805 Y-8.787
X-43.765 Y-8.76
X-43.719 Y-8.746
X-43.671 Y-8.748
X-43.626 Y-8.766
X-43.589 Y-8.796
X-43.557 Y-8.823
X-43.518 Y-8.839
X-43.477 Y-8.844
X-43.435 Y-8.836
G2 X-43.048 Y-8.712 I2.28 J-6.446
X-42.65 Y-8.635 I0.616 J-2.137
G3 X-42.13 Y-8.235 I-0.06 J0.615
X-42.883 Y-7.403 I-0.594 J0.219
X-43.334 Y-7.879 I0.155 J-0.598
G2 X-43.449 Y-8.269 I-2.181 J0.436
X-43.611 Y-8.641 I-6.349 J2.538
G1 X-43.623 Y-8.681
Y-8.722
X-43.612 Y-8.761
X-43.589 Y-8.796
G3 X-41.736 Y-9.629 I1.85 J1.637
X-40.226 Y-8.27 I-0.002 J1.521
X-45.163 Y-7.514 I-2.486 J0.266
G2 X-46.928 Y-8.69 I-1.471 J0.294
G1 X-49.083 Y-8.259
G2 X-50.26 Y-6.494 I0.294 J1.471
G3 X-55.163 Y-5.514 I-2.451 J0.49
X-55.163 Y-6.494 I2.451 J-0.49
G2 X-56.34 Y-8.259 I-1.471 J-0.294
G1 X-58.495 Y-8.69
G2 X-60.26 Y-7.514 I-0.294 J1.471
G3 X-65.163 Y-8.494 I-2.451 J-0.49
X-62.955 Y-10.492 I2.451 J0.49
G2 X-61.609 Y-12.131 I-0.146 J-1.493
G1 X-63.328 Y-29.669
G2 X-64.968 Y-31.016 I-1.493 J0.146
G3 X-65.455 Y-35.992 I-0.244 J-2.488
X-62.711 Y-33.504 I0.244 J2.488
G2 X-61.211 Y-32.004 I1.5 J0
G1 X-44.211
G2 X-42.711 Y-33.504 I0 J-1.5
G3 X-37.712 Y-33.504 I2.5 J0
X-40.455 Y-31.016 I-2.5 J0
G2 X-42.095 Y-29.669 I-0.146 J1.493
G1 X-43.814 Y-12.131
G2 X-42.468 Y-10.492 I1.493 J0.146
G3 X-40.226 Y-8.27 I-0.244 J2.488
G1 X-40.225 Y-8.213 Z-4.789
X-40.235 Y-8.156 Z-4.777
X-40.252 Y-8.111 Z-4.745
X-40.276 Y-8.068 Z-4.712
X-40.319 Y-8.019 Z-4.615
X-40.336 Y-8.004 Z-4.5
G0 Z15
M9
M5
M30
