(1001)
(Machine)
(  vendor: Autodesk)
(  description: Generic 3-axis)
(T3  D=3 CR=0 - ZMIN=-4 - flat end mill)
G90 G94
G17
G21

(2D Contour3)
T3
S1000 M3
G54
M8
G0 X-10.283 Y19.257
Z15
Z5
G1 Z1.5 F200
Z-0.2
X-10.276 Y19.258 Z-0.267 F450
X-10.254 Y19.26 Z-0.33
X-10.218 Y19.264 Z-0.387
X-10.171 Y19.269 Z-0.435
X-10.114 Y19.274 Z-0.47
X-10.051 Y19.28 Z-0.492
X-9.985 Y19.287 Z-0.5
X-9.686 Y19.316
G3 X-9.417 Y19.644 I-0.029 J0.299
G1 X-10.48 Y30.491
X-17.712 Y31.937
X-24.943 Y30.491
X-26.903 Y10.496
X-8.52
X-9.417 Y19.644
G3 X-9.745 Y19.913 I-0.299 J-0.029
G1 X-10.043 Y19.884
X-10.11 Y19.877 Z-0.492
X-10.173 Y19.871 Z-0.47
X-10.229 Y19.866 Z-0.435
X-10.277 Y19.861 Z-0.387
X-10.312 Y19.858 Z-0.33
X-10.334 Y19.855 Z-0.267
X-10.342 Z-0.2
G0 Z5
X-10.283 Y19.257
G1 Z1 F200
Z-0.7
X-10.276 Y19.258 Z-0.767 F450
X-10.254 Y19.26 Z-0.83
X-10.218 Y19.264 Z-0.887
X-10.171 Y19.269 Z-0.935
X-10.114 Y19.274 Z-0.97
X-10.051 Y19.28 Z-0.992
X-9.985 Y19.287 Z-1
X-9.686 Y19.316
G3 X-9.417 Y19.644 I-0.029 J0.299
G1 X-10.48 Y30.491
X-17.712 Y31.937
X-24.943 Y30.491
X-26.903 Y10.496
X-8.52
X-9.417 Y19.644
G3 X-9.745 Y19.913 I-0.299 J-0.029
G1 X-10.043 Y19.884
X-10.11 Y19.877 Z-0.992
X-10.173 Y19.871 Z-0.97
X-10.229 Y19.866 Z-0.935
X-10.277 Y19.861 Z-0.887
X-10.312 Y19.858 Z-0.83
X-10.334 Y19.855 Z-0.767
X-10.342 Z-0.7
G0 Z5
X-10.283 Y19.257
G1 Z0.5 F200
Z-1.2
X-10.276 Y19.258 Z-1.267 F450
X-10.254 Y19.26 Z-1.33
X-10.218 Y19.264 Z-1.387
X-10.171 Y19.269 Z-1.435
X-10.114 Y19.274 Z-1.47
X-10.051 Y19.28 Z-1.492
X-9.985 Y19.287 Z-1.5
X-9.686 Y19.316
G3 X-9.417 Y19.644 I-0.029 J0.299
G1 X-10.48 Y30.491
X-17.712 Y31.937
X-24.943 Y30.491
X-26.903 Y10.496
X-8.52
X-9.417 Y19.644
G3 X-9.745 Y19.913 I-0.299 J-0.029
G1 X-10.043 Y19.884
X-10.11 Y19.877 Z-1.492
X-10.173 Y19.871 Z-1.47
X-10.229 Y19.866 Z-1.435
X-10.277 Y19.861 Z-1.387
X-10.312 Y19.858 Z-1.33
X-10.334 Y19.855 Z-1.267
X-10.342 Z-1.2
G0 Z5
X-10.283 Y19.257
G1 Z0 F200
Z-1.7
X-10.276 Y19.258 Z-1.767 F450
X-10.254 Y19.26 Z-1.83
X-10.218 Y19.264 Z-1.887
X-10.171 Y19.269 Z-1.935
X-10.114 Y19.274 Z-1.97
X-10.051 Y19.28 Z-1.992
X-9.985 Y19.287 Z-2
X-9.686 Y19.316
G3 X-9.417 Y19.644 I-0.029 J0.299
G1 X-10.48 Y30.491
X-17.712 Y31.937
X-24.943 Y30.491
X-26.903 Y10.496
X-8.52
X-9.417 Y19.644
G3 X-9.745 Y19.913 I-0.299 J-0.029
G1 X-10.043 Y19.884
X-10.11 Y19.877 Z-1.992
X-10.173 Y19.871 Z-1.97
X-10.229 Y19.866 Z-1.935
X-10.277 Y19.861 Z-1.887
X-10.312 Y19.858 Z-1.83
X-10.334 Y19.855 Z-1.767
X-10.342 Z-1.7
G0 Z5
X-10.283 Y19.257
G1 Z-0.5 F200
Z-2.2
X-10.276 Y19.258 Z-2.267 F450
X-10.254 Y19.26 Z-2.33
X-10.218 Y19.264 Z-2.387
X-10.171 Y19.269 Z-2.435
X-10.114 Y19.274 Z-2.47
X-10.051 Y19.28 Z-2.492
X-9.985 Y19.287 Z-2.5
X-9.686 Y19.316
G3 X-9.417 Y19.644 I-0.029 J0.299
G1 X-10.48 Y30.491
X-17.712 Y31.937
X-24.943 Y30.491
X-26.903 Y10.496
X-8.52
X-9.417 Y19.644
G3 X-9.745 Y19.913 I-0.299 J-0.029
G1 X-10.043 Y19.884
X-10.11 Y19.877 Z-2.492
X-10.173 Y19.871 Z-2.47
X-10.229 Y19.866 Z-2.435
X-10.277 Y19.861 Z-2.387
X-10.312 Y19.858 Z-2.33
X-10.334 Y19.855 Z-2.267
X-10.342 Z-2.2
G0 Z5
X-10.283 Y19.257
G1 Z-1 F200
Z-2.7
X-10.276 Y19.258 Z-2.767 F450
X-10.254 Y19.26 Z-2.83
X-10.218 Y19.264 Z-2.887
X-10.171 Y19.269 Z-2.935
X-10.114 Y19.274 Z-2.97
X-10.051 Y19.28 Z-2.992
X-9.985 Y19.287 Z-3
X-9.686 Y19.316
G3 X-9.417 Y19.644 I-0.029 J0.299
G1 X-10.48 Y30.491
X-17.712 Y31.937
X-24.943 Y30.491
X-26.903 Y10.496
X-8.52
X-9.417 Y19.644
G3 X-9.745 Y19.913 I-0.299 J-0.029
G1 X-10.043 Y19.884
X-10.11 Y19.877 Z-2.992
X-10.173 Y19.871 Z-2.97
X-10.229 Y19.866 Z-2.935
X-10.277 Y19.861 Z-2.887
X-10.312 Y19.858 Z-2.83
X-10.334 Y19.855 Z-2.767
X-10.342 Z-2.7
G0 Z5
X-10.283 Y19.257
G1 Z-1.5 F200
Z-3.2
X-10.276 Y19.258 Z-3.267 F450
X-10.254 Y19.26 Z-3.33
X-10.218 Y19.264 Z-3.387
X-10.171 Y19.269 Z-3.435
X-10.114 Y19.274 Z-3.47
X-10.051 Y19.28 Z-3.492
X-9.985 Y19.287 Z-3.5
X-9.686 Y19.316
G3 X-9.417 Y19.644 I-0.029 J0.299
G1 X-10.48 Y30.491
X-17.712 Y31.937
X-24.943 Y30.491
X-26.903 Y10.496
X-8.52
X-9.417 Y19.644
G3 X-9.745 Y19.913 I-0.299 J-0.029
G1 X-10.043 Y19.884
X-10.11 Y19.877 Z-3.492
X-10.173 Y19.871 Z-3.47
X-10.229 Y19.866 Z-3.435
X-10.277 Y19.861 Z-3.387
X-10.312 Y19.858 Z-3.33
X-10.334 Y19.855 Z-3.267
X-10.342 Z-3.2
G0 Z5
X-10.283 Y19.257
G1 Z-2 F200
Z-3.7
X-10.276 Y19.258 Z-3.767 F450
X-10.254 Y19.26 Z-3.83
X-10.218 Y19.264 Z-3.887
X-10.171 Y19.269 Z-3.935
X-10.114 Y19.274 Z-3.97
X-10.051 Y19.28 Z-3.992
X-9.985 Y19.287 Z-4
X-9.686 Y19.316
G3 X-9.417 Y19.644 I-0.029 J0.299
G1 X-10.48 Y30.491
X-17.712 Y31.937
X-24.943 Y30.491
X-26.903 Y10.496
X-8.52
X-9.417 Y19.644
G3 X-9.745 Y19.913 I-0.299 J-0.029
G1 X-10.043 Y19.884
X-10.11 Y19.877 Z-3.992
X-10.173 Y19.871 Z-3.97
X-10.229 Y19.866 Z-3.935
X-10.277 Y19.861 Z-3.887
X-10.312 Y19.858 Z-3.83
X-10.334 Y19.855 Z-3.767
X-10.342 Z-3.7
G0 Z5
X24.717 Y19.257
G1 Z1.5 F200
Z-0.2
X24.724 Y19.258 Z-0.267 F450
X24.746 Y19.26 Z-0.33
X24.782 Y19.264 Z-0.387
X24.829 Y19.268 Z-0.435
X24.886 Y19.274 Z-0.47
X24.949 Y19.28 Z-0.492
X25.015 Y19.287 Z-0.5
X25.314 Y19.316
G3 X25.583 Y19.644 I-0.029 J0.299
G1 X24.52 Y30.491
X17.288 Y31.937
X10.057 Y30.491
X8.097 Y10.496
X26.48
X25.583 Y19.644
G3 X25.255 Y19.913 I-0.299 J-0.029
G1 X24.957 Y19.884
X24.89 Y19.877 Z-0.492
X24.827 Y19.871 Z-0.47
X24.771 Y19.866 Z-0.435
X24.723 Y19.861 Z-0.387
X24.688 Y19.857 Z-0.33
X24.666 Y19.855 Z-0.267
X24.658 Z-0.2
G0 Z5
X24.717 Y19.257
G1 Z1 F200
Z-0.7
X24.724 Y19.258 Z-0.767 F450
X24.746 Y19.26 Z-0.83
X24.782 Y19.264 Z-0.887
X24.829 Y19.268 Z-0.935
X24.886 Y19.274 Z-0.97
X24.949 Y19.28 Z-0.992
X25.015 Y19.287 Z-1
X25.314 Y19.316
G3 X25.583 Y19.644 I-0.029 J0.299
G1 X24.52 Y30.491
X17.288 Y31.937
X10.057 Y30.491
X8.097 Y10.496
X26.48
X25.583 Y19.644
G3 X25.255 Y19.913 I-0.299 J-0.029
G1 X24.957 Y19.884
X24.89 Y19.877 Z-0.992
X24.827 Y19.871 Z-0.97
X24.771 Y19.866 Z-0.935
X24.723 Y19.861 Z-0.887
X24.688 Y19.857 Z-0.83
X24.666 Y19.855 Z-0.767
X24.658 Z-0.7
G0 Z5
X24.717 Y19.257
G1 Z0.5 F200
Z-1.2
X24.724 Y19.258 Z-1.267 F450
X24.746 Y19.26 Z-1.33
X24.782 Y19.264 Z-1.387
X24.829 Y19.268 Z-1.435
X24.886 Y19.274 Z-1.47
X24.949 Y19.28 Z-1.492
X25.015 Y19.287 Z-1.5
X25.314 Y19.316
G3 X25.583 Y19.644 I-0.029 J0.299
G1 X24.52 Y30.491
X17.288 Y31.937
X10.057 Y30.491
X8.097 Y10.496
X26.48
X25.583 Y19.644
G3 X25.255 Y19.913 I-0.299 J-0.029
G1 X24.957 Y19.884
X24.89 Y19.877 Z-1.492
X24.827 Y19.871 Z-1.47
X24.771 Y19.866 Z-1.435
X24.723 Y19.861 Z-1.387
X24.688 Y19.857 Z-1.33
X24.666 Y19.855 Z-1.267
X24.658 Z-1.2
G0 Z5
X24.717 Y19.257
G1 Z0 F200
Z-1.7
X24.724 Y19.258 Z-1.767 F450
X24.746 Y19.26 Z-1.83
X24.782 Y19.264 Z-1.887
X24.829 Y19.268 Z-1.935
X24.886 Y19.274 Z-1.97
X24.949 Y19.28 Z-1.992
X25.015 Y19.287 Z-2
X25.314 Y19.316
G3 X25.583 Y19.644 I-0.029 J0.299
G1 X24.52 Y30.491
X17.288 Y31.937
X10.057 Y30.491
X8.097 Y10.496
X26.48
X25.583 Y19.644
G3 X25.255 Y19.913 I-0.299 J-0.029
G1 X24.957 Y19.884
X24.89 Y19.877 Z-1.992
X24.827 Y19.871 Z-1.97
X24.771 Y19.866 Z-1.935
X24.723 Y19.861 Z-1.887
X24.688 Y19.857 Z-1.83
X24.666 Y19.855 Z-1.767
X24.658 Z-1.7
G0 Z5
X24.717 Y19.257
G1 Z-0.5 F200
Z-2.2
X24.724 Y19.258 Z-2.267 F450
X24.746 Y19.26 Z-2.33
X24.782 Y19.264 Z-2.387
X24.829 Y19.268 Z-2.435
X24.886 Y19.274 Z-2.47
X24.949 Y19.28 Z-2.492
X25.015 Y19.287 Z-2.5
X25.314 Y19.316
G3 X25.583 Y19.644 I-0.029 J0.299
G1 X24.52 Y30.491
X17.288 Y31.937
X10.057 Y30.491
X8.097 Y10.496
X26.48
X25.583 Y19.644
G3 X25.255 Y19.913 I-0.299 J-0.029
G1 X24.957 Y19.884
X24.89 Y19.877 Z-2.492
X24.827 Y19.871 Z-2.47
X24.771 Y19.866 Z-2.435
X24.723 Y19.861 Z-2.387
X24.688 Y19.857 Z-2.33
X24.666 Y19.855 Z-2.267
X24.658 Z-2.2
G0 Z5
X24.717 Y19.257
G1 Z-1 F200
Z-2.7
X24.724 Y19.258 Z-2.767 F450
X24.746 Y19.26 Z-2.83
X24.782 Y19.264 Z-2.887
X24.829 Y19.268 Z-2.935
X24.886 Y19.274 Z-2.97
X24.949 Y19.28 Z-2.992
X25.015 Y19.287 Z-3
X25.314 Y19.316
G3 X25.583 Y19.644 I-0.029 J0.299
G1 X24.52 Y30.491
X17.288 Y31.937
X10.057 Y30.491
X8.097 Y10.496
X26.48
X25.583 Y19.644
G3 X25.255 Y19.913 I-0.299 J-0.029
G1 X24.957 Y19.884
X24.89 Y19.877 Z-2.992
X24.827 Y19.871 Z-2.97
X24.771 Y19.866 Z-2.935
X24.723 Y19.861 Z-2.887
X24.688 Y19.857 Z-2.83
X24.666 Y19.855 Z-2.767
X24.658 Z-2.7
G0 Z5
X24.717 Y19.257
G1 Z-1.5 F200
Z-3.2
X24.724 Y19.258 Z-3.267 F450
X24.746 Y19.26 Z-3.33
X24.782 Y19.264 Z-3.387
X24.829 Y19.268 Z-3.435
X24.886 Y19.274 Z-3.47
X24.949 Y19.28 Z-3.492
X25.015 Y19.287 Z-3.5
X25.314 Y19.316
G3 X25.583 Y19.644 I-0.029 J0.299
G1 X24.52 Y30.491
X17.288 Y31.937
X10.057 Y30.491
X8.097 Y10.496
X26.48
X25.583 Y19.644
G3 X25.255 Y19.913 I-0.299 J-0.029
G1 X24.957 Y19.884
X24.89 Y19.877 Z-3.492
X24.827 Y19.871 Z-3.47
X24.771 Y19.866 Z-3.435
X24.723 Y19.861 Z-3.387
X24.688 Y19.857 Z-3.33
X24.666 Y19.855 Z-3.267
X24.658 Z-3.2
G0 Z5
X24.717 Y19.257
G1 Z-2 F200
Z-3.7
X24.724 Y19.258 Z-3.767 F450
X24.746 Y19.26 Z-3.83
X24.782 Y19.264 Z-3.887
X24.829 Y19.268 Z-3.935
X24.886 Y19.274 Z-3.97
X24.949 Y19.28 Z-3.992
X25.015 Y19.287 Z-4
X25.314 Y19.316
G3 X25.583 Y19.644 I-0.029 J0.299
G1 X24.52 Y30.491
X17.288 Y31.937
X10.057 Y30.491
X8.097 Y10.496
X26.48
X25.583 Y19.644
G3 X25.255 Y19.913 I-0.299 J-0.029
G1 X24.957 Y19.884
X24.89 Y19.877 Z-3.992
X24.827 Y19.871 Z-3.97
X24.771 Y19.866 Z-3.935
X24.723 Y19.861 Z-3.887
X24.688 Y19.857 Z-3.83
X24.666 Y19.855 Z-3.767
X24.658 Z-3.7
G0 Z5
X59.717 Y19.257
G1 Z1.5 F200
Z-0.2
X59.724 Y19.258 Z-0.267 F450
X59.746 Y19.26 Z-0.33
X59.782 Y19.264 Z-0.387
X59.829 Y19.268 Z-0.435
X59.886 Y19.274 Z-0.47
X59.949 Y19.28 Z-0.492
X60.015 Y19.287 Z-0.5
X60.314 Y19.316
G3 X60.583 Y19.644 I-0.029 J0.299
G1 X59.52 Y30.491
X52.288 Y31.937
X45.057 Y30.491
X43.097 Y10.496
X61.48
X60.583 Y19.644
G3 X60.255 Y19.913 I-0.299 J-0.029
G1 X59.957 Y19.884
X59.89 Y19.877 Z-0.492
X59.827 Y19.871 Z-0.47
X59.771 Y19.866 Z-0.435
X59.723 Y19.861 Z-0.387
X59.688 Y19.858 Z-0.33
X59.666 Y19.855 Z-0.267
X59.658 Z-0.2
G0 Z5
X59.717 Y19.257
G1 Z1 F200
Z-0.7
X59.724 Y19.258 Z-0.767 F450
X59.746 Y19.26 Z-0.83
X59.782 Y19.264 Z-0.887
X59.829 Y19.268 Z-0.935
X59.886 Y19.274 Z-0.97
X59.949 Y19.28 Z-0.992
X60.015 Y19.287 Z-1
X60.314 Y19.316
G3 X60.583 Y19.644 I-0.029 J0.299
G1 X59.52 Y30.491
X52.288 Y31.937
X45.057 Y30.491
X43.097 Y10.496
X61.48
X60.583 Y19.644
G3 X60.255 Y19.913 I-0.299 J-0.029
G1 X59.957 Y19.884
X59.89 Y19.877 Z-0.992
X59.827 Y19.871 Z-0.97
X59.771 Y19.866 Z-0.935
X59.723 Y19.861 Z-0.887
X59.688 Y19.858 Z-0.83
X59.666 Y19.855 Z-0.767
X59.658 Z-0.7
G0 Z5
X59.717 Y19.257
G1 Z0.5 F200
Z-1.2
X59.724 Y19.258 Z-1.267 F450
X59.746 Y19.26 Z-1.33
X59.782 Y19.264 Z-1.387
X59.829 Y19.268 Z-1.435
X59.886 Y19.274 Z-1.47
X59.949 Y19.28 Z-1.492
X60.015 Y19.287 Z-1.5
X60.314 Y19.316
G3 X60.583 Y19.644 I-0.029 J0.299
G1 X59.52 Y30.491
X52.288 Y31.937
X45.057 Y30.491
X43.097 Y10.496
X61.48
X60.583 Y19.644
G3 X60.255 Y19.913 I-0.299 J-0.029
G1 X59.957 Y19.884
X59.89 Y19.877 Z-1.492
X59.827 Y19.871 Z-1.47
X59.771 Y19.866 Z-1.435
X59.723 Y19.861 Z-1.387
X59.688 Y19.858 Z-1.33
X59.666 Y19.855 Z-1.267
X59.658 Z-1.2
G0 Z5
X59.717 Y19.257
G1 Z0 F200
Z-1.7
X59.724 Y19.258 Z-1.767 F450
X59.746 Y19.26 Z-1.83
X59.782 Y19.264 Z-1.887
X59.829 Y19.268 Z-1.935
X59.886 Y19.274 Z-1.97
X59.949 Y19.28 Z-1.992
X60.015 Y19.287 Z-2
X60.314 Y19.316
G3 X60.583 Y19.644 I-0.029 J0.299
G1 X59.52 Y30.491
X52.288 Y31.937
X45.057 Y30.491
X43.097 Y10.496
X61.48
X60.583 Y19.644
G3 X60.255 Y19.913 I-0.299 J-0.029
G1 X59.957 Y19.884
X59.89 Y19.877 Z-1.992
X59.827 Y19.871 Z-1.97
X59.771 Y19.866 Z-1.935
X59.723 Y19.861 Z-1.887
X59.688 Y19.858 Z-1.83
X59.666 Y19.855 Z-1.767
X59.658 Z-1.7
G0 Z5
X59.717 Y19.257
G1 Z-0.5 F200
Z-2.2
X59.724 Y19.258 Z-2.267 F450
X59.746 Y19.26 Z-2.33
X59.782 Y19.264 Z-2.387
X59.829 Y19.268 Z-2.435
X59.886 Y19.274 Z-2.47
X59.949 Y19.28 Z-2.492
X60.015 Y19.287 Z-2.5
X60.314 Y19.316
G3 X60.583 Y19.644 I-0.029 J0.299
G1 X59.52 Y30.491
X52.288 Y31.937
X45.057 Y30.491
X43.097 Y10.496
X61.48
X60.583 Y19.644
G3 X60.255 Y19.913 I-0.299 J-0.029
G1 X59.957 Y19.884
X59.89 Y19.877 Z-2.492
X59.827 Y19.871 Z-2.47
X59.771 Y19.866 Z-2.435
X59.723 Y19.861 Z-2.387
X59.688 Y19.858 Z-2.33
X59.666 Y19.855 Z-2.267
X59.658 Z-2.2
G0 Z5
X59.717 Y19.257
G1 Z-1 F200
Z-2.7
X59.724 Y19.258 Z-2.767 F450
X59.746 Y19.26 Z-2.83
X59.782 Y19.264 Z-2.887
X59.829 Y19.268 Z-2.935
X59.886 Y19.274 Z-2.97
X59.949 Y19.28 Z-2.992
X60.015 Y19.287 Z-3
X60.314 Y19.316
G3 X60.583 Y19.644 I-0.029 J0.299
G1 X59.52 Y30.491
X52.288 Y31.937
X45.057 Y30.491
X43.097 Y10.496
X61.48
X60.583 Y19.644
G3 X60.255 Y19.913 I-0.299 J-0.029
G1 X59.957 Y19.884
X59.89 Y19.877 Z-2.992
X59.827 Y19.871 Z-2.97
X59.771 Y19.866 Z-2.935
X59.723 Y19.861 Z-2.887
X59.688 Y19.858 Z-2.83
X59.666 Y19.855 Z-2.767
X59.658 Z-2.7
G0 Z5
X59.717 Y19.257
G1 Z-1.5 F200
Z-3.2
X59.724 Y19.258 Z-3.267 F450
X59.746 Y19.26 Z-3.33
X59.782 Y19.264 Z-3.387
X59.829 Y19.268 Z-3.435
X59.886 Y19.274 Z-3.47
X59.949 Y19.28 Z-3.492
X60.015 Y19.287 Z-3.5
X60.314 Y19.316
G3 X60.583 Y19.644 I-0.029 J0.299
G1 X59.52 Y30.491
X52.288 Y31.937
X45.057 Y30.491
X43.097 Y10.496
X61.48
X60.583 Y19.644
G3 X60.255 Y19.913 I-0.299 J-0.029
G1 X59.957 Y19.884
X59.89 Y19.877 Z-3.492
X59.827 Y19.871 Z-3.47
X59.771 Y19.866 Z-3.435
X59.723 Y19.861 Z-3.387
X59.688 Y19.858 Z-3.33
X59.666 Y19.855 Z-3.267
X59.658 Z-3.2
G0 Z5
X59.717 Y19.257
G1 Z-2 F200
Z-3.7
X59.724 Y19.258 Z-3.767 F450
X59.746 Y19.26 Z-3.83
X59.782 Y19.264 Z-3.887
X59.829 Y19.268 Z-3.935
X59.886 Y19.274 Z-3.97
X59.949 Y19.28 Z-3.992
X60.015 Y19.287 Z-4
X60.314 Y19.316
G3 X60.583 Y19.644 I-0.029 J0.299
G1 X59.52 Y30.491
X52.288 Y31.937
X45.057 Y30.491
X43.097 Y10.496
X61.48
X60.583 Y19.644
G3 X60.255 Y19.913 I-0.299 J-0.029
G1 X59.957 Y19.884
X59.89 Y19.877 Z-3.992
X59.827 Y19.871 Z-3.97
X59.771 Y19.866 Z-3.935
X59.723 Y19.861 Z-3.887
X59.688 Y19.858 Z-3.83
X59.666 Y19.855 Z-3.767
X59.658 Z-3.7
G0 Z5
X59.717 Y-21.743
G1 Z1.5 F200
Z-0.2
X59.724 Y-21.742 Z-0.267 F450
X59.746 Y-21.74 Z-0.33
X59.782 Y-21.736 Z-0.387
X59.829 Y-21.732 Z-0.435
X59.886 Y-21.726 Z-0.47
X59.949 Y-21.72 Z-0.492
X60.015 Y-21.713 Z-0.5
X60.314 Y-21.684
G3 X60.583 Y-21.356 I-0.029 J0.299
G1 X59.52 Y-10.509
X52.288 Y-9.063
X45.057 Y-10.509
X43.097 Y-30.504
X61.48
X60.583 Y-21.356
G3 X60.255 Y-21.087 I-0.299 J-0.029
G1 X59.957 Y-21.116
X59.89 Y-21.123 Z-0.492
X59.827 Y-21.129 Z-0.47
X59.771 Y-21.134 Z-0.435
X59.723 Y-21.139 Z-0.387
X59.688 Y-21.143 Z-0.33
X59.666 Y-21.145 Z-0.267
X59.658 Z-0.2
G0 Z5
X59.717 Y-21.743
G1 Z1 F200
Z-0.7
X59.724 Y-21.742 Z-0.767 F450
X59.746 Y-21.74 Z-0.83
X59.782 Y-21.736 Z-0.887
X59.829 Y-21.732 Z-0.935
X59.886 Y-21.726 Z-0.97
X59.949 Y-21.72 Z-0.992
X60.015 Y-21.713 Z-1
X60.314 Y-21.684
G3 X60.583 Y-21.356 I-0.029 J0.299
G1 X59.52 Y-10.509
X52.288 Y-9.063
X45.057 Y-10.509
X43.097 Y-30.504
X61.48
X60.583 Y-21.356
G3 X60.255 Y-21.087 I-0.299 J-0.029
G1 X59.957 Y-21.116
X59.89 Y-21.123 Z-0.992
X59.827 Y-21.129 Z-0.97
X59.771 Y-21.134 Z-0.935
X59.723 Y-21.139 Z-0.887
X59.688 Y-21.143 Z-0.83
X59.666 Y-21.145 Z-0.767
X59.658 Z-0.7
G0 Z5
X59.717 Y-21.743
G1 Z0.5 F200
Z-1.2
X59.724 Y-21.742 Z-1.267 F450
X59.746 Y-21.74 Z-1.33
X59.782 Y-21.736 Z-1.387
X59.829 Y-21.732 Z-1.435
X59.886 Y-21.726 Z-1.47
X59.949 Y-21.72 Z-1.492
X60.015 Y-21.713 Z-1.5
X60.314 Y-21.684
G3 X60.583 Y-21.356 I-0.029 J0.299
G1 X59.52 Y-10.509
X52.288 Y-9.063
X45.057 Y-10.509
X43.097 Y-30.504
X61.48
X60.583 Y-21.356
G3 X60.255 Y-21.087 I-0.299 J-0.029
G1 X59.957 Y-21.116
X59.89 Y-21.123 Z-1.492
X59.827 Y-21.129 Z-1.47
X59.771 Y-21.134 Z-1.435
X59.723 Y-21.139 Z-1.387
X59.688 Y-21.143 Z-1.33
X59.666 Y-21.145 Z-1.267
X59.658 Z-1.2
G0 Z5
X59.717 Y-21.743
G1 Z0 F200
Z-1.7
X59.724 Y-21.742 Z-1.767 F450
X59.746 Y-21.74 Z-1.83
X59.782 Y-21.736 Z-1.887
X59.829 Y-21.732 Z-1.935
X59.886 Y-21.726 Z-1.97
X59.949 Y-21.72 Z-1.992
X60.015 Y-21.713 Z-2
X60.314 Y-21.684
G3 X60.583 Y-21.356 I-0.029 J0.299
G1 X59.52 Y-10.509
X52.288 Y-9.063
X45.057 Y-10.509
X43.097 Y-30.504
X61.48
X60.583 Y-21.356
G3 X60.255 Y-21.087 I-0.299 J-0.029
G1 X59.957 Y-21.116
X59.89 Y-21.123 Z-1.992
X59.827 Y-21.129 Z-1.97
X59.771 Y-21.134 Z-1.935
X59.723 Y-21.139 Z-1.887
X59.688 Y-21.143 Z-1.83
X59.666 Y-21.145 Z-1.767
X59.658 Z-1.7
G0 Z5
X59.717 Y-21.743
G1 Z-0.5 F200
Z-2.2
X59.724 Y-21.742 Z-2.267 F450
X59.746 Y-21.74 Z-2.33
X59.782 Y-21.736 Z-2.387
X59.829 Y-21.732 Z-2.435
X59.886 Y-21.726 Z-2.47
X59.949 Y-21.72 Z-2.492
X60.015 Y-21.713 Z-2.5
X60.314 Y-21.684
G3 X60.583 Y-21.356 I-0.029 J0.299
G1 X59.52 Y-10.509
X52.288 Y-9.063
X45.057 Y-10.509
X43.097 Y-30.504
X61.48
X60.583 Y-21.356
G3 X60.255 Y-21.087 I-0.299 J-0.029
G1 X59.957 Y-21.116
X59.89 Y-21.123 Z-2.492
X59.827 Y-21.129 Z-2.47
X59.771 Y-21.134 Z-2.435
X59.723 Y-21.139 Z-2.387
X59.688 Y-21.143 Z-2.33
X59.666 Y-21.145 Z-2.267
X59.658 Z-2.2
G0 Z5
X59.717 Y-21.743
G1 Z-1 F200
Z-2.7
X59.724 Y-21.742 Z-2.767 F450
X59.746 Y-21.74 Z-2.83
X59.782 Y-21.736 Z-2.887
X59.829 Y-21.732 Z-2.935
X59.886 Y-21.726 Z-2.97
X59.949 Y-21.72 Z-2.992
X60.015 Y-21.713 Z-3
X60.314 Y-21.684
G3 X60.583 Y-21.356 I-0.029 J0.299
G1 X59.52 Y-10.509
X52.288 Y-9.063
X45.057 Y-10.509
X43.097 Y-30.504
X61.48
X60.583 Y-21.356
G3 X60.255 Y-21.087 I-0.299 J-0.029
G1 X59.957 Y-21.116
X59.89 Y-21.123 Z-2.992
X59.827 Y-21.129 Z-2.97
X59.771 Y-21.134 Z-2.935
X59.723 Y-21.139 Z-2.887
X59.688 Y-21.143 Z-2.83
X59.666 Y-21.145 Z-2.767
X59.658 Z-2.7
G0 Z5
X59.717 Y-21.743
G1 Z-1.5 F200
Z-3.2
X59.724 Y-21.742 Z-3.267 F450
X59.746 Y-21.74 Z-3.33
X59.782 Y-21.736 Z-3.387
X59.829 Y-21.732 Z-3.435
X59.886 Y-21.726 Z-3.47
X59.949 Y-21.72 Z-3.492
X60.015 Y-21.713 Z-3.5
X60.314 Y-21.684
G3 X60.583 Y-21.356 I-0.029 J0.299
G1 X59.52 Y-10.509
X52.288 Y-9.063
X45.057 Y-10.509
X43.097 Y-30.504
X61.48
X60.583 Y-21.356
G3 X60.255 Y-21.087 I-0.299 J-0.029
G1 X59.957 Y-21.116
X59.89 Y-21.123 Z-3.492
X59.827 Y-21.129 Z-3.47
X59.771 Y-21.134 Z-3.435
X59.723 Y-21.139 Z-3.387
X59.688 Y-21.143 Z-3.33
X59.666 Y-21.145 Z-3.267
X59.658 Z-3.2
G0 Z5
X59.717 Y-21.743
G1 Z-2 F200
Z-3.7
X59.724 Y-21.742 Z-3.767 F450
X59.746 Y-21.74 Z-3.83
X59.782 Y-21.736 Z-3.887
X59.829 Y-21.732 Z-3.935
X59.886 Y-21.726 Z-3.97
X59.949 Y-21.72 Z-3.992
X60.015 Y-21.713 Z-4
X60.314 Y-21.684
G3 X60.583 Y-21.356 I-0.029 J0.299
G1 X59.52 Y-10.509
X52.288 Y-9.063
X45.057 Y-10.509
X43.097 Y-30.504
X61.48
X60.583 Y-21.356
G3 X60.255 Y-21.087 I-0.299 J-0.029
G1 X59.957 Y-21.116
X59.89 Y-21.123 Z-3.992
X59.827 Y-21.129 Z-3.97
X59.771 Y-21.134 Z-3.935
X59.723 Y-21.139 Z-3.887
X59.688 Y-21.143 Z-3.83
X59.666 Y-21.145 Z-3.767
X59.658 Z-3.7
G0 Z5
X24.717 Y-21.743
G1 Z1.5 F200
Z-0.2
X24.724 Y-21.742 Z-0.267 F450
X24.746 Y-21.74 Z-0.33
X24.782 Y-21.736 Z-0.387
X24.829 Y-21.732 Z-0.435
X24.886 Y-21.726 Z-0.47
X24.949 Y-21.72 Z-0.492
X25.015 Y-21.713 Z-0.5
X25.314 Y-21.684
G3 X25.583 Y-21.356 I-0.029 J0.299
G1 X24.52 Y-10.509
X17.288 Y-9.063
X10.057 Y-10.509
X8.097 Y-30.504
X26.48
X25.583 Y-21.356
G3 X25.255 Y-21.087 I-0.299 J-0.029
G1 X24.957 Y-21.116
X24.89 Y-21.123 Z-0.492
X24.827 Y-21.129 Z-0.47
X24.771 Y-21.134 Z-0.435
X24.723 Y-21.139 Z-0.387
X24.688 Y-21.143 Z-0.33
X24.666 Y-21.145 Z-0.267
X24.658 Z-0.2
G0 Z5
X24.717 Y-21.743
G1 Z1 F200
Z-0.7
X24.724 Y-21.742 Z-0.767 F450
X24.746 Y-21.74 Z-0.83
X24.782 Y-21.736 Z-0.887
X24.829 Y-21.732 Z-0.935
X24.886 Y-21.726 Z-0.97
X24.949 Y-21.72 Z-0.992
X25.015 Y-21.713 Z-1
X25.314 Y-21.684
G3 X25.583 Y-21.356 I-0.029 J0.299
G1 X24.52 Y-10.509
X17.288 Y-9.063
X10.057 Y-10.509
X8.097 Y-30.504
X26.48
X25.583 Y-21.356
G3 X25.255 Y-21.087 I-0.299 J-0.029
G1 X24.957 Y-21.116
X24.89 Y-21.123 Z-0.992
X24.827 Y-21.129 Z-0.97
X24.771 Y-21.134 Z-0.935
X24.723 Y-21.139 Z-0.887
X24.688 Y-21.143 Z-0.83
X24.666 Y-21.145 Z-0.767
X24.658 Z-0.7
G0 Z5
X24.717 Y-21.743
G1 Z0.5 F200
Z-1.2
X24.724 Y-21.742 Z-1.267 F450
X24.746 Y-21.74 Z-1.33
X24.782 Y-21.736 Z-1.387
X24.829 Y-21.732 Z-1.435
X24.886 Y-21.726 Z-1.47
X24.949 Y-21.72 Z-1.492
X25.015 Y-21.713 Z-1.5
X25.314 Y-21.684
G3 X25.583 Y-21.356 I-0.029 J0.299
G1 X24.52 Y-10.509
X17.288 Y-9.063
X10.057 Y-10.509
X8.097 Y-30.504
X26.48
X25.583 Y-21.356
G3 X25.255 Y-21.087 I-0.299 J-0.029
G1 X24.957 Y-21.116
X24.89 Y-21.123 Z-1.492
X24.827 Y-21.129 Z-1.47
X24.771 Y-21.134 Z-1.435
X24.723 Y-21.139 Z-1.387
X24.688 Y-21.143 Z-1.33
X24.666 Y-21.145 Z-1.267
X24.658 Z-1.2
G0 Z5
X24.717 Y-21.743
G1 Z0 F200
Z-1.7
X24.724 Y-21.742 Z-1.767 F450
X24.746 Y-21.74 Z-1.83
X24.782 Y-21.736 Z-1.887
X24.829 Y-21.732 Z-1.935
X24.886 Y-21.726 Z-1.97
X24.949 Y-21.72 Z-1.992
X25.015 Y-21.713 Z-2
X25.314 Y-21.684
G3 X25.583 Y-21.356 I-0.029 J0.299
G1 X24.52 Y-10.509
X17.288 Y-9.063
X10.057 Y-10.509
X8.097 Y-30.504
X26.48
X25.583 Y-21.356
G3 X25.255 Y-21.087 I-0.299 J-0.029
G1 X24.957 Y-21.116
X24.89 Y-21.123 Z-1.992
X24.827 Y-21.129 Z-1.97
X24.771 Y-21.134 Z-1.935
X24.723 Y-21.139 Z-1.887
X24.688 Y-21.143 Z-1.83
X24.666 Y-21.145 Z-1.767
X24.658 Z-1.7
G0 Z5
X24.717 Y-21.743
G1 Z-0.5 F200
Z-2.2
X24.724 Y-21.742 Z-2.267 F450
X24.746 Y-21.74 Z-2.33
X24.782 Y-21.736 Z-2.387
X24.829 Y-21.732 Z-2.435
X24.886 Y-21.726 Z-2.47
X24.949 Y-21.72 Z-2.492
X25.015 Y-21.713 Z-2.5
X25.314 Y-21.684
G3 X25.583 Y-21.356 I-0.029 J0.299
G1 X24.52 Y-10.509
X17.288 Y-9.063
X10.057 Y-10.509
X8.097 Y-30.504
X26.48
X25.583 Y-21.356
G3 X25.255 Y-21.087 I-0.299 J-0.029
G1 X24.957 Y-21.116
X24.89 Y-21.123 Z-2.492
X24.827 Y-21.129 Z-2.47
X24.771 Y-21.134 Z-2.435
X24.723 Y-21.139 Z-2.387
X24.688 Y-21.143 Z-2.33
X24.666 Y-21.145 Z-2.267
X24.658 Z-2.2
G0 Z5
X24.717 Y-21.743
G1 Z-1 F200
Z-2.7
X24.724 Y-21.742 Z-2.767 F450
X24.746 Y-21.74 Z-2.83
X24.782 Y-21.736 Z-2.887
X24.829 Y-21.732 Z-2.935
X24.886 Y-21.726 Z-2.97
X24.949 Y-21.72 Z-2.992
X25.015 Y-21.713 Z-3
X25.314 Y-21.684
G3 X25.583 Y-21.356 I-0.029 J0.299
G1 X24.52 Y-10.509
X17.288 Y-9.063
X10.057 Y-10.509
X8.097 Y-30.504
X26.48
X25.583 Y-21.356
G3 X25.255 Y-21.087 I-0.299 J-0.029
G1 X24.957 Y-21.116
X24.89 Y-21.123 Z-2.992
X24.827 Y-21.129 Z-2.97
X24.771 Y-21.134 Z-2.935
X24.723 Y-21.139 Z-2.887
X24.688 Y-21.143 Z-2.83
X24.666 Y-21.145 Z-2.767
X24.658 Z-2.7
G0 Z5
X24.717 Y-21.743
G1 Z-1.5 F200
Z-3.2
X24.724 Y-21.742 Z-3.267 F450
X24.746 Y-21.74 Z-3.33
X24.782 Y-21.736 Z-3.387
X24.829 Y-21.732 Z-3.435
X24.886 Y-21.726 Z-3.47
X24.949 Y-21.72 Z-3.492
X25.015 Y-21.713 Z-3.5
X25.314 Y-21.684
G3 X25.583 Y-21.356 I-0.029 J0.299
G1 X24.52 Y-10.509
X17.288 Y-9.063
X10.057 Y-10.509
X8.097 Y-30.504
X26.48
X25.583 Y-21.356
G3 X25.255 Y-21.087 I-0.299 J-0.029
G1 X24.957 Y-21.116
X24.89 Y-21.123 Z-3.492
X24.827 Y-21.129 Z-3.47
X24.771 Y-21.134 Z-3.435
X24.723 Y-21.139 Z-3.387
X24.688 Y-21.143 Z-3.33
X24.666 Y-21.145 Z-3.267
X24.658 Z-3.2
G0 Z5
X24.717 Y-21.743
G1 Z-2 F200
Z-3.7
X24.724 Y-21.742 Z-3.767 F450
X24.746 Y-21.74 Z-3.83
X24.782 Y-21.736 Z-3.887
X24.829 Y-21.732 Z-3.935
X24.886 Y-21.726 Z-3.97
X24.949 Y-21.72 Z-3.992
X25.015 Y-21.713 Z-4
X25.314 Y-21.684
G3 X25.583 Y-21.356 I-0.029 J0.299
G1 X24.52 Y-10.509
X17.288 Y-9.063
X10.057 Y-10.509
X8.097 Y-30.504
X26.48
X25.583 Y-21.356
G3 X25.255 Y-21.087 I-0.299 J-0.029
G1 X24.957 Y-21.116
X24.89 Y-21.123 Z-3.992
X24.827 Y-21.129 Z-3.97
X24.771 Y-21.134 Z-3.935
X24.723 Y-21.139 Z-3.887
X24.688 Y-21.143 Z-3.83
X24.666 Y-21.145 Z-3.767
X24.658 Z-3.7
G0 Z5
X-10.283 Y-21.743
G1 Z1.5 F200
Z-0.2
X-10.276 Y-21.742 Z-0.267 F450
X-10.254 Y-21.74 Z-0.33
X-10.218 Y-21.736 Z-0.387
X-10.171 Y-21.732 Z-0.435
X-10.114 Y-21.726 Z-0.47
X-10.051 Y-21.72 Z-0.492
X-9.985 Y-21.713 Z-0.5
X-9.686 Y-21.684
G3 X-9.417 Y-21.356 I-0.029 J0.299
G1 X-10.48 Y-10.509
X-17.712 Y-9.063
X-24.943 Y-10.509
X-26.903 Y-30.504
X-8.52
X-9.417 Y-21.356
G3 X-9.745 Y-21.087 I-0.299 J-0.029
G1 X-10.043 Y-21.116
X-10.11 Y-21.123 Z-0.492
X-10.173 Y-21.129 Z-0.47
X-10.229 Y-21.134 Z-0.435
X-10.277 Y-21.139 Z-0.387
X-10.312 Y-21.142 Z-0.33
X-10.334 Y-21.145 Z-0.267
X-10.342 Z-0.2
G0 Z5
X-10.283 Y-21.743
G1 Z1 F200
Z-0.7
X-10.276 Y-21.742 Z-0.767 F450
X-10.254 Y-21.74 Z-0.83
X-10.218 Y-21.736 Z-0.887
X-10.171 Y-21.732 Z-0.935
X-10.114 Y-21.726 Z-0.97
X-10.051 Y-21.72 Z-0.992
X-9.985 Y-21.713 Z-1
X-9.686 Y-21.684
G3 X-9.417 Y-21.356 I-0.029 J0.299
G1 X-10.48 Y-10.509
X-17.712 Y-9.063
X-24.943 Y-10.509
X-26.903 Y-30.504
X-8.52
X-9.417 Y-21.356
G3 X-9.745 Y-21.087 I-0.299 J-0.029
G1 X-10.043 Y-21.116
X-10.11 Y-21.123 Z-0.992
X-10.173 Y-21.129 Z-0.97
X-10.229 Y-21.134 Z-0.935
X-10.277 Y-21.139 Z-0.887
X-10.312 Y-21.142 Z-0.83
X-10.334 Y-21.145 Z-0.767
X-10.342 Z-0.7
G0 Z5
X-10.283 Y-21.743
G1 Z0.5 F200
Z-1.2
X-10.276 Y-21.742 Z-1.267 F450
X-10.254 Y-21.74 Z-1.33
X-10.218 Y-21.736 Z-1.387
X-10.171 Y-21.732 Z-1.435
X-10.114 Y-21.726 Z-1.47
X-10.051 Y-21.72 Z-1.492
X-9.985 Y-21.713 Z-1.5
X-9.686 Y-21.684
G3 X-9.417 Y-21.356 I-0.029 J0.299
G1 X-10.48 Y-10.509
X-17.712 Y-9.063
X-24.943 Y-10.509
X-26.903 Y-30.504
X-8.52
X-9.417 Y-21.356
G3 X-9.745 Y-21.087 I-0.299 J-0.029
G1 X-10.043 Y-21.116
X-10.11 Y-21.123 Z-1.492
X-10.173 Y-21.129 Z-1.47
X-10.229 Y-21.134 Z-1.435
X-10.277 Y-21.139 Z-1.387
X-10.312 Y-21.142 Z-1.33
X-10.334 Y-21.145 Z-1.267
X-10.342 Z-1.2
G0 Z5
X-10.283 Y-21.743
G1 Z0 F200
Z-1.7
X-10.276 Y-21.742 Z-1.767 F450
X-10.254 Y-21.74 Z-1.83
X-10.218 Y-21.736 Z-1.887
X-10.171 Y-21.732 Z-1.935
X-10.114 Y-21.726 Z-1.97
X-10.051 Y-21.72 Z-1.992
X-9.985 Y-21.713 Z-2
X-9.686 Y-21.684
G3 X-9.417 Y-21.356 I-0.029 J0.299
G1 X-10.48 Y-10.509
X-17.712 Y-9.063
X-24.943 Y-10.509
X-26.903 Y-30.504
X-8.52
X-9.417 Y-21.356
G3 X-9.745 Y-21.087 I-0.299 J-0.029
G1 X-10.043 Y-21.116
X-10.11 Y-21.123 Z-1.992
X-10.173 Y-21.129 Z-1.97
X-10.229 Y-21.134 Z-1.935
X-10.277 Y-21.139 Z-1.887
X-10.312 Y-21.142 Z-1.83
X-10.334 Y-21.145 Z-1.767
X-10.342 Z-1.7
G0 Z5
X-10.283 Y-21.743
G1 Z-0.5 F200
Z-2.2
X-10.276 Y-21.742 Z-2.267 F450
X-10.254 Y-21.74 Z-2.33
X-10.218 Y-21.736 Z-2.387
X-10.171 Y-21.732 Z-2.435
X-10.114 Y-21.726 Z-2.47
X-10.051 Y-21.72 Z-2.492
X-9.985 Y-21.713 Z-2.5
X-9.686 Y-21.684
G3 X-9.417 Y-21.356 I-0.029 J0.299
G1 X-10.48 Y-10.509
X-17.712 Y-9.063
X-24.943 Y-10.509
X-26.903 Y-30.504
X-8.52
X-9.417 Y-21.356
G3 X-9.745 Y-21.087 I-0.299 J-0.029
G1 X-10.043 Y-21.116
X-10.11 Y-21.123 Z-2.492
X-10.173 Y-21.129 Z-2.47
X-10.229 Y-21.134 Z-2.435
X-10.277 Y-21.139 Z-2.387
X-10.312 Y-21.142 Z-2.33
X-10.334 Y-21.145 Z-2.267
X-10.342 Z-2.2
G0 Z5
X-10.283 Y-21.743
G1 Z-1 F200
Z-2.7
X-10.276 Y-21.742 Z-2.767 F450
X-10.254 Y-21.74 Z-2.83
X-10.218 Y-21.736 Z-2.887
X-10.171 Y-21.732 Z-2.935
X-10.114 Y-21.726 Z-2.97
X-10.051 Y-21.72 Z-2.992
X-9.985 Y-21.713 Z-3
X-9.686 Y-21.684
G3 X-9.417 Y-21.356 I-0.029 J0.299
G1 X-10.48 Y-10.509
X-17.712 Y-9.063
X-24.943 Y-10.509
X-26.903 Y-30.504
X-8.52
X-9.417 Y-21.356
G3 X-9.745 Y-21.087 I-0.299 J-0.029
G1 X-10.043 Y-21.116
X-10.11 Y-21.123 Z-2.992
X-10.173 Y-21.129 Z-2.97
X-10.229 Y-21.134 Z-2.935
X-10.277 Y-21.139 Z-2.887
X-10.312 Y-21.142 Z-2.83
X-10.334 Y-21.145 Z-2.767
X-10.342 Z-2.7
G0 Z5
X-10.283 Y-21.743
G1 Z-1.5 F200
Z-3.2
X-10.276 Y-21.742 Z-3.267 F450
X-10.254 Y-21.74 Z-3.33
X-10.218 Y-21.736 Z-3.387
X-10.171 Y-21.732 Z-3.435
X-10.114 Y-21.726 Z-3.47
X-10.051 Y-21.72 Z-3.492
X-9.985 Y-21.713 Z-3.5
X-9.686 Y-21.684
G3 X-9.417 Y-21.356 I-0.029 J0.299
G1 X-10.48 Y-10.509
X-17.712 Y-9.063
X-24.943 Y-10.509
X-26.903 Y-30.504
X-8.52
X-9.417 Y-21.356
G3 X-9.745 Y-21.087 I-0.299 J-0.029
G1 X-10.043 Y-21.116
X-10.11 Y-21.123 Z-3.492
X-10.173 Y-21.129 Z-3.47
X-10.229 Y-21.134 Z-3.435
X-10.277 Y-21.139 Z-3.387
X-10.312 Y-21.142 Z-3.33
X-10.334 Y-21.145 Z-3.267
X-10.342 Z-3.2
G0 Z5
X-10.283 Y-21.743
G1 Z-2 F200
Z-3.7
X-10.276 Y-21.742 Z-3.767 F450
X-10.254 Y-21.74 Z-3.83
X-10.218 Y-21.736 Z-3.887
X-10.171 Y-21.732 Z-3.935
X-10.114 Y-21.726 Z-3.97
X-10.051 Y-21.72 Z-3.992
X-9.985 Y-21.713 Z-4
X-9.686 Y-21.684
G3 X-9.417 Y-21.356 I-0.029 J0.299
G1 X-10.48 Y-10.509
X-17.712 Y-9.063
X-24.943 Y-10.509
X-26.903 Y-30.504
X-8.52
X-9.417 Y-21.356
G3 X-9.745 Y-21.087 I-0.299 J-0.029
G1 X-10.043 Y-21.116
X-10.11 Y-21.123 Z-3.992
X-10.173 Y-21.129 Z-3.97
X-10.229 Y-21.134 Z-3.935
X-10.277 Y-21.139 Z-3.887
X-10.312 Y-21.142 Z-3.83
X-10.334 Y-21.145 Z-3.767
X-10.342 Z-3.7
G0 Z5
X-45.283 Y-21.743
G1 Z1.5 F200
Z-0.2
X-45.276 Y-21.742 Z-0.267 F450
X-45.254 Y-21.74 Z-0.33
X-45.218 Y-21.736 Z-0.387
X-45.171 Y-21.732 Z-0.435
X-45.114 Y-21.726 Z-0.47
X-45.051 Y-21.72 Z-0.492
X-44.985 Y-21.713 Z-0.5
X-44.686 Y-21.684
G3 X-44.417 Y-21.356 I-0.029 J0.299
G1 X-45.48 Y-10.509
X-52.712 Y-9.063
X-59.943 Y-10.509
X-61.903 Y-30.504
X-43.52
X-44.417 Y-21.356
G3 X-44.745 Y-21.087 I-0.299 J-0.029
G1 X-45.043 Y-21.116
X-45.11 Y-21.123 Z-0.492
X-45.173 Y-21.129 Z-0.47
X-45.229 Y-21.134 Z-0.435
X-45.277 Y-21.139 Z-0.387
X-45.312 Y-21.143 Z-0.33
X-45.334 Y-21.145 Z-0.267
X-45.342 Z-0.2
G0 Z5
X-45.283 Y-21.743
G1 Z1 F200
Z-0.7
X-45.276 Y-21.742 Z-0.767 F450
X-45.254 Y-21.74 Z-0.83
X-45.218 Y-21.736 Z-0.887
X-45.171 Y-21.732 Z-0.935
X-45.114 Y-21.726 Z-0.97
X-45.051 Y-21.72 Z-0.992
X-44.985 Y-21.713 Z-1
X-44.686 Y-21.684
G3 X-44.417 Y-21.356 I-0.029 J0.299
G1 X-45.48 Y-10.509
X-52.712 Y-9.063
X-59.943 Y-10.509
X-61.903 Y-30.504
X-43.52
X-44.417 Y-21.356
G3 X-44.745 Y-21.087 I-0.299 J-0.029
G1 X-45.043 Y-21.116
X-45.11 Y-21.123 Z-0.992
X-45.173 Y-21.129 Z-0.97
X-45.229 Y-21.134 Z-0.935
X-45.277 Y-21.139 Z-0.887
X-45.312 Y-21.143 Z-0.83
X-45.334 Y-21.145 Z-0.767
X-45.342 Z-0.7
G0 Z5
X-45.283 Y-21.743
G1 Z0.5 F200
Z-1.2
X-45.276 Y-21.742 Z-1.267 F450
X-45.254 Y-21.74 Z-1.33
X-45.218 Y-21.736 Z-1.387
X-45.171 Y-21.732 Z-1.435
X-45.114 Y-21.726 Z-1.47
X-45.051 Y-21.72 Z-1.492
X-44.985 Y-21.713 Z-1.5
X-44.686 Y-21.684
G3 X-44.417 Y-21.356 I-0.029 J0.299
G1 X-45.48 Y-10.509
X-52.712 Y-9.063
X-59.943 Y-10.509
X-61.903 Y-30.504
X-43.52
X-44.417 Y-21.356
G3 X-44.745 Y-21.087 I-0.299 J-0.029
G1 X-45.043 Y-21.116
X-45.11 Y-21.123 Z-1.492
X-45.173 Y-21.129 Z-1.47
X-45.229 Y-21.134 Z-1.435
X-45.277 Y-21.139 Z-1.387
X-45.312 Y-21.143 Z-1.33
X-45.334 Y-21.145 Z-1.267
X-45.342 Z-1.2
G0 Z5
X-45.283 Y-21.743
G1 Z0 F200
Z-1.7
X-45.276 Y-21.742 Z-1.767 F450
X-45.254 Y-21.74 Z-1.83
X-45.218 Y-21.736 Z-1.887
X-45.171 Y-21.732 Z-1.935
X-45.114 Y-21.726 Z-1.97
X-45.051 Y-21.72 Z-1.992
X-44.985 Y-21.713 Z-2
X-44.686 Y-21.684
G3 X-44.417 Y-21.356 I-0.029 J0.299
G1 X-45.48 Y-10.509
X-52.712 Y-9.063
X-59.943 Y-10.509
X-61.903 Y-30.504
X-43.52
X-44.417 Y-21.356
G3 X-44.745 Y-21.087 I-0.299 J-0.029
G1 X-45.043 Y-21.116
X-45.11 Y-21.123 Z-1.992
X-45.173 Y-21.129 Z-1.97
X-45.229 Y-21.134 Z-1.935
X-45.277 Y-21.139 Z-1.887
X-45.312 Y-21.143 Z-1.83
X-45.334 Y-21.145 Z-1.767
X-45.342 Z-1.7
G0 Z5
X-45.283 Y-21.743
G1 Z-0.5 F200
Z-2.2
X-45.276 Y-21.742 Z-2.267 F450
X-45.254 Y-21.74 Z-2.33
X-45.218 Y-21.736 Z-2.387
X-45.171 Y-21.732 Z-2.435
X-45.114 Y-21.726 Z-2.47
X-45.051 Y-21.72 Z-2.492
X-44.985 Y-21.713 Z-2.5
X-44.686 Y-21.684
G3 X-44.417 Y-21.356 I-0.029 J0.299
G1 X-45.48 Y-10.509
X-52.712 Y-9.063
X-59.943 Y-10.509
X-61.903 Y-30.504
X-43.52
X-44.417 Y-21.356
G3 X-44.745 Y-21.087 I-0.299 J-0.029
G1 X-45.043 Y-21.116
X-45.11 Y-21.123 Z-2.492
X-45.173 Y-21.129 Z-2.47
X-45.229 Y-21.134 Z-2.435
X-45.277 Y-21.139 Z-2.387
X-45.312 Y-21.143 Z-2.33
X-45.334 Y-21.145 Z-2.267
X-45.342 Z-2.2
G0 Z5
X-45.283 Y-21.743
G1 Z-1 F200
Z-2.7
X-45.276 Y-21.742 Z-2.767 F450
X-45.254 Y-21.74 Z-2.83
X-45.218 Y-21.736 Z-2.887
X-45.171 Y-21.732 Z-2.935
X-45.114 Y-21.726 Z-2.97
X-45.051 Y-21.72 Z-2.992
X-44.985 Y-21.713 Z-3
X-44.686 Y-21.684
G3 X-44.417 Y-21.356 I-0.029 J0.299
G1 X-45.48 Y-10.509
X-52.712 Y-9.063
X-59.943 Y-10.509
X-61.903 Y-30.504
X-43.52
X-44.417 Y-21.356
G3 X-44.745 Y-21.087 I-0.299 J-0.029
G1 X-45.043 Y-21.116
X-45.11 Y-21.123 Z-2.992
X-45.173 Y-21.129 Z-2.97
X-45.229 Y-21.134 Z-2.935
X-45.277 Y-21.139 Z-2.887
X-45.312 Y-21.143 Z-2.83
X-45.334 Y-21.145 Z-2.767
X-45.342 Z-2.7
G0 Z5
X-45.283 Y-21.743
G1 Z-1.5 F200
Z-3.2
X-45.276 Y-21.742 Z-3.267 F450
X-45.254 Y-21.74 Z-3.33
X-45.218 Y-21.736 Z-3.387
X-45.171 Y-21.732 Z-3.435
X-45.114 Y-21.726 Z-3.47
X-45.051 Y-21.72 Z-3.492
X-44.985 Y-21.713 Z-3.5
X-44.686 Y-21.684
G3 X-44.417 Y-21.356 I-0.029 J0.299
G1 X-45.48 Y-10.509
X-52.712 Y-9.063
X-59.943 Y-10.509
X-61.903 Y-30.504
X-43.52
X-44.417 Y-21.356
G3 X-44.745 Y-21.087 I-0.299 J-0.029
G1 X-45.043 Y-21.116
X-45.11 Y-21.123 Z-3.492
X-45.173 Y-21.129 Z-3.47
X-45.229 Y-21.134 Z-3.435
X-45.277 Y-21.139 Z-3.387
X-45.312 Y-21.143 Z-3.33
X-45.334 Y-21.145 Z-3.267
X-45.342 Z-3.2
G0 Z5
X-45.283 Y-21.743
G1 Z-2 F200
Z-3.7
X-45.276 Y-21.742 Z-3.767 F450
X-45.254 Y-21.74 Z-3.83
X-45.218 Y-21.736 Z-3.887
X-45.171 Y-21.732 Z-3.935
X-45.114 Y-21.726 Z-3.97
X-45.051 Y-21.72 Z-3.992
X-44.985 Y-21.713 Z-4
X-44.686 Y-21.684
G3 X-44.417 Y-21.356 I-0.029 J0.299
G1 X-45.48 Y-10.509
X-52.712 Y-9.063
X-59.943 Y-10.509
X-61.903 Y-30.504
X-43.52
X-44.417 Y-21.356
G3 X-44.745 Y-21.087 I-0.299 J-0.029
G1 X-45.043 Y-21.116
X-45.11 Y-21.123 Z-3.992
X-45.173 Y-21.129 Z-3.97
X-45.229 Y-21.134 Z-3.935
X-45.277 Y-21.139 Z-3.887
X-45.312 Y-21.143 Z-3.83
X-45.334 Y-21.145 Z-3.767
X-45.342 Z-3.7
G0 Z5
X-45.283 Y19.257
G1 Z1.5 F200
Z-0.2
X-45.276 Y19.258 Z-0.267 F450
X-45.254 Y19.26 Z-0.33
X-45.218 Y19.264 Z-0.387
X-45.171 Y19.268 Z-0.435
X-45.114 Y19.274 Z-0.47
X-45.051 Y19.28 Z-0.492
X-44.985 Y19.287 Z-0.5
X-44.686 Y19.316
G3 X-44.417 Y19.644 I-0.029 J0.299
G1 X-45.48 Y30.491
X-52.712 Y31.937
X-59.943 Y30.491
X-61.903 Y10.496
X-43.52
X-44.417 Y19.644
G3 X-44.745 Y19.913 I-0.299 J-0.029
G1 X-45.043 Y19.884
X-45.11 Y19.877 Z-0.492
X-45.173 Y19.871 Z-0.47
X-45.229 Y19.866 Z-0.435
X-45.277 Y19.861 Z-0.387
X-45.312 Y19.858 Z-0.33
X-45.334 Y19.855 Z-0.267
X-45.342 Z-0.2
G0 Z5
X-45.283 Y19.257
G1 Z1 F200
Z-0.7
X-45.276 Y19.258 Z-0.767 F450
X-45.254 Y19.26 Z-0.83
X-45.218 Y19.264 Z-0.887
X-45.171 Y19.268 Z-0.935
X-45.114 Y19.274 Z-0.97
X-45.051 Y19.28 Z-0.992
X-44.985 Y19.287 Z-1
X-44.686 Y19.316
G3 X-44.417 Y19.644 I-0.029 J0.299
G1 X-45.48 Y30.491
X-52.712 Y31.937
X-59.943 Y30.491
X-61.903 Y10.496
X-43.52
X-44.417 Y19.644
G3 X-44.745 Y19.913 I-0.299 J-0.029
G1 X-45.043 Y19.884
X-45.11 Y19.877 Z-0.992
X-45.173 Y19.871 Z-0.97
X-45.229 Y19.866 Z-0.935
X-45.277 Y19.861 Z-0.887
X-45.312 Y19.858 Z-0.83
X-45.334 Y19.855 Z-0.767
X-45.342 Z-0.7
G0 Z5
X-45.283 Y19.257
G1 Z0.5 F200
Z-1.2
X-45.276 Y19.258 Z-1.267 F450
X-45.254 Y19.26 Z-1.33
X-45.218 Y19.264 Z-1.387
X-45.171 Y19.268 Z-1.435
X-45.114 Y19.274 Z-1.47
X-45.051 Y19.28 Z-1.492
X-44.985 Y19.287 Z-1.5
X-44.686 Y19.316
G3 X-44.417 Y19.644 I-0.029 J0.299
G1 X-45.48 Y30.491
X-52.712 Y31.937
X-59.943 Y30.491
X-61.903 Y10.496
X-43.52
X-44.417 Y19.644
G3 X-44.745 Y19.913 I-0.299 J-0.029
G1 X-45.043 Y19.884
X-45.11 Y19.877 Z-1.492
X-45.173 Y19.871 Z-1.47
X-45.229 Y19.866 Z-1.435
X-45.277 Y19.861 Z-1.387
X-45.312 Y19.858 Z-1.33
X-45.334 Y19.855 Z-1.267
X-45.342 Z-1.2
G0 Z5
X-45.283 Y19.257
G1 Z0 F200
Z-1.7
X-45.276 Y19.258 Z-1.767 F450
X-45.254 Y19.26 Z-1.83
X-45.218 Y19.264 Z-1.887
X-45.171 Y19.268 Z-1.935
X-45.114 Y19.274 Z-1.97
X-45.051 Y19.28 Z-1.992
X-44.985 Y19.287 Z-2
X-44.686 Y19.316
G3 X-44.417 Y19.644 I-0.029 J0.299
G1 X-45.48 Y30.491
X-52.712 Y31.937
X-59.943 Y30.491
X-61.903 Y10.496
X-43.52
X-44.417 Y19.644
G3 X-44.745 Y19.913 I-0.299 J-0.029
G1 X-45.043 Y19.884
X-45.11 Y19.877 Z-1.992
X-45.173 Y19.871 Z-1.97
X-45.229 Y19.866 Z-1.935
X-45.277 Y19.861 Z-1.887
X-45.312 Y19.858 Z-1.83
X-45.334 Y19.855 Z-1.767
X-45.342 Z-1.7
G0 Z5
X-45.283 Y19.257
G1 Z-0.5 F200
Z-2.2
X-45.276 Y19.258 Z-2.267 F450
X-45.254 Y19.26 Z-2.33
X-45.218 Y19.264 Z-2.387
X-45.171 Y19.268 Z-2.435
X-45.114 Y19.274 Z-2.47
X-45.051 Y19.28 Z-2.492
X-44.985 Y19.287 Z-2.5
X-44.686 Y19.316
G3 X-44.417 Y19.644 I-0.029 J0.299
G1 X-45.48 Y30.491
X-52.712 Y31.937
X-59.943 Y30.491
X-61.903 Y10.496
X-43.52
X-44.417 Y19.644
G3 X-44.745 Y19.913 I-0.299 J-0.029
G1 X-45.043 Y19.884
X-45.11 Y19.877 Z-2.492
X-45.173 Y19.871 Z-2.47
X-45.229 Y19.866 Z-2.435
X-45.277 Y19.861 Z-2.387
X-45.312 Y19.858 Z-2.33
X-45.334 Y19.855 Z-2.267
X-45.342 Z-2.2
G0 Z5
X-45.283 Y19.257
G1 Z-1 F200
Z-2.7
X-45.276 Y19.258 Z-2.767 F450
X-45.254 Y19.26 Z-2.83
X-45.218 Y19.264 Z-2.887
X-45.171 Y19.268 Z-2.935
X-45.114 Y19.274 Z-2.97
X-45.051 Y19.28 Z-2.992
X-44.985 Y19.287 Z-3
X-44.686 Y19.316
G3 X-44.417 Y19.644 I-0.029 J0.299
G1 X-45.48 Y30.491
X-52.712 Y31.937
X-59.943 Y30.491
X-61.903 Y10.496
X-43.52
X-44.417 Y19.644
G3 X-44.745 Y19.913 I-0.299 J-0.029
G1 X-45.043 Y19.884
X-45.11 Y19.877 Z-2.992
X-45.173 Y19.871 Z-2.97
X-45.229 Y19.866 Z-2.935
X-45.277 Y19.861 Z-2.887
X-45.312 Y19.858 Z-2.83
X-45.334 Y19.855 Z-2.767
X-45.342 Z-2.7
G0 Z5
X-45.283 Y19.257
G1 Z-1.5 F200
Z-3.2
X-45.276 Y19.258 Z-3.267 F450
X-45.254 Y19.26 Z-3.33
X-45.218 Y19.264 Z-3.387
X-45.171 Y19.268 Z-3.435
X-45.114 Y19.274 Z-3.47
X-45.051 Y19.28 Z-3.492
X-44.985 Y19.287 Z-3.5
X-44.686 Y19.316
G3 X-44.417 Y19.644 I-0.029 J0.299
G1 X-45.48 Y30.491
X-52.712 Y31.937
X-59.943 Y30.491
X-61.903 Y10.496
X-43.52
X-44.417 Y19.644
G3 X-44.745 Y19.913 I-0.299 J-0.029
G1 X-45.043 Y19.884
X-45.11 Y19.877 Z-3.492
X-45.173 Y19.871 Z-3.47
X-45.229 Y19.866 Z-3.435
X-45.277 Y19.861 Z-3.387
X-45.312 Y19.858 Z-3.33
X-45.334 Y19.855 Z-3.267
X-45.342 Z-3.2
G0 Z5
X-45.283 Y19.257
G1 Z-2 F200
Z-3.7
X-45.276 Y19.258 Z-3.767 F450
X-45.254 Y19.26 Z-3.83
X-45.218 Y19.264 Z-3.887
X-45.171 Y19.268 Z-3.935
X-45.114 Y19.274 Z-3.97
X-45.051 Y19.28 Z-3.992
X-44.985 Y19.287 Z-4
X-44.686 Y19.316
G3 X-44.417 Y19.644 I-0.029 J0.299
G1 X-45.48 Y30.491
X-52.712 Y31.937
X-59.943 Y30.491
X-61.903 Y10.496
X-43.52
X-44.417 Y19.644
G3 X-44.745 Y19.913 I-0.299 J-0.029
G1 X-45.043 Y19.884
X-45.11 Y19.877 Z-3.992
X-45.173 Y19.871 Z-3.97
X-45.229 Y19.866 Z-3.935
X-45.277 Y19.861 Z-3.887
X-45.312 Y19.858 Z-3.83
X-45.334 Y19.855 Z-3.767
X-45.342 Z-3.7
G0 Z15

(2D Contour4)
X-65.3 Y52.4
Z15
Z5
G1 Z1.5 F200
Z-0.2
G19 G2 Y52.1 Z-0.5 J-0.3 K0 F450
G1 Y51.8
G17 G3 X-65 Y51.5 I0.3 J0
G1 X65
G2 X76.5 Y40 I0 J-11.5
G1 Y-40
G2 X65 Y-51.5 I-11.5 J0
G1 X-65
G2 X-76.5 Y-40 I0 J11.5
G1 Y40
G2 X-65 Y51.5 I11.5 J0
G3 X-64.7 Y51.8 I0 J0.3
G1 Y52.1
G19 G3 Y52.4 Z-0.2 J0 K0.3
G0 Z5
X-65.3
G1 Z1 F200
Z-0.7
G2 Y52.1 Z-1 J-0.3 K0 F450
G1 Y51.8
G17 G3 X-65 Y51.5 I0.3 J0
G1 X65
G2 X76.5 Y40 I0 J-11.5
G1 Y-40
G2 X65 Y-51.5 I-11.5 J0
G1 X-65
G2 X-76.5 Y-40 I0 J11.5
G1 Y40
G2 X-65 Y51.5 I11.5 J0
G3 X-64.7 Y51.8 I0 J0.3
G1 Y52.1
G19 G3 Y52.4 Z-0.7 J0 K0.3
G0 Z5
X-65.3
G1 Z0.5 F200
Z-1.2
G2 Y52.1 Z-1.5 J-0.3 K0 F450
G1 Y51.8
G17 G3 X-65 Y51.5 I0.3 J0
G1 X65
G2 X76.5 Y40 I0 J-11.5
G1 Y-40
G2 X65 Y-51.5 I-11.5 J0
G1 X-65
G2 X-76.5 Y-40 I0 J11.5
G1 Y40
G2 X-65 Y51.5 I11.5 J0
G3 X-64.7 Y51.8 I0 J0.3
G1 Y52.1
G19 G3 Y52.4 Z-1.2 J0 K0.3
G0 Z5
X-65.3
G1 Z0 F200
Z-1.7
G2 Y52.1 Z-2 J-0.3 K0 F450
G1 Y51.8
G17 G3 X-65 Y51.5 I0.3 J0
G1 X65
G2 X76.5 Y40 I0 J-11.5
G1 Y-40
G2 X65 Y-51.5 I-11.5 J0
G1 X-65
G2 X-76.5 Y-40 I0 J11.5
G1 Y40
G2 X-65 Y51.5 I11.5 J0
G3 X-64.7 Y51.8 I0 J0.3
G1 Y52.1
G19 G3 Y52.4 Z-1.7 J0 K0.3
G0 Z5
X-65.3
G1 Z-0.5 F200
Z-2.2
G2 Y52.1 Z-2.5 J-0.3 K0 F450
G1 Y51.8
G17 G3 X-65 Y51.5 I0.3 J0
G1 X65
G2 X76.5 Y40 I0 J-11.5
G1 Y-40
G2 X65 Y-51.5 I-11.5 J0
G1 X-65
G2 X-76.5 Y-40 I0 J11.5
G1 Y40
G2 X-65 Y51.5 I11.5 J0
G3 X-64.7 Y51.8 I0 J0.3
G1 Y52.1
G19 G3 Y52.4 Z-2.2 J0 K0.3
G0 Z5
X-65.3
G1 Z-1 F200
Z-2.7
G2 Y52.1 Z-3 J-0.3 K0 F450
G1 Y51.8
G17 G3 X-65 Y51.5 I0.3 J0
G1 X65
G2 X76.5 Y40 I0 J-11.5
G1 Y-40
G2 X65 Y-51.5 I-11.5 J0
G1 X-65
G2 X-76.5 Y-40 I0 J11.5
G1 Y40
G2 X-65 Y51.5 I11.5 J0
G3 X-64.7 Y51.8 I0 J0.3
G1 Y52.1
G19 G3 Y52.4 Z-2.7 J0 K0.3
G0 Z5
X-65.3
G1 Z-1.5 F200
Z-3.2
G2 Y52.1 Z-3.5 J-0.3 K0 F450
G1 Y51.8
G17 G3 X-65 Y51.5 I0.3 J0
G1 X65
G2 X76.5 Y40 I0 J-11.5
G1 Y-40
G2 X65 Y-51.5 I-11.5 J0
G1 X-65
G2 X-76.5 Y-40 I0 J11.5
G1 Y40
G2 X-65 Y51.5 I11.5 J0
G3 X-64.7 Y51.8 I0 J0.3
G1 Y52.1
G19 G3 Y52.4 Z-3.2 J0 K0.3
G0 Z5
X-65.3
G1 Z-2 F200
Z-3.7
G2 Y52.1 Z-4 J-0.3 K0 F450
G1 Y51.8
G17 G3 X-65 Y51.5 I0.3 J0
G1 X65
G2 X76.5 Y40 I0 J-11.5
G1 Y-40
G2 X65 Y-51.5 I-11.5 J0
G1 X-65
G2 X-76.5 Y-40 I0 J11.5
G1 Y40
G2 X-65 Y51.5 I11.5 J0
G3 X-64.7 Y51.8 I0 J0.3
G1 Y52.1
G19 G3 Y52.4 Z-3.7 J0 K0.3
G0 Z15
G17
M9
M5
M30
