(1001)
(Machine)
(  vendor: Autodesk)
(  description: Generic 3-axis)
(T3  D=3 CR=0 - ZMIN=-4 - flat end mill)
G90 G94
G17
G21

(Drill11)
T3
S1000 M3
G54
M8
G0 X75 Y0
Z15
Z5
G1 Z0 F200
G0 Z5
X0 Y-50
G1 Z0 F200
G0 Z5
X-75 Y0
G1 Z0 F200
G0 Z5
X0 Y50
G1 Z0 F200
G0 Z5
Z15

(2D Pocket8)
X24.389 Y-11.235
Z15
Z5
G1 Z1.5 F250
Z-0.2
G18 G2 X24.689 Z-0.5 I0.3 K0
G1 X24.701
G17 G3 X27.575 Y-2.333 I0 J4.915
X18.673 Y0.541 I-8.902 J-12.351
G1 X-25.221
G3 X-25.541 Y0.221 I0 J-0.319
G1 Y-0.221
G3 X-25.221 Y-0.541 I0.319 J0
G1 X25.221
G3 X25.541 Y-0.221 I0 J0.319
G1 Y0.221
G3 X25.221 Y0.541 I-0.319 J0
G1 X18.673
G2 X17.842 Y1.095 I0 J0.9
G3 X17.011 Y1.649 I-0.831 J-0.346
G1 X-26.329
G3 X-26.649 Y1.329 I0 J-0.319
G1 Y-1.329
G3 X-26.329 Y-1.649 I0.319 J0
G1 X26.329
G3 X26.649 Y-1.329 I0 J0.319
G1 Y1.329
G3 X26.329 Y1.649 I-0.319 J0
G1 X17.011
G2 X15.213 Y2.847 I0 J1.947
G3 X13.416 Y4.045 I-1.797 J-0.749
G1 X-28.726
G3 X-29.045 Y3.726 I0 J-0.319
G1 Y-3.726
G3 X-28.726 Y-4.045 I0.319 J0
G1 X28.726
G3 X29.045 Y-3.726 I0 J0.319
G1 Y3.726
G3 X28.726 Y4.045 I-0.319 J0
G1 X13.416
G2 X11.618 Y5.244 I0 J1.947
G3 X9.821 Y6.442 I-1.797 J-0.749
G1 X-31.123
G3 X-31.442 Y6.123 I0 J-0.319
G1 Y-6.123
G3 X-31.123 Y-6.442 I0.319 J0
G1 X31.123
G3 X31.442 Y-6.123 I0 J0.319
G1 Y6.123
G3 X31.123 Y6.442 I-0.319 J0
G1 X9.821
G2 X8.023 Y7.64 I0 J1.947
G3 X6.226 Y8.839 I-1.797 J-0.749
G1 X-33.519
G3 X-33.839 Y8.519 I0 J-0.319
G1 Y-8.519
G3 X-33.519 Y-8.839 I0.319 J0
G1 X33.519
G3 X33.839 Y-8.519 I0 J0.319
G1 Y8.519
G3 X33.519 Y8.839 I-0.319 J0
G1 X6.226
G2 X6.1 Y9.194 I0 J0.2
G1 X8.19 Y10.88
G3 X8.065 Y11.235 I-0.126 J0.156
G1 X-8.478
G3 X-8.478 Y10.037 I0 J-0.599
G1 X-0.207
X8.065 Y10.636
G3 X8.614 Y11.145 I-0.043 J0.598
G1 X8.883 Y12.944
G3 X8.29 Y13.632 I-0.593 J0.089
G1 X-8.723
G3 X-8.724 Y12.434 I0 J-0.599
G1 X-0.217
X8.29 Y13.033
G3 X8.84 Y13.537 I-0.042 J0.598
G1 X9.125 Y15.336
G3 X8.533 Y16.029 I-0.592 J0.094
G1 X-8.952
G3 X-8.952 Y14.83 I0 J-0.599
G1 X-0.21
X8.533 Y15.429
G3 X9.085 Y15.939 I-0.041 J0.598
G1 X9.351 Y17.738
G3 X8.759 Y18.425 I-0.593 J0.088
G1 X-9.181
G3 X-9.181 Y17.227 I0 J-0.599
G1 X-0.211
X8.759 Y17.826
G3 X9.311 Y18.331 I-0.04 J0.598
G1 X9.593 Y20.13
G3 X9.001 Y20.822 I-0.592 J0.093
G1 X-9.426
G3 X-9.426 Y19.624 I0 J-0.599
G1 X-0.213
X9.001 Y20.223
G3 X9.554 Y20.728 I-0.039 J0.598
G1 X9.836 Y22.527
G3 X9.244 Y23.218 I-0.592 J0.093
G1 X-9.655
G3 X-9.655 Y22.02 I0 J-0.599
G1 X-0.206
X9.244 Y22.619
G3 X9.799 Y23.13 I-0.038 J0.598
G1 X10.062 Y24.929
G3 X9.47 Y25.615 I-0.593 J0.087
G1 X-9.9
G3 X-9.9 Y24.417 I0 J-0.599
G1 X-0.215
X9.47 Y25.016
G3 X10.025 Y25.522 I-0.037 J0.598
G1 X10.304 Y27.321
G3 X9.712 Y28.012 I-0.592 J0.092
G1 X-10.129
G3 X-10.129 Y26.813 I0 J-0.599
G1 X-0.208
X9.712 Y27.413
G3 X10.269 Y27.924 I-0.036 J0.598
G1 X10.531 Y29.723
G3 X9.938 Y30.408 I-0.593 J0.086
G1 X-10.358
X-10.4 Y30.404
X-10.441 Y30.39
X-10.478 Y30.368
X-10.51 Y30.338
X-26.787 Y11.305
X-26.818 Y11.276
X-26.855 Y11.254
X-26.896 Y11.24
X-26.939 Y11.235
X-35.916
G3 X-36.235 Y10.916 I0 J-0.319
G1 Y-10.916
G3 X-35.916 Y-11.235 I0.319 J0
G1 X-25.129
X-10.303
X9.875
X24.701
X35.916
G3 X36.235 Y-10.916 I0 J0.319
G1 Y10.916
G3 X35.916 Y11.235 I-0.319 J0
G1 X26.509
G3 X26.058 Y10.242 I0 J-0.599
G1 X35.077 Y-0.073
G2 X35.037 Y-0.904 I-0.451 J-0.394
G1 X24.701 Y-10.636
G3 X24.515 Y-11.017 I0.411 J-0.436
G1 X24.333 Y-12.977
G3 X24.929 Y-13.632 I0.597 J-0.055
G1 X38.313
G3 X38.632 Y-13.313 I0 J0.319
G1 Y13.313
G3 X38.313 Y13.632 I-0.319 J0
G1 X26.28
G3 X25.842 Y12.624 I0 J-0.599
G1 X37.451 Y0.159
G2 X37.434 Y-0.675 I-0.438 J-0.408
G1 X24.929 Y-13.033
G3 X24.754 Y-13.406 I0.421 J-0.426
G1 X24.578 Y-15.376
G3 X25.175 Y-16.029 I0.597 J-0.053
G1 X40.709
G3 X41.029 Y-15.709 I0 J0.319
G1 Y15.709
G3 X40.709 Y16.029 I-0.319 J0
G1 X26.051
G3 X25.622 Y15.012 I0 J-0.599
G1 X39.831 Y0.398
G2 X39.83 Y-0.438 I-0.43 J-0.418
G1 X25.175 Y-15.429
G3 X25.007 Y-15.788 I0.428 J-0.419
G1 X24.807 Y-17.766
G3 X25.404 Y-18.425 I0.596 J-0.06
G1 X43.106
G3 X43.425 Y-18.106 I0 J0.319
G1 Y10.385
Y14.878
Y18.106
G3 X43.106 Y18.425 I-0.319 J0
G1 X25.806
G3 X25.207 Y17.825 I0 J-0.599
X25.808 Y17.227 I0.599 J0.001
G1 X36.115 Y17.262
X36.185 Y17.259
X36.254 Y17.247
X36.321 Y17.227
X42.826 Y14.878
G2 X43.221 Y14.349 I-0.203 J-0.564
G1 X44.625 Y-10.288
G3 X45.822 Y-10.254 I0.598 J0.034
G1 Y10.395
X44.202 Y20.653
G3 X44.005 Y20.822 I-0.198 J-0.031
G1 X25.577
G3 X25.577 Y19.624 I0 J-0.599
G1 X34.791
X44.005 Y20.223
G3 X44.559 Y20.733 I-0.039 J0.598
G1 X44.823 Y22.532
G3 X44.23 Y23.218 I-0.593 J0.087
G1 X25.349
G3 X25.349 Y22.02 I0 J-0.599
G1 X34.79
X44.23 Y22.619
G3 X44.785 Y23.125 I-0.038 J0.598
G1 X45.065 Y24.924
G3 X44.473 Y25.615 I-0.592 J0.092
G1 X25.103
G3 X25.103 Y24.417 I0 J-0.599
G1 X34.788
X44.473 Y25.016
G3 X45.029 Y25.527 I-0.037 J0.598
G1 X45.292 Y27.326
G3 X44.699 Y28.012 I-0.593 J0.087
G1 X24.875
G3 X24.875 Y26.813 I0 J-0.599
G1 X34.787
X44.699 Y27.413
G3 X45.255 Y27.919 I-0.036 J0.598
G1 X45.533 Y29.718
G3 X44.941 Y30.408 I-0.592 J0.092
G1 X24.629
G3 X24.457 Y30.107 I0 J-0.2
G1 X47.846 Y-9.874
G3 X48.218 Y-9.773 I0.173 J0.101
G1 Y10.388
G3 X47.02 Y10.388 I-0.599 J0
G1 Y0.308
X47.619 Y-9.773
G3 X48.361 Y-10.319 I0.598 J0.036
G1 X50.16 Y-9.873
G3 X50.615 Y-9.292 I-0.144 J0.582
G1 Y10.381
G3 X49.417 Y10.381 I-0.599 J0
G1 Y0.545
X50.016 Y-9.292
G3 X50.667 Y-9.852 I0.598 J0.036
G1 X52.465 Y-9.694
G3 X53.012 Y-9.097 I-0.053 J0.597
G1 Y10.391
G3 X51.813 Y10.391 I-0.599 J0
G1 Y0.647
X52.413 Y-9.097
G3 X52.846 Y-9.636 I0.598 J0.037
G1 X54.644 Y-10.151
G3 X55.408 Y-9.575 I0.165 J0.576
G1 Y10.384
G3 X54.21 Y10.384 I-0.599 J0
G1 Y0.404
X54.809 Y-9.575
G3 X55.243 Y-10.115 I0.598 J0.036
G1 X57.041 Y-10.629
G3 X57.805 Y-10.053 I0.165 J0.576
G1 Y10.394
G3 X56.607 Y10.394 I-0.599 J0
G1 Y0.17
X57.206 Y-10.053
X57.213 Y-10.117
X57.227 Y-10.18
X59.026 Y-16.6
G3 X60.202 Y-16.438 I0.577 J0.162
G1 Y10.387
G3 X59.868 Y10.535 I-0.2 J0
G1 X25.498 Y-20.473
G3 X25.632 Y-20.822 I0.134 J-0.148
G1 X43.942
G3 X43.942 Y-19.624 I0 J0.599
G1 X34.787
X25.632 Y-20.223
G3 X25.076 Y-20.889 I0.039 J-0.598
G1 X25.282 Y-22.688
G3 X25.878 Y-23.218 I0.595 J0.068
G1 X43.699
G3 X43.699 Y-22.02 I0 J0.599
G1 X34.788
X25.878 Y-22.619
G3 X25.322 Y-23.28 I0.04 J-0.598
G1 X25.51 Y-25.078
G3 X26.106 Y-25.615 I0.596 J0.062
G1 X43.473
G3 X43.473 Y-24.417 I0 J0.599
G1 X34.79
X26.106 Y-25.016
G3 X25.552 Y-25.681 I0.041 J-0.598
G1 X25.756 Y-27.48
G3 X26.352 Y-28.012 I0.595 J0.068
G1 X43.231
G3 X43.231 Y-26.813 I0 J0.599
G1 X34.791
X26.352 Y-27.413
G3 X25.798 Y-28.072 I0.042 J-0.598
G1 X25.984 Y-29.871
G3 X26.58 Y-30.408 I0.596 J0.062
G1 X43.005
X43.017
G18 G2 X43.317 Z-0.2 I0 K0.3
G0 Z5
X-11.577 Y-13.632
G1 Z-0.2 F250
G2 X-11.277 Z-0.5 I0.3 K0
G1 X-10.057
X9.649
G17 G3 X9.649 Y-12.434 I0 J0.599
G1 X-0.204
X-10.057 Y-13.033
G3 X-10.617 Y-13.694 I0.036 J-0.598
G1 X-10.424 Y-15.493
G3 X-9.829 Y-16.029 I0.596 J0.064
G1 X9.406
G3 X9.407 Y-14.83 I0 J0.599
G1 X-0.211
X-9.829 Y-15.429
G3 X-10.387 Y-16.091 I0.037 J-0.598
G1 X-10.196 Y-17.889
G3 X-9.6 Y-18.425 I0.596 J0.063
G1 X9.164
G3 X9.164 Y-17.227 I0 J0.599
G1 X-0.218
X-9.6 Y-17.826
G3 X-10.157 Y-18.493 I0.038 J-0.598
G1 X-9.95 Y-20.291
G3 X-9.355 Y-20.822 I0.595 J0.069
G1 X8.938
G3 X8.938 Y-19.624 I0 J0.599
G1 X-0.208
X-9.355 Y-20.223
G3 X-9.911 Y-20.883 I0.039 J-0.598
G1 X-9.722 Y-22.682
G3 X-9.126 Y-23.218 I0.596 J0.063
G1 X8.696
G3 X8.696 Y-22.02 I0 J0.599
G1 X-0.215
X-9.126 Y-22.619
G3 X-9.682 Y-23.28 I0.04 J-0.598
G1 X-9.493 Y-25.078
G3 X-8.897 Y-25.615 I0.596 J0.062
G1 X8.47
G3 X8.47 Y-24.417 I0 J0.599
G1 X-0.214
X-8.897 Y-25.016
G3 X-9.451 Y-25.681 I0.041 J-0.598
G1 X-9.247 Y-27.48
G3 X-8.652 Y-28.012 I0.595 J0.068
G1 X8.227
G3 X8.227 Y-26.813 I0 J0.599
G1 X-0.212
X-8.652 Y-27.413
G3 X-9.205 Y-28.072 I0.042 J-0.598
G1 X-9.019 Y-29.871
G3 X-8.423 Y-30.408 I0.596 J0.062
G1 X8.001
X8.013
G18 G2 X8.313 Z-0.2 I0 K0.3
G0 Z5
X-25.218 Y13.632
G1 Z-0.2 F250
G3 X-25.518 Z-0.5 I-0.3 K0
G1 X-26.696
X-38.313
G17 G3 X-38.632 Y13.313 I0 J-0.319
G1 Y-13.313
G3 X-38.313 Y-13.632 I0.319 J0
G1 X-25.355
G3 X-25.155 Y-13.424 I0 J0.2
G1 X-26.271 Y15.836
G3 X-26.471 Y16.029 I-0.2 J-0.008
G1 X-40.709
G3 X-41.029 Y15.709 I0 J-0.319
G1 Y-15.709
G3 X-40.709 Y-16.029 I0.319 J0
G1 X-25.597
G3 X-25.397 Y-15.825 I0 J0.2
G1 X-26.028 Y18.229
G3 X-26.228 Y18.425 I-0.2 J-0.004
G1 X-43.106
G3 X-43.425 Y18.106 I0 J-0.319
G1 Y-18.106
G3 X-43.106 Y-18.425 I0.319 J0
G1 X-25.823
G3 X-25.623 Y-18.224 I0 J0.2
G1 X-25.802 Y20.623
G3 X-26.002 Y20.822 I-0.2 J-0.001
G1 X-44.43
G3 X-44.628 Y20.645 I0 J-0.2
G1 X-45.822 Y10.388
Y-10.328
X-44.557 Y-20.646
G3 X-44.358 Y-20.822 I0.199 J0.024
G1 X-26.065
G3 X-26.065 Y-19.624 I0 J0.599
G1 X-35.212
X-44.358 Y-20.223
G3 X-44.915 Y-20.883 I0.039 J-0.598
G1 X-44.725 Y-22.682
G3 X-44.13 Y-23.218 I0.596 J0.063
G1 X-26.291
G3 X-26.291 Y-22.02 I0 J0.599
G1 X-35.21
X-44.13 Y-22.619
G3 X-44.685 Y-23.285 I0.04 J-0.598
G1 X-44.479 Y-25.084
G3 X-43.884 Y-25.615 I0.595 J0.068
G1 X-26.534
G3 X-26.534 Y-24.417 I0 J0.599
G1 X-35.209
X-43.884 Y-25.016
G3 X-44.439 Y-25.676 I0.041 J-0.598
G1 X-44.251 Y-27.475
G3 X-43.655 Y-28.012 I0.596 J0.062
G1 X-26.759
G3 X-26.759 Y-26.813 I0 J0.599
G1 X-35.207
X-43.655 Y-27.413
G3 X-44.209 Y-28.072 I0.042 J-0.598
G1 X-44.023 Y-29.871
G3 X-43.427 Y-30.408 I0.596 J0.062
G1 X-27.002
G3 X-26.802 Y-30.207 I0 J0.2
X-27.005 Y-30.008 I-0.2 J-0.001
G1 X-57.608 Y-30.405
G3 X-57.805 Y-30.605 I0.003 J-0.2
G1 Y-32.486
G3 X-57.486 Y-32.805 I0.319 J0
G1 X57.486
G3 X57.805 Y-32.486 I0 J0.319
G1 Y-30.618
Y-30.606
G19 G3 Y-30.306 Z-0.2 J0 K0.3
G0 Z5
X-24.276 Y23.218
G1 Z-0.2 F250
G18 G3 X-24.576 Z-0.5 I-0.3 K0
G1 X-25.76
X-44.658
X-44.71 Y23.212
X-44.758 Y23.192
X-44.8 Y23.16
X-44.832 Y23.118
X-44.852 Y23.07
X-48.212 Y10.447
X-48.218 Y10.395
Y-9.849
G17 G3 X-47.02 Y-9.849 I0.599 J0
G1 Y0.273
X-47.619 Y10.395
G3 X-48.209 Y10.959 I-0.598 J-0.035
G1 X-50.007 Y10.985
G3 X-50.615 Y10.386 I-0.009 J-0.599
G1 Y-9.371
G3 X-49.417 Y-9.371 I0.599 J0
G1 Y0.507
X-50.016 Y10.386
G3 X-50.6 Y10.948 I-0.598 J-0.036
G1 X-52.398 Y10.992
G3 X-53.012 Y10.393 I-0.014 J-0.599
G1 Y-9.011
G3 X-51.813 Y-9.011 I0.599 J0
G1 Y0.691
X-52.413 Y10.393
G3 X-53.002 Y10.955 I-0.598 J-0.037
G1 X-54.8 Y10.982
G3 X-55.408 Y10.383 I-0.009 J-0.599
G1 Y-9.492
G3 X-54.21 Y-9.492 I0.599 J0
G1 Y0.445
X-54.809 Y10.383
G3 X-55.393 Y10.946 I-0.598 J-0.036
G1 X-57.192 Y10.989
G3 X-57.805 Y10.39 I-0.014 J-0.599
G1 Y-9.973
G3 X-56.607 Y-9.973 I0.599 J0
G1 Y0.208
X-57.206 Y10.39
G3 X-57.796 Y10.954 I-0.598 J-0.035
G1 X-59.594 Y10.979
G3 X-60.202 Y10.38 I-0.008 J-0.599
G1 Y-12.12
Y-30.615
Y-34.882
G3 X-59.882 Y-35.202 I0.319 J0
G1 X59.882
G3 X60.202 Y-34.882 I0 J0.319
G1 Y-30.608
Y-30.596
G19 G3 Y-30.296 Z-0.2 J0 K0.3
G0 Z5
X-24.044 Y25.615
G1 Z-0.2 F250
G18 G3 X-24.344 Z-0.5 I-0.3 K0
G1 X-25.534
X-44.887
G17 G3 X-44.887 Y24.417 I0 J-0.599
G1 X-35.211
X-25.534 Y25.016
G3 X-24.979 Y25.522 I-0.037 J0.598
G1 X-24.699 Y27.321
G3 X-25.291 Y28.012 I-0.592 J0.092
G1 X-45.132
G3 X-45.133 Y26.813 I0 J-0.599
G1 X-35.212
X-25.291 Y27.413
G3 X-24.735 Y27.924 I-0.036 J0.598
G1 X-24.473 Y29.723
G3 X-25.066 Y30.408 I-0.593 J0.086
G1 X-45.361
X-45.373
G18 G3 X-45.673 Z-0.2 I0 K0.3
G0 Z5
X57.805 Y29.416
G1 Z-0.2 F250
G19 G3 Y29.716 Z-0.5 J0.3 K0
G1 Y30.941
Y32.486
G17 G3 X57.486 Y32.805 I-0.319 J0
G1 X-57.486
G3 X-57.805 Y32.486 I0 J-0.319
G1 Y31.022
Y31.01
G19 G2 Y30.71 Z-0.2 J0 K0.3
G0 Z5
X60.202 Y24.243
G1 Z1.5 F250
Z-0.2
G3 Y24.543 Z-0.5 J0.3 K0
G1 Y24.573
Y34.882
G17 G3 X59.882 Y35.202 I-0.319 J0
G1 X-59.882
G3 X-60.202 Y34.882 I0 J-0.319
G1 Y28.891
G2 X-61.4 Y27.094 I-1.947 J0
G3 X-62.598 Y25.296 I0.749 J-1.797
G1 Y-37.279
G3 X-62.279 Y-37.598 I0.319 J0
G1 X62.279
G3 X62.598 Y-37.279 I0 J0.319
G1 Y37.279
G3 X62.279 Y37.598 I-0.319 J0
G1 X-62.279
G3 X-62.598 Y37.279 I0 J-0.319
G1 Y25.296
G2 X-63.797 Y23.499 I-1.947 J0
G3 X-64.995 Y21.701 I0.749 J-1.797
G1 Y-39.676
G3 X-64.676 Y-39.995 I0.319 J0
G1 X64.676
G3 X64.995 Y-39.676 I0 J0.319
G1 Y39.676
G3 X64.676 Y39.995 I-0.319 J0
G1 X-64.676
G3 X-64.995 Y39.676 I0 J-0.319
G1 Y21.701
G2 X-66.348 Y19.673 I-2.198 J0
G3 X-67.7 Y17.644 I0.845 J-2.029
G1 Y-40
G3 X-65 Y-42.7 I2.7 J0
G1 X65
G3 X67.7 Y-40 I0 J2.7
G1 Y40
G3 X65 Y42.7 I-2.7 J0
G1 X-65
G3 X-67.7 Y40 I0 J-2.7
G1 Y17.644
G2 X-69.1 Y15.544 I-2.275 J0
G3 X-70.5 Y13.444 I0.875 J-2.1
G1 Y-40
G3 X-65 Y-45.5 I5.5 J0
G1 X65
G3 X70.5 Y-40 I0 J5.5
G1 Y40
G3 X65 Y45.5 I-5.5 J0
G1 X-65
G3 X-70.5 Y40 I0 J-5.5
G1 Y13.444
X-70.495 Y13.387 Z-0.489
X-70.478 Y13.332 Z-0.477
X-70.457 Y13.288 Z-0.445
X-70.428 Y13.249 Z-0.412
X-70.381 Y13.205 Z-0.315
X-70.362 Y13.191 Z-0.2
G0 Z5
X24.389 Y-11.235
G1 Z1 F250
Z-0.7
G18 G2 X24.689 Z-1 I0.3 K0
G1 X24.701
G17 G3 X27.575 Y-2.333 I0 J4.915
X18.673 Y0.541 I-8.902 J-12.351
G1 X-25.221
G3 X-25.541 Y0.221 I0 J-0.319
G1 Y-0.221
G3 X-25.221 Y-0.541 I0.319 J0
G1 X25.221
G3 X25.541 Y-0.221 I0 J0.319
G1 Y0.221
G3 X25.221 Y0.541 I-0.319 J0
G1 X18.673
G2 X17.842 Y1.095 I0 J0.9
G3 X17.011 Y1.649 I-0.831 J-0.346
G1 X-26.329
G3 X-26.649 Y1.329 I0 J-0.319
G1 Y-1.329
G3 X-26.329 Y-1.649 I0.319 J0
G1 X26.329
G3 X26.649 Y-1.329 I0 J0.319
G1 Y1.329
G3 X26.329 Y1.649 I-0.319 J0
G1 X17.011
G2 X15.213 Y2.847 I0 J1.947
G3 X13.416 Y4.045 I-1.797 J-0.749
G1 X-28.726
G3 X-29.045 Y3.726 I0 J-0.319
G1 Y-3.726
G3 X-28.726 Y-4.045 I0.319 J0
G1 X28.726
G3 X29.045 Y-3.726 I0 J0.319
G1 Y3.726
G3 X28.726 Y4.045 I-0.319 J0
G1 X13.416
G2 X11.618 Y5.244 I0 J1.947
G3 X9.821 Y6.442 I-1.797 J-0.749
G1 X-31.123
G3 X-31.442 Y6.123 I0 J-0.319
G1 Y-6.123
G3 X-31.123 Y-6.442 I0.319 J0
G1 X31.123
G3 X31.442 Y-6.123 I0 J0.319
G1 Y6.123
G3 X31.123 Y6.442 I-0.319 J0
G1 X9.821
G2 X8.023 Y7.64 I0 J1.947
G3 X6.226 Y8.839 I-1.797 J-0.749
G1 X-33.519
G3 X-33.839 Y8.519 I0 J-0.319
G1 Y-8.519
G3 X-33.519 Y-8.839 I0.319 J0
G1 X33.519
G3 X33.839 Y-8.519 I0 J0.319
G1 Y8.519
G3 X33.519 Y8.839 I-0.319 J0
G1 X6.226
G2 X6.1 Y9.194 I0 J0.2
G1 X8.19 Y10.88
G3 X8.065 Y11.235 I-0.126 J0.156
G1 X-8.478
G3 X-8.478 Y10.037 I0 J-0.599
G1 X-0.207
X8.065 Y10.636
G3 X8.614 Y11.145 I-0.043 J0.598
G1 X8.883 Y12.944
G3 X8.29 Y13.632 I-0.593 J0.089
G1 X-8.723
G3 X-8.724 Y12.434 I0 J-0.599
G1 X-0.217
X8.29 Y13.033
G3 X8.84 Y13.537 I-0.042 J0.598
G1 X9.125 Y15.336
G3 X8.533 Y16.029 I-0.592 J0.094
G1 X-8.952
G3 X-8.952 Y14.83 I0 J-0.599
G1 X-0.21
X8.533 Y15.429
G3 X9.085 Y15.939 I-0.041 J0.598
G1 X9.351 Y17.738
G3 X8.759 Y18.425 I-0.593 J0.088
G1 X-9.181
G3 X-9.181 Y17.227 I0 J-0.599
G1 X-0.211
X8.759 Y17.826
G3 X9.311 Y18.331 I-0.04 J0.598
G1 X9.593 Y20.13
G3 X9.001 Y20.822 I-0.592 J0.093
G1 X-9.426
G3 X-9.426 Y19.624 I0 J-0.599
G1 X-0.213
X9.001 Y20.223
G3 X9.554 Y20.728 I-0.039 J0.598
G1 X9.836 Y22.527
G3 X9.244 Y23.218 I-0.592 J0.093
G1 X-9.655
G3 X-9.655 Y22.02 I0 J-0.599
G1 X-0.206
X9.244 Y22.619
G3 X9.799 Y23.13 I-0.038 J0.598
G1 X10.062 Y24.929
G3 X9.47 Y25.615 I-0.593 J0.087
G1 X-9.9
G3 X-9.9 Y24.417 I0 J-0.599
G1 X-0.215
X9.47 Y25.016
G3 X10.025 Y25.522 I-0.037 J0.598
G1 X10.304 Y27.321
G3 X9.712 Y28.012 I-0.592 J0.092
G1 X-10.129
G3 X-10.129 Y26.813 I0 J-0.599
G1 X-0.208
X9.712 Y27.413
G3 X10.269 Y27.924 I-0.036 J0.598
G1 X10.531 Y29.723
G3 X9.938 Y30.408 I-0.593 J0.086
G1 X-10.358
X-10.4 Y30.404
X-10.441 Y30.39
X-10.478 Y30.368
X-10.51 Y30.338
X-26.787 Y11.305
X-26.818 Y11.276
X-26.855 Y11.254
X-26.896 Y11.24
X-26.939 Y11.235
X-35.916
G3 X-36.235 Y10.916 I0 J-0.319
G1 Y-10.916
G3 X-35.916 Y-11.235 I0.319 J0
G1 X-25.129
X-10.303
X9.875
X24.701
X35.916
G3 X36.235 Y-10.916 I0 J0.319
G1 Y10.916
G3 X35.916 Y11.235 I-0.319 J0
G1 X26.509
G3 X26.058 Y10.242 I0 J-0.599
G1 X35.077 Y-0.073
G2 X35.037 Y-0.904 I-0.451 J-0.394
G1 X24.701 Y-10.636
G3 X24.515 Y-11.017 I0.411 J-0.436
G1 X24.333 Y-12.977
G3 X24.929 Y-13.632 I0.597 J-0.055
G1 X38.313
G3 X38.632 Y-13.313 I0 J0.319
G1 Y13.313
G3 X38.313 Y13.632 I-0.319 J0
G1 X26.28
G3 X25.842 Y12.624 I0 J-0.599
G1 X37.451 Y0.159
G2 X37.434 Y-0.675 I-0.438 J-0.408
G1 X24.929 Y-13.033
G3 X24.754 Y-13.406 I0.421 J-0.426
G1 X24.578 Y-15.376
G3 X25.175 Y-16.029 I0.597 J-0.053
G1 X40.709
G3 X41.029 Y-15.709 I0 J0.319
G1 Y15.709
G3 X40.709 Y16.029 I-0.319 J0
G1 X26.051
G3 X25.622 Y15.012 I0 J-0.599
G1 X39.831 Y0.398
G2 X39.83 Y-0.438 I-0.43 J-0.418
G1 X25.175 Y-15.429
G3 X25.007 Y-15.788 I0.428 J-0.419
G1 X24.807 Y-17.766
G3 X25.404 Y-18.425 I0.596 J-0.06
G1 X43.106
G3 X43.425 Y-18.106 I0 J0.319
G1 Y10.385
Y14.878
Y18.106
G3 X43.106 Y18.425 I-0.319 J0
G1 X25.806
G3 X25.207 Y17.825 I0 J-0.599
X25.808 Y17.227 I0.599 J0.001
G1 X36.115 Y17.262
X36.185 Y17.259
X36.254 Y17.247
X36.321 Y17.227
X42.826 Y14.878
G2 X43.221 Y14.349 I-0.203 J-0.564
G1 X44.625 Y-10.288
G3 X45.822 Y-10.254 I0.598 J0.034
G1 Y10.395
X44.202 Y20.653
G3 X44.005 Y20.822 I-0.198 J-0.031
G1 X25.577
G3 X25.577 Y19.624 I0 J-0.599
G1 X34.791
X44.005 Y20.223
G3 X44.559 Y20.733 I-0.039 J0.598
G1 X44.823 Y22.532
G3 X44.23 Y23.218 I-0.593 J0.087
G1 X25.349
G3 X25.349 Y22.02 I0 J-0.599
G1 X34.79
X44.23 Y22.619
G3 X44.785 Y23.125 I-0.038 J0.598
G1 X45.065 Y24.924
G3 X44.473 Y25.615 I-0.592 J0.092
G1 X25.103
G3 X25.103 Y24.417 I0 J-0.599
G1 X34.788
X44.473 Y25.016
G3 X45.029 Y25.527 I-0.037 J0.598
G1 X45.292 Y27.326
G3 X44.699 Y28.012 I-0.593 J0.087
G1 X24.875
G3 X24.875 Y26.813 I0 J-0.599
G1 X34.787
X44.699 Y27.413
G3 X45.255 Y27.919 I-0.036 J0.598
G1 X45.533 Y29.718
G3 X44.941 Y30.408 I-0.592 J0.092
G1 X24.629
G3 X24.457 Y30.107 I0 J-0.2
G1 X47.846 Y-9.874
G3 X48.218 Y-9.773 I0.173 J0.101
G1 Y10.388
G3 X47.02 Y10.388 I-0.599 J0
G1 Y0.308
X47.619 Y-9.773
G3 X48.361 Y-10.319 I0.598 J0.036
G1 X50.16 Y-9.873
G3 X50.615 Y-9.292 I-0.144 J0.582
G1 Y10.381
G3 X49.417 Y10.381 I-0.599 J0
G1 Y0.545
X50.016 Y-9.292
G3 X50.667 Y-9.852 I0.598 J0.036
G1 X52.465 Y-9.694
G3 X53.012 Y-9.097 I-0.053 J0.597
G1 Y10.391
G3 X51.813 Y10.391 I-0.599 J0
G1 Y0.647
X52.413 Y-9.097
G3 X52.846 Y-9.636 I0.598 J0.037
G1 X54.644 Y-10.151
G3 X55.408 Y-9.575 I0.165 J0.576
G1 Y10.384
G3 X54.21 Y10.384 I-0.599 J0
G1 Y0.404
X54.809 Y-9.575
G3 X55.243 Y-10.115 I0.598 J0.036
G1 X57.041 Y-10.629
G3 X57.805 Y-10.053 I0.165 J0.576
G1 Y10.394
G3 X56.607 Y10.394 I-0.599 J0
G1 Y0.17
X57.206 Y-10.053
X57.213 Y-10.117
X57.227 Y-10.18
X59.026 Y-16.6
G3 X60.202 Y-16.438 I0.577 J0.162
G1 Y10.387
G3 X59.868 Y10.535 I-0.2 J0
G1 X25.498 Y-20.473
G3 X25.632 Y-20.822 I0.134 J-0.148
G1 X43.942
G3 X43.942 Y-19.624 I0 J0.599
G1 X34.787
X25.632 Y-20.223
G3 X25.076 Y-20.889 I0.039 J-0.598
G1 X25.282 Y-22.688
G3 X25.878 Y-23.218 I0.595 J0.068
G1 X43.699
G3 X43.699 Y-22.02 I0 J0.599
G1 X34.788
X25.878 Y-22.619
G3 X25.322 Y-23.28 I0.04 J-0.598
G1 X25.51 Y-25.078
G3 X26.106 Y-25.615 I0.596 J0.062
G1 X43.473
G3 X43.473 Y-24.417 I0 J0.599
G1 X34.79
X26.106 Y-25.016
G3 X25.552 Y-25.681 I0.041 J-0.598
G1 X25.756 Y-27.48
G3 X26.352 Y-28.012 I0.595 J0.068
G1 X43.231
G3 X43.231 Y-26.813 I0 J0.599
G1 X34.791
X26.352 Y-27.413
G3 X25.798 Y-28.072 I0.042 J-0.598
G1 X25.984 Y-29.871
G3 X26.58 Y-30.408 I0.596 J0.062
G1 X43.005
X43.017
G18 G2 X43.317 Z-0.7 I0 K0.3
G0 Z5
X-11.577 Y-13.632
G1 Z-0.7 F250
G2 X-11.277 Z-1 I0.3 K0
G1 X-10.057
X9.649
G17 G3 X9.649 Y-12.434 I0 J0.599
G1 X-0.204
X-10.057 Y-13.033
G3 X-10.617 Y-13.694 I0.036 J-0.598
G1 X-10.424 Y-15.493
G3 X-9.829 Y-16.029 I0.596 J0.064
G1 X9.406
G3 X9.407 Y-14.83 I0 J0.599
G1 X-0.211
X-9.829 Y-15.429
G3 X-10.387 Y-16.091 I0.037 J-0.598
G1 X-10.196 Y-17.889
G3 X-9.6 Y-18.425 I0.596 J0.063
G1 X9.164
G3 X9.164 Y-17.227 I0 J0.599
G1 X-0.218
X-9.6 Y-17.826
G3 X-10.157 Y-18.493 I0.038 J-0.598
G1 X-9.95 Y-20.291
G3 X-9.355 Y-20.822 I0.595 J0.069
G1 X8.938
G3 X8.938 Y-19.624 I0 J0.599
G1 X-0.208
X-9.355 Y-20.223
G3 X-9.911 Y-20.883 I0.039 J-0.598
G1 X-9.722 Y-22.682
G3 X-9.126 Y-23.218 I0.596 J0.063
G1 X8.696
G3 X8.696 Y-22.02 I0 J0.599
G1 X-0.215
X-9.126 Y-22.619
G3 X-9.682 Y-23.28 I0.04 J-0.598
G1 X-9.493 Y-25.078
G3 X-8.897 Y-25.615 I0.596 J0.062
G1 X8.47
G3 X8.47 Y-24.417 I0 J0.599
G1 X-0.214
X-8.897 Y-25.016
G3 X-9.451 Y-25.681 I0.041 J-0.598
G1 X-9.247 Y-27.48
G3 X-8.652 Y-28.012 I0.595 J0.068
G1 X8.227
G3 X8.227 Y-26.813 I0 J0.599
G1 X-0.212
X-8.652 Y-27.413
G3 X-9.205 Y-28.072 I0.042 J-0.598
G1 X-9.019 Y-29.871
G3 X-8.423 Y-30.408 I0.596 J0.062
G1 X8.001
X8.013
G18 G2 X8.313 Z-0.7 I0 K0.3
G0 Z5
X-25.218 Y13.632
G1 Z-0.7 F250
G3 X-25.518 Z-1 I-0.3 K0
G1 X-26.696
X-38.313
G17 G3 X-38.632 Y13.313 I0 J-0.319
G1 Y-13.313
G3 X-38.313 Y-13.632 I0.319 J0
G1 X-25.355
G3 X-25.155 Y-13.424 I0 J0.2
G1 X-26.271 Y15.836
G3 X-26.471 Y16.029 I-0.2 J-0.008
G1 X-40.709
G3 X-41.029 Y15.709 I0 J-0.319
G1 Y-15.709
G3 X-40.709 Y-16.029 I0.319 J0
G1 X-25.597
G3 X-25.397 Y-15.825 I0 J0.2
G1 X-26.028 Y18.229
G3 X-26.228 Y18.425 I-0.2 J-0.004
G1 X-43.106
G3 X-43.425 Y18.106 I0 J-0.319
G1 Y-18.106
G3 X-43.106 Y-18.425 I0.319 J0
G1 X-25.823
G3 X-25.623 Y-18.224 I0 J0.2
G1 X-25.802 Y20.623
G3 X-26.002 Y20.822 I-0.2 J-0.001
G1 X-44.43
G3 X-44.628 Y20.645 I0 J-0.2
G1 X-45.822 Y10.388
Y-10.328
X-44.557 Y-20.646
G3 X-44.358 Y-20.822 I0.199 J0.024
G1 X-26.065
G3 X-26.065 Y-19.624 I0 J0.599
G1 X-35.212
X-44.358 Y-20.223
G3 X-44.915 Y-20.883 I0.039 J-0.598
G1 X-44.725 Y-22.682
G3 X-44.13 Y-23.218 I0.596 J0.063
G1 X-26.291
G3 X-26.291 Y-22.02 I0 J0.599
G1 X-35.21
X-44.13 Y-22.619
G3 X-44.685 Y-23.285 I0.04 J-0.598
G1 X-44.479 Y-25.084
G3 X-43.884 Y-25.615 I0.595 J0.068
G1 X-26.534
G3 X-26.534 Y-24.417 I0 J0.599
G1 X-35.209
X-43.884 Y-25.016
G3 X-44.439 Y-25.676 I0.041 J-0.598
G1 X-44.251 Y-27.475
G3 X-43.655 Y-28.012 I0.596 J0.062
G1 X-26.759
G3 X-26.759 Y-26.813 I0 J0.599
G1 X-35.207
X-43.655 Y-27.413
G3 X-44.209 Y-28.072 I0.042 J-0.598
G1 X-44.023 Y-29.871
G3 X-43.427 Y-30.408 I0.596 J0.062
G1 X-27.002
G3 X-26.802 Y-30.207 I0 J0.2
X-27.005 Y-30.008 I-0.2 J-0.001
G1 X-57.608 Y-30.405
G3 X-57.805 Y-30.605 I0.003 J-0.2
G1 Y-32.486
G3 X-57.486 Y-32.805 I0.319 J0
G1 X57.486
G3 X57.805 Y-32.486 I0 J0.319
G1 Y-30.618
Y-30.606
G19 G3 Y-30.306 Z-0.7 J0 K0.3
G0 Z5
X-24.276 Y23.218
G1 Z-0.7 F250
G18 G3 X-24.576 Z-1 I-0.3 K0
G1 X-25.76
X-44.658
X-44.71 Y23.212
X-44.758 Y23.192
X-44.8 Y23.16
X-44.832 Y23.118
X-44.852 Y23.07
X-48.212 Y10.447
X-48.218 Y10.395
Y-9.849
G17 G3 X-47.02 Y-9.849 I0.599 J0
G1 Y0.273
X-47.619 Y10.395
G3 X-48.209 Y10.959 I-0.598 J-0.035
G1 X-50.007 Y10.985
G3 X-50.615 Y10.386 I-0.009 J-0.599
G1 Y-9.371
G3 X-49.417 Y-9.371 I0.599 J0
G1 Y0.507
X-50.016 Y10.386
G3 X-50.6 Y10.948 I-0.598 J-0.036
G1 X-52.398 Y10.992
G3 X-53.012 Y10.393 I-0.014 J-0.599
G1 Y-9.011
G3 X-51.813 Y-9.011 I0.599 J0
G1 Y0.691
X-52.413 Y10.393
G3 X-53.002 Y10.955 I-0.598 J-0.037
G1 X-54.8 Y10.982
G3 X-55.408 Y10.383 I-0.009 J-0.599
G1 Y-9.492
G3 X-54.21 Y-9.492 I0.599 J0
G1 Y0.445
X-54.809 Y10.383
G3 X-55.393 Y10.946 I-0.598 J-0.036
G1 X-57.192 Y10.989
G3 X-57.805 Y10.39 I-0.014 J-0.599
G1 Y-9.973
G3 X-56.607 Y-9.973 I0.599 J0
G1 Y0.208
X-57.206 Y10.39
G3 X-57.796 Y10.954 I-0.598 J-0.035
G1 X-59.594 Y10.979
G3 X-60.202 Y10.38 I-0.008 J-0.599
G1 Y-12.12
Y-30.615
Y-34.882
G3 X-59.882 Y-35.202 I0.319 J0
G1 X59.882
G3 X60.202 Y-34.882 I0 J0.319
G1 Y-30.608
Y-30.596
G19 G3 Y-30.296 Z-0.7 J0 K0.3
G0 Z5
X-24.044 Y25.615
G1 Z-0.7 F250
G18 G3 X-24.344 Z-1 I-0.3 K0
G1 X-25.534
X-44.887
G17 G3 X-44.887 Y24.417 I0 J-0.599
G1 X-35.211
X-25.534 Y25.016
G3 X-24.979 Y25.522 I-0.037 J0.598
G1 X-24.699 Y27.321
G3 X-25.291 Y28.012 I-0.592 J0.092
G1 X-45.132
G3 X-45.133 Y26.813 I0 J-0.599
G1 X-35.212
X-25.291 Y27.413
G3 X-24.735 Y27.924 I-0.036 J0.598
G1 X-24.473 Y29.723
G3 X-25.066 Y30.408 I-0.593 J0.086
G1 X-45.361
X-45.373
G18 G3 X-45.673 Z-0.7 I0 K0.3
G0 Z5
X57.805 Y29.416
G1 Z-0.7 F250
G19 G3 Y29.716 Z-1 J0.3 K0
G1 Y30.941
Y32.486
G17 G3 X57.486 Y32.805 I-0.319 J0
G1 X-57.486
G3 X-57.805 Y32.486 I0 J-0.319
G1 Y31.022
Y31.01
G19 G2 Y30.71 Z-0.7 J0 K0.3
G0 Z5
X60.202 Y24.243
G1 Z1 F250
Z-0.7
G3 Y24.543 Z-1 J0.3 K0
G1 Y24.573
Y34.882
G17 G3 X59.882 Y35.202 I-0.319 J0
G1 X-59.882
G3 X-60.202 Y34.882 I0 J-0.319
G1 Y28.891
G2 X-61.4 Y27.094 I-1.947 J0
G3 X-62.598 Y25.296 I0.749 J-1.797
G1 Y-37.279
G3 X-62.279 Y-37.598 I0.319 J0
G1 X62.279
G3 X62.598 Y-37.279 I0 J0.319
G1 Y37.279
G3 X62.279 Y37.598 I-0.319 J0
G1 X-62.279
G3 X-62.598 Y37.279 I0 J-0.319
G1 Y25.296
G2 X-63.797 Y23.499 I-1.947 J0
G3 X-64.995 Y21.701 I0.749 J-1.797
G1 Y-39.676
G3 X-64.676 Y-39.995 I0.319 J0
G1 X64.676
G3 X64.995 Y-39.676 I0 J0.319
G1 Y39.676
G3 X64.676 Y39.995 I-0.319 J0
G1 X-64.676
G3 X-64.995 Y39.676 I0 J-0.319
G1 Y21.701
G2 X-66.348 Y19.673 I-2.198 J0
G3 X-67.7 Y17.644 I0.845 J-2.029
G1 Y-40
G3 X-65 Y-42.7 I2.7 J0
G1 X65
G3 X67.7 Y-40 I0 J2.7
G1 Y40
G3 X65 Y42.7 I-2.7 J0
G1 X-65
G3 X-67.7 Y40 I0 J-2.7
G1 Y17.644
G2 X-69.1 Y15.544 I-2.275 J0
G3 X-70.5 Y13.444 I0.875 J-2.1
G1 Y-40
G3 X-65 Y-45.5 I5.5 J0
G1 X65
G3 X70.5 Y-40 I0 J5.5
G1 Y40
G3 X65 Y45.5 I-5.5 J0
G1 X-65
G3 X-70.5 Y40 I0 J-5.5
G1 Y13.444
X-70.495 Y13.387 Z-0.989
X-70.478 Y13.332 Z-0.977
X-70.457 Y13.288 Z-0.945
X-70.428 Y13.249 Z-0.912
X-70.381 Y13.205 Z-0.815
X-70.362 Y13.191 Z-0.7
G0 Z5
X24.389 Y-11.235
G1 Z0.5 F250
Z-1.2
G18 G2 X24.689 Z-1.5 I0.3 K0
G1 X24.701
G17 G3 X27.575 Y-2.333 I0 J4.915
X18.673 Y0.541 I-8.902 J-12.351
G1 X-25.221
G3 X-25.541 Y0.221 I0 J-0.319
G1 Y-0.221
G3 X-25.221 Y-0.541 I0.319 J0
G1 X25.221
G3 X25.541 Y-0.221 I0 J0.319
G1 Y0.221
G3 X25.221 Y0.541 I-0.319 J0
G1 X18.673
G2 X17.842 Y1.095 I0 J0.9
G3 X17.011 Y1.649 I-0.831 J-0.346
G1 X-26.329
G3 X-26.649 Y1.329 I0 J-0.319
G1 Y-1.329
G3 X-26.329 Y-1.649 I0.319 J0
G1 X26.329
G3 X26.649 Y-1.329 I0 J0.319
G1 Y1.329
G3 X26.329 Y1.649 I-0.319 J0
G1 X17.011
G2 X15.213 Y2.847 I0 J1.947
G3 X13.416 Y4.045 I-1.797 J-0.749
G1 X-28.726
G3 X-29.045 Y3.726 I0 J-0.319
G1 Y-3.726
G3 X-28.726 Y-4.045 I0.319 J0
G1 X28.726
G3 X29.045 Y-3.726 I0 J0.319
G1 Y3.726
G3 X28.726 Y4.045 I-0.319 J0
G1 X13.416
G2 X11.618 Y5.244 I0 J1.947
G3 X9.821 Y6.442 I-1.797 J-0.749
G1 X-31.123
G3 X-31.442 Y6.123 I0 J-0.319
G1 Y-6.123
G3 X-31.123 Y-6.442 I0.319 J0
G1 X31.123
G3 X31.442 Y-6.123 I0 J0.319
G1 Y6.123
G3 X31.123 Y6.442 I-0.319 J0
G1 X9.821
G2 X8.023 Y7.64 I0 J1.947
G3 X6.226 Y8.839 I-1.797 J-0.749
G1 X-33.519
G3 X-33.839 Y8.519 I0 J-0.319
G1 Y-8.519
G3 X-33.519 Y-8.839 I0.319 J0
G1 X33.519
G3 X33.839 Y-8.519 I0 J0.319
G1 Y8.519
G3 X33.519 Y8.839 I-0.319 J0
G1 X6.226
G2 X6.1 Y9.194 I0 J0.2
G1 X8.19 Y10.88
G3 X8.065 Y11.235 I-0.126 J0.156
G1 X-8.478
G3 X-8.478 Y10.037 I0 J-0.599
G1 X-0.207
X8.065 Y10.636
G3 X8.614 Y11.145 I-0.043 J0.598
G1 X8.883 Y12.944
G3 X8.29 Y13.632 I-0.593 J0.089
G1 X-8.723
G3 X-8.724 Y12.434 I0 J-0.599
G1 X-0.217
X8.29 Y13.033
G3 X8.84 Y13.537 I-0.042 J0.598
G1 X9.125 Y15.336
G3 X8.533 Y16.029 I-0.592 J0.094
G1 X-8.952
G3 X-8.952 Y14.83 I0 J-0.599
G1 X-0.21
X8.533 Y15.429
G3 X9.085 Y15.939 I-0.041 J0.598
G1 X9.351 Y17.738
G3 X8.759 Y18.425 I-0.593 J0.088
G1 X-9.181
G3 X-9.181 Y17.227 I0 J-0.599
G1 X-0.211
X8.759 Y17.826
G3 X9.311 Y18.331 I-0.04 J0.598
G1 X9.593 Y20.13
G3 X9.001 Y20.822 I-0.592 J0.093
G1 X-9.426
G3 X-9.426 Y19.624 I0 J-0.599
G1 X-0.213
X9.001 Y20.223
G3 X9.554 Y20.728 I-0.039 J0.598
G1 X9.836 Y22.527
G3 X9.244 Y23.218 I-0.592 J0.093
G1 X-9.655
G3 X-9.655 Y22.02 I0 J-0.599
G1 X-0.206
X9.244 Y22.619
G3 X9.799 Y23.13 I-0.038 J0.598
G1 X10.062 Y24.929
G3 X9.47 Y25.615 I-0.593 J0.087
G1 X-9.9
G3 X-9.9 Y24.417 I0 J-0.599
G1 X-0.215
X9.47 Y25.016
G3 X10.025 Y25.522 I-0.037 J0.598
G1 X10.304 Y27.321
G3 X9.712 Y28.012 I-0.592 J0.092
G1 X-10.129
G3 X-10.129 Y26.813 I0 J-0.599
G1 X-0.208
X9.712 Y27.413
G3 X10.269 Y27.924 I-0.036 J0.598
G1 X10.531 Y29.723
G3 X9.938 Y30.408 I-0.593 J0.086
G1 X-10.358
X-10.4 Y30.404
X-10.441 Y30.39
X-10.478 Y30.368
X-10.51 Y30.338
X-26.787 Y11.305
X-26.818 Y11.276
X-26.855 Y11.254
X-26.896 Y11.24
X-26.939 Y11.235
X-35.916
G3 X-36.235 Y10.916 I0 J-0.319
G1 Y-10.916
G3 X-35.916 Y-11.235 I0.319 J0
G1 X-25.129
X-10.303
X9.875
X24.701
X35.916
G3 X36.235 Y-10.916 I0 J0.319
G1 Y10.916
G3 X35.916 Y11.235 I-0.319 J0
G1 X26.509
G3 X26.058 Y10.242 I0 J-0.599
G1 X35.077 Y-0.073
G2 X35.037 Y-0.904 I-0.451 J-0.394
G1 X24.701 Y-10.636
G3 X24.515 Y-11.017 I0.411 J-0.436
G1 X24.333 Y-12.977
G3 X24.929 Y-13.632 I0.597 J-0.055
G1 X38.313
G3 X38.632 Y-13.313 I0 J0.319
G1 Y13.313
G3 X38.313 Y13.632 I-0.319 J0
G1 X26.28
G3 X25.842 Y12.624 I0 J-0.599
G1 X37.451 Y0.159
G2 X37.434 Y-0.675 I-0.438 J-0.408
G1 X24.929 Y-13.033
G3 X24.754 Y-13.406 I0.421 J-0.426
G1 X24.578 Y-15.376
G3 X25.175 Y-16.029 I0.597 J-0.053
G1 X40.709
G3 X41.029 Y-15.709 I0 J0.319
G1 Y15.709
G3 X40.709 Y16.029 I-0.319 J0
G1 X26.051
G3 X25.622 Y15.012 I0 J-0.599
G1 X39.831 Y0.398
G2 X39.83 Y-0.438 I-0.43 J-0.418
G1 X25.175 Y-15.429
G3 X25.007 Y-15.788 I0.428 J-0.419
G1 X24.807 Y-17.766
G3 X25.404 Y-18.425 I0.596 J-0.06
G1 X43.106
G3 X43.425 Y-18.106 I0 J0.319
G1 Y10.385
Y14.878
Y18.106
G3 X43.106 Y18.425 I-0.319 J0
G1 X25.806
G3 X25.207 Y17.825 I0 J-0.599
X25.808 Y17.227 I0.599 J0.001
G1 X36.115 Y17.262
X36.185 Y17.259
X36.254 Y17.247
X36.321 Y17.227
X42.826 Y14.878
G2 X43.221 Y14.349 I-0.203 J-0.564
G1 X44.625 Y-10.288
G3 X45.822 Y-10.254 I0.598 J0.034
G1 Y10.395
X44.202 Y20.653
G3 X44.005 Y20.822 I-0.198 J-0.031
G1 X25.577
G3 X25.577 Y19.624 I0 J-0.599
G1 X34.791
X44.005 Y20.223
G3 X44.559 Y20.733 I-0.039 J0.598
G1 X44.823 Y22.532
G3 X44.23 Y23.218 I-0.593 J0.087
G1 X25.349
G3 X25.349 Y22.02 I0 J-0.599
G1 X34.79
X44.23 Y22.619
G3 X44.785 Y23.125 I-0.038 J0.598
G1 X45.065 Y24.924
G3 X44.473 Y25.615 I-0.592 J0.092
G1 X25.103
G3 X25.103 Y24.417 I0 J-0.599
G1 X34.788
X44.473 Y25.016
G3 X45.029 Y25.527 I-0.037 J0.598
G1 X45.292 Y27.326
G3 X44.699 Y28.012 I-0.593 J0.087
G1 X24.875
G3 X24.875 Y26.813 I0 J-0.599
G1 X34.787
X44.699 Y27.413
G3 X45.255 Y27.919 I-0.036 J0.598
G1 X45.533 Y29.718
G3 X44.941 Y30.408 I-0.592 J0.092
G1 X24.629
G3 X24.457 Y30.107 I0 J-0.2
G1 X47.846 Y-9.874
G3 X48.218 Y-9.773 I0.173 J0.101
G1 Y10.388
G3 X47.02 Y10.388 I-0.599 J0
G1 Y0.308
X47.619 Y-9.773
G3 X48.361 Y-10.319 I0.598 J0.036
G1 X50.16 Y-9.873
G3 X50.615 Y-9.292 I-0.144 J0.582
G1 Y10.381
G3 X49.417 Y10.381 I-0.599 J0
G1 Y0.545
X50.016 Y-9.292
G3 X50.667 Y-9.852 I0.598 J0.036
G1 X52.465 Y-9.694
G3 X53.012 Y-9.097 I-0.053 J0.597
G1 Y10.391
G3 X51.813 Y10.391 I-0.599 J0
G1 Y0.647
X52.413 Y-9.097
G3 X52.846 Y-9.636 I0.598 J0.037
G1 X54.644 Y-10.151
G3 X55.408 Y-9.575 I0.165 J0.576
G1 Y10.384
G3 X54.21 Y10.384 I-0.599 J0
G1 Y0.404
X54.809 Y-9.575
G3 X55.243 Y-10.115 I0.598 J0.036
G1 X57.041 Y-10.629
G3 X57.805 Y-10.053 I0.165 J0.576
G1 Y10.394
G3 X56.607 Y10.394 I-0.599 J0
G1 Y0.17
X57.206 Y-10.053
X57.213 Y-10.117
X57.227 Y-10.18
X59.026 Y-16.6
G3 X60.202 Y-16.438 I0.577 J0.162
G1 Y10.387
G3 X59.868 Y10.535 I-0.2 J0
G1 X25.498 Y-20.473
G3 X25.632 Y-20.822 I0.134 J-0.148
G1 X43.942
G3 X43.942 Y-19.624 I0 J0.599
G1 X34.787
X25.632 Y-20.223
G3 X25.076 Y-20.889 I0.039 J-0.598
G1 X25.282 Y-22.688
G3 X25.878 Y-23.218 I0.595 J0.068
G1 X43.699
G3 X43.699 Y-22.02 I0 J0.599
G1 X34.788
X25.878 Y-22.619
G3 X25.322 Y-23.28 I0.04 J-0.598
G1 X25.51 Y-25.078
G3 X26.106 Y-25.615 I0.596 J0.062
G1 X43.473
G3 X43.473 Y-24.417 I0 J0.599
G1 X34.79
X26.106 Y-25.016
G3 X25.552 Y-25.681 I0.041 J-0.598
G1 X25.756 Y-27.48
G3 X26.352 Y-28.012 I0.595 J0.068
G1 X43.231
G3 X43.231 Y-26.813 I0 J0.599
G1 X34.791
X26.352 Y-27.413
G3 X25.798 Y-28.072 I0.042 J-0.598
G1 X25.984 Y-29.871
G3 X26.58 Y-30.408 I0.596 J0.062
G1 X43.005
X43.017
G18 G2 X43.317 Z-1.2 I0 K0.3
G0 Z5
X-11.577 Y-13.632
G1 Z-1.2 F250
G2 X-11.277 Z-1.5 I0.3 K0
G1 X-10.057
X9.649
G17 G3 X9.649 Y-12.434 I0 J0.599
G1 X-0.204
X-10.057 Y-13.033
G3 X-10.617 Y-13.694 I0.036 J-0.598
G1 X-10.424 Y-15.493
G3 X-9.829 Y-16.029 I0.596 J0.064
G1 X9.406
G3 X9.407 Y-14.83 I0 J0.599
G1 X-0.211
X-9.829 Y-15.429
G3 X-10.387 Y-16.091 I0.037 J-0.598
G1 X-10.196 Y-17.889
G3 X-9.6 Y-18.425 I0.596 J0.063
G1 X9.164
G3 X9.164 Y-17.227 I0 J0.599
G1 X-0.218
X-9.6 Y-17.826
G3 X-10.157 Y-18.493 I0.038 J-0.598
G1 X-9.95 Y-20.291
G3 X-9.355 Y-20.822 I0.595 J0.069
G1 X8.938
G3 X8.938 Y-19.624 I0 J0.599
G1 X-0.208
X-9.355 Y-20.223
G3 X-9.911 Y-20.883 I0.039 J-0.598
G1 X-9.722 Y-22.682
G3 X-9.126 Y-23.218 I0.596 J0.063
G1 X8.696
G3 X8.696 Y-22.02 I0 J0.599
G1 X-0.215
X-9.126 Y-22.619
G3 X-9.682 Y-23.28 I0.04 J-0.598
G1 X-9.493 Y-25.078
G3 X-8.897 Y-25.615 I0.596 J0.062
G1 X8.47
G3 X8.47 Y-24.417 I0 J0.599
G1 X-0.214
X-8.897 Y-25.016
G3 X-9.451 Y-25.681 I0.041 J-0.598
G1 X-9.247 Y-27.48
G3 X-8.652 Y-28.012 I0.595 J0.068
G1 X8.227
G3 X8.227 Y-26.813 I0 J0.599
G1 X-0.212
X-8.652 Y-27.413
G3 X-9.205 Y-28.072 I0.042 J-0.598
G1 X-9.019 Y-29.871
G3 X-8.423 Y-30.408 I0.596 J0.062
G1 X8.001
X8.013
G18 G2 X8.313 Z-1.2 I0 K0.3
G0 Z5
X-25.218 Y13.632
G1 Z-1.2 F250
G3 X-25.518 Z-1.5 I-0.3 K0
G1 X-26.696
X-38.313
G17 G3 X-38.632 Y13.313 I0 J-0.319
G1 Y-13.313
G3 X-38.313 Y-13.632 I0.319 J0
G1 X-25.355
G3 X-25.155 Y-13.424 I0 J0.2
G1 X-26.271 Y15.836
G3 X-26.471 Y16.029 I-0.2 J-0.008
G1 X-40.709
G3 X-41.029 Y15.709 I0 J-0.319
G1 Y-15.709
G3 X-40.709 Y-16.029 I0.319 J0
G1 X-25.597
G3 X-25.397 Y-15.825 I0 J0.2
G1 X-26.028 Y18.229
G3 X-26.228 Y18.425 I-0.2 J-0.004
G1 X-43.106
G3 X-43.425 Y18.106 I0 J-0.319
G1 Y-18.106
G3 X-43.106 Y-18.425 I0.319 J0
G1 X-25.823
G3 X-25.623 Y-18.224 I0 J0.2
G1 X-25.802 Y20.623
G3 X-26.002 Y20.822 I-0.2 J-0.001
G1 X-44.43
G3 X-44.628 Y20.645 I0 J-0.2
G1 X-45.822 Y10.388
Y-10.328
X-44.557 Y-20.646
G3 X-44.358 Y-20.822 I0.199 J0.024
G1 X-26.065
G3 X-26.065 Y-19.624 I0 J0.599
G1 X-35.212
X-44.358 Y-20.223
G3 X-44.915 Y-20.883 I0.039 J-0.598
G1 X-44.725 Y-22.682
G3 X-44.13 Y-23.218 I0.596 J0.063
G1 X-26.291
G3 X-26.291 Y-22.02 I0 J0.599
G1 X-35.21
X-44.13 Y-22.619
G3 X-44.685 Y-23.285 I0.04 J-0.598
G1 X-44.479 Y-25.084
G3 X-43.884 Y-25.615 I0.595 J0.068
G1 X-26.534
G3 X-26.534 Y-24.417 I0 J0.599
G1 X-35.209
X-43.884 Y-25.016
G3 X-44.439 Y-25.676 I0.041 J-0.598
G1 X-44.251 Y-27.475
G3 X-43.655 Y-28.012 I0.596 J0.062
G1 X-26.759
G3 X-26.759 Y-26.813 I0 J0.599
G1 X-35.207
X-43.655 Y-27.413
G3 X-44.209 Y-28.072 I0.042 J-0.598
G1 X-44.023 Y-29.871
G3 X-43.427 Y-30.408 I0.596 J0.062
G1 X-27.002
G3 X-26.802 Y-30.207 I0 J0.2
X-27.005 Y-30.008 I-0.2 J-0.001
G1 X-57.608 Y-30.405
G3 X-57.805 Y-30.605 I0.003 J-0.2
G1 Y-32.486
G3 X-57.486 Y-32.805 I0.319 J0
G1 X57.486
G3 X57.805 Y-32.486 I0 J0.319
G1 Y-30.618
Y-30.606
G19 G3 Y-30.306 Z-1.2 J0 K0.3
G0 Z5
X-24.276 Y23.218
G1 Z-1.2 F250
G18 G3 X-24.576 Z-1.5 I-0.3 K0
G1 X-25.76
X-44.658
X-44.71 Y23.212
X-44.758 Y23.192
X-44.8 Y23.16
X-44.832 Y23.118
X-44.852 Y23.07
X-48.212 Y10.447
X-48.218 Y10.395
Y-9.849
G17 G3 X-47.02 Y-9.849 I0.599 J0
G1 Y0.273
X-47.619 Y10.395
G3 X-48.209 Y10.959 I-0.598 J-0.035
G1 X-50.007 Y10.985
G3 X-50.615 Y10.386 I-0.009 J-0.599
G1 Y-9.371
G3 X-49.417 Y-9.371 I0.599 J0
G1 Y0.507
X-50.016 Y10.386
G3 X-50.6 Y10.948 I-0.598 J-0.036
G1 X-52.398 Y10.992
G3 X-53.012 Y10.393 I-0.014 J-0.599
G1 Y-9.011
G3 X-51.813 Y-9.011 I0.599 J0
G1 Y0.691
X-52.413 Y10.393
G3 X-53.002 Y10.955 I-0.598 J-0.037
G1 X-54.8 Y10.982
G3 X-55.408 Y10.383 I-0.009 J-0.599
G1 Y-9.492
G3 X-54.21 Y-9.492 I0.599 J0
G1 Y0.445
X-54.809 Y10.383
G3 X-55.393 Y10.946 I-0.598 J-0.036
G1 X-57.192 Y10.989
G3 X-57.805 Y10.39 I-0.014 J-0.599
G1 Y-9.973
G3 X-56.607 Y-9.973 I0.599 J0
G1 Y0.208
X-57.206 Y10.39
G3 X-57.796 Y10.954 I-0.598 J-0.035
G1 X-59.594 Y10.979
G3 X-60.202 Y10.38 I-0.008 J-0.599
G1 Y-12.12
Y-30.615
Y-34.882
G3 X-59.882 Y-35.202 I0.319 J0
G1 X59.882
G3 X60.202 Y-34.882 I0 J0.319
G1 Y-30.608
Y-30.596
G19 G3 Y-30.296 Z-1.2 J0 K0.3
G0 Z5
X-24.044 Y25.615
G1 Z-1.2 F250
G18 G3 X-24.344 Z-1.5 I-0.3 K0
G1 X-25.534
X-44.887
G17 G3 X-44.887 Y24.417 I0 J-0.599
G1 X-35.211
X-25.534 Y25.016
G3 X-24.979 Y25.522 I-0.037 J0.598
G1 X-24.699 Y27.321
G3 X-25.291 Y28.012 I-0.592 J0.092
G1 X-45.132
G3 X-45.133 Y26.813 I0 J-0.599
G1 X-35.212
X-25.291 Y27.413
G3 X-24.735 Y27.924 I-0.036 J0.598
G1 X-24.473 Y29.723
G3 X-25.066 Y30.408 I-0.593 J0.086
G1 X-45.361
X-45.373
G18 G3 X-45.673 Z-1.2 I0 K0.3
G0 Z5
X57.805 Y29.416
G1 Z-1.2 F250
G19 G3 Y29.716 Z-1.5 J0.3 K0
G1 Y30.941
Y32.486
G17 G3 X57.486 Y32.805 I-0.319 J0
G1 X-57.486
G3 X-57.805 Y32.486 I0 J-0.319
G1 Y31.022
Y31.01
G19 G2 Y30.71 Z-1.2 J0 K0.3
G0 Z5
X60.202 Y24.243
G1 Z0.5 F250
Z-1.2
G3 Y24.543 Z-1.5 J0.3 K0
G1 Y24.573
Y34.882
G17 G3 X59.882 Y35.202 I-0.319 J0
G1 X-59.882
G3 X-60.202 Y34.882 I0 J-0.319
G1 Y28.891
G2 X-61.4 Y27.094 I-1.947 J0
G3 X-62.598 Y25.296 I0.749 J-1.797
G1 Y-37.279
G3 X-62.279 Y-37.598 I0.319 J0
G1 X62.279
G3 X62.598 Y-37.279 I0 J0.319
G1 Y37.279
G3 X62.279 Y37.598 I-0.319 J0
G1 X-62.279
G3 X-62.598 Y37.279 I0 J-0.319
G1 Y25.296
G2 X-63.797 Y23.499 I-1.947 J0
G3 X-64.995 Y21.701 I0.749 J-1.797
G1 Y-39.676
G3 X-64.676 Y-39.995 I0.319 J0
G1 X64.676
G3 X64.995 Y-39.676 I0 J0.319
G1 Y39.676
G3 X64.676 Y39.995 I-0.319 J0
G1 X-64.676
G3 X-64.995 Y39.676 I0 J-0.319
G1 Y21.701
G2 X-66.348 Y19.673 I-2.198 J0
G3 X-67.7 Y17.644 I0.845 J-2.029
G1 Y-40
G3 X-65 Y-42.7 I2.7 J0
G1 X65
G3 X67.7 Y-40 I0 J2.7
G1 Y40
G3 X65 Y42.7 I-2.7 J0
G1 X-65
G3 X-67.7 Y40 I0 J-2.7
G1 Y17.644
G2 X-69.1 Y15.544 I-2.275 J0
G3 X-70.5 Y13.444 I0.875 J-2.1
G1 Y-40
G3 X-65 Y-45.5 I5.5 J0
G1 X65
G3 X70.5 Y-40 I0 J5.5
G1 Y40
G3 X65 Y45.5 I-5.5 J0
G1 X-65
G3 X-70.5 Y40 I0 J-5.5
G1 Y13.444
X-70.495 Y13.387 Z-1.489
X-70.478 Y13.332 Z-1.477
X-70.457 Y13.288 Z-1.445
X-70.428 Y13.249 Z-1.412
X-70.381 Y13.205 Z-1.315
X-70.362 Y13.191 Z-1.2
G0 Z5
X24.389 Y-11.235
G1 Z0 F250
Z-1.7
G18 G2 X24.689 Z-2 I0.3 K0
G1 X24.701
G17 G3 X27.575 Y-2.333 I0 J4.915
X18.673 Y0.541 I-8.902 J-12.351
G1 X-25.221
G3 X-25.541 Y0.221 I0 J-0.319
G1 Y-0.221
G3 X-25.221 Y-0.541 I0.319 J0
G1 X25.221
G3 X25.541 Y-0.221 I0 J0.319
G1 Y0.221
G3 X25.221 Y0.541 I-0.319 J0
G1 X18.673
G2 X17.842 Y1.095 I0 J0.9
G3 X17.011 Y1.649 I-0.831 J-0.346
G1 X-26.329
G3 X-26.649 Y1.329 I0 J-0.319
G1 Y-1.329
G3 X-26.329 Y-1.649 I0.319 J0
G1 X26.329
G3 X26.649 Y-1.329 I0 J0.319
G1 Y1.329
G3 X26.329 Y1.649 I-0.319 J0
G1 X17.011
G2 X15.213 Y2.847 I0 J1.947
G3 X13.416 Y4.045 I-1.797 J-0.749
G1 X-28.726
G3 X-29.045 Y3.726 I0 J-0.319
G1 Y-3.726
G3 X-28.726 Y-4.045 I0.319 J0
G1 X28.726
G3 X29.045 Y-3.726 I0 J0.319
G1 Y3.726
G3 X28.726 Y4.045 I-0.319 J0
G1 X13.416
G2 X11.618 Y5.244 I0 J1.947
G3 X9.821 Y6.442 I-1.797 J-0.749
G1 X-31.123
G3 X-31.442 Y6.123 I0 J-0.319
G1 Y-6.123
G3 X-31.123 Y-6.442 I0.319 J0
G1 X31.123
G3 X31.442 Y-6.123 I0 J0.319
G1 Y6.123
G3 X31.123 Y6.442 I-0.319 J0
G1 X9.821
G2 X8.023 Y7.64 I0 J1.947
G3 X6.226 Y8.839 I-1.797 J-0.749
G1 X-33.519
G3 X-33.839 Y8.519 I0 J-0.319
G1 Y-8.519
G3 X-33.519 Y-8.839 I0.319 J0
G1 X33.519
G3 X33.839 Y-8.519 I0 J0.319
G1 Y8.519
G3 X33.519 Y8.839 I-0.319 J0
G1 X6.226
G2 X6.1 Y9.194 I0 J0.2
G1 X8.19 Y10.88
G3 X8.065 Y11.235 I-0.126 J0.156
G1 X-8.478
G3 X-8.478 Y10.037 I0 J-0.599
G1 X-0.207
X8.065 Y10.636
G3 X8.614 Y11.145 I-0.043 J0.598
G1 X8.883 Y12.944
G3 X8.29 Y13.632 I-0.593 J0.089
G1 X-8.723
G3 X-8.724 Y12.434 I0 J-0.599
G1 X-0.217
X8.29 Y13.033
G3 X8.84 Y13.537 I-0.042 J0.598
G1 X9.125 Y15.336
G3 X8.533 Y16.029 I-0.592 J0.094
G1 X-8.952
G3 X-8.952 Y14.83 I0 J-0.599
G1 X-0.21
X8.533 Y15.429
G3 X9.085 Y15.939 I-0.041 J0.598
G1 X9.351 Y17.738
G3 X8.759 Y18.425 I-0.593 J0.088
G1 X-9.181
G3 X-9.181 Y17.227 I0 J-0.599
G1 X-0.211
X8.759 Y17.826
G3 X9.311 Y18.331 I-0.04 J0.598
G1 X9.593 Y20.13
G3 X9.001 Y20.822 I-0.592 J0.093
G1 X-9.426
G3 X-9.426 Y19.624 I0 J-0.599
G1 X-0.213
X9.001 Y20.223
G3 X9.554 Y20.728 I-0.039 J0.598
G1 X9.836 Y22.527
G3 X9.244 Y23.218 I-0.592 J0.093
G1 X-9.655
G3 X-9.655 Y22.02 I0 J-0.599
G1 X-0.206
X9.244 Y22.619
G3 X9.799 Y23.13 I-0.038 J0.598
G1 X10.062 Y24.929
G3 X9.47 Y25.615 I-0.593 J0.087
G1 X-9.9
G3 X-9.9 Y24.417 I0 J-0.599
G1 X-0.215
X9.47 Y25.016
G3 X10.025 Y25.522 I-0.037 J0.598
G1 X10.304 Y27.321
G3 X9.712 Y28.012 I-0.592 J0.092
G1 X-10.129
G3 X-10.129 Y26.813 I0 J-0.599
G1 X-0.208
X9.712 Y27.413
G3 X10.269 Y27.924 I-0.036 J0.598
G1 X10.531 Y29.723
G3 X9.938 Y30.408 I-0.593 J0.086
G1 X-10.358
X-10.4 Y30.404
X-10.441 Y30.39
X-10.478 Y30.368
X-10.51 Y30.338
X-26.787 Y11.305
X-26.818 Y11.276
X-26.855 Y11.254
X-26.896 Y11.24
X-26.939 Y11.235
X-35.916
G3 X-36.235 Y10.916 I0 J-0.319
G1 Y-10.916
G3 X-35.916 Y-11.235 I0.319 J0
G1 X-25.129
X-10.303
X9.875
X24.701
X35.916
G3 X36.235 Y-10.916 I0 J0.319
G1 Y10.916
G3 X35.916 Y11.235 I-0.319 J0
G1 X26.509
G3 X26.058 Y10.242 I0 J-0.599
G1 X35.077 Y-0.073
G2 X35.037 Y-0.904 I-0.451 J-0.394
G1 X24.701 Y-10.636
G3 X24.515 Y-11.017 I0.411 J-0.436
G1 X24.333 Y-12.977
G3 X24.929 Y-13.632 I0.597 J-0.055
G1 X38.313
G3 X38.632 Y-13.313 I0 J0.319
G1 Y13.313
G3 X38.313 Y13.632 I-0.319 J0
G1 X26.28
G3 X25.842 Y12.624 I0 J-0.599
G1 X37.451 Y0.159
G2 X37.434 Y-0.675 I-0.438 J-0.408
G1 X24.929 Y-13.033
G3 X24.754 Y-13.406 I0.421 J-0.426
G1 X24.578 Y-15.376
G3 X25.175 Y-16.029 I0.597 J-0.053
G1 X40.709
G3 X41.029 Y-15.709 I0 J0.319
G1 Y15.709
G3 X40.709 Y16.029 I-0.319 J0
G1 X26.051
G3 X25.622 Y15.012 I0 J-0.599
G1 X39.831 Y0.398
G2 X39.83 Y-0.438 I-0.43 J-0.418
G1 X25.175 Y-15.429
G3 X25.007 Y-15.788 I0.428 J-0.419
G1 X24.807 Y-17.766
G3 X25.404 Y-18.425 I0.596 J-0.06
G1 X43.106
G3 X43.425 Y-18.106 I0 J0.319
G1 Y10.385
Y14.878
Y18.106
G3 X43.106 Y18.425 I-0.319 J0
G1 X25.806
G3 X25.207 Y17.825 I0 J-0.599
X25.808 Y17.227 I0.599 J0.001
G1 X36.115 Y17.262
X36.185 Y17.259
X36.254 Y17.247
X36.321 Y17.227
X42.826 Y14.878
G2 X43.221 Y14.349 I-0.203 J-0.564
G1 X44.625 Y-10.288
G3 X45.822 Y-10.254 I0.598 J0.034
G1 Y10.395
X44.202 Y20.653
G3 X44.005 Y20.822 I-0.198 J-0.031
G1 X25.577
G3 X25.577 Y19.624 I0 J-0.599
G1 X34.791
X44.005 Y20.223
G3 X44.559 Y20.733 I-0.039 J0.598
G1 X44.823 Y22.532
G3 X44.23 Y23.218 I-0.593 J0.087
G1 X25.349
G3 X25.349 Y22.02 I0 J-0.599
G1 X34.79
X44.23 Y22.619
G3 X44.785 Y23.125 I-0.038 J0.598
G1 X45.065 Y24.924
G3 X44.473 Y25.615 I-0.592 J0.092
G1 X25.103
G3 X25.103 Y24.417 I0 J-0.599
G1 X34.788
X44.473 Y25.016
G3 X45.029 Y25.527 I-0.037 J0.598
G1 X45.292 Y27.326
G3 X44.699 Y28.012 I-0.593 J0.087
G1 X24.875
G3 X24.875 Y26.813 I0 J-0.599
G1 X34.787
X44.699 Y27.413
G3 X45.255 Y27.919 I-0.036 J0.598
G1 X45.533 Y29.718
G3 X44.941 Y30.408 I-0.592 J0.092
G1 X24.629
G3 X24.457 Y30.107 I0 J-0.2
G1 X47.846 Y-9.874
G3 X48.218 Y-9.773 I0.173 J0.101
G1 Y10.388
G3 X47.02 Y10.388 I-0.599 J0
G1 Y0.308
X47.619 Y-9.773
G3 X48.361 Y-10.319 I0.598 J0.036
G1 X50.16 Y-9.873
G3 X50.615 Y-9.292 I-0.144 J0.582
G1 Y10.381
G3 X49.417 Y10.381 I-0.599 J0
G1 Y0.545
X50.016 Y-9.292
G3 X50.667 Y-9.852 I0.598 J0.036
G1 X52.465 Y-9.694
G3 X53.012 Y-9.097 I-0.053 J0.597
G1 Y10.391
G3 X51.813 Y10.391 I-0.599 J0
G1 Y0.647
X52.413 Y-9.097
G3 X52.846 Y-9.636 I0.598 J0.037
G1 X54.644 Y-10.151
G3 X55.408 Y-9.575 I0.165 J0.576
G1 Y10.384
G3 X54.21 Y10.384 I-0.599 J0
G1 Y0.404
X54.809 Y-9.575
G3 X55.243 Y-10.115 I0.598 J0.036
G1 X57.041 Y-10.629
G3 X57.805 Y-10.053 I0.165 J0.576
G1 Y10.394
G3 X56.607 Y10.394 I-0.599 J0
G1 Y0.17
X57.206 Y-10.053
X57.213 Y-10.117
X57.227 Y-10.18
X59.026 Y-16.6
G3 X60.202 Y-16.438 I0.577 J0.162
G1 Y10.387
G3 X59.868 Y10.535 I-0.2 J0
G1 X25.498 Y-20.473
G3 X25.632 Y-20.822 I0.134 J-0.148
G1 X43.942
G3 X43.942 Y-19.624 I0 J0.599
G1 X34.787
X25.632 Y-20.223
G3 X25.076 Y-20.889 I0.039 J-0.598
G1 X25.282 Y-22.688
G3 X25.878 Y-23.218 I0.595 J0.068
G1 X43.699
G3 X43.699 Y-22.02 I0 J0.599
G1 X34.788
X25.878 Y-22.619
G3 X25.322 Y-23.28 I0.04 J-0.598
G1 X25.51 Y-25.078
G3 X26.106 Y-25.615 I0.596 J0.062
G1 X43.473
G3 X43.473 Y-24.417 I0 J0.599
G1 X34.79
X26.106 Y-25.016
G3 X25.552 Y-25.681 I0.041 J-0.598
G1 X25.756 Y-27.48
G3 X26.352 Y-28.012 I0.595 J0.068
G1 X43.231
G3 X43.231 Y-26.813 I0 J0.599
G1 X34.791
X26.352 Y-27.413
G3 X25.798 Y-28.072 I0.042 J-0.598
G1 X25.984 Y-29.871
G3 X26.58 Y-30.408 I0.596 J0.062
G1 X43.005
X43.017
G18 G2 X43.317 Z-1.7 I0 K0.3
G0 Z5
X-11.577 Y-13.632
G1 Z-1.7 F250
G2 X-11.277 Z-2 I0.3 K0
G1 X-10.057
X9.649
G17 G3 X9.649 Y-12.434 I0 J0.599
G1 X-0.204
X-10.057 Y-13.033
G3 X-10.617 Y-13.694 I0.036 J-0.598
G1 X-10.424 Y-15.493
G3 X-9.829 Y-16.029 I0.596 J0.064
G1 X9.406
G3 X9.407 Y-14.83 I0 J0.599
G1 X-0.211
X-9.829 Y-15.429
G3 X-10.387 Y-16.091 I0.037 J-0.598
G1 X-10.196 Y-17.889
G3 X-9.6 Y-18.425 I0.596 J0.063
G1 X9.164
G3 X9.164 Y-17.227 I0 J0.599
G1 X-0.218
X-9.6 Y-17.826
G3 X-10.157 Y-18.493 I0.038 J-0.598
G1 X-9.95 Y-20.291
G3 X-9.355 Y-20.822 I0.595 J0.069
G1 X8.938
G3 X8.938 Y-19.624 I0 J0.599
G1 X-0.208
X-9.355 Y-20.223
G3 X-9.911 Y-20.883 I0.039 J-0.598
G1 X-9.722 Y-22.682
G3 X-9.126 Y-23.218 I0.596 J0.063
G1 X8.696
G3 X8.696 Y-22.02 I0 J0.599
G1 X-0.215
X-9.126 Y-22.619
G3 X-9.682 Y-23.28 I0.04 J-0.598
G1 X-9.493 Y-25.078
G3 X-8.897 Y-25.615 I0.596 J0.062
G1 X8.47
G3 X8.47 Y-24.417 I0 J0.599
G1 X-0.214
X-8.897 Y-25.016
G3 X-9.451 Y-25.681 I0.041 J-0.598
G1 X-9.247 Y-27.48
G3 X-8.652 Y-28.012 I0.595 J0.068
G1 X8.227
G3 X8.227 Y-26.813 I0 J0.599
G1 X-0.212
X-8.652 Y-27.413
G3 X-9.205 Y-28.072 I0.042 J-0.598
G1 X-9.019 Y-29.871
G3 X-8.423 Y-30.408 I0.596 J0.062
G1 X8.001
X8.013
G18 G2 X8.313 Z-1.7 I0 K0.3
G0 Z5
X-25.218 Y13.632
G1 Z-1.7 F250
G3 X-25.518 Z-2 I-0.3 K0
G1 X-26.696
X-38.313
G17 G3 X-38.632 Y13.313 I0 J-0.319
G1 Y-13.313
G3 X-38.313 Y-13.632 I0.319 J0
G1 X-25.355
G3 X-25.155 Y-13.424 I0 J0.2
G1 X-26.271 Y15.836
G3 X-26.471 Y16.029 I-0.2 J-0.008
G1 X-40.709
G3 X-41.029 Y15.709 I0 J-0.319
G1 Y-15.709
G3 X-40.709 Y-16.029 I0.319 J0
G1 X-25.597
G3 X-25.397 Y-15.825 I0 J0.2
G1 X-26.028 Y18.229
G3 X-26.228 Y18.425 I-0.2 J-0.004
G1 X-43.106
G3 X-43.425 Y18.106 I0 J-0.319
G1 Y-18.106
G3 X-43.106 Y-18.425 I0.319 J0
G1 X-25.823
G3 X-25.623 Y-18.224 I0 J0.2
G1 X-25.802 Y20.623
G3 X-26.002 Y20.822 I-0.2 J-0.001
G1 X-44.43
G3 X-44.628 Y20.645 I0 J-0.2
G1 X-45.822 Y10.388
Y-10.328
X-44.557 Y-20.646
G3 X-44.358 Y-20.822 I0.199 J0.024
G1 X-26.065
G3 X-26.065 Y-19.624 I0 J0.599
G1 X-35.212
X-44.358 Y-20.223
G3 X-44.915 Y-20.883 I0.039 J-0.598
G1 X-44.725 Y-22.682
G3 X-44.13 Y-23.218 I0.596 J0.063
G1 X-26.291
G3 X-26.291 Y-22.02 I0 J0.599
G1 X-35.21
X-44.13 Y-22.619
G3 X-44.685 Y-23.285 I0.04 J-0.598
G1 X-44.479 Y-25.084
G3 X-43.884 Y-25.615 I0.595 J0.068
G1 X-26.534
G3 X-26.534 Y-24.417 I0 J0.599
G1 X-35.209
X-43.884 Y-25.016
G3 X-44.439 Y-25.676 I0.041 J-0.598
G1 X-44.251 Y-27.475
G3 X-43.655 Y-28.012 I0.596 J0.062
G1 X-26.759
G3 X-26.759 Y-26.813 I0 J0.599
G1 X-35.207
X-43.655 Y-27.413
G3 X-44.209 Y-28.072 I0.042 J-0.598
G1 X-44.023 Y-29.871
G3 X-43.427 Y-30.408 I0.596 J0.062
G1 X-27.002
G3 X-26.802 Y-30.207 I0 J0.2
X-27.005 Y-30.008 I-0.2 J-0.001
G1 X-57.608 Y-30.405
G3 X-57.805 Y-30.605 I0.003 J-0.2
G1 Y-32.486
G3 X-57.486 Y-32.805 I0.319 J0
G1 X57.486
G3 X57.805 Y-32.486 I0 J0.319
G1 Y-30.618
Y-30.606
G19 G3 Y-30.306 Z-1.7 J0 K0.3
G0 Z5
X-24.276 Y23.218
G1 Z-1.7 F250
G18 G3 X-24.576 Z-2 I-0.3 K0
G1 X-25.76
X-44.658
X-44.71 Y23.212
X-44.758 Y23.192
X-44.8 Y23.16
X-44.832 Y23.118
X-44.852 Y23.07
X-48.212 Y10.447
X-48.218 Y10.395
Y-9.849
G17 G3 X-47.02 Y-9.849 I0.599 J0
G1 Y0.273
X-47.619 Y10.395
G3 X-48.209 Y10.959 I-0.598 J-0.035
G1 X-50.007 Y10.985
G3 X-50.615 Y10.386 I-0.009 J-0.599
G1 Y-9.371
G3 X-49.417 Y-9.371 I0.599 J0
G1 Y0.507
X-50.016 Y10.386
G3 X-50.6 Y10.948 I-0.598 J-0.036
G1 X-52.398 Y10.992
G3 X-53.012 Y10.393 I-0.014 J-0.599
G1 Y-9.011
G3 X-51.813 Y-9.011 I0.599 J0
G1 Y0.691
X-52.413 Y10.393
G3 X-53.002 Y10.955 I-0.598 J-0.037
G1 X-54.8 Y10.982
G3 X-55.408 Y10.383 I-0.009 J-0.599
G1 Y-9.492
G3 X-54.21 Y-9.492 I0.599 J0
G1 Y0.445
X-54.809 Y10.383
G3 X-55.393 Y10.946 I-0.598 J-0.036
G1 X-57.192 Y10.989
G3 X-57.805 Y10.39 I-0.014 J-0.599
G1 Y-9.973
G3 X-56.607 Y-9.973 I0.599 J0
G1 Y0.208
X-57.206 Y10.39
G3 X-57.796 Y10.954 I-0.598 J-0.035
G1 X-59.594 Y10.979
G3 X-60.202 Y10.38 I-0.008 J-0.599
G1 Y-12.12
Y-30.615
Y-34.882
G3 X-59.882 Y-35.202 I0.319 J0
G1 X59.882
G3 X60.202 Y-34.882 I0 J0.319
G1 Y-30.608
Y-30.596
G19 G3 Y-30.296 Z-1.7 J0 K0.3
G0 Z5
X-24.044 Y25.615
G1 Z-1.7 F250
G18 G3 X-24.344 Z-2 I-0.3 K0
G1 X-25.534
X-44.887
G17 G3 X-44.887 Y24.417 I0 J-0.599
G1 X-35.211
X-25.534 Y25.016
G3 X-24.979 Y25.522 I-0.037 J0.598
G1 X-24.699 Y27.321
G3 X-25.291 Y28.012 I-0.592 J0.092
G1 X-45.132
G3 X-45.133 Y26.813 I0 J-0.599
G1 X-35.212
X-25.291 Y27.413
G3 X-24.735 Y27.924 I-0.036 J0.598
G1 X-24.473 Y29.723
G3 X-25.066 Y30.408 I-0.593 J0.086
G1 X-45.361
X-45.373
G18 G3 X-45.673 Z-1.7 I0 K0.3
G0 Z5
X57.805 Y29.416
G1 Z-1.7 F250
G19 G3 Y29.716 Z-2 J0.3 K0
G1 Y30.941
Y32.486
G17 G3 X57.486 Y32.805 I-0.319 J0
G1 X-57.486
G3 X-57.805 Y32.486 I0 J-0.319
G1 Y31.022
Y31.01
G19 G2 Y30.71 Z-1.7 J0 K0.3
G0 Z5
X60.202 Y24.243
G1 Z0 F250
Z-1.7
G3 Y24.543 Z-2 J0.3 K0
G1 Y24.573
Y34.882
G17 G3 X59.882 Y35.202 I-0.319 J0
G1 X-59.882
G3 X-60.202 Y34.882 I0 J-0.319
G1 Y28.891
G2 X-61.4 Y27.094 I-1.947 J0
G3 X-62.598 Y25.296 I0.749 J-1.797
G1 Y-37.279
G3 X-62.279 Y-37.598 I0.319 J0
G1 X62.279
G3 X62.598 Y-37.279 I0 J0.319
G1 Y37.279
G3 X62.279 Y37.598 I-0.319 J0
G1 X-62.279
G3 X-62.598 Y37.279 I0 J-0.319
G1 Y25.296
G2 X-63.797 Y23.499 I-1.947 J0
G3 X-64.995 Y21.701 I0.749 J-1.797
G1 Y-39.676
G3 X-64.676 Y-39.995 I0.319 J0
G1 X64.676
G3 X64.995 Y-39.676 I0 J0.319
G1 Y39.676
G3 X64.676 Y39.995 I-0.319 J0
G1 X-64.676
G3 X-64.995 Y39.676 I0 J-0.319
G1 Y21.701
G2 X-66.348 Y19.673 I-2.198 J0
G3 X-67.7 Y17.644 I0.845 J-2.029
G1 Y-40
G3 X-65 Y-42.7 I2.7 J0
G1 X65
G3 X67.7 Y-40 I0 J2.7
G1 Y40
G3 X65 Y42.7 I-2.7 J0
G1 X-65
G3 X-67.7 Y40 I0 J-2.7
G1 Y17.644
G2 X-69.1 Y15.544 I-2.275 J0
G3 X-70.5 Y13.444 I0.875 J-2.1
G1 Y-40
G3 X-65 Y-45.5 I5.5 J0
G1 X65
G3 X70.5 Y-40 I0 J5.5
G1 Y40
G3 X65 Y45.5 I-5.5 J0
G1 X-65
G3 X-70.5 Y40 I0 J-5.5
G1 Y13.444
X-70.495 Y13.387 Z-1.989
X-70.478 Y13.332 Z-1.977
X-70.457 Y13.288 Z-1.945
X-70.428 Y13.249 Z-1.912
X-70.381 Y13.205 Z-1.815
X-70.362 Y13.191 Z-1.7
G0 Z15

(2D Contour3)
X-10.283 Y19.257
Z15
Z5
G1 Z1.5 F200
Z-0.2
X-10.276 Y19.258 Z-0.267 F250
X-10.254 Y19.26 Z-0.33
X-10.218 Y19.264 Z-0.387
X-10.171 Y19.269 Z-0.435
X-10.114 Y19.274 Z-0.47
X-10.051 Y19.28 Z-0.492
X-9.985 Y19.287 Z-0.5
X-9.686 Y19.316
G3 X-9.417 Y19.644 I-0.029 J0.299
G1 X-10.48 Y30.491
X-17.712 Y31.937
X-24.943 Y30.491
X-26.903 Y10.496
X-8.52
X-9.417 Y19.644
G3 X-9.745 Y19.913 I-0.299 J-0.029
G1 X-10.043 Y19.884
X-10.11 Y19.877 Z-0.492
X-10.173 Y19.871 Z-0.47
X-10.229 Y19.866 Z-0.435
X-10.277 Y19.861 Z-0.387
X-10.312 Y19.858 Z-0.33
X-10.334 Y19.855 Z-0.267
X-10.342 Z-0.2
G0 Z5
X-10.283 Y19.257
G1 Z1 F200
Z-0.7
X-10.276 Y19.258 Z-0.767 F250
X-10.254 Y19.26 Z-0.83
X-10.218 Y19.264 Z-0.887
X-10.171 Y19.269 Z-0.935
X-10.114 Y19.274 Z-0.97
X-10.051 Y19.28 Z-0.992
X-9.985 Y19.287 Z-1
X-9.686 Y19.316
G3 X-9.417 Y19.644 I-0.029 J0.299
G1 X-10.48 Y30.491
X-17.712 Y31.937
X-24.943 Y30.491
X-26.903 Y10.496
X-8.52
X-9.417 Y19.644
G3 X-9.745 Y19.913 I-0.299 J-0.029
G1 X-10.043 Y19.884
X-10.11 Y19.877 Z-0.992
X-10.173 Y19.871 Z-0.97
X-10.229 Y19.866 Z-0.935
X-10.277 Y19.861 Z-0.887
X-10.312 Y19.858 Z-0.83
X-10.334 Y19.855 Z-0.767
X-10.342 Z-0.7
G0 Z5
X-10.283 Y19.257
G1 Z0.5 F200
Z-1.2
X-10.276 Y19.258 Z-1.267 F250
X-10.254 Y19.26 Z-1.33
X-10.218 Y19.264 Z-1.387
X-10.171 Y19.269 Z-1.435
X-10.114 Y19.274 Z-1.47
X-10.051 Y19.28 Z-1.492
X-9.985 Y19.287 Z-1.5
X-9.686 Y19.316
G3 X-9.417 Y19.644 I-0.029 J0.299
G1 X-10.48 Y30.491
X-17.712 Y31.937
X-24.943 Y30.491
X-26.903 Y10.496
X-8.52
X-9.417 Y19.644
G3 X-9.745 Y19.913 I-0.299 J-0.029
G1 X-10.043 Y19.884
X-10.11 Y19.877 Z-1.492
X-10.173 Y19.871 Z-1.47
X-10.229 Y19.866 Z-1.435
X-10.277 Y19.861 Z-1.387
X-10.312 Y19.858 Z-1.33
X-10.334 Y19.855 Z-1.267
X-10.342 Z-1.2
G0 Z5
X-10.283 Y19.257
G1 Z0 F200
Z-1.7
X-10.276 Y19.258 Z-1.767 F250
X-10.254 Y19.26 Z-1.83
X-10.218 Y19.264 Z-1.887
X-10.171 Y19.269 Z-1.935
X-10.114 Y19.274 Z-1.97
X-10.051 Y19.28 Z-1.992
X-9.985 Y19.287 Z-2
X-9.686 Y19.316
G3 X-9.417 Y19.644 I-0.029 J0.299
G1 X-10.48 Y30.491
X-17.712 Y31.937
X-24.943 Y30.491
X-26.903 Y10.496
X-8.52
X-9.417 Y19.644
G3 X-9.745 Y19.913 I-0.299 J-0.029
G1 X-10.043 Y19.884
X-10.11 Y19.877 Z-1.992
X-10.173 Y19.871 Z-1.97
X-10.229 Y19.866 Z-1.935
X-10.277 Y19.861 Z-1.887
X-10.312 Y19.858 Z-1.83
X-10.334 Y19.855 Z-1.767
X-10.342 Z-1.7
G0 Z5
X-10.283 Y19.257
G1 Z-0.5 F200
Z-2.2
X-10.276 Y19.258 Z-2.267 F250
X-10.254 Y19.26 Z-2.33
X-10.218 Y19.264 Z-2.387
X-10.171 Y19.269 Z-2.435
X-10.114 Y19.274 Z-2.47
X-10.051 Y19.28 Z-2.492
X-9.985 Y19.287 Z-2.5
X-9.686 Y19.316
G3 X-9.417 Y19.644 I-0.029 J0.299
G1 X-10.48 Y30.491
X-17.712 Y31.937
X-24.943 Y30.491
X-26.903 Y10.496
X-8.52
X-9.417 Y19.644
G3 X-9.745 Y19.913 I-0.299 J-0.029
G1 X-10.043 Y19.884
X-10.11 Y19.877 Z-2.492
X-10.173 Y19.871 Z-2.47
X-10.229 Y19.866 Z-2.435
X-10.277 Y19.861 Z-2.387
X-10.312 Y19.858 Z-2.33
X-10.334 Y19.855 Z-2.267
X-10.342 Z-2.2
G0 Z5
X-10.283 Y19.257
G1 Z-1 F200
Z-2.7
X-10.276 Y19.258 Z-2.767 F250
X-10.254 Y19.26 Z-2.83
X-10.218 Y19.264 Z-2.887
X-10.171 Y19.269 Z-2.935
X-10.114 Y19.274 Z-2.97
X-10.051 Y19.28 Z-2.992
X-9.985 Y19.287 Z-3
X-9.686 Y19.316
G3 X-9.417 Y19.644 I-0.029 J0.299
G1 X-10.48 Y30.491
X-17.712 Y31.937
X-24.943 Y30.491
X-26.903 Y10.496
X-8.52
X-9.417 Y19.644
G3 X-9.745 Y19.913 I-0.299 J-0.029
G1 X-10.043 Y19.884
X-10.11 Y19.877 Z-2.992
X-10.173 Y19.871 Z-2.97
X-10.229 Y19.866 Z-2.935
X-10.277 Y19.861 Z-2.887
X-10.312 Y19.858 Z-2.83
X-10.334 Y19.855 Z-2.767
X-10.342 Z-2.7
G0 Z5
X-10.283 Y19.257
G1 Z-1.5 F200
Z-3.2
X-10.276 Y19.258 Z-3.267 F250
X-10.254 Y19.26 Z-3.33
X-10.218 Y19.264 Z-3.387
X-10.171 Y19.269 Z-3.435
X-10.114 Y19.274 Z-3.47
X-10.051 Y19.28 Z-3.492
X-9.985 Y19.287 Z-3.5
X-9.686 Y19.316
G3 X-9.417 Y19.644 I-0.029 J0.299
G1 X-10.48 Y30.491
X-17.712 Y31.937
X-24.943 Y30.491
X-26.903 Y10.496
X-8.52
X-9.417 Y19.644
G3 X-9.745 Y19.913 I-0.299 J-0.029
G1 X-10.043 Y19.884
X-10.11 Y19.877 Z-3.492
X-10.173 Y19.871 Z-3.47
X-10.229 Y19.866 Z-3.435
X-10.277 Y19.861 Z-3.387
X-10.312 Y19.858 Z-3.33
X-10.334 Y19.855 Z-3.267
X-10.342 Z-3.2
G0 Z5
X-10.283 Y19.257
G1 Z-2 F200
Z-3.7
X-10.276 Y19.258 Z-3.767 F250
X-10.254 Y19.26 Z-3.83
X-10.218 Y19.264 Z-3.887
X-10.171 Y19.269 Z-3.935
X-10.114 Y19.274 Z-3.97
X-10.051 Y19.28 Z-3.992
X-9.985 Y19.287 Z-4
X-9.686 Y19.316
G3 X-9.417 Y19.644 I-0.029 J0.299
G1 X-10.48 Y30.491
X-17.712 Y31.937
X-24.943 Y30.491
X-26.903 Y10.496
X-8.52
X-9.417 Y19.644
G3 X-9.745 Y19.913 I-0.299 J-0.029
G1 X-10.043 Y19.884
X-10.11 Y19.877 Z-3.992
X-10.173 Y19.871 Z-3.97
X-10.229 Y19.866 Z-3.935
X-10.277 Y19.861 Z-3.887
X-10.312 Y19.858 Z-3.83
X-10.334 Y19.855 Z-3.767
X-10.342 Z-3.7
G0 Z5
X24.717 Y19.257
G1 Z1.5 F200
Z-0.2
X24.724 Y19.258 Z-0.267 F250
X24.746 Y19.26 Z-0.33
X24.782 Y19.264 Z-0.387
X24.829 Y19.268 Z-0.435
X24.886 Y19.274 Z-0.47
X24.949 Y19.28 Z-0.492
X25.015 Y19.287 Z-0.5
X25.314 Y19.316
G3 X25.583 Y19.644 I-0.029 J0.299
G1 X24.52 Y30.491
X17.288 Y31.937
X10.057 Y30.491
X8.097 Y10.496
X26.48
X25.583 Y19.644
G3 X25.255 Y19.913 I-0.299 J-0.029
G1 X24.957 Y19.884
X24.89 Y19.877 Z-0.492
X24.827 Y19.871 Z-0.47
X24.771 Y19.866 Z-0.435
X24.723 Y19.861 Z-0.387
X24.688 Y19.857 Z-0.33
X24.666 Y19.855 Z-0.267
X24.658 Z-0.2
G0 Z5
X24.717 Y19.257
G1 Z1 F200
Z-0.7
X24.724 Y19.258 Z-0.767 F250
X24.746 Y19.26 Z-0.83
X24.782 Y19.264 Z-0.887
X24.829 Y19.268 Z-0.935
X24.886 Y19.274 Z-0.97
X24.949 Y19.28 Z-0.992
X25.015 Y19.287 Z-1
X25.314 Y19.316
G3 X25.583 Y19.644 I-0.029 J0.299
G1 X24.52 Y30.491
X17.288 Y31.937
X10.057 Y30.491
X8.097 Y10.496
X26.48
X25.583 Y19.644
G3 X25.255 Y19.913 I-0.299 J-0.029
G1 X24.957 Y19.884
X24.89 Y19.877 Z-0.992
X24.827 Y19.871 Z-0.97
X24.771 Y19.866 Z-0.935
X24.723 Y19.861 Z-0.887
X24.688 Y19.857 Z-0.83
X24.666 Y19.855 Z-0.767
X24.658 Z-0.7
G0 Z5
X24.717 Y19.257
G1 Z0.5 F200
Z-1.2
X24.724 Y19.258 Z-1.267 F250
X24.746 Y19.26 Z-1.33
X24.782 Y19.264 Z-1.387
X24.829 Y19.268 Z-1.435
X24.886 Y19.274 Z-1.47
X24.949 Y19.28 Z-1.492
X25.015 Y19.287 Z-1.5
X25.314 Y19.316
G3 X25.583 Y19.644 I-0.029 J0.299
G1 X24.52 Y30.491
X17.288 Y31.937
X10.057 Y30.491
X8.097 Y10.496
X26.48
X25.583 Y19.644
G3 X25.255 Y19.913 I-0.299 J-0.029
G1 X24.957 Y19.884
X24.89 Y19.877 Z-1.492
X24.827 Y19.871 Z-1.47
X24.771 Y19.866 Z-1.435
X24.723 Y19.861 Z-1.387
X24.688 Y19.857 Z-1.33
X24.666 Y19.855 Z-1.267
X24.658 Z-1.2
G0 Z5
X24.717 Y19.257
G1 Z0 F200
Z-1.7
X24.724 Y19.258 Z-1.767 F250
X24.746 Y19.26 Z-1.83
X24.782 Y19.264 Z-1.887
X24.829 Y19.268 Z-1.935
X24.886 Y19.274 Z-1.97
X24.949 Y19.28 Z-1.992
X25.015 Y19.287 Z-2
X25.314 Y19.316
G3 X25.583 Y19.644 I-0.029 J0.299
G1 X24.52 Y30.491
X17.288 Y31.937
X10.057 Y30.491
X8.097 Y10.496
X26.48
X25.583 Y19.644
G3 X25.255 Y19.913 I-0.299 J-0.029
G1 X24.957 Y19.884
X24.89 Y19.877 Z-1.992
X24.827 Y19.871 Z-1.97
X24.771 Y19.866 Z-1.935
X24.723 Y19.861 Z-1.887
X24.688 Y19.857 Z-1.83
X24.666 Y19.855 Z-1.767
X24.658 Z-1.7
G0 Z5
X24.717 Y19.257
G1 Z-0.5 F200
Z-2.2
X24.724 Y19.258 Z-2.267 F250
X24.746 Y19.26 Z-2.33
X24.782 Y19.264 Z-2.387
X24.829 Y19.268 Z-2.435
X24.886 Y19.274 Z-2.47
X24.949 Y19.28 Z-2.492
X25.015 Y19.287 Z-2.5
X25.314 Y19.316
G3 X25.583 Y19.644 I-0.029 J0.299
G1 X24.52 Y30.491
X17.288 Y31.937
X10.057 Y30.491
X8.097 Y10.496
X26.48
X25.583 Y19.644
G3 X25.255 Y19.913 I-0.299 J-0.029
G1 X24.957 Y19.884
X24.89 Y19.877 Z-2.492
X24.827 Y19.871 Z-2.47
X24.771 Y19.866 Z-2.435
X24.723 Y19.861 Z-2.387
X24.688 Y19.857 Z-2.33
X24.666 Y19.855 Z-2.267
X24.658 Z-2.2
G0 Z5
X24.717 Y19.257
G1 Z-1 F200
Z-2.7
X24.724 Y19.258 Z-2.767 F250
X24.746 Y19.26 Z-2.83
X24.782 Y19.264 Z-2.887
X24.829 Y19.268 Z-2.935
X24.886 Y19.274 Z-2.97
X24.949 Y19.28 Z-2.992
X25.015 Y19.287 Z-3
X25.314 Y19.316
G3 X25.583 Y19.644 I-0.029 J0.299
G1 X24.52 Y30.491
X17.288 Y31.937
X10.057 Y30.491
X8.097 Y10.496
X26.48
X25.583 Y19.644
G3 X25.255 Y19.913 I-0.299 J-0.029
G1 X24.957 Y19.884
X24.89 Y19.877 Z-2.992
X24.827 Y19.871 Z-2.97
X24.771 Y19.866 Z-2.935
X24.723 Y19.861 Z-2.887
X24.688 Y19.857 Z-2.83
X24.666 Y19.855 Z-2.767
X24.658 Z-2.7
G0 Z5
X24.717 Y19.257
G1 Z-1.5 F200
Z-3.2
X24.724 Y19.258 Z-3.267 F250
X24.746 Y19.26 Z-3.33
X24.782 Y19.264 Z-3.387
X24.829 Y19.268 Z-3.435
X24.886 Y19.274 Z-3.47
X24.949 Y19.28 Z-3.492
X25.015 Y19.287 Z-3.5
X25.314 Y19.316
G3 X25.583 Y19.644 I-0.029 J0.299
G1 X24.52 Y30.491
X17.288 Y31.937
X10.057 Y30.491
X8.097 Y10.496
X26.48
X25.583 Y19.644
G3 X25.255 Y19.913 I-0.299 J-0.029
G1 X24.957 Y19.884
X24.89 Y19.877 Z-3.492
X24.827 Y19.871 Z-3.47
X24.771 Y19.866 Z-3.435
X24.723 Y19.861 Z-3.387
X24.688 Y19.857 Z-3.33
X24.666 Y19.855 Z-3.267
X24.658 Z-3.2
G0 Z5
X24.717 Y19.257
G1 Z-2 F200
Z-3.7
X24.724 Y19.258 Z-3.767 F250
X24.746 Y19.26 Z-3.83
X24.782 Y19.264 Z-3.887
X24.829 Y19.268 Z-3.935
X24.886 Y19.274 Z-3.97
X24.949 Y19.28 Z-3.992
X25.015 Y19.287 Z-4
X25.314 Y19.316
G3 X25.583 Y19.644 I-0.029 J0.299
G1 X24.52 Y30.491
X17.288 Y31.937
X10.057 Y30.491
X8.097 Y10.496
X26.48
X25.583 Y19.644
G3 X25.255 Y19.913 I-0.299 J-0.029
G1 X24.957 Y19.884
X24.89 Y19.877 Z-3.992
X24.827 Y19.871 Z-3.97
X24.771 Y19.866 Z-3.935
X24.723 Y19.861 Z-3.887
X24.688 Y19.857 Z-3.83
X24.666 Y19.855 Z-3.767
X24.658 Z-3.7
G0 Z5
X59.717 Y19.257
G1 Z1.5 F200
Z-0.2
X59.724 Y19.258 Z-0.267 F250
X59.746 Y19.26 Z-0.33
X59.782 Y19.264 Z-0.387
X59.829 Y19.268 Z-0.435
X59.886 Y19.274 Z-0.47
X59.949 Y19.28 Z-0.492
X60.015 Y19.287 Z-0.5
X60.314 Y19.316
G3 X60.583 Y19.644 I-0.029 J0.299
G1 X59.52 Y30.491
X52.288 Y31.937
X45.057 Y30.491
X43.097 Y10.496
X61.48
X60.583 Y19.644
G3 X60.255 Y19.913 I-0.299 J-0.029
G1 X59.957 Y19.884
X59.89 Y19.877 Z-0.492
X59.827 Y19.871 Z-0.47
X59.771 Y19.866 Z-0.435
X59.723 Y19.861 Z-0.387
X59.688 Y19.858 Z-0.33
X59.666 Y19.855 Z-0.267
X59.658 Z-0.2
G0 Z5
X59.717 Y19.257
G1 Z1 F200
Z-0.7
X59.724 Y19.258 Z-0.767 F250
X59.746 Y19.26 Z-0.83
X59.782 Y19.264 Z-0.887
X59.829 Y19.268 Z-0.935
X59.886 Y19.274 Z-0.97
X59.949 Y19.28 Z-0.992
X60.015 Y19.287 Z-1
X60.314 Y19.316
G3 X60.583 Y19.644 I-0.029 J0.299
G1 X59.52 Y30.491
X52.288 Y31.937
X45.057 Y30.491
X43.097 Y10.496
X61.48
X60.583 Y19.644
G3 X60.255 Y19.913 I-0.299 J-0.029
G1 X59.957 Y19.884
X59.89 Y19.877 Z-0.992
X59.827 Y19.871 Z-0.97
X59.771 Y19.866 Z-0.935
X59.723 Y19.861 Z-0.887
X59.688 Y19.858 Z-0.83
X59.666 Y19.855 Z-0.767
X59.658 Z-0.7
G0 Z5
X59.717 Y19.257
G1 Z0.5 F200
Z-1.2
X59.724 Y19.258 Z-1.267 F250
X59.746 Y19.26 Z-1.33
X59.782 Y19.264 Z-1.387
X59.829 Y19.268 Z-1.435
X59.886 Y19.274 Z-1.47
X59.949 Y19.28 Z-1.492
X60.015 Y19.287 Z-1.5
X60.314 Y19.316
G3 X60.583 Y19.644 I-0.029 J0.299
G1 X59.52 Y30.491
X52.288 Y31.937
X45.057 Y30.491
X43.097 Y10.496
X61.48
X60.583 Y19.644
G3 X60.255 Y19.913 I-0.299 J-0.029
G1 X59.957 Y19.884
X59.89 Y19.877 Z-1.492
X59.827 Y19.871 Z-1.47
X59.771 Y19.866 Z-1.435
X59.723 Y19.861 Z-1.387
X59.688 Y19.858 Z-1.33
X59.666 Y19.855 Z-1.267
X59.658 Z-1.2
G0 Z5
X59.717 Y19.257
G1 Z0 F200
Z-1.7
X59.724 Y19.258 Z-1.767 F250
X59.746 Y19.26 Z-1.83
X59.782 Y19.264 Z-1.887
X59.829 Y19.268 Z-1.935
X59.886 Y19.274 Z-1.97
X59.949 Y19.28 Z-1.992
X60.015 Y19.287 Z-2
X60.314 Y19.316
G3 X60.583 Y19.644 I-0.029 J0.299
G1 X59.52 Y30.491
X52.288 Y31.937
X45.057 Y30.491
X43.097 Y10.496
X61.48
X60.583 Y19.644
G3 X60.255 Y19.913 I-0.299 J-0.029
G1 X59.957 Y19.884
X59.89 Y19.877 Z-1.992
X59.827 Y19.871 Z-1.97
X59.771 Y19.866 Z-1.935
X59.723 Y19.861 Z-1.887
X59.688 Y19.858 Z-1.83
X59.666 Y19.855 Z-1.767
X59.658 Z-1.7
G0 Z5
X59.717 Y19.257
G1 Z-0.5 F200
Z-2.2
X59.724 Y19.258 Z-2.267 F250
X59.746 Y19.26 Z-2.33
X59.782 Y19.264 Z-2.387
X59.829 Y19.268 Z-2.435
X59.886 Y19.274 Z-2.47
X59.949 Y19.28 Z-2.492
X60.015 Y19.287 Z-2.5
X60.314 Y19.316
G3 X60.583 Y19.644 I-0.029 J0.299
G1 X59.52 Y30.491
X52.288 Y31.937
X45.057 Y30.491
X43.097 Y10.496
X61.48
X60.583 Y19.644
G3 X60.255 Y19.913 I-0.299 J-0.029
G1 X59.957 Y19.884
X59.89 Y19.877 Z-2.492
X59.827 Y19.871 Z-2.47
X59.771 Y19.866 Z-2.435
X59.723 Y19.861 Z-2.387
X59.688 Y19.858 Z-2.33
X59.666 Y19.855 Z-2.267
X59.658 Z-2.2
G0 Z5
X59.717 Y19.257
G1 Z-1 F200
Z-2.7
X59.724 Y19.258 Z-2.767 F250
X59.746 Y19.26 Z-2.83
X59.782 Y19.264 Z-2.887
X59.829 Y19.268 Z-2.935
X59.886 Y19.274 Z-2.97
X59.949 Y19.28 Z-2.992
X60.015 Y19.287 Z-3
X60.314 Y19.316
G3 X60.583 Y19.644 I-0.029 J0.299
G1 X59.52 Y30.491
X52.288 Y31.937
X45.057 Y30.491
X43.097 Y10.496
X61.48
X60.583 Y19.644
G3 X60.255 Y19.913 I-0.299 J-0.029
G1 X59.957 Y19.884
X59.89 Y19.877 Z-2.992
X59.827 Y19.871 Z-2.97
X59.771 Y19.866 Z-2.935
X59.723 Y19.861 Z-2.887
X59.688 Y19.858 Z-2.83
X59.666 Y19.855 Z-2.767
X59.658 Z-2.7
G0 Z5
X59.717 Y19.257
G1 Z-1.5 F200
Z-3.2
X59.724 Y19.258 Z-3.267 F250
X59.746 Y19.26 Z-3.33
X59.782 Y19.264 Z-3.387
X59.829 Y19.268 Z-3.435
X59.886 Y19.274 Z-3.47
X59.949 Y19.28 Z-3.492
X60.015 Y19.287 Z-3.5
X60.314 Y19.316
G3 X60.583 Y19.644 I-0.029 J0.299
G1 X59.52 Y30.491
X52.288 Y31.937
X45.057 Y30.491
X43.097 Y10.496
X61.48
X60.583 Y19.644
G3 X60.255 Y19.913 I-0.299 J-0.029
G1 X59.957 Y19.884
X59.89 Y19.877 Z-3.492
X59.827 Y19.871 Z-3.47
X59.771 Y19.866 Z-3.435
X59.723 Y19.861 Z-3.387
X59.688 Y19.858 Z-3.33
X59.666 Y19.855 Z-3.267
X59.658 Z-3.2
G0 Z5
X59.717 Y19.257
G1 Z-2 F200
Z-3.7
X59.724 Y19.258 Z-3.767 F250
X59.746 Y19.26 Z-3.83
X59.782 Y19.264 Z-3.887
X59.829 Y19.268 Z-3.935
X59.886 Y19.274 Z-3.97
X59.949 Y19.28 Z-3.992
X60.015 Y19.287 Z-4
X60.314 Y19.316
G3 X60.583 Y19.644 I-0.029 J0.299
G1 X59.52 Y30.491
X52.288 Y31.937
X45.057 Y30.491
X43.097 Y10.496
X61.48
X60.583 Y19.644
G3 X60.255 Y19.913 I-0.299 J-0.029
G1 X59.957 Y19.884
X59.89 Y19.877 Z-3.992
X59.827 Y19.871 Z-3.97
X59.771 Y19.866 Z-3.935
X59.723 Y19.861 Z-3.887
X59.688 Y19.858 Z-3.83
X59.666 Y19.855 Z-3.767
X59.658 Z-3.7
G0 Z5
X59.717 Y-21.743
G1 Z1.5 F200
Z-0.2
X59.724 Y-21.742 Z-0.267 F250
X59.746 Y-21.74 Z-0.33
X59.782 Y-21.736 Z-0.387
X59.829 Y-21.732 Z-0.435
X59.886 Y-21.726 Z-0.47
X59.949 Y-21.72 Z-0.492
X60.015 Y-21.713 Z-0.5
X60.314 Y-21.684
G3 X60.583 Y-21.356 I-0.029 J0.299
G1 X59.52 Y-10.509
X52.288 Y-9.063
X45.057 Y-10.509
X43.097 Y-30.504
X61.48
X60.583 Y-21.356
G3 X60.255 Y-21.087 I-0.299 J-0.029
G1 X59.957 Y-21.116
X59.89 Y-21.123 Z-0.492
X59.827 Y-21.129 Z-0.47
X59.771 Y-21.134 Z-0.435
X59.723 Y-21.139 Z-0.387
X59.688 Y-21.143 Z-0.33
X59.666 Y-21.145 Z-0.267
X59.658 Z-0.2
G0 Z5
X59.717 Y-21.743
G1 Z1 F200
Z-0.7
X59.724 Y-21.742 Z-0.767 F250
X59.746 Y-21.74 Z-0.83
X59.782 Y-21.736 Z-0.887
X59.829 Y-21.732 Z-0.935
X59.886 Y-21.726 Z-0.97
X59.949 Y-21.72 Z-0.992
X60.015 Y-21.713 Z-1
X60.314 Y-21.684
G3 X60.583 Y-21.356 I-0.029 J0.299
G1 X59.52 Y-10.509
X52.288 Y-9.063
X45.057 Y-10.509
X43.097 Y-30.504
X61.48
X60.583 Y-21.356
G3 X60.255 Y-21.087 I-0.299 J-0.029
G1 X59.957 Y-21.116
X59.89 Y-21.123 Z-0.992
X59.827 Y-21.129 Z-0.97
X59.771 Y-21.134 Z-0.935
X59.723 Y-21.139 Z-0.887
X59.688 Y-21.143 Z-0.83
X59.666 Y-21.145 Z-0.767
X59.658 Z-0.7
G0 Z5
X59.717 Y-21.743
G1 Z0.5 F200
Z-1.2
X59.724 Y-21.742 Z-1.267 F250
X59.746 Y-21.74 Z-1.33
X59.782 Y-21.736 Z-1.387
X59.829 Y-21.732 Z-1.435
X59.886 Y-21.726 Z-1.47
X59.949 Y-21.72 Z-1.492
X60.015 Y-21.713 Z-1.5
X60.314 Y-21.684
G3 X60.583 Y-21.356 I-0.029 J0.299
G1 X59.52 Y-10.509
X52.288 Y-9.063
X45.057 Y-10.509
X43.097 Y-30.504
X61.48
X60.583 Y-21.356
G3 X60.255 Y-21.087 I-0.299 J-0.029
G1 X59.957 Y-21.116
X59.89 Y-21.123 Z-1.492
X59.827 Y-21.129 Z-1.47
X59.771 Y-21.134 Z-1.435
X59.723 Y-21.139 Z-1.387
X59.688 Y-21.143 Z-1.33
X59.666 Y-21.145 Z-1.267
X59.658 Z-1.2
G0 Z5
X59.717 Y-21.743
G1 Z0 F200
Z-1.7
X59.724 Y-21.742 Z-1.767 F250
X59.746 Y-21.74 Z-1.83
X59.782 Y-21.736 Z-1.887
X59.829 Y-21.732 Z-1.935
X59.886 Y-21.726 Z-1.97
X59.949 Y-21.72 Z-1.992
X60.015 Y-21.713 Z-2
X60.314 Y-21.684
G3 X60.583 Y-21.356 I-0.029 J0.299
G1 X59.52 Y-10.509
X52.288 Y-9.063
X45.057 Y-10.509
X43.097 Y-30.504
X61.48
X60.583 Y-21.356
G3 X60.255 Y-21.087 I-0.299 J-0.029
G1 X59.957 Y-21.116
X59.89 Y-21.123 Z-1.992
X59.827 Y-21.129 Z-1.97
X59.771 Y-21.134 Z-1.935
X59.723 Y-21.139 Z-1.887
X59.688 Y-21.143 Z-1.83
X59.666 Y-21.145 Z-1.767
X59.658 Z-1.7
G0 Z5
X59.717 Y-21.743
G1 Z-0.5 F200
Z-2.2
X59.724 Y-21.742 Z-2.267 F250
X59.746 Y-21.74 Z-2.33
X59.782 Y-21.736 Z-2.387
X59.829 Y-21.732 Z-2.435
X59.886 Y-21.726 Z-2.47
X59.949 Y-21.72 Z-2.492
X60.015 Y-21.713 Z-2.5
X60.314 Y-21.684
G3 X60.583 Y-21.356 I-0.029 J0.299
G1 X59.52 Y-10.509
X52.288 Y-9.063
X45.057 Y-10.509
X43.097 Y-30.504
X61.48
X60.583 Y-21.356
G3 X60.255 Y-21.087 I-0.299 J-0.029
G1 X59.957 Y-21.116
X59.89 Y-21.123 Z-2.492
X59.827 Y-21.129 Z-2.47
X59.771 Y-21.134 Z-2.435
X59.723 Y-21.139 Z-2.387
X59.688 Y-21.143 Z-2.33
X59.666 Y-21.145 Z-2.267
X59.658 Z-2.2
G0 Z5
X59.717 Y-21.743
G1 Z-1 F200
Z-2.7
X59.724 Y-21.742 Z-2.767 F250
X59.746 Y-21.74 Z-2.83
X59.782 Y-21.736 Z-2.887
X59.829 Y-21.732 Z-2.935
X59.886 Y-21.726 Z-2.97
X59.949 Y-21.72 Z-2.992
X60.015 Y-21.713 Z-3
X60.314 Y-21.684
G3 X60.583 Y-21.356 I-0.029 J0.299
G1 X59.52 Y-10.509
X52.288 Y-9.063
X45.057 Y-10.509
X43.097 Y-30.504
X61.48
X60.583 Y-21.356
G3 X60.255 Y-21.087 I-0.299 J-0.029
G1 X59.957 Y-21.116
X59.89 Y-21.123 Z-2.992
X59.827 Y-21.129 Z-2.97
X59.771 Y-21.134 Z-2.935
X59.723 Y-21.139 Z-2.887
X59.688 Y-21.143 Z-2.83
X59.666 Y-21.145 Z-2.767
X59.658 Z-2.7
G0 Z5
X59.717 Y-21.743
G1 Z-1.5 F200
Z-3.2
X59.724 Y-21.742 Z-3.267 F250
X59.746 Y-21.74 Z-3.33
X59.782 Y-21.736 Z-3.387
X59.829 Y-21.732 Z-3.435
X59.886 Y-21.726 Z-3.47
X59.949 Y-21.72 Z-3.492
X60.015 Y-21.713 Z-3.5
X60.314 Y-21.684
G3 X60.583 Y-21.356 I-0.029 J0.299
G1 X59.52 Y-10.509
X52.288 Y-9.063
X45.057 Y-10.509
X43.097 Y-30.504
X61.48
X60.583 Y-21.356
G3 X60.255 Y-21.087 I-0.299 J-0.029
G1 X59.957 Y-21.116
X59.89 Y-21.123 Z-3.492
X59.827 Y-21.129 Z-3.47
X59.771 Y-21.134 Z-3.435
X59.723 Y-21.139 Z-3.387
X59.688 Y-21.143 Z-3.33
X59.666 Y-21.145 Z-3.267
X59.658 Z-3.2
G0 Z5
X59.717 Y-21.743
G1 Z-2 F200
Z-3.7
X59.724 Y-21.742 Z-3.767 F250
X59.746 Y-21.74 Z-3.83
X59.782 Y-21.736 Z-3.887
X59.829 Y-21.732 Z-3.935
X59.886 Y-21.726 Z-3.97
X59.949 Y-21.72 Z-3.992
X60.015 Y-21.713 Z-4
X60.314 Y-21.684
G3 X60.583 Y-21.356 I-0.029 J0.299
G1 X59.52 Y-10.509
X52.288 Y-9.063
X45.057 Y-10.509
X43.097 Y-30.504
X61.48
X60.583 Y-21.356
G3 X60.255 Y-21.087 I-0.299 J-0.029
G1 X59.957 Y-21.116
X59.89 Y-21.123 Z-3.992
X59.827 Y-21.129 Z-3.97
X59.771 Y-21.134 Z-3.935
X59.723 Y-21.139 Z-3.887
X59.688 Y-21.143 Z-3.83
X59.666 Y-21.145 Z-3.767
X59.658 Z-3.7
G0 Z5
X24.717 Y-21.743
G1 Z1.5 F200
Z-0.2
X24.724 Y-21.742 Z-0.267 F250
X24.746 Y-21.74 Z-0.33
X24.782 Y-21.736 Z-0.387
X24.829 Y-21.732 Z-0.435
X24.886 Y-21.726 Z-0.47
X24.949 Y-21.72 Z-0.492
X25.015 Y-21.713 Z-0.5
X25.314 Y-21.684
G3 X25.583 Y-21.356 I-0.029 J0.299
G1 X24.52 Y-10.509
X17.288 Y-9.063
X10.057 Y-10.509
X8.097 Y-30.504
X26.48
X25.583 Y-21.356
G3 X25.255 Y-21.087 I-0.299 J-0.029
G1 X24.957 Y-21.116
X24.89 Y-21.123 Z-0.492
X24.827 Y-21.129 Z-0.47
X24.771 Y-21.134 Z-0.435
X24.723 Y-21.139 Z-0.387
X24.688 Y-21.143 Z-0.33
X24.666 Y-21.145 Z-0.267
X24.658 Z-0.2
G0 Z5
X24.717 Y-21.743
G1 Z1 F200
Z-0.7
X24.724 Y-21.742 Z-0.767 F250
X24.746 Y-21.74 Z-0.83
X24.782 Y-21.736 Z-0.887
X24.829 Y-21.732 Z-0.935
X24.886 Y-21.726 Z-0.97
X24.949 Y-21.72 Z-0.992
X25.015 Y-21.713 Z-1
X25.314 Y-21.684
G3 X25.583 Y-21.356 I-0.029 J0.299
G1 X24.52 Y-10.509
X17.288 Y-9.063
X10.057 Y-10.509
X8.097 Y-30.504
X26.48
X25.583 Y-21.356
G3 X25.255 Y-21.087 I-0.299 J-0.029
G1 X24.957 Y-21.116
X24.89 Y-21.123 Z-0.992
X24.827 Y-21.129 Z-0.97
X24.771 Y-21.134 Z-0.935
X24.723 Y-21.139 Z-0.887
X24.688 Y-21.143 Z-0.83
X24.666 Y-21.145 Z-0.767
X24.658 Z-0.7
G0 Z5
X24.717 Y-21.743
G1 Z0.5 F200
Z-1.2
X24.724 Y-21.742 Z-1.267 F250
X24.746 Y-21.74 Z-1.33
X24.782 Y-21.736 Z-1.387
X24.829 Y-21.732 Z-1.435
X24.886 Y-21.726 Z-1.47
X24.949 Y-21.72 Z-1.492
X25.015 Y-21.713 Z-1.5
X25.314 Y-21.684
G3 X25.583 Y-21.356 I-0.029 J0.299
G1 X24.52 Y-10.509
X17.288 Y-9.063
X10.057 Y-10.509
X8.097 Y-30.504
X26.48
X25.583 Y-21.356
G3 X25.255 Y-21.087 I-0.299 J-0.029
G1 X24.957 Y-21.116
X24.89 Y-21.123 Z-1.492
X24.827 Y-21.129 Z-1.47
X24.771 Y-21.134 Z-1.435
X24.723 Y-21.139 Z-1.387
X24.688 Y-21.143 Z-1.33
X24.666 Y-21.145 Z-1.267
X24.658 Z-1.2
G0 Z5
X24.717 Y-21.743
G1 Z0 F200
Z-1.7
X24.724 Y-21.742 Z-1.767 F250
X24.746 Y-21.74 Z-1.83
X24.782 Y-21.736 Z-1.887
X24.829 Y-21.732 Z-1.935
X24.886 Y-21.726 Z-1.97
X24.949 Y-21.72 Z-1.992
X25.015 Y-21.713 Z-2
X25.314 Y-21.684
G3 X25.583 Y-21.356 I-0.029 J0.299
G1 X24.52 Y-10.509
X17.288 Y-9.063
X10.057 Y-10.509
X8.097 Y-30.504
X26.48
X25.583 Y-21.356
G3 X25.255 Y-21.087 I-0.299 J-0.029
G1 X24.957 Y-21.116
X24.89 Y-21.123 Z-1.992
X24.827 Y-21.129 Z-1.97
X24.771 Y-21.134 Z-1.935
X24.723 Y-21.139 Z-1.887
X24.688 Y-21.143 Z-1.83
X24.666 Y-21.145 Z-1.767
X24.658 Z-1.7
G0 Z5
X24.717 Y-21.743
G1 Z-0.5 F200
Z-2.2
X24.724 Y-21.742 Z-2.267 F250
X24.746 Y-21.74 Z-2.33
X24.782 Y-21.736 Z-2.387
X24.829 Y-21.732 Z-2.435
X24.886 Y-21.726 Z-2.47
X24.949 Y-21.72 Z-2.492
X25.015 Y-21.713 Z-2.5
X25.314 Y-21.684
G3 X25.583 Y-21.356 I-0.029 J0.299
G1 X24.52 Y-10.509
X17.288 Y-9.063
X10.057 Y-10.509
X8.097 Y-30.504
X26.48
X25.583 Y-21.356
G3 X25.255 Y-21.087 I-0.299 J-0.029
G1 X24.957 Y-21.116
X24.89 Y-21.123 Z-2.492
X24.827 Y-21.129 Z-2.47
X24.771 Y-21.134 Z-2.435
X24.723 Y-21.139 Z-2.387
X24.688 Y-21.143 Z-2.33
X24.666 Y-21.145 Z-2.267
X24.658 Z-2.2
G0 Z5
X24.717 Y-21.743
G1 Z-1 F200
Z-2.7
X24.724 Y-21.742 Z-2.767 F250
X24.746 Y-21.74 Z-2.83
X24.782 Y-21.736 Z-2.887
X24.829 Y-21.732 Z-2.935
X24.886 Y-21.726 Z-2.97
X24.949 Y-21.72 Z-2.992
X25.015 Y-21.713 Z-3
X25.314 Y-21.684
G3 X25.583 Y-21.356 I-0.029 J0.299
G1 X24.52 Y-10.509
X17.288 Y-9.063
X10.057 Y-10.509
X8.097 Y-30.504
X26.48
X25.583 Y-21.356
G3 X25.255 Y-21.087 I-0.299 J-0.029
G1 X24.957 Y-21.116
X24.89 Y-21.123 Z-2.992
X24.827 Y-21.129 Z-2.97
X24.771 Y-21.134 Z-2.935
X24.723 Y-21.139 Z-2.887
X24.688 Y-21.143 Z-2.83
X24.666 Y-21.145 Z-2.767
X24.658 Z-2.7
G0 Z5
X24.717 Y-21.743
G1 Z-1.5 F200
Z-3.2
X24.724 Y-21.742 Z-3.267 F250
X24.746 Y-21.74 Z-3.33
X24.782 Y-21.736 Z-3.387
X24.829 Y-21.732 Z-3.435
X24.886 Y-21.726 Z-3.47
X24.949 Y-21.72 Z-3.492
X25.015 Y-21.713 Z-3.5
X25.314 Y-21.684
G3 X25.583 Y-21.356 I-0.029 J0.299
G1 X24.52 Y-10.509
X17.288 Y-9.063
X10.057 Y-10.509
X8.097 Y-30.504
X26.48
X25.583 Y-21.356
G3 X25.255 Y-21.087 I-0.299 J-0.029
G1 X24.957 Y-21.116
X24.89 Y-21.123 Z-3.492
X24.827 Y-21.129 Z-3.47
X24.771 Y-21.134 Z-3.435
X24.723 Y-21.139 Z-3.387
X24.688 Y-21.143 Z-3.33
X24.666 Y-21.145 Z-3.267
X24.658 Z-3.2
G0 Z5
X24.717 Y-21.743
G1 Z-2 F200
Z-3.7
X24.724 Y-21.742 Z-3.767 F250
X24.746 Y-21.74 Z-3.83
X24.782 Y-21.736 Z-3.887
X24.829 Y-21.732 Z-3.935
X24.886 Y-21.726 Z-3.97
X24.949 Y-21.72 Z-3.992
X25.015 Y-21.713 Z-4
X25.314 Y-21.684
G3 X25.583 Y-21.356 I-0.029 J0.299
G1 X24.52 Y-10.509
X17.288 Y-9.063
X10.057 Y-10.509
X8.097 Y-30.504
X26.48
X25.583 Y-21.356
G3 X25.255 Y-21.087 I-0.299 J-0.029
G1 X24.957 Y-21.116
X24.89 Y-21.123 Z-3.992
X24.827 Y-21.129 Z-3.97
X24.771 Y-21.134 Z-3.935
X24.723 Y-21.139 Z-3.887
X24.688 Y-21.143 Z-3.83
X24.666 Y-21.145 Z-3.767
X24.658 Z-3.7
G0 Z5
X-10.283 Y-21.743
G1 Z1.5 F200
Z-0.2
X-10.276 Y-21.742 Z-0.267 F250
X-10.254 Y-21.74 Z-0.33
X-10.218 Y-21.736 Z-0.387
X-10.171 Y-21.732 Z-0.435
X-10.114 Y-21.726 Z-0.47
X-10.051 Y-21.72 Z-0.492
X-9.985 Y-21.713 Z-0.5
X-9.686 Y-21.684
G3 X-9.417 Y-21.356 I-0.029 J0.299
G1 X-10.48 Y-10.509
X-17.712 Y-9.063
X-24.943 Y-10.509
X-26.903 Y-30.504
X-8.52
X-9.417 Y-21.356
G3 X-9.745 Y-21.087 I-0.299 J-0.029
G1 X-10.043 Y-21.116
X-10.11 Y-21.123 Z-0.492
X-10.173 Y-21.129 Z-0.47
X-10.229 Y-21.134 Z-0.435
X-10.277 Y-21.139 Z-0.387
X-10.312 Y-21.142 Z-0.33
X-10.334 Y-21.145 Z-0.267
X-10.342 Z-0.2
G0 Z5
X-10.283 Y-21.743
G1 Z1 F200
Z-0.7
X-10.276 Y-21.742 Z-0.767 F250
X-10.254 Y-21.74 Z-0.83
X-10.218 Y-21.736 Z-0.887
X-10.171 Y-21.732 Z-0.935
X-10.114 Y-21.726 Z-0.97
X-10.051 Y-21.72 Z-0.992
X-9.985 Y-21.713 Z-1
X-9.686 Y-21.684
G3 X-9.417 Y-21.356 I-0.029 J0.299
G1 X-10.48 Y-10.509
X-17.712 Y-9.063
X-24.943 Y-10.509
X-26.903 Y-30.504
X-8.52
X-9.417 Y-21.356
G3 X-9.745 Y-21.087 I-0.299 J-0.029
G1 X-10.043 Y-21.116
X-10.11 Y-21.123 Z-0.992
X-10.173 Y-21.129 Z-0.97
X-10.229 Y-21.134 Z-0.935
X-10.277 Y-21.139 Z-0.887
X-10.312 Y-21.142 Z-0.83
X-10.334 Y-21.145 Z-0.767
X-10.342 Z-0.7
G0 Z5
X-10.283 Y-21.743
G1 Z0.5 F200
Z-1.2
X-10.276 Y-21.742 Z-1.267 F250
X-10.254 Y-21.74 Z-1.33
X-10.218 Y-21.736 Z-1.387
X-10.171 Y-21.732 Z-1.435
X-10.114 Y-21.726 Z-1.47
X-10.051 Y-21.72 Z-1.492
X-9.985 Y-21.713 Z-1.5
X-9.686 Y-21.684
G3 X-9.417 Y-21.356 I-0.029 J0.299
G1 X-10.48 Y-10.509
X-17.712 Y-9.063
X-24.943 Y-10.509
X-26.903 Y-30.504
X-8.52
X-9.417 Y-21.356
G3 X-9.745 Y-21.087 I-0.299 J-0.029
G1 X-10.043 Y-21.116
X-10.11 Y-21.123 Z-1.492
X-10.173 Y-21.129 Z-1.47
X-10.229 Y-21.134 Z-1.435
X-10.277 Y-21.139 Z-1.387
X-10.312 Y-21.142 Z-1.33
X-10.334 Y-21.145 Z-1.267
X-10.342 Z-1.2
G0 Z5
X-10.283 Y-21.743
G1 Z0 F200
Z-1.7
X-10.276 Y-21.742 Z-1.767 F250
X-10.254 Y-21.74 Z-1.83
X-10.218 Y-21.736 Z-1.887
X-10.171 Y-21.732 Z-1.935
X-10.114 Y-21.726 Z-1.97
X-10.051 Y-21.72 Z-1.992
X-9.985 Y-21.713 Z-2
X-9.686 Y-21.684
G3 X-9.417 Y-21.356 I-0.029 J0.299
G1 X-10.48 Y-10.509
X-17.712 Y-9.063
X-24.943 Y-10.509
X-26.903 Y-30.504
X-8.52
X-9.417 Y-21.356
G3 X-9.745 Y-21.087 I-0.299 J-0.029
G1 X-10.043 Y-21.116
X-10.11 Y-21.123 Z-1.992
X-10.173 Y-21.129 Z-1.97
X-10.229 Y-21.134 Z-1.935
X-10.277 Y-21.139 Z-1.887
X-10.312 Y-21.142 Z-1.83
X-10.334 Y-21.145 Z-1.767
X-10.342 Z-1.7
G0 Z5
X-10.283 Y-21.743
G1 Z-0.5 F200
Z-2.2
X-10.276 Y-21.742 Z-2.267 F250
X-10.254 Y-21.74 Z-2.33
X-10.218 Y-21.736 Z-2.387
X-10.171 Y-21.732 Z-2.435
X-10.114 Y-21.726 Z-2.47
X-10.051 Y-21.72 Z-2.492
X-9.985 Y-21.713 Z-2.5
X-9.686 Y-21.684
G3 X-9.417 Y-21.356 I-0.029 J0.299
G1 X-10.48 Y-10.509
X-17.712 Y-9.063
X-24.943 Y-10.509
X-26.903 Y-30.504
X-8.52
X-9.417 Y-21.356
G3 X-9.745 Y-21.087 I-0.299 J-0.029
G1 X-10.043 Y-21.116
X-10.11 Y-21.123 Z-2.492
X-10.173 Y-21.129 Z-2.47
X-10.229 Y-21.134 Z-2.435
X-10.277 Y-21.139 Z-2.387
X-10.312 Y-21.142 Z-2.33
X-10.334 Y-21.145 Z-2.267
X-10.342 Z-2.2
G0 Z5
X-10.283 Y-21.743
G1 Z-1 F200
Z-2.7
X-10.276 Y-21.742 Z-2.767 F250
X-10.254 Y-21.74 Z-2.83
X-10.218 Y-21.736 Z-2.887
X-10.171 Y-21.732 Z-2.935
X-10.114 Y-21.726 Z-2.97
X-10.051 Y-21.72 Z-2.992
X-9.985 Y-21.713 Z-3
X-9.686 Y-21.684
G3 X-9.417 Y-21.356 I-0.029 J0.299
G1 X-10.48 Y-10.509
X-17.712 Y-9.063
X-24.943 Y-10.509
X-26.903 Y-30.504
X-8.52
X-9.417 Y-21.356
G3 X-9.745 Y-21.087 I-0.299 J-0.029
G1 X-10.043 Y-21.116
X-10.11 Y-21.123 Z-2.992
X-10.173 Y-21.129 Z-2.97
X-10.229 Y-21.134 Z-2.935
X-10.277 Y-21.139 Z-2.887
X-10.312 Y-21.142 Z-2.83
X-10.334 Y-21.145 Z-2.767
X-10.342 Z-2.7
G0 Z5
X-10.283 Y-21.743
G1 Z-1.5 F200
Z-3.2
X-10.276 Y-21.742 Z-3.267 F250
X-10.254 Y-21.74 Z-3.33
X-10.218 Y-21.736 Z-3.387
X-10.171 Y-21.732 Z-3.435
X-10.114 Y-21.726 Z-3.47
X-10.051 Y-21.72 Z-3.492
X-9.985 Y-21.713 Z-3.5
X-9.686 Y-21.684
G3 X-9.417 Y-21.356 I-0.029 J0.299
G1 X-10.48 Y-10.509
X-17.712 Y-9.063
X-24.943 Y-10.509
X-26.903 Y-30.504
X-8.52
X-9.417 Y-21.356
G3 X-9.745 Y-21.087 I-0.299 J-0.029
G1 X-10.043 Y-21.116
X-10.11 Y-21.123 Z-3.492
X-10.173 Y-21.129 Z-3.47
X-10.229 Y-21.134 Z-3.435
X-10.277 Y-21.139 Z-3.387
X-10.312 Y-21.142 Z-3.33
X-10.334 Y-21.145 Z-3.267
X-10.342 Z-3.2
G0 Z5
X-10.283 Y-21.743
G1 Z-2 F200
Z-3.7
X-10.276 Y-21.742 Z-3.767 F250
X-10.254 Y-21.74 Z-3.83
X-10.218 Y-21.736 Z-3.887
X-10.171 Y-21.732 Z-3.935
X-10.114 Y-21.726 Z-3.97
X-10.051 Y-21.72 Z-3.992
X-9.985 Y-21.713 Z-4
X-9.686 Y-21.684
G3 X-9.417 Y-21.356 I-0.029 J0.299
G1 X-10.48 Y-10.509
X-17.712 Y-9.063
X-24.943 Y-10.509
X-26.903 Y-30.504
X-8.52
X-9.417 Y-21.356
G3 X-9.745 Y-21.087 I-0.299 J-0.029
G1 X-10.043 Y-21.116
X-10.11 Y-21.123 Z-3.992
X-10.173 Y-21.129 Z-3.97
X-10.229 Y-21.134 Z-3.935
X-10.277 Y-21.139 Z-3.887
X-10.312 Y-21.142 Z-3.83
X-10.334 Y-21.145 Z-3.767
X-10.342 Z-3.7
G0 Z5
X-45.283 Y-21.743
G1 Z1.5 F200
Z-0.2
X-45.276 Y-21.742 Z-0.267 F250
X-45.254 Y-21.74 Z-0.33
X-45.218 Y-21.736 Z-0.387
X-45.171 Y-21.732 Z-0.435
X-45.114 Y-21.726 Z-0.47
X-45.051 Y-21.72 Z-0.492
X-44.985 Y-21.713 Z-0.5
X-44.686 Y-21.684
G3 X-44.417 Y-21.356 I-0.029 J0.299
G1 X-45.48 Y-10.509
X-52.712 Y-9.063
X-59.943 Y-10.509
X-61.903 Y-30.504
X-43.52
X-44.417 Y-21.356
G3 X-44.745 Y-21.087 I-0.299 J-0.029
G1 X-45.043 Y-21.116
X-45.11 Y-21.123 Z-0.492
X-45.173 Y-21.129 Z-0.47
X-45.229 Y-21.134 Z-0.435
X-45.277 Y-21.139 Z-0.387
X-45.312 Y-21.143 Z-0.33
X-45.334 Y-21.145 Z-0.267
X-45.342 Z-0.2
G0 Z5
X-45.283 Y-21.743
G1 Z1 F200
Z-0.7
X-45.276 Y-21.742 Z-0.767 F250
X-45.254 Y-21.74 Z-0.83
X-45.218 Y-21.736 Z-0.887
X-45.171 Y-21.732 Z-0.935
X-45.114 Y-21.726 Z-0.97
X-45.051 Y-21.72 Z-0.992
X-44.985 Y-21.713 Z-1
X-44.686 Y-21.684
G3 X-44.417 Y-21.356 I-0.029 J0.299
G1 X-45.48 Y-10.509
X-52.712 Y-9.063
X-59.943 Y-10.509
X-61.903 Y-30.504
X-43.52
X-44.417 Y-21.356
G3 X-44.745 Y-21.087 I-0.299 J-0.029
G1 X-45.043 Y-21.116
X-45.11 Y-21.123 Z-0.992
X-45.173 Y-21.129 Z-0.97
X-45.229 Y-21.134 Z-0.935
X-45.277 Y-21.139 Z-0.887
X-45.312 Y-21.143 Z-0.83
X-45.334 Y-21.145 Z-0.767
X-45.342 Z-0.7
G0 Z5
X-45.283 Y-21.743
G1 Z0.5 F200
Z-1.2
X-45.276 Y-21.742 Z-1.267 F250
X-45.254 Y-21.74 Z-1.33
X-45.218 Y-21.736 Z-1.387
X-45.171 Y-21.732 Z-1.435
X-45.114 Y-21.726 Z-1.47
X-45.051 Y-21.72 Z-1.492
X-44.985 Y-21.713 Z-1.5
X-44.686 Y-21.684
G3 X-44.417 Y-21.356 I-0.029 J0.299
G1 X-45.48 Y-10.509
X-52.712 Y-9.063
X-59.943 Y-10.509
X-61.903 Y-30.504
X-43.52
X-44.417 Y-21.356
G3 X-44.745 Y-21.087 I-0.299 J-0.029
G1 X-45.043 Y-21.116
X-45.11 Y-21.123 Z-1.492
X-45.173 Y-21.129 Z-1.47
X-45.229 Y-21.134 Z-1.435
X-45.277 Y-21.139 Z-1.387
X-45.312 Y-21.143 Z-1.33
X-45.334 Y-21.145 Z-1.267
X-45.342 Z-1.2
G0 Z5
X-45.283 Y-21.743
G1 Z0 F200
Z-1.7
X-45.276 Y-21.742 Z-1.767 F250
X-45.254 Y-21.74 Z-1.83
X-45.218 Y-21.736 Z-1.887
X-45.171 Y-21.732 Z-1.935
X-45.114 Y-21.726 Z-1.97
X-45.051 Y-21.72 Z-1.992
X-44.985 Y-21.713 Z-2
X-44.686 Y-21.684
G3 X-44.417 Y-21.356 I-0.029 J0.299
G1 X-45.48 Y-10.509
X-52.712 Y-9.063
X-59.943 Y-10.509
X-61.903 Y-30.504
X-43.52
X-44.417 Y-21.356
G3 X-44.745 Y-21.087 I-0.299 J-0.029
G1 X-45.043 Y-21.116
X-45.11 Y-21.123 Z-1.992
X-45.173 Y-21.129 Z-1.97
X-45.229 Y-21.134 Z-1.935
X-45.277 Y-21.139 Z-1.887
X-45.312 Y-21.143 Z-1.83
X-45.334 Y-21.145 Z-1.767
X-45.342 Z-1.7
G0 Z5
X-45.283 Y-21.743
G1 Z-0.5 F200
Z-2.2
X-45.276 Y-21.742 Z-2.267 F250
X-45.254 Y-21.74 Z-2.33
X-45.218 Y-21.736 Z-2.387
X-45.171 Y-21.732 Z-2.435
X-45.114 Y-21.726 Z-2.47
X-45.051 Y-21.72 Z-2.492
X-44.985 Y-21.713 Z-2.5
X-44.686 Y-21.684
G3 X-44.417 Y-21.356 I-0.029 J0.299
G1 X-45.48 Y-10.509
X-52.712 Y-9.063
X-59.943 Y-10.509
X-61.903 Y-30.504
X-43.52
X-44.417 Y-21.356
G3 X-44.745 Y-21.087 I-0.299 J-0.029
G1 X-45.043 Y-21.116
X-45.11 Y-21.123 Z-2.492
X-45.173 Y-21.129 Z-2.47
X-45.229 Y-21.134 Z-2.435
X-45.277 Y-21.139 Z-2.387
X-45.312 Y-21.143 Z-2.33
X-45.334 Y-21.145 Z-2.267
X-45.342 Z-2.2
G0 Z5
X-45.283 Y-21.743
G1 Z-1 F200
Z-2.7
X-45.276 Y-21.742 Z-2.767 F250
X-45.254 Y-21.74 Z-2.83
X-45.218 Y-21.736 Z-2.887
X-45.171 Y-21.732 Z-2.935
X-45.114 Y-21.726 Z-2.97
X-45.051 Y-21.72 Z-2.992
X-44.985 Y-21.713 Z-3
X-44.686 Y-21.684
G3 X-44.417 Y-21.356 I-0.029 J0.299
G1 X-45.48 Y-10.509
X-52.712 Y-9.063
X-59.943 Y-10.509
X-61.903 Y-30.504
X-43.52
X-44.417 Y-21.356
G3 X-44.745 Y-21.087 I-0.299 J-0.029
G1 X-45.043 Y-21.116
X-45.11 Y-21.123 Z-2.992
X-45.173 Y-21.129 Z-2.97
X-45.229 Y-21.134 Z-2.935
X-45.277 Y-21.139 Z-2.887
X-45.312 Y-21.143 Z-2.83
X-45.334 Y-21.145 Z-2.767
X-45.342 Z-2.7
G0 Z5
X-45.283 Y-21.743
G1 Z-1.5 F200
Z-3.2
X-45.276 Y-21.742 Z-3.267 F250
X-45.254 Y-21.74 Z-3.33
X-45.218 Y-21.736 Z-3.387
X-45.171 Y-21.732 Z-3.435
X-45.114 Y-21.726 Z-3.47
X-45.051 Y-21.72 Z-3.492
X-44.985 Y-21.713 Z-3.5
X-44.686 Y-21.684
G3 X-44.417 Y-21.356 I-0.029 J0.299
G1 X-45.48 Y-10.509
X-52.712 Y-9.063
X-59.943 Y-10.509
X-61.903 Y-30.504
X-43.52
X-44.417 Y-21.356
G3 X-44.745 Y-21.087 I-0.299 J-0.029
G1 X-45.043 Y-21.116
X-45.11 Y-21.123 Z-3.492
X-45.173 Y-21.129 Z-3.47
X-45.229 Y-21.134 Z-3.435
X-45.277 Y-21.139 Z-3.387
X-45.312 Y-21.143 Z-3.33
X-45.334 Y-21.145 Z-3.267
X-45.342 Z-3.2
G0 Z5
X-45.283 Y-21.743
G1 Z-2 F200
Z-3.7
X-45.276 Y-21.742 Z-3.767 F250
X-45.254 Y-21.74 Z-3.83
X-45.218 Y-21.736 Z-3.887
X-45.171 Y-21.732 Z-3.935
X-45.114 Y-21.726 Z-3.97
X-45.051 Y-21.72 Z-3.992
X-44.985 Y-21.713 Z-4
X-44.686 Y-21.684
G3 X-44.417 Y-21.356 I-0.029 J0.299
G1 X-45.48 Y-10.509
X-52.712 Y-9.063
X-59.943 Y-10.509
X-61.903 Y-30.504
X-43.52
X-44.417 Y-21.356
G3 X-44.745 Y-21.087 I-0.299 J-0.029
G1 X-45.043 Y-21.116
X-45.11 Y-21.123 Z-3.992
X-45.173 Y-21.129 Z-3.97
X-45.229 Y-21.134 Z-3.935
X-45.277 Y-21.139 Z-3.887
X-45.312 Y-21.143 Z-3.83
X-45.334 Y-21.145 Z-3.767
X-45.342 Z-3.7
G0 Z5
X-45.283 Y19.257
G1 Z1.5 F200
Z-0.2
X-45.276 Y19.258 Z-0.267 F250
X-45.254 Y19.26 Z-0.33
X-45.218 Y19.264 Z-0.387
X-45.171 Y19.268 Z-0.435
X-45.114 Y19.274 Z-0.47
X-45.051 Y19.28 Z-0.492
X-44.985 Y19.287 Z-0.5
X-44.686 Y19.316
G3 X-44.417 Y19.644 I-0.029 J0.299
G1 X-45.48 Y30.491
X-52.712 Y31.937
X-59.943 Y30.491
X-61.903 Y10.496
X-43.52
X-44.417 Y19.644
G3 X-44.745 Y19.913 I-0.299 J-0.029
G1 X-45.043 Y19.884
X-45.11 Y19.877 Z-0.492
X-45.173 Y19.871 Z-0.47
X-45.229 Y19.866 Z-0.435
X-45.277 Y19.861 Z-0.387
X-45.312 Y19.858 Z-0.33
X-45.334 Y19.855 Z-0.267
X-45.342 Z-0.2
G0 Z5
X-45.283 Y19.257
G1 Z1 F200
Z-0.7
X-45.276 Y19.258 Z-0.767 F250
X-45.254 Y19.26 Z-0.83
X-45.218 Y19.264 Z-0.887
X-45.171 Y19.268 Z-0.935
X-45.114 Y19.274 Z-0.97
X-45.051 Y19.28 Z-0.992
X-44.985 Y19.287 Z-1
X-44.686 Y19.316
G3 X-44.417 Y19.644 I-0.029 J0.299
G1 X-45.48 Y30.491
X-52.712 Y31.937
X-59.943 Y30.491
X-61.903 Y10.496
X-43.52
X-44.417 Y19.644
G3 X-44.745 Y19.913 I-0.299 J-0.029
G1 X-45.043 Y19.884
X-45.11 Y19.877 Z-0.992
X-45.173 Y19.871 Z-0.97
X-45.229 Y19.866 Z-0.935
X-45.277 Y19.861 Z-0.887
X-45.312 Y19.858 Z-0.83
X-45.334 Y19.855 Z-0.767
X-45.342 Z-0.7
G0 Z5
X-45.283 Y19.257
G1 Z0.5 F200
Z-1.2
X-45.276 Y19.258 Z-1.267 F250
X-45.254 Y19.26 Z-1.33
X-45.218 Y19.264 Z-1.387
X-45.171 Y19.268 Z-1.435
X-45.114 Y19.274 Z-1.47
X-45.051 Y19.28 Z-1.492
X-44.985 Y19.287 Z-1.5
X-44.686 Y19.316
G3 X-44.417 Y19.644 I-0.029 J0.299
G1 X-45.48 Y30.491
X-52.712 Y31.937
X-59.943 Y30.491
X-61.903 Y10.496
X-43.52
X-44.417 Y19.644
G3 X-44.745 Y19.913 I-0.299 J-0.029
G1 X-45.043 Y19.884
X-45.11 Y19.877 Z-1.492
X-45.173 Y19.871 Z-1.47
X-45.229 Y19.866 Z-1.435
X-45.277 Y19.861 Z-1.387
X-45.312 Y19.858 Z-1.33
X-45.334 Y19.855 Z-1.267
X-45.342 Z-1.2
G0 Z5
X-45.283 Y19.257
G1 Z0 F200
Z-1.7
X-45.276 Y19.258 Z-1.767 F250
X-45.254 Y19.26 Z-1.83
X-45.218 Y19.264 Z-1.887
X-45.171 Y19.268 Z-1.935
X-45.114 Y19.274 Z-1.97
X-45.051 Y19.28 Z-1.992
X-44.985 Y19.287 Z-2
X-44.686 Y19.316
G3 X-44.417 Y19.644 I-0.029 J0.299
G1 X-45.48 Y30.491
X-52.712 Y31.937
X-59.943 Y30.491
X-61.903 Y10.496
X-43.52
X-44.417 Y19.644
G3 X-44.745 Y19.913 I-0.299 J-0.029
G1 X-45.043 Y19.884
X-45.11 Y19.877 Z-1.992
X-45.173 Y19.871 Z-1.97
X-45.229 Y19.866 Z-1.935
X-45.277 Y19.861 Z-1.887
X-45.312 Y19.858 Z-1.83
X-45.334 Y19.855 Z-1.767
X-45.342 Z-1.7
G0 Z5
X-45.283 Y19.257
G1 Z-0.5 F200
Z-2.2
X-45.276 Y19.258 Z-2.267 F250
X-45.254 Y19.26 Z-2.33
X-45.218 Y19.264 Z-2.387
X-45.171 Y19.268 Z-2.435
X-45.114 Y19.274 Z-2.47
X-45.051 Y19.28 Z-2.492
X-44.985 Y19.287 Z-2.5
X-44.686 Y19.316
G3 X-44.417 Y19.644 I-0.029 J0.299
G1 X-45.48 Y30.491
X-52.712 Y31.937
X-59.943 Y30.491
X-61.903 Y10.496
X-43.52
X-44.417 Y19.644
G3 X-44.745 Y19.913 I-0.299 J-0.029
G1 X-45.043 Y19.884
X-45.11 Y19.877 Z-2.492
X-45.173 Y19.871 Z-2.47
X-45.229 Y19.866 Z-2.435
X-45.277 Y19.861 Z-2.387
X-45.312 Y19.858 Z-2.33
X-45.334 Y19.855 Z-2.267
X-45.342 Z-2.2
G0 Z5
X-45.283 Y19.257
G1 Z-1 F200
Z-2.7
X-45.276 Y19.258 Z-2.767 F250
X-45.254 Y19.26 Z-2.83
X-45.218 Y19.264 Z-2.887
X-45.171 Y19.268 Z-2.935
X-45.114 Y19.274 Z-2.97
X-45.051 Y19.28 Z-2.992
X-44.985 Y19.287 Z-3
X-44.686 Y19.316
G3 X-44.417 Y19.644 I-0.029 J0.299
G1 X-45.48 Y30.491
X-52.712 Y31.937
X-59.943 Y30.491
X-61.903 Y10.496
X-43.52
X-44.417 Y19.644
G3 X-44.745 Y19.913 I-0.299 J-0.029
G1 X-45.043 Y19.884
X-45.11 Y19.877 Z-2.992
X-45.173 Y19.871 Z-2.97
X-45.229 Y19.866 Z-2.935
X-45.277 Y19.861 Z-2.887
X-45.312 Y19.858 Z-2.83
X-45.334 Y19.855 Z-2.767
X-45.342 Z-2.7
G0 Z5
X-45.283 Y19.257
G1 Z-1.5 F200
Z-3.2
X-45.276 Y19.258 Z-3.267 F250
X-45.254 Y19.26 Z-3.33
X-45.218 Y19.264 Z-3.387
X-45.171 Y19.268 Z-3.435
X-45.114 Y19.274 Z-3.47
X-45.051 Y19.28 Z-3.492
X-44.985 Y19.287 Z-3.5
X-44.686 Y19.316
G3 X-44.417 Y19.644 I-0.029 J0.299
G1 X-45.48 Y30.491
X-52.712 Y31.937
X-59.943 Y30.491
X-61.903 Y10.496
X-43.52
X-44.417 Y19.644
G3 X-44.745 Y19.913 I-0.299 J-0.029
G1 X-45.043 Y19.884
X-45.11 Y19.877 Z-3.492
X-45.173 Y19.871 Z-3.47
X-45.229 Y19.866 Z-3.435
X-45.277 Y19.861 Z-3.387
X-45.312 Y19.858 Z-3.33
X-45.334 Y19.855 Z-3.267
X-45.342 Z-3.2
G0 Z5
X-45.283 Y19.257
G1 Z-2 F200
Z-3.7
X-45.276 Y19.258 Z-3.767 F250
X-45.254 Y19.26 Z-3.83
X-45.218 Y19.264 Z-3.887
X-45.171 Y19.268 Z-3.935
X-45.114 Y19.274 Z-3.97
X-45.051 Y19.28 Z-3.992
X-44.985 Y19.287 Z-4
X-44.686 Y19.316
G3 X-44.417 Y19.644 I-0.029 J0.299
G1 X-45.48 Y30.491
X-52.712 Y31.937
X-59.943 Y30.491
X-61.903 Y10.496
X-43.52
X-44.417 Y19.644
G3 X-44.745 Y19.913 I-0.299 J-0.029
G1 X-45.043 Y19.884
X-45.11 Y19.877 Z-3.992
X-45.173 Y19.871 Z-3.97
X-45.229 Y19.866 Z-3.935
X-45.277 Y19.861 Z-3.887
X-45.312 Y19.858 Z-3.83
X-45.334 Y19.855 Z-3.767
X-45.342 Z-3.7
G0 Z15

(2D Contour4)
X-65.3 Y52.4
Z15
Z5
G1 Z1.5 F200
Z-0.2
G19 G2 Y52.1 Z-0.5 J-0.3 K0 F250
G1 Y51.8
G17 G3 X-65 Y51.5 I0.3 J0
G1 X65
G2 X76.5 Y40 I0 J-11.5
G1 Y-40
G2 X65 Y-51.5 I-11.5 J0
G1 X-65
G2 X-76.5 Y-40 I0 J11.5
G1 Y40
G2 X-65 Y51.5 I11.5 J0
G3 X-64.7 Y51.8 I0 J0.3
G1 Y52.1
G19 G3 Y52.4 Z-0.2 J0 K0.3
G0 Z5
X-65.3
G1 Z1 F200
Z-0.7
G2 Y52.1 Z-1 J-0.3 K0 F250
G1 Y51.8
G17 G3 X-65 Y51.5 I0.3 J0
G1 X65
G2 X76.5 Y40 I0 J-11.5
G1 Y-40
G2 X65 Y-51.5 I-11.5 J0
G1 X-65
G2 X-76.5 Y-40 I0 J11.5
G1 Y40
G2 X-65 Y51.5 I11.5 J0
G3 X-64.7 Y51.8 I0 J0.3
G1 Y52.1
G19 G3 Y52.4 Z-0.7 J0 K0.3
G0 Z5
X-65.3
G1 Z0.5 F200
Z-1.2
G2 Y52.1 Z-1.5 J-0.3 K0 F250
G1 Y51.8
G17 G3 X-65 Y51.5 I0.3 J0
G1 X65
G2 X76.5 Y40 I0 J-11.5
G1 Y-40
G2 X65 Y-51.5 I-11.5 J0
G1 X-65
G2 X-76.5 Y-40 I0 J11.5
G1 Y40
G2 X-65 Y51.5 I11.5 J0
G3 X-64.7 Y51.8 I0 J0.3
G1 Y52.1
G19 G3 Y52.4 Z-1.2 J0 K0.3
G0 Z5
X-65.3
G1 Z0 F200
Z-1.7
G2 Y52.1 Z-2 J-0.3 K0 F250
G1 Y51.8
G17 G3 X-65 Y51.5 I0.3 J0
G1 X65
G2 X76.5 Y40 I0 J-11.5
G1 Y-40
G2 X65 Y-51.5 I-11.5 J0
G1 X-65
G2 X-76.5 Y-40 I0 J11.5
G1 Y40
G2 X-65 Y51.5 I11.5 J0
G3 X-64.7 Y51.8 I0 J0.3
G1 Y52.1
G19 G3 Y52.4 Z-1.7 J0 K0.3
G0 Z5
X-65.3
G1 Z-0.5 F200
Z-2.2
G2 Y52.1 Z-2.5 J-0.3 K0 F250
G1 Y51.8
G17 G3 X-65 Y51.5 I0.3 J0
G1 X65
G2 X76.5 Y40 I0 J-11.5
G1 Y-40
G2 X65 Y-51.5 I-11.5 J0
G1 X-65
G2 X-76.5 Y-40 I0 J11.5
G1 Y40
G2 X-65 Y51.5 I11.5 J0
G3 X-64.7 Y51.8 I0 J0.3
G1 Y52.1
G19 G3 Y52.4 Z-2.2 J0 K0.3
G0 Z5
X-65.3
G1 Z-1 F200
Z-2.7
G2 Y52.1 Z-3 J-0.3 K0 F250
G1 Y51.8
G17 G3 X-65 Y51.5 I0.3 J0
G1 X65
G2 X76.5 Y40 I0 J-11.5
G1 Y-40
G2 X65 Y-51.5 I-11.5 J0
G1 X-65
G2 X-76.5 Y-40 I0 J11.5
G1 Y40
G2 X-65 Y51.5 I11.5 J0
G3 X-64.7 Y51.8 I0 J0.3
G1 Y52.1
G19 G3 Y52.4 Z-2.7 J0 K0.3
G0 Z5
X-65.3
G1 Z-1.5 F200
Z-3.2
G2 Y52.1 Z-3.5 J-0.3 K0 F250
G1 Y51.8
G17 G3 X-65 Y51.5 I0.3 J0
G1 X65
G2 X76.5 Y40 I0 J-11.5
G1 Y-40
G2 X65 Y-51.5 I-11.5 J0
G1 X-65
G2 X-76.5 Y-40 I0 J11.5
G1 Y40
G2 X-65 Y51.5 I11.5 J0
G3 X-64.7 Y51.8 I0 J0.3
G1 Y52.1
G19 G3 Y52.4 Z-3.2 J0 K0.3
G0 Z5
X-65.3
G1 Z-2 F200
Z-3.7
G2 Y52.1 Z-4 J-0.3 K0 F250
G1 Y51.8
G17 G3 X-65 Y51.5 I0.3 J0
G1 X65
G2 X76.5 Y40 I0 J-11.5
G1 Y-40
G2 X65 Y-51.5 I-11.5 J0
G1 X-65
G2 X-76.5 Y-40 I0 J11.5
G1 Y40
G2 X-65 Y51.5 I11.5 J0
G3 X-64.7 Y51.8 I0 J0.3
G1 Y52.1
G19 G3 Y52.4 Z-3.7 J0 K0.3
G0 Z15
G17
M9
M5
M30
