(1001)
(Machine)
(  vendor: Autodesk)
(  description: Generic 3-axis)
(T3  D=3 CR=0 - ZMIN=-1.3 - flat end mill)
G90 G94
G17
G21

(2D Pocket5)
T3
S1000 M3
G54
M8
G0 X-16.291 Y-15.476
Z10
Z8
G1 Z2.8 F450
X-16.294 Y-15.438 Z2.653 F333.3
X-16.309 Y-15.334 Z2.544
X-16.342 Y-15.192 Z2.5
G3 X-19.081 Y-15.982 Z2.344 I-1.369 J-0.395
X-16.342 Y-15.192 Z2.187 I1.369 J0.395
X-19.081 Y-15.982 Z2.031 I-1.369 J-0.395
X-16.342 Y-15.192 Z1.875 I1.369 J0.395
X-19.081 Y-15.982 Z1.718 I-1.369 J-0.395
X-16.342 Y-15.192 Z1.562 I1.369 J0.395
X-19.081 Y-15.982 Z1.406 I-1.369 J-0.395
X-16.342 Y-15.192 Z1.249 I1.369 J0.395
X-19.081 Y-15.982 Z1.093 I-1.369 J-0.395
X-16.342 Y-15.192 Z0.937 I1.369 J0.395
X-19.081 Y-15.982 Z0.78 I-1.369 J-0.395
X-16.342 Y-15.192 Z0.624 I1.369 J0.395
X-19.081 Y-15.982 Z0.468 I-1.369 J-0.395
X-16.342 Y-15.192 Z0.311 I1.369 J0.395
X-19.081 Y-15.982 Z0.155 I-1.369 J-0.395
X-16.342 Y-15.192 Z-0.001 I1.369 J0.395
X-19.081 Y-15.982 Z-0.158 I-1.369 J-0.395
X-16.287 Y-15.587 Z-0.3 I1.369 J0.395
G1 X-16.294 Y-15.565
X-16.312 Y-15.551
X-16.336
X-16.354 Y-15.565
X-16.361 Y-15.587
X-16.354 Y-15.62 F450
X-16.333 Y-15.646
X-16.303 Y-15.66
X-16.27
X-16.24 Y-15.646
X-16.219 Y-15.62
X-16.212 Y-15.587
G3 X-19.212 Y-15.587 I-1.5 J0
X-16.212 Y-15.587 I1.5 J0
G1 X-16.216 Y-15.566
X-16.227 Y-15.548
X-16.244 Y-15.536
X-16.438 Y-15.429
X-16.441 Y-15.409
X-16.437 Y-15.39
X-16.427 Y-15.372
X-16.345 Y-15.28
X-16.332 Y-15.256
Y-15.228
G3 X-19.091 Y-15.946 Z-0.456 I-1.379 J-0.359 F333.3
X-16.287 Y-15.587 Z-0.6 I1.379 J0.359
G1 X-16.294 Y-15.565
X-16.312 Y-15.551
X-16.336
X-16.354 Y-15.565
X-16.361 Y-15.587
X-16.354 Y-15.62 F450
X-16.333 Y-15.646
X-16.303 Y-15.66
X-16.27
X-16.24 Y-15.646
X-16.219 Y-15.62
X-16.212 Y-15.587
G3 X-19.212 Y-15.587 I-1.5 J0
X-16.212 Y-15.587 I1.5 J0
G1 X-16.216 Y-15.566
X-16.227 Y-15.548
X-16.244 Y-15.536
X-16.438 Y-15.429
X-16.441 Y-15.409
X-16.437 Y-15.39
X-16.427 Y-15.372
X-16.345 Y-15.28
X-16.332 Y-15.256
Y-15.228
G3 X-19.091 Y-15.946 Z-0.756 I-1.379 J-0.359 F333.3
X-16.287 Y-15.587 Z-0.9 I1.379 J0.359
G1 X-16.294 Y-15.565
X-16.312 Y-15.551
X-16.336
X-16.354 Y-15.565
X-16.361 Y-15.587
X-16.354 Y-15.62 F450
X-16.333 Y-15.646
X-16.303 Y-15.66
X-16.27
X-16.24 Y-15.646
X-16.219 Y-15.62
X-16.212 Y-15.587
G3 X-19.212 Y-15.587 I-1.5 J0
X-16.212 Y-15.587 I1.5 J0
G1 X-16.216 Y-15.566
X-16.227 Y-15.548
X-16.244 Y-15.536
X-16.438 Y-15.429
X-16.441 Y-15.409
X-16.437 Y-15.39
X-16.427 Y-15.372
X-16.345 Y-15.28
X-16.332 Y-15.256
Y-15.228
G3 X-19.091 Y-15.946 Z-1.056 I-1.379 J-0.359 F333.3
X-16.287 Y-15.587 Z-1.2 I1.379 J0.359
G1 X-16.294 Y-15.565
X-16.312 Y-15.551
X-16.336
X-16.354 Y-15.565
X-16.361 Y-15.587
X-16.354 Y-15.62 F450
X-16.333 Y-15.646
X-16.303 Y-15.66
X-16.27
X-16.24 Y-15.646
X-16.219 Y-15.62
X-16.212 Y-15.587
G3 X-19.212 Y-15.587 I-1.5 J0
X-16.212 Y-15.587 I1.5 J0
X-16.516 Y-15.416 I-0.2 J0
G1 X-18.336 Y-16.525
G3 X-18.317 Y-16.877 I0.104 J-0.171
X-16.287 Y-15.587 Z-1.3 I0.605 J1.29 F333.3
G1 X-16.294 Y-15.565
X-16.312 Y-15.551
X-16.336
X-16.354 Y-15.565
X-16.361 Y-15.587
X-16.354 Y-15.62 F450
X-16.333 Y-15.646
X-16.303 Y-15.66
X-16.27
X-16.24 Y-15.646
X-16.219 Y-15.62
X-16.212 Y-15.587
G3 X-19.212 Y-15.587 I-1.5 J0
X-16.212 Y-15.587 I1.5 J0
G1 X-16.217 Y-15.53 Z-1.289
X-16.233 Y-15.475 Z-1.277
X-16.255 Y-15.432 Z-1.245
X-16.283 Y-15.392 Z-1.212
X-16.331 Y-15.348 Z-1.115
X-16.349 Y-15.335 Z-1
G0 Z8
X-51.291 Y-15.476
G1 Z2.8 F450
X-51.294 Y-15.438 Z2.653 F333.3
X-51.309 Y-15.334 Z2.544
X-51.342 Y-15.192 Z2.5
G3 X-54.081 Y-15.982 Z2.344 I-1.369 J-0.395
X-51.342 Y-15.192 Z2.187 I1.369 J0.395
X-54.081 Y-15.982 Z2.031 I-1.369 J-0.395
X-51.342 Y-15.192 Z1.875 I1.369 J0.395
X-54.081 Y-15.982 Z1.718 I-1.369 J-0.395
X-51.342 Y-15.192 Z1.562 I1.369 J0.395
X-54.081 Y-15.982 Z1.406 I-1.369 J-0.395
X-51.342 Y-15.192 Z1.249 I1.369 J0.395
X-54.081 Y-15.982 Z1.093 I-1.369 J-0.395
X-51.342 Y-15.192 Z0.937 I1.369 J0.395
X-54.081 Y-15.982 Z0.78 I-1.369 J-0.395
X-51.342 Y-15.192 Z0.624 I1.369 J0.395
X-54.081 Y-15.982 Z0.468 I-1.369 J-0.395
X-51.342 Y-15.192 Z0.311 I1.369 J0.395
X-54.081 Y-15.982 Z0.155 I-1.369 J-0.395
X-51.342 Y-15.192 Z-0.001 I1.369 J0.395
X-54.081 Y-15.982 Z-0.158 I-1.369 J-0.395
X-51.286 Y-15.587 Z-0.3 I1.369 J0.395
G1 X-51.294 Y-15.565
X-51.312 Y-15.551
X-51.336
X-51.354 Y-15.565
X-51.361 Y-15.587
X-51.354 Y-15.62 F450
X-51.333 Y-15.646
X-51.303 Y-15.66
X-51.27
X-51.24 Y-15.646
X-51.219 Y-15.62
X-51.211 Y-15.587
G3 X-54.211 Y-15.587 I-1.5 J0
X-51.211 Y-15.587 I1.5 J0
G1 X-51.216 Y-15.566
X-51.227 Y-15.548
X-51.244 Y-15.536
X-51.438 Y-15.429
X-51.441 Y-15.409
X-51.437 Y-15.39
X-51.427 Y-15.372
X-51.345 Y-15.28
X-51.332 Y-15.256
Y-15.228
G3 X-54.091 Y-15.946 Z-0.456 I-1.379 J-0.359 F333.3
X-51.286 Y-15.587 Z-0.6 I1.379 J0.359
G1 X-51.294 Y-15.565
X-51.312 Y-15.551
X-51.336
X-51.354 Y-15.565
X-51.361 Y-15.587
X-51.354 Y-15.62 F450
X-51.333 Y-15.646
X-51.303 Y-15.66
X-51.27
X-51.24 Y-15.646
X-51.219 Y-15.62
X-51.211 Y-15.587
G3 X-54.211 Y-15.587 I-1.5 J0
X-51.211 Y-15.587 I1.5 J0
G1 X-51.216 Y-15.566
X-51.227 Y-15.548
X-51.244 Y-15.536
X-51.438 Y-15.429
X-51.441 Y-15.409
X-51.437 Y-15.39
X-51.427 Y-15.372
X-51.345 Y-15.28
X-51.332 Y-15.256
Y-15.228
G3 X-54.091 Y-15.946 Z-0.756 I-1.379 J-0.359 F333.3
X-51.286 Y-15.587 Z-0.9 I1.379 J0.359
G1 X-51.294 Y-15.565
X-51.312 Y-15.551
X-51.336
X-51.354 Y-15.565
X-51.361 Y-15.587
X-51.354 Y-15.62 F450
X-51.333 Y-15.646
X-51.303 Y-15.66
X-51.27
X-51.24 Y-15.646
X-51.219 Y-15.62
X-51.211 Y-15.587
G3 X-54.211 Y-15.587 I-1.5 J0
X-51.211 Y-15.587 I1.5 J0
G1 X-51.216 Y-15.566
X-51.227 Y-15.548
X-51.244 Y-15.536
X-51.438 Y-15.429
X-51.441 Y-15.409
X-51.437 Y-15.39
X-51.427 Y-15.372
X-51.345 Y-15.28
X-51.332 Y-15.256
Y-15.228
G3 X-54.091 Y-15.946 Z-1.056 I-1.379 J-0.359 F333.3
X-51.286 Y-15.587 Z-1.2 I1.379 J0.359
G1 X-51.294 Y-15.565
X-51.312 Y-15.551
X-51.336
X-51.354 Y-15.565
X-51.361 Y-15.587
X-51.354 Y-15.62 F450
X-51.333 Y-15.646
X-51.303 Y-15.66
X-51.27
X-51.24 Y-15.646
X-51.219 Y-15.62
X-51.211 Y-15.587
G3 X-54.211 Y-15.587 I-1.5 J0
X-51.211 Y-15.587 I1.5 J0
X-51.516 Y-15.416 I-0.2 J0
G1 X-53.336 Y-16.525
G3 X-53.317 Y-16.877 I0.104 J-0.171
X-51.286 Y-15.587 Z-1.3 I0.605 J1.29 F333.3
G1 X-51.294 Y-15.565
X-51.312 Y-15.551
X-51.336
X-51.354 Y-15.565
X-51.361 Y-15.587
X-51.354 Y-15.62 F450
X-51.333 Y-15.646
X-51.303 Y-15.66
X-51.27
X-51.24 Y-15.646
X-51.219 Y-15.62
X-51.211 Y-15.587
G3 X-54.211 Y-15.587 I-1.5 J0
X-51.211 Y-15.587 I1.5 J0
G1 X-51.217 Y-15.53 Z-1.289
X-51.233 Y-15.475 Z-1.277
X-51.255 Y-15.432 Z-1.245
X-51.283 Y-15.392 Z-1.212
X-51.331 Y-15.348 Z-1.115
X-51.349 Y-15.335 Z-1
G0 Z8
X-51.291 Y25.524
G1 Z2.8 F450
X-51.294 Y25.562 Z2.653 F333.3
X-51.309 Y25.666 Z2.544
X-51.342 Y25.808 Z2.5
G3 X-54.081 Y25.018 Z2.344 I-1.369 J-0.395
X-51.342 Y25.808 Z2.187 I1.369 J0.395
X-54.081 Y25.018 Z2.031 I-1.369 J-0.395
X-51.342 Y25.808 Z1.875 I1.369 J0.395
X-54.081 Y25.018 Z1.718 I-1.369 J-0.395
X-51.342 Y25.808 Z1.562 I1.369 J0.395
X-54.081 Y25.018 Z1.406 I-1.369 J-0.395
X-51.342 Y25.808 Z1.249 I1.369 J0.395
X-54.081 Y25.018 Z1.093 I-1.369 J-0.395
X-51.342 Y25.808 Z0.937 I1.369 J0.395
X-54.081 Y25.018 Z0.78 I-1.369 J-0.395
X-51.342 Y25.808 Z0.624 I1.369 J0.395
X-54.081 Y25.018 Z0.468 I-1.369 J-0.395
X-51.342 Y25.808 Z0.311 I1.369 J0.395
X-54.081 Y25.018 Z0.155 I-1.369 J-0.395
X-51.342 Y25.808 Z-0.001 I1.369 J0.395
X-54.081 Y25.018 Z-0.158 I-1.369 J-0.395
X-51.286 Y25.413 Z-0.3 I1.369 J0.395
G1 X-51.294 Y25.435
X-51.312 Y25.449
X-51.336
X-51.354 Y25.435
X-51.361 Y25.413
X-51.354 Y25.38 F450
X-51.333 Y25.354
X-51.303 Y25.34
X-51.27
X-51.24 Y25.354
X-51.219 Y25.38
X-51.211 Y25.413
G3 X-54.211 Y25.413 I-1.5 J0
X-51.211 Y25.413 I1.5 J0
G1 X-51.216 Y25.434
X-51.227 Y25.452
X-51.244 Y25.464
X-51.438 Y25.571
X-51.441 Y25.591
X-51.437 Y25.61
X-51.427 Y25.628
X-51.345 Y25.72
X-51.332 Y25.744
Y25.772
G3 X-54.091 Y25.054 Z-0.456 I-1.379 J-0.359 F333.3
X-51.286 Y25.413 Z-0.6 I1.379 J0.359
G1 X-51.294 Y25.435
X-51.312 Y25.449
X-51.336
X-51.354 Y25.435
X-51.361 Y25.413
X-51.354 Y25.38 F450
X-51.333 Y25.354
X-51.303 Y25.34
X-51.27
X-51.24 Y25.354
X-51.219 Y25.38
X-51.211 Y25.413
G3 X-54.211 Y25.413 I-1.5 J0
X-51.211 Y25.413 I1.5 J0
G1 X-51.216 Y25.434
X-51.227 Y25.452
X-51.244 Y25.464
X-51.438 Y25.571
X-51.441 Y25.591
X-51.437 Y25.61
X-51.427 Y25.628
X-51.345 Y25.72
X-51.332 Y25.744
Y25.772
G3 X-54.091 Y25.054 Z-0.756 I-1.379 J-0.359 F333.3
X-51.286 Y25.413 Z-0.9 I1.379 J0.359
G1 X-51.294 Y25.435
X-51.312 Y25.449
X-51.336
X-51.354 Y25.435
X-51.361 Y25.413
X-51.354 Y25.38 F450
X-51.333 Y25.354
X-51.303 Y25.34
X-51.27
X-51.24 Y25.354
X-51.219 Y25.38
X-51.211 Y25.413
G3 X-54.211 Y25.413 I-1.5 J0
X-51.211 Y25.413 I1.5 J0
G1 X-51.216 Y25.434
X-51.227 Y25.452
X-51.244 Y25.464
X-51.438 Y25.571
X-51.441 Y25.591
X-51.437 Y25.61
X-51.427 Y25.628
X-51.345 Y25.72
X-51.332 Y25.744
Y25.772
G3 X-54.091 Y25.054 Z-1.056 I-1.379 J-0.359 F333.3
X-51.286 Y25.413 Z-1.2 I1.379 J0.359
G1 X-51.294 Y25.435
X-51.312 Y25.449
X-51.336
X-51.354 Y25.435
X-51.361 Y25.413
X-51.354 Y25.38 F450
X-51.333 Y25.354
X-51.303 Y25.34
X-51.27
X-51.24 Y25.354
X-51.219 Y25.38
X-51.211 Y25.413
G3 X-54.211 Y25.413 I-1.5 J0
X-51.211 Y25.413 I1.5 J0
X-51.516 Y25.584 I-0.2 J0
G1 X-53.336 Y24.475
G3 X-53.317 Y24.123 I0.104 J-0.171
X-51.286 Y25.413 Z-1.3 I0.605 J1.29 F333.3
G1 X-51.294 Y25.435
X-51.312 Y25.449
X-51.336
X-51.354 Y25.435
X-51.361 Y25.413
X-51.354 Y25.38 F450
X-51.333 Y25.354
X-51.303 Y25.34
X-51.27
X-51.24 Y25.354
X-51.219 Y25.38
X-51.211 Y25.413
G3 X-54.211 Y25.413 I-1.5 J0
X-51.211 Y25.413 I1.5 J0
G1 X-51.217 Y25.47 Z-1.289
X-51.233 Y25.525 Z-1.277
X-51.255 Y25.568 Z-1.245
X-51.283 Y25.608 Z-1.212
X-51.331 Y25.652 Z-1.115
X-51.349 Y25.665 Z-1
G0 Z8
X-16.291 Y25.524
G1 Z2.8 F450
X-16.294 Y25.562 Z2.653 F333.3
X-16.309 Y25.666 Z2.544
X-16.342 Y25.808 Z2.5
G3 X-19.081 Y25.018 Z2.344 I-1.369 J-0.395
X-16.342 Y25.808 Z2.187 I1.369 J0.395
X-19.081 Y25.018 Z2.031 I-1.369 J-0.395
X-16.342 Y25.808 Z1.875 I1.369 J0.395
X-19.081 Y25.018 Z1.718 I-1.369 J-0.395
X-16.342 Y25.808 Z1.562 I1.369 J0.395
X-19.081 Y25.018 Z1.406 I-1.369 J-0.395
X-16.342 Y25.808 Z1.249 I1.369 J0.395
X-19.081 Y25.018 Z1.093 I-1.369 J-0.395
X-16.342 Y25.808 Z0.937 I1.369 J0.395
X-19.081 Y25.018 Z0.78 I-1.369 J-0.395
X-16.342 Y25.808 Z0.624 I1.369 J0.395
X-19.081 Y25.018 Z0.468 I-1.369 J-0.395
X-16.342 Y25.808 Z0.311 I1.369 J0.395
X-19.081 Y25.018 Z0.155 I-1.369 J-0.395
X-16.342 Y25.808 Z-0.001 I1.369 J0.395
X-19.081 Y25.018 Z-0.158 I-1.369 J-0.395
X-16.287 Y25.413 Z-0.3 I1.369 J0.395
G1 X-16.294 Y25.435
X-16.312 Y25.449
X-16.336
X-16.354 Y25.435
X-16.361 Y25.413
X-16.354 Y25.38 F450
X-16.333 Y25.354
X-16.303 Y25.34
X-16.27
X-16.24 Y25.354
X-16.219 Y25.38
X-16.212 Y25.413
G3 X-19.212 Y25.413 I-1.5 J0
X-16.212 Y25.413 I1.5 J0
G1 X-16.216 Y25.434
X-16.227 Y25.452
X-16.244 Y25.464
X-16.438 Y25.571
X-16.441 Y25.591
X-16.437 Y25.61
X-16.427 Y25.628
X-16.345 Y25.72
X-16.332 Y25.744
Y25.772
G3 X-19.091 Y25.054 Z-0.456 I-1.379 J-0.359 F333.3
X-16.287 Y25.413 Z-0.6 I1.379 J0.359
G1 X-16.294 Y25.435
X-16.312 Y25.449
X-16.336
X-16.354 Y25.435
X-16.361 Y25.413
X-16.354 Y25.38 F450
X-16.333 Y25.354
X-16.303 Y25.34
X-16.27
X-16.24 Y25.354
X-16.219 Y25.38
X-16.212 Y25.413
G3 X-19.212 Y25.413 I-1.5 J0
X-16.212 Y25.413 I1.5 J0
G1 X-16.216 Y25.434
X-16.227 Y25.452
X-16.244 Y25.464
X-16.438 Y25.571
X-16.441 Y25.591
X-16.437 Y25.61
X-16.427 Y25.628
X-16.345 Y25.72
X-16.332 Y25.744
Y25.772
G3 X-19.091 Y25.054 Z-0.756 I-1.379 J-0.359 F333.3
X-16.287 Y25.413 Z-0.9 I1.379 J0.359
G1 X-16.294 Y25.435
X-16.312 Y25.449
X-16.336
X-16.354 Y25.435
X-16.361 Y25.413
X-16.354 Y25.38 F450
X-16.333 Y25.354
X-16.303 Y25.34
X-16.27
X-16.24 Y25.354
X-16.219 Y25.38
X-16.212 Y25.413
G3 X-19.212 Y25.413 I-1.5 J0
X-16.212 Y25.413 I1.5 J0
G1 X-16.216 Y25.434
X-16.227 Y25.452
X-16.244 Y25.464
X-16.438 Y25.571
X-16.441 Y25.591
X-16.437 Y25.61
X-16.427 Y25.628
X-16.345 Y25.72
X-16.332 Y25.744
Y25.772
G3 X-19.091 Y25.054 Z-1.056 I-1.379 J-0.359 F333.3
X-16.287 Y25.413 Z-1.2 I1.379 J0.359
G1 X-16.294 Y25.435
X-16.312 Y25.449
X-16.336
X-16.354 Y25.435
X-16.361 Y25.413
X-16.354 Y25.38 F450
X-16.333 Y25.354
X-16.303 Y25.34
X-16.27
X-16.24 Y25.354
X-16.219 Y25.38
X-16.212 Y25.413
G3 X-19.212 Y25.413 I-1.5 J0
X-16.212 Y25.413 I1.5 J0
X-16.516 Y25.584 I-0.2 J0
G1 X-18.336 Y24.475
G3 X-18.317 Y24.123 I0.104 J-0.171
X-16.287 Y25.413 Z-1.3 I0.605 J1.29 F333.3
G1 X-16.294 Y25.435
X-16.312 Y25.449
X-16.336
X-16.354 Y25.435
X-16.361 Y25.413
X-16.354 Y25.38 F450
X-16.333 Y25.354
X-16.303 Y25.34
X-16.27
X-16.24 Y25.354
X-16.219 Y25.38
X-16.212 Y25.413
G3 X-19.212 Y25.413 I-1.5 J0
X-16.212 Y25.413 I1.5 J0
G1 X-16.217 Y25.47 Z-1.289
X-16.233 Y25.525 Z-1.277
X-16.255 Y25.568 Z-1.245
X-16.283 Y25.608 Z-1.212
X-16.331 Y25.652 Z-1.115
X-16.349 Y25.665 Z-1
G0 Z8
X18.709 Y25.524
G1 Z2.8 F450
X18.706 Y25.562 Z2.653 F333.3
X18.691 Y25.666 Z2.544
X18.658 Y25.808 Z2.5
G3 X15.919 Y25.018 Z2.344 I-1.369 J-0.395
X18.658 Y25.808 Z2.187 I1.369 J0.395
X15.919 Y25.018 Z2.031 I-1.369 J-0.395
X18.658 Y25.808 Z1.875 I1.369 J0.395
X15.919 Y25.018 Z1.718 I-1.369 J-0.395
X18.658 Y25.808 Z1.562 I1.369 J0.395
X15.919 Y25.018 Z1.406 I-1.369 J-0.395
X18.658 Y25.808 Z1.249 I1.369 J0.395
X15.919 Y25.018 Z1.093 I-1.369 J-0.395
X18.658 Y25.808 Z0.937 I1.369 J0.395
X15.919 Y25.018 Z0.78 I-1.369 J-0.395
X18.658 Y25.808 Z0.624 I1.369 J0.395
X15.919 Y25.018 Z0.468 I-1.369 J-0.395
X18.658 Y25.808 Z0.311 I1.369 J0.395
X15.919 Y25.018 Z0.155 I-1.369 J-0.395
X18.658 Y25.808 Z-0.001 I1.369 J0.395
X15.919 Y25.018 Z-0.158 I-1.369 J-0.395
X18.713 Y25.413 Z-0.3 I1.369 J0.395
G1 X18.706 Y25.435
X18.688 Y25.449
X18.664
X18.646 Y25.435
X18.639 Y25.413
X18.646 Y25.38 F450
X18.667 Y25.354
X18.697 Y25.34
X18.73
X18.76 Y25.354
X18.781 Y25.38
X18.788 Y25.413
G3 X15.788 Y25.413 I-1.5 J0
X18.788 Y25.413 I1.5 J0
G1 X18.784 Y25.434
X18.773 Y25.452
X18.756 Y25.464
X18.562 Y25.571
X18.559 Y25.591
X18.563 Y25.61
X18.573 Y25.628
X18.655 Y25.72
X18.668 Y25.744
Y25.772
G3 X15.909 Y25.054 Z-0.456 I-1.379 J-0.359 F333.3
X18.713 Y25.413 Z-0.6 I1.379 J0.359
G1 X18.706 Y25.435
X18.688 Y25.449
X18.664
X18.646 Y25.435
X18.639 Y25.413
X18.646 Y25.38 F450
X18.667 Y25.354
X18.697 Y25.34
X18.73
X18.76 Y25.354
X18.781 Y25.38
X18.788 Y25.413
G3 X15.788 Y25.413 I-1.5 J0
X18.788 Y25.413 I1.5 J0
G1 X18.784 Y25.434
X18.773 Y25.452
X18.756 Y25.464
X18.562 Y25.571
X18.559 Y25.591
X18.563 Y25.61
X18.573 Y25.628
X18.655 Y25.72
X18.668 Y25.744
Y25.772
G3 X15.909 Y25.054 Z-0.756 I-1.379 J-0.359 F333.3
X18.713 Y25.413 Z-0.9 I1.379 J0.359
G1 X18.706 Y25.435
X18.688 Y25.449
X18.664
X18.646 Y25.435
X18.639 Y25.413
X18.646 Y25.38 F450
X18.667 Y25.354
X18.697 Y25.34
X18.73
X18.76 Y25.354
X18.781 Y25.38
X18.788 Y25.413
G3 X15.788 Y25.413 I-1.5 J0
X18.788 Y25.413 I1.5 J0
G1 X18.784 Y25.434
X18.773 Y25.452
X18.756 Y25.464
X18.562 Y25.571
X18.559 Y25.591
X18.563 Y25.61
X18.573 Y25.628
X18.655 Y25.72
X18.668 Y25.744
Y25.772
G3 X15.909 Y25.054 Z-1.056 I-1.379 J-0.359 F333.3
X18.713 Y25.413 Z-1.2 I1.379 J0.359
G1 X18.706 Y25.435
X18.688 Y25.449
X18.664
X18.646 Y25.435
X18.639 Y25.413
X18.646 Y25.38 F450
X18.667 Y25.354
X18.697 Y25.34
X18.73
X18.76 Y25.354
X18.781 Y25.38
X18.788 Y25.413
G3 X15.788 Y25.413 I-1.5 J0
X18.788 Y25.413 I1.5 J0
X18.484 Y25.584 I-0.2 J0
G1 X16.664 Y24.475
G3 X16.683 Y24.123 I0.104 J-0.171
X18.713 Y25.413 Z-1.3 I0.605 J1.29 F333.3
G1 X18.706 Y25.435
X18.688 Y25.449
X18.664
X18.646 Y25.435
X18.639 Y25.413
X18.646 Y25.38 F450
X18.667 Y25.354
X18.697 Y25.34
X18.73
X18.76 Y25.354
X18.781 Y25.38
X18.788 Y25.413
G3 X15.788 Y25.413 I-1.5 J0
X18.788 Y25.413 I1.5 J0
G1 X18.783 Y25.47 Z-1.289
X18.767 Y25.525 Z-1.277
X18.745 Y25.568 Z-1.245
X18.717 Y25.608 Z-1.212
X18.669 Y25.652 Z-1.115
X18.651 Y25.665 Z-1
G0 Z8
X53.709 Y25.524
G1 Z2.8 F450
X53.706 Y25.562 Z2.653 F333.3
X53.691 Y25.666 Z2.544
X53.658 Y25.808 Z2.5
G3 X50.919 Y25.018 Z2.344 I-1.369 J-0.395
X53.658 Y25.808 Z2.187 I1.369 J0.395
X50.919 Y25.018 Z2.031 I-1.369 J-0.395
X53.658 Y25.808 Z1.875 I1.369 J0.395
X50.919 Y25.018 Z1.718 I-1.369 J-0.395
X53.658 Y25.808 Z1.562 I1.369 J0.395
X50.919 Y25.018 Z1.406 I-1.369 J-0.395
X53.658 Y25.808 Z1.249 I1.369 J0.395
X50.919 Y25.018 Z1.093 I-1.369 J-0.395
X53.658 Y25.808 Z0.937 I1.369 J0.395
X50.919 Y25.018 Z0.78 I-1.369 J-0.395
X53.658 Y25.808 Z0.624 I1.369 J0.395
X50.919 Y25.018 Z0.468 I-1.369 J-0.395
X53.658 Y25.808 Z0.311 I1.369 J0.395
X50.919 Y25.018 Z0.155 I-1.369 J-0.395
X53.658 Y25.808 Z-0.001 I1.369 J0.395
X50.919 Y25.018 Z-0.158 I-1.369 J-0.395
X53.714 Y25.413 Z-0.3 I1.369 J0.395
G1 X53.706 Y25.435
X53.688 Y25.449
X53.664
X53.646 Y25.435
X53.639 Y25.413
X53.646 Y25.38 F450
X53.667 Y25.354
X53.697 Y25.34
X53.73
X53.76 Y25.354
X53.781 Y25.38
X53.789 Y25.413
G3 X50.789 Y25.413 I-1.5 J0
X53.789 Y25.413 I1.5 J0
G1 X53.784 Y25.434
X53.773 Y25.452
X53.756 Y25.464
X53.562 Y25.571
X53.559 Y25.591
X53.563 Y25.61
X53.573 Y25.628
X53.655 Y25.72
X53.668 Y25.744
Y25.772
G3 X50.909 Y25.054 Z-0.456 I-1.379 J-0.359 F333.3
X53.714 Y25.413 Z-0.6 I1.379 J0.359
G1 X53.706 Y25.435
X53.688 Y25.449
X53.664
X53.646 Y25.435
X53.639 Y25.413
X53.646 Y25.38 F450
X53.667 Y25.354
X53.697 Y25.34
X53.73
X53.76 Y25.354
X53.781 Y25.38
X53.789 Y25.413
G3 X50.789 Y25.413 I-1.5 J0
X53.789 Y25.413 I1.5 J0
G1 X53.784 Y25.434
X53.773 Y25.452
X53.756 Y25.464
X53.562 Y25.571
X53.559 Y25.591
X53.563 Y25.61
X53.573 Y25.628
X53.655 Y25.72
X53.668 Y25.744
Y25.772
G3 X50.909 Y25.054 Z-0.756 I-1.379 J-0.359 F333.3
X53.714 Y25.413 Z-0.9 I1.379 J0.359
G1 X53.706 Y25.435
X53.688 Y25.449
X53.664
X53.646 Y25.435
X53.639 Y25.413
X53.646 Y25.38 F450
X53.667 Y25.354
X53.697 Y25.34
X53.73
X53.76 Y25.354
X53.781 Y25.38
X53.789 Y25.413
G3 X50.789 Y25.413 I-1.5 J0
X53.789 Y25.413 I1.5 J0
G1 X53.784 Y25.434
X53.773 Y25.452
X53.756 Y25.464
X53.562 Y25.571
X53.559 Y25.591
X53.563 Y25.61
X53.573 Y25.628
X53.655 Y25.72
X53.668 Y25.744
Y25.772
G3 X50.909 Y25.054 Z-1.056 I-1.379 J-0.359 F333.3
X53.714 Y25.413 Z-1.2 I1.379 J0.359
G1 X53.706 Y25.435
X53.688 Y25.449
X53.664
X53.646 Y25.435
X53.639 Y25.413
X53.646 Y25.38 F450
X53.667 Y25.354
X53.697 Y25.34
X53.73
X53.76 Y25.354
X53.781 Y25.38
X53.789 Y25.413
G3 X50.789 Y25.413 I-1.5 J0
X53.789 Y25.413 I1.5 J0
X53.484 Y25.584 I-0.2 J0
G1 X51.664 Y24.475
G3 X51.683 Y24.123 I0.104 J-0.171
X53.714 Y25.413 Z-1.3 I0.605 J1.29 F333.3
G1 X53.706 Y25.435
X53.688 Y25.449
X53.664
X53.646 Y25.435
X53.639 Y25.413
X53.646 Y25.38 F450
X53.667 Y25.354
X53.697 Y25.34
X53.73
X53.76 Y25.354
X53.781 Y25.38
X53.789 Y25.413
G3 X50.789 Y25.413 I-1.5 J0
X53.789 Y25.413 I1.5 J0
G1 X53.783 Y25.47 Z-1.289
X53.767 Y25.525 Z-1.277
X53.745 Y25.568 Z-1.245
X53.717 Y25.608 Z-1.212
X53.669 Y25.652 Z-1.115
X53.651 Y25.665 Z-1
G0 Z8
X53.709 Y-15.476
G1 Z2.8 F450
X53.706 Y-15.438 Z2.653 F333.3
X53.691 Y-15.334 Z2.544
X53.658 Y-15.192 Z2.5
G3 X50.919 Y-15.982 Z2.344 I-1.369 J-0.395
X53.658 Y-15.192 Z2.187 I1.369 J0.395
X50.919 Y-15.982 Z2.031 I-1.369 J-0.395
X53.658 Y-15.192 Z1.875 I1.369 J0.395
X50.919 Y-15.982 Z1.718 I-1.369 J-0.395
X53.658 Y-15.192 Z1.562 I1.369 J0.395
X50.919 Y-15.982 Z1.406 I-1.369 J-0.395
X53.658 Y-15.192 Z1.249 I1.369 J0.395
X50.919 Y-15.982 Z1.093 I-1.369 J-0.395
X53.658 Y-15.192 Z0.937 I1.369 J0.395
X50.919 Y-15.982 Z0.78 I-1.369 J-0.395
X53.658 Y-15.192 Z0.624 I1.369 J0.395
X50.919 Y-15.982 Z0.468 I-1.369 J-0.395
X53.658 Y-15.192 Z0.311 I1.369 J0.395
X50.919 Y-15.982 Z0.155 I-1.369 J-0.395
X53.658 Y-15.192 Z-0.001 I1.369 J0.395
X50.919 Y-15.982 Z-0.158 I-1.369 J-0.395
X53.714 Y-15.587 Z-0.3 I1.369 J0.395
G1 X53.706 Y-15.565
X53.688 Y-15.551
X53.664
X53.646 Y-15.565
X53.639 Y-15.587
X53.646 Y-15.62 F450
X53.667 Y-15.646
X53.697 Y-15.66
X53.73
X53.76 Y-15.646
X53.781 Y-15.62
X53.789 Y-15.587
G3 X50.789 Y-15.587 I-1.5 J0
X53.789 Y-15.587 I1.5 J0
G1 X53.784 Y-15.566
X53.773 Y-15.548
X53.756 Y-15.536
X53.562 Y-15.429
X53.559 Y-15.409
X53.563 Y-15.39
X53.573 Y-15.372
X53.655 Y-15.28
X53.668 Y-15.256
Y-15.228
G3 X50.909 Y-15.946 Z-0.456 I-1.379 J-0.359 F333.3
X53.714 Y-15.587 Z-0.6 I1.379 J0.359
G1 X53.706 Y-15.565
X53.688 Y-15.551
X53.664
X53.646 Y-15.565
X53.639 Y-15.587
X53.646 Y-15.62 F450
X53.667 Y-15.646
X53.697 Y-15.66
X53.73
X53.76 Y-15.646
X53.781 Y-15.62
X53.789 Y-15.587
G3 X50.789 Y-15.587 I-1.5 J0
X53.789 Y-15.587 I1.5 J0
G1 X53.784 Y-15.566
X53.773 Y-15.548
X53.756 Y-15.536
X53.562 Y-15.429
X53.559 Y-15.409
X53.563 Y-15.39
X53.573 Y-15.372
X53.655 Y-15.28
X53.668 Y-15.256
Y-15.228
G3 X50.909 Y-15.946 Z-0.756 I-1.379 J-0.359 F333.3
X53.714 Y-15.587 Z-0.9 I1.379 J0.359
G1 X53.706 Y-15.565
X53.688 Y-15.551
X53.664
X53.646 Y-15.565
X53.639 Y-15.587
X53.646 Y-15.62 F450
X53.667 Y-15.646
X53.697 Y-15.66
X53.73
X53.76 Y-15.646
X53.781 Y-15.62
X53.789 Y-15.587
G3 X50.789 Y-15.587 I-1.5 J0
X53.789 Y-15.587 I1.5 J0
G1 X53.784 Y-15.566
X53.773 Y-15.548
X53.756 Y-15.536
X53.562 Y-15.429
X53.559 Y-15.409
X53.563 Y-15.39
X53.573 Y-15.372
X53.655 Y-15.28
X53.668 Y-15.256
Y-15.228
G3 X50.909 Y-15.946 Z-1.056 I-1.379 J-0.359 F333.3
X53.714 Y-15.587 Z-1.2 I1.379 J0.359
G1 X53.706 Y-15.565
X53.688 Y-15.551
X53.664
X53.646 Y-15.565
X53.639 Y-15.587
X53.646 Y-15.62 F450
X53.667 Y-15.646
X53.697 Y-15.66
X53.73
X53.76 Y-15.646
X53.781 Y-15.62
X53.789 Y-15.587
G3 X50.789 Y-15.587 I-1.5 J0
X53.789 Y-15.587 I1.5 J0
X53.484 Y-15.416 I-0.2 J0
G1 X51.664 Y-16.525
G3 X51.683 Y-16.877 I0.104 J-0.171
X53.714 Y-15.587 Z-1.3 I0.605 J1.29 F333.3
G1 X53.706 Y-15.565
X53.688 Y-15.551
X53.664
X53.646 Y-15.565
X53.639 Y-15.587
X53.646 Y-15.62 F450
X53.667 Y-15.646
X53.697 Y-15.66
X53.73
X53.76 Y-15.646
X53.781 Y-15.62
X53.789 Y-15.587
G3 X50.789 Y-15.587 I-1.5 J0
X53.789 Y-15.587 I1.5 J0
G1 X53.783 Y-15.53 Z-1.289
X53.767 Y-15.475 Z-1.277
X53.745 Y-15.432 Z-1.245
X53.717 Y-15.392 Z-1.212
X53.669 Y-15.348 Z-1.115
X53.651 Y-15.335 Z-1
G0 Z8
X18.709 Y-15.476
G1 Z2.8 F450
X18.706 Y-15.438 Z2.653 F333.3
X18.691 Y-15.334 Z2.544
X18.658 Y-15.192 Z2.5
G3 X15.919 Y-15.982 Z2.344 I-1.369 J-0.395
X18.658 Y-15.192 Z2.187 I1.369 J0.395
X15.919 Y-15.982 Z2.031 I-1.369 J-0.395
X18.658 Y-15.192 Z1.875 I1.369 J0.395
X15.919 Y-15.982 Z1.718 I-1.369 J-0.395
X18.658 Y-15.192 Z1.562 I1.369 J0.395
X15.919 Y-15.982 Z1.406 I-1.369 J-0.395
X18.658 Y-15.192 Z1.249 I1.369 J0.395
X15.919 Y-15.982 Z1.093 I-1.369 J-0.395
X18.658 Y-15.192 Z0.937 I1.369 J0.395
X15.919 Y-15.982 Z0.78 I-1.369 J-0.395
X18.658 Y-15.192 Z0.624 I1.369 J0.395
X15.919 Y-15.982 Z0.468 I-1.369 J-0.395
X18.658 Y-15.192 Z0.311 I1.369 J0.395
X15.919 Y-15.982 Z0.155 I-1.369 J-0.395
X18.658 Y-15.192 Z-0.001 I1.369 J0.395
X15.919 Y-15.982 Z-0.158 I-1.369 J-0.395
X18.713 Y-15.587 Z-0.3 I1.369 J0.395
G1 X18.706 Y-15.565
X18.688 Y-15.551
X18.664
X18.646 Y-15.565
X18.639 Y-15.587
X18.646 Y-15.62 F450
X18.667 Y-15.646
X18.697 Y-15.66
X18.73
X18.76 Y-15.646
X18.781 Y-15.62
X18.788 Y-15.587
G3 X15.788 Y-15.587 I-1.5 J0
X18.788 Y-15.587 I1.5 J0
G1 X18.784 Y-15.566
X18.773 Y-15.548
X18.756 Y-15.536
X18.562 Y-15.429
X18.559 Y-15.409
X18.563 Y-15.39
X18.573 Y-15.372
X18.655 Y-15.28
X18.668 Y-15.256
Y-15.228
G3 X15.909 Y-15.946 Z-0.456 I-1.379 J-0.359 F333.3
X18.713 Y-15.587 Z-0.6 I1.379 J0.359
G1 X18.706 Y-15.565
X18.688 Y-15.551
X18.664
X18.646 Y-15.565
X18.639 Y-15.587
X18.646 Y-15.62 F450
X18.667 Y-15.646
X18.697 Y-15.66
X18.73
X18.76 Y-15.646
X18.781 Y-15.62
X18.788 Y-15.587
G3 X15.788 Y-15.587 I-1.5 J0
X18.788 Y-15.587 I1.5 J0
G1 X18.784 Y-15.566
X18.773 Y-15.548
X18.756 Y-15.536
X18.562 Y-15.429
X18.559 Y-15.409
X18.563 Y-15.39
X18.573 Y-15.372
X18.655 Y-15.28
X18.668 Y-15.256
Y-15.228
G3 X15.909 Y-15.946 Z-0.756 I-1.379 J-0.359 F333.3
X18.713 Y-15.587 Z-0.9 I1.379 J0.359
G1 X18.706 Y-15.565
X18.688 Y-15.551
X18.664
X18.646 Y-15.565
X18.639 Y-15.587
X18.646 Y-15.62 F450
X18.667 Y-15.646
X18.697 Y-15.66
X18.73
X18.76 Y-15.646
X18.781 Y-15.62
X18.788 Y-15.587
G3 X15.788 Y-15.587 I-1.5 J0
X18.788 Y-15.587 I1.5 J0
G1 X18.784 Y-15.566
X18.773 Y-15.548
X18.756 Y-15.536
X18.562 Y-15.429
X18.559 Y-15.409
X18.563 Y-15.39
X18.573 Y-15.372
X18.655 Y-15.28
X18.668 Y-15.256
Y-15.228
G3 X15.909 Y-15.946 Z-1.056 I-1.379 J-0.359 F333.3
X18.713 Y-15.587 Z-1.2 I1.379 J0.359
G1 X18.706 Y-15.565
X18.688 Y-15.551
X18.664
X18.646 Y-15.565
X18.639 Y-15.587
X18.646 Y-15.62 F450
X18.667 Y-15.646
X18.697 Y-15.66
X18.73
X18.76 Y-15.646
X18.781 Y-15.62
X18.788 Y-15.587
G3 X15.788 Y-15.587 I-1.5 J0
X18.788 Y-15.587 I1.5 J0
X18.484 Y-15.416 I-0.2 J0
G1 X16.664 Y-16.525
G3 X16.683 Y-16.877 I0.104 J-0.171
X18.713 Y-15.587 Z-1.3 I0.605 J1.29 F333.3
G1 X18.706 Y-15.565
X18.688 Y-15.551
X18.664
X18.646 Y-15.565
X18.639 Y-15.587
X18.646 Y-15.62 F450
X18.667 Y-15.646
X18.697 Y-15.66
X18.73
X18.76 Y-15.646
X18.781 Y-15.62
X18.788 Y-15.587
G3 X15.788 Y-15.587 I-1.5 J0
X18.788 Y-15.587 I1.5 J0
G1 X18.783 Y-15.53 Z-1.289
X18.767 Y-15.475 Z-1.277
X18.745 Y-15.432 Z-1.245
X18.717 Y-15.392 Z-1.212
X18.669 Y-15.348 Z-1.115
X18.651 Y-15.335 Z-1
G0 Z10

(2D Contour8)
Z15
X-13.977 Y21.501
Z5
G1 Z1 F200
Z0.3
X-13.982 Y21.506 Z0.233 F450
X-13.997 Y21.523 Z0.17
X-14.02 Y21.55 Z0.113
X-14.051 Y21.587 Z0.065
X-14.088 Y21.63 Z0.03
X-14.129 Y21.678 Z0.008
X-14.172 Y21.729 Z0
X-14.367 Y21.957
G3 X-14.79 Y21.99 I-0.228 J-0.195
G2 X-17.712 Y20.913 I-2.922 J3.423
X-17.712 Y29.913 I0 J4.5
X-13.212 Y25.413 I0 J-4.5
G1 Y25.386
G2 X-14.79 Y21.99 I-4.5 J0.027
G3 X-14.823 Y21.567 I0.195 J-0.228
G1 X-14.628 Y21.339
X-14.585 Y21.288 Z0.008
X-14.544 Y21.24 Z0.03
X-14.507 Y21.197 Z0.065
X-14.476 Y21.161 Z0.113
X-14.453 Y21.134 Z0.17
X-14.438 Y21.117 Z0.233
X-14.434 Y21.111 Z0.3
G0 Z5
X11.889 Y25.113
G1 Z1 F200
Z0.3
G18 G2 X12.189 Z0 I0.3 K0 F450
G1 X12.488
G17 G3 X12.788 Y25.413 I0 J0.3
G2 X21.788 Y25.413 I4.5 J0
G1 Y25.386
G2 X17.288 Y20.913 I-4.5 J0.027
X12.788 Y25.413 I0 J4.5
G3 X12.488 Y25.713 I-0.3 J0
G1 X12.189
G18 G3 X11.889 Z0.3 I0 K0.3
G0 Z5
X46.889 Y25.113
G1 Z1 F200
Z0.3
G2 X47.188 Z0 I0.3 K0 F450
G1 X47.488
G17 G3 X47.789 Y25.413 I0 J0.3
G2 X52.289 Y29.913 I4.5 J0
X56.304 Y27.445 I0 J-4.5
X56.789 Y25.413 I-4.015 J-2.032
X47.789 Y25.413 I-4.5 J0
G3 X47.488 Y25.713 I-0.3 J0
G1 X47.188
G18 G3 X46.889 Z0.3 I0 K0.3
G0 Z5
X52.021 Y-10.185
G1 Z1 F200
Z0.3
Y-10.193 Z0.233 F450
Y-10.215 Z0.17
Y-10.251 Z0.113
Y-10.298 Z0.065
X52.02 Y-10.355 Z0.03
Y-10.419 Z0.008
Y-10.485 Z0
X52.018 Y-10.785
G17 G3 X52.316 Y-11.087 I0.3 J-0.002
G2 X56.789 Y-15.587 I-0.027 J-4.5
X47.789 Y-15.587 I-4.5 J0
X52.289 Y-11.087 I4.5 J0
G1 X52.316
G3 X52.617 Y-10.788 I0.001 J0.3
G1 X52.618 Y-10.488
Y-10.421 Z0.008
Y-10.358 Z0.03
Y-10.301 Z0.065
Y-10.253 Z0.113
X52.619 Y-10.218 Z0.17
Y-10.196 Z0.233
Y-10.188 Z0.3
G0 Z5
X22.69 Y-15.32
G1 Z1 F200
Z0.3
X22.683 Z0.233 F450
X22.661 Z0.17
X22.625 Z0.113
X22.577 Y-15.319 Z0.065
X22.52 Z0.03
X22.457 Z0.008
X22.39 Y-15.318 Z0
X22.09 Y-15.316
G3 X21.788 Y-15.614 I-0.002 J-0.3
G2 X17.288 Y-20.087 I-4.5 J0.027
X17.288 Y-11.087 I0 J4.5
X21.788 Y-15.587 I0 J-4.5
G1 Y-15.614
G3 X22.088 Y-15.915 I0.3 J-0.001
G1 X22.388 Y-15.916
X22.454 Y-15.917 Z0.008
X22.518 Z0.03
X22.575 Z0.065
X22.622 Z0.113
X22.658 Z0.17
X22.68 Z0.233
X22.688 Z0.3
G0 Z5
X-12.311 Y-15.287
G1 Z1 F200
Z0.3
G18 G3 X-12.611 Z0 I-0.3 K0 F450
G1 X-12.911
G17 G3 X-13.212 Y-15.587 I0 J-0.3
G2 X-17.712 Y-20.087 I-4.5 J0
X-22.212 Y-15.614 I0 J4.5
G1 Y-15.587
G2 X-13.212 Y-15.587 I4.5 J0
G3 X-12.911 Y-15.887 I0.3 J0
G1 X-12.611
G18 G2 X-12.311 Z0.3 I0 K0.3
G0 Z5
X-47.312 Y-15.287
G1 Z1 F200
Z0.3
G3 X-47.611 Z0 I-0.3 K0 F450
G1 X-47.911
G17 G3 X-48.211 Y-15.587 I0 J-0.3
G2 X-57.211 Y-15.587 I-4.5 J0
X-52.739 Y-11.087 I4.5 J0
G1 X-52.711
G2 X-48.211 Y-15.587 I0 J-4.5
G3 X-47.911 Y-15.887 I0.3 J0
G1 X-47.611
G18 G2 X-47.312 Z0.3 I0 K0.3
G0 Z5
X-52.411 Y20.013
G1 Z1 F200
Z0.3
G19 G3 Y20.313 Z0 J0.3 K0 F450
G1 Y20.613
G17 G3 X-52.711 Y20.913 I-0.3 J0
G2 X-57.211 Y25.413 I0 J4.5
X-56.727 Y27.445 I4.5 J0
X-52.711 Y29.913 I4.015 J-2.032
X-52.711 Y20.913 I0 J-4.5
G3 X-53.012 Y20.613 I0 J-0.3
G1 Y20.313
G19 G2 Y20.013 Z0.3 J0 K0.3
G0 Z15
G17
M9
M5
M30
