(1001)
(Machine)
(  vendor: Autodesk)
(  description: Generic 3-axis)
(T3  D=3 CR=0 - ZMIN=-4.8 - flat end mill)
G90 G94
G17
G21

(2D Contour6)
T3
S1000 M3
G54
M8
G0 X11.976 Y-9.514
Z15
Z5
G1 Z2 F200
Z-0.7
X11.974 Y-9.506 Z-0.767 F450
X11.97 Y-9.485 Z-0.83
X11.963 Y-9.45 Z-0.887
X11.954 Y-9.403 Z-0.935
X11.942 Y-9.347 Z-0.97
X11.93 Y-9.285 Z-0.992
X11.917 Y-9.22 Z-1
X11.858 Y-8.926
G3 X11.505 Y-8.69 I-0.294 J-0.059
G2 X9.74 Y-7.513 I-0.294 J1.471 F250
G3 X4.837 Y-8.494 I-2.451 J-0.49
X7.045 Y-10.492 I2.451 J0.49
G2 X8.391 Y-12.131 I-0.146 J-1.493
G1 X6.672 Y-29.669
G2 X5.032 Y-31.016 I-1.493 J0.146
G3 X4.545 Y-35.992 I-0.244 J-2.488
X7.288 Y-33.504 I0.244 J2.488
G2 X8.788 Y-32.004 I1.5 J0
G1 X25.788
G2 X27.288 Y-33.504 I0 J-1.5
G3 X32.288 Y-33.504 I2.5 J0
X29.545 Y-31.016 I-2.5 J0
G2 X27.905 Y-29.669 I-0.146 J1.493
G1 X26.186 Y-12.131
G2 X27.532 Y-10.492 I1.493 J0.146
G3 X27.045 Y-5.516 I-0.244 J2.488
X24.837 Y-7.514 I0.244 J-2.488
G2 X23.072 Y-8.69 I-1.471 J0.294
G1 X20.917 Y-8.259
G2 X19.74 Y-6.494 I0.294 J1.471
G3 X14.837 Y-5.514 I-2.451 J0.49
X14.837 Y-6.494 I2.451 J-0.49
G2 X13.66 Y-8.259 I-1.471 J-0.294
G1 X11.505 Y-8.69
G3 X11.27 Y-9.043 I0.059 J-0.294 F450
G1 X11.328 Y-9.337
X11.342 Y-9.403 Z-0.992
X11.354 Y-9.465 Z-0.97
X11.365 Y-9.521 Z-0.935
X11.374 Y-9.567 Z-0.887
X11.382 Y-9.602 Z-0.83
X11.386 Y-9.624 Z-0.767
X11.387 Y-9.632 Z-0.7
G0 Z5
X11.976 Y-9.514
G1 Z1 F200
Z-1.7
X11.974 Y-9.506 Z-1.767 F450
X11.97 Y-9.485 Z-1.83
X11.963 Y-9.45 Z-1.887
X11.954 Y-9.403 Z-1.935
X11.942 Y-9.347 Z-1.97
X11.93 Y-9.285 Z-1.992
X11.917 Y-9.22 Z-2
X11.858 Y-8.926
G3 X11.505 Y-8.69 I-0.294 J-0.059
G2 X9.74 Y-7.513 I-0.294 J1.471 F250
G3 X4.837 Y-8.494 I-2.451 J-0.49
X7.045 Y-10.492 I2.451 J0.49
G2 X8.391 Y-12.131 I-0.146 J-1.493
G1 X6.672 Y-29.669
G2 X5.032 Y-31.016 I-1.493 J0.146
G3 X4.545 Y-35.992 I-0.244 J-2.488
X7.288 Y-33.504 I0.244 J2.488
G2 X8.788 Y-32.004 I1.5 J0
G1 X25.788
G2 X27.288 Y-33.504 I0 J-1.5
G3 X32.288 Y-33.504 I2.5 J0
X29.545 Y-31.016 I-2.5 J0
G2 X27.905 Y-29.669 I-0.146 J1.493
G1 X26.186 Y-12.131
G2 X27.532 Y-10.492 I1.493 J0.146
G3 X27.045 Y-5.516 I-0.244 J2.488
X24.837 Y-7.514 I0.244 J-2.488
G2 X23.072 Y-8.69 I-1.471 J0.294
G1 X20.917 Y-8.259
G2 X19.74 Y-6.494 I0.294 J1.471
G3 X14.837 Y-5.514 I-2.451 J0.49
X14.837 Y-6.494 I2.451 J-0.49
G2 X13.66 Y-8.259 I-1.471 J-0.294
G1 X11.505 Y-8.69
G3 X11.27 Y-9.043 I0.059 J-0.294 F450
G1 X11.328 Y-9.337
X11.342 Y-9.403 Z-1.992
X11.354 Y-9.465 Z-1.97
X11.365 Y-9.521 Z-1.935
X11.374 Y-9.567 Z-1.887
X11.382 Y-9.602 Z-1.83
X11.386 Y-9.624 Z-1.767
X11.387 Y-9.632 Z-1.7
G0 Z5
X11.976 Y-9.514
G1 Z0 F200
Z-2.7
X11.974 Y-9.506 Z-2.767 F450
X11.97 Y-9.485 Z-2.83
X11.963 Y-9.45 Z-2.887
X11.954 Y-9.403 Z-2.935
X11.942 Y-9.347 Z-2.97
X11.93 Y-9.285 Z-2.992
X11.917 Y-9.22 Z-3
X11.858 Y-8.926
G3 X11.505 Y-8.69 I-0.294 J-0.059
G2 X9.74 Y-7.513 I-0.294 J1.471 F250
G3 X4.837 Y-8.494 I-2.451 J-0.49
X7.045 Y-10.492 I2.451 J0.49
G2 X8.391 Y-12.131 I-0.146 J-1.493
G1 X6.672 Y-29.669
G2 X5.032 Y-31.016 I-1.493 J0.146
G3 X4.545 Y-35.992 I-0.244 J-2.488
X7.288 Y-33.504 I0.244 J2.488
G2 X8.788 Y-32.004 I1.5 J0
G1 X25.788
G2 X27.288 Y-33.504 I0 J-1.5
G3 X32.288 Y-33.504 I2.5 J0
X29.545 Y-31.016 I-2.5 J0
G2 X27.905 Y-29.669 I-0.146 J1.493
G1 X26.186 Y-12.131
G2 X27.532 Y-10.492 I1.493 J0.146
G3 X27.045 Y-5.516 I-0.244 J2.488
X24.837 Y-7.514 I0.244 J-2.488
G2 X23.072 Y-8.69 I-1.471 J0.294
G1 X20.917 Y-8.259
G2 X19.74 Y-6.494 I0.294 J1.471
G3 X14.837 Y-5.514 I-2.451 J0.49
X14.837 Y-6.494 I2.451 J-0.49
G2 X13.66 Y-8.259 I-1.471 J-0.294
G1 X11.505 Y-8.69
G3 X11.27 Y-9.043 I0.059 J-0.294 F450
G1 X11.328 Y-9.337
X11.342 Y-9.403 Z-2.992
X11.354 Y-9.465 Z-2.97
X11.365 Y-9.521 Z-2.935
X11.374 Y-9.567 Z-2.887
X11.382 Y-9.602 Z-2.83
X11.386 Y-9.624 Z-2.767
X11.387 Y-9.632 Z-2.7
G0 Z5
X11.976 Y-9.514
G1 Z-1 F200
Z-3.7
X11.974 Y-9.506 Z-3.767 F450
X11.97 Y-9.485 Z-3.83
X11.963 Y-9.45 Z-3.887
X11.954 Y-9.403 Z-3.935
X11.942 Y-9.347 Z-3.97
X11.93 Y-9.285 Z-3.992
X11.917 Y-9.22 Z-4
X11.858 Y-8.926
G3 X11.505 Y-8.69 I-0.294 J-0.059
G2 X9.74 Y-7.513 I-0.294 J1.471 F250
G3 X4.837 Y-8.494 I-2.451 J-0.49
X7.045 Y-10.492 I2.451 J0.49
G2 X8.391 Y-12.131 I-0.146 J-1.493
G1 X6.672 Y-29.669
G2 X5.032 Y-31.016 I-1.493 J0.146
G3 X4.545 Y-35.992 I-0.244 J-2.488
X7.288 Y-33.504 I0.244 J2.488
G2 X8.788 Y-32.004 I1.5 J0
G1 X25.788
G2 X27.288 Y-33.504 I0 J-1.5
G3 X32.288 Y-33.504 I2.5 J0
X29.545 Y-31.016 I-2.5 J0
G2 X27.905 Y-29.669 I-0.146 J1.493
G1 X26.186 Y-12.131
G2 X27.532 Y-10.492 I1.493 J0.146
G3 X27.045 Y-5.516 I-0.244 J2.488
X24.837 Y-7.514 I0.244 J-2.488
G2 X23.072 Y-8.69 I-1.471 J0.294
G1 X20.917 Y-8.259
G2 X19.74 Y-6.494 I0.294 J1.471
G3 X14.837 Y-5.514 I-2.451 J0.49
X14.837 Y-6.494 I2.451 J-0.49
G2 X13.66 Y-8.259 I-1.471 J-0.294
G1 X11.505 Y-8.69
G3 X11.27 Y-9.043 I0.059 J-0.294 F450
G1 X11.328 Y-9.337
X11.342 Y-9.403 Z-3.992
X11.354 Y-9.465 Z-3.97
X11.365 Y-9.521 Z-3.935
X11.374 Y-9.567 Z-3.887
X11.382 Y-9.602 Z-3.83
X11.386 Y-9.624 Z-3.767
X11.387 Y-9.632 Z-3.7
G0 Z5
X11.976 Y-9.514
G1 Z-2 F200
Z-4.5
X11.974 Y-9.506 Z-4.567 F450
X11.97 Y-9.485 Z-4.63
X11.963 Y-9.45 Z-4.687
X11.954 Y-9.403 Z-4.735
X11.942 Y-9.347 Z-4.77
X11.93 Y-9.285 Z-4.792
X11.917 Y-9.22 Z-4.8
X11.858 Y-8.926
G3 X11.505 Y-8.69 I-0.294 J-0.059
G2 X9.74 Y-7.513 I-0.294 J1.471 F250
G3 X4.837 Y-8.494 I-2.451 J-0.49
X7.045 Y-10.492 I2.451 J0.49
G2 X8.391 Y-12.131 I-0.146 J-1.493
G1 X6.672 Y-29.669
G2 X5.032 Y-31.016 I-1.493 J0.146
G3 X4.545 Y-35.992 I-0.244 J-2.488
X7.288 Y-33.504 I0.244 J2.488
G2 X8.788 Y-32.004 I1.5 J0
G1 X25.788
G2 X27.288 Y-33.504 I0 J-1.5
G3 X32.288 Y-33.504 I2.5 J0
X29.545 Y-31.016 I-2.5 J0
G2 X27.905 Y-29.669 I-0.146 J1.493
G1 X26.186 Y-12.131
G2 X27.532 Y-10.492 I1.493 J0.146
G3 X27.045 Y-5.516 I-0.244 J2.488
X24.837 Y-7.514 I0.244 J-2.488
G2 X23.072 Y-8.69 I-1.471 J0.294
G1 X20.917 Y-8.259
G2 X19.74 Y-6.494 I0.294 J1.471
G3 X14.837 Y-5.514 I-2.451 J0.49
X14.837 Y-6.494 I2.451 J-0.49
G2 X13.66 Y-8.259 I-1.471 J-0.294
G1 X11.505 Y-8.69
G3 X11.27 Y-9.043 I0.059 J-0.294 F450
G1 X11.328 Y-9.337
X11.342 Y-9.403 Z-4.792
X11.354 Y-9.465 Z-4.77
X11.365 Y-9.521 Z-4.735
X11.374 Y-9.567 Z-4.687
X11.382 Y-9.602 Z-4.63
X11.386 Y-9.624 Z-4.567
X11.387 Y-9.632 Z-4.5
G0 Z5
X-9.681 Y-12.517
G1 Z2 F200
Z-0.7
X-9.673 Z-0.767 F450
X-9.651 Y-12.515 Z-0.83
X-9.615 Y-12.511 Z-0.887
X-9.568 Y-12.506 Z-0.935
X-9.511 Y-12.501 Z-0.97
X-9.448 Y-12.495 Z-0.992
X-9.382 Y-12.488 Z-1
X-9.083 Y-12.459
G3 X-8.814 Y-12.131 I-0.029 J0.299
G2 X-7.468 Y-10.492 I1.493 J0.146 F250
G3 X-7.955 Y-5.516 I-0.244 J2.488
X-10.163 Y-7.514 I0.244 J-2.488
G2 X-11.928 Y-8.69 I-1.471 J0.294
G1 X-14.083 Y-8.259
G2 X-15.26 Y-6.494 I0.294 J1.471
G3 X-20.163 Y-5.514 I-2.451 J0.49
X-20.163 Y-6.494 I2.451 J-0.49
G2 X-21.34 Y-8.259 I-1.471 J-0.294
G1 X-23.495 Y-8.69
G2 X-25.26 Y-7.514 I-0.294 J1.471
G3 X-30.163 Y-8.494 I-2.451 J-0.49
X-27.955 Y-10.492 I2.451 J0.49
G2 X-26.609 Y-12.131 I-0.146 J-1.493
G1 X-28.328 Y-29.669
G2 X-29.968 Y-31.016 I-1.493 J0.146
G3 X-30.455 Y-35.992 I-0.244 J-2.488
X-27.712 Y-33.504 I0.244 J2.488
G2 X-26.212 Y-32.004 I1.5 J0
G1 X-9.212
G2 X-7.712 Y-33.504 I0 J-1.5
G3 X-2.712 Y-33.504 I2.5 J0
X-5.455 Y-31.016 I-2.5 J0
G2 X-7.095 Y-29.669 I-0.146 J1.493
G1 X-8.814 Y-12.131
G3 X-9.142 Y-11.862 I-0.299 J-0.029 F450
G1 X-9.44 Y-11.891
X-9.507 Y-11.898 Z-0.992
X-9.57 Y-11.904 Z-0.97
X-9.627 Y-11.909 Z-0.935
X-9.674 Y-11.914 Z-0.887
X-9.709 Y-11.917 Z-0.83
X-9.732 Y-11.92 Z-0.767
X-9.739 Z-0.7
G0 Z5
X-9.681 Y-12.517
G1 Z1 F200
Z-1.7
X-9.673 Z-1.767 F450
X-9.651 Y-12.515 Z-1.83
X-9.615 Y-12.511 Z-1.887
X-9.568 Y-12.506 Z-1.935
X-9.511 Y-12.501 Z-1.97
X-9.448 Y-12.495 Z-1.992
X-9.382 Y-12.488 Z-2
X-9.083 Y-12.459
G3 X-8.814 Y-12.131 I-0.029 J0.299
G2 X-7.468 Y-10.492 I1.493 J0.146 F250
G3 X-7.955 Y-5.516 I-0.244 J2.488
X-10.163 Y-7.514 I0.244 J-2.488
G2 X-11.928 Y-8.69 I-1.471 J0.294
G1 X-14.083 Y-8.259
G2 X-15.26 Y-6.494 I0.294 J1.471
G3 X-20.163 Y-5.514 I-2.451 J0.49
X-20.163 Y-6.494 I2.451 J-0.49
G2 X-21.34 Y-8.259 I-1.471 J-0.294
G1 X-23.495 Y-8.69
G2 X-25.26 Y-7.514 I-0.294 J1.471
G3 X-30.163 Y-8.494 I-2.451 J-0.49
X-27.955 Y-10.492 I2.451 J0.49
G2 X-26.609 Y-12.131 I-0.146 J-1.493
G1 X-28.328 Y-29.669
G2 X-29.968 Y-31.016 I-1.493 J0.146
G3 X-30.455 Y-35.992 I-0.244 J-2.488
X-27.712 Y-33.504 I0.244 J2.488
G2 X-26.212 Y-32.004 I1.5 J0
G1 X-9.212
G2 X-7.712 Y-33.504 I0 J-1.5
G3 X-2.712 Y-33.504 I2.5 J0
X-5.455 Y-31.016 I-2.5 J0
G2 X-7.095 Y-29.669 I-0.146 J1.493
G1 X-8.814 Y-12.131
G3 X-9.142 Y-11.862 I-0.299 J-0.029 F450
G1 X-9.44 Y-11.891
X-9.507 Y-11.898 Z-1.992
X-9.57 Y-11.904 Z-1.97
X-9.627 Y-11.909 Z-1.935
X-9.674 Y-11.914 Z-1.887
X-9.709 Y-11.917 Z-1.83
X-9.732 Y-11.92 Z-1.767
X-9.739 Z-1.7
G0 Z5
X-9.681 Y-12.517
G1 Z0 F200
Z-2.7
X-9.673 Z-2.767 F450
X-9.651 Y-12.515 Z-2.83
X-9.615 Y-12.511 Z-2.887
X-9.568 Y-12.506 Z-2.935
X-9.511 Y-12.501 Z-2.97
X-9.448 Y-12.495 Z-2.992
X-9.382 Y-12.488 Z-3
X-9.083 Y-12.459
G3 X-8.814 Y-12.131 I-0.029 J0.299
G2 X-7.468 Y-10.492 I1.493 J0.146 F250
G3 X-7.955 Y-5.516 I-0.244 J2.488
X-10.163 Y-7.514 I0.244 J-2.488
G2 X-11.928 Y-8.69 I-1.471 J0.294
G1 X-14.083 Y-8.259
G2 X-15.26 Y-6.494 I0.294 J1.471
G3 X-20.163 Y-5.514 I-2.451 J0.49
X-20.163 Y-6.494 I2.451 J-0.49
G2 X-21.34 Y-8.259 I-1.471 J-0.294
G1 X-23.495 Y-8.69
G2 X-25.26 Y-7.514 I-0.294 J1.471
G3 X-30.163 Y-8.494 I-2.451 J-0.49
X-27.955 Y-10.492 I2.451 J0.49
G2 X-26.609 Y-12.131 I-0.146 J-1.493
G1 X-28.328 Y-29.669
G2 X-29.968 Y-31.016 I-1.493 J0.146
G3 X-30.455 Y-35.992 I-0.244 J-2.488
X-27.712 Y-33.504 I0.244 J2.488
G2 X-26.212 Y-32.004 I1.5 J0
G1 X-9.212
G2 X-7.712 Y-33.504 I0 J-1.5
G3 X-2.712 Y-33.504 I2.5 J0
X-5.455 Y-31.016 I-2.5 J0
G2 X-7.095 Y-29.669 I-0.146 J1.493
G1 X-8.814 Y-12.131
G3 X-9.142 Y-11.862 I-0.299 J-0.029 F450
G1 X-9.44 Y-11.891
X-9.507 Y-11.898 Z-2.992
X-9.57 Y-11.904 Z-2.97
X-9.627 Y-11.909 Z-2.935
X-9.674 Y-11.914 Z-2.887
X-9.709 Y-11.917 Z-2.83
X-9.732 Y-11.92 Z-2.767
X-9.739 Z-2.7
G0 Z5
X-9.681 Y-12.517
G1 Z-1 F200
Z-3.7
X-9.673 Z-3.767 F450
X-9.651 Y-12.515 Z-3.83
X-9.615 Y-12.511 Z-3.887
X-9.568 Y-12.506 Z-3.935
X-9.511 Y-12.501 Z-3.97
X-9.448 Y-12.495 Z-3.992
X-9.382 Y-12.488 Z-4
X-9.083 Y-12.459
G3 X-8.814 Y-12.131 I-0.029 J0.299
G2 X-7.468 Y-10.492 I1.493 J0.146 F250
G3 X-7.955 Y-5.516 I-0.244 J2.488
X-10.163 Y-7.514 I0.244 J-2.488
G2 X-11.928 Y-8.69 I-1.471 J0.294
G1 X-14.083 Y-8.259
G2 X-15.26 Y-6.494 I0.294 J1.471
G3 X-20.163 Y-5.514 I-2.451 J0.49
X-20.163 Y-6.494 I2.451 J-0.49
G2 X-21.34 Y-8.259 I-1.471 J-0.294
G1 X-23.495 Y-8.69
G2 X-25.26 Y-7.514 I-0.294 J1.471
G3 X-30.163 Y-8.494 I-2.451 J-0.49
X-27.955 Y-10.492 I2.451 J0.49
G2 X-26.609 Y-12.131 I-0.146 J-1.493
G1 X-28.328 Y-29.669
G2 X-29.968 Y-31.016 I-1.493 J0.146
G3 X-30.455 Y-35.992 I-0.244 J-2.488
X-27.712 Y-33.504 I0.244 J2.488
G2 X-26.212 Y-32.004 I1.5 J0
G1 X-9.212
G2 X-7.712 Y-33.504 I0 J-1.5
G3 X-2.712 Y-33.504 I2.5 J0
X-5.455 Y-31.016 I-2.5 J0
G2 X-7.095 Y-29.669 I-0.146 J1.493
G1 X-8.814 Y-12.131
G3 X-9.142 Y-11.862 I-0.299 J-0.029 F450
G1 X-9.44 Y-11.891
X-9.507 Y-11.898 Z-3.992
X-9.57 Y-11.904 Z-3.97
X-9.627 Y-11.909 Z-3.935
X-9.674 Y-11.914 Z-3.887
X-9.709 Y-11.917 Z-3.83
X-9.732 Y-11.92 Z-3.767
X-9.739 Z-3.7
G0 Z5
X-9.681 Y-12.517
G1 Z-2 F200
Z-4.5
X-9.673 Z-4.567 F450
X-9.651 Y-12.515 Z-4.63
X-9.615 Y-12.511 Z-4.687
X-9.568 Y-12.506 Z-4.735
X-9.511 Y-12.501 Z-4.77
X-9.448 Y-12.495 Z-4.792
X-9.382 Y-12.488 Z-4.8
X-9.083 Y-12.459
G3 X-8.814 Y-12.131 I-0.029 J0.299
G2 X-7.468 Y-10.492 I1.493 J0.146 F250
G3 X-7.955 Y-5.516 I-0.244 J2.488
X-10.163 Y-7.514 I0.244 J-2.488
G2 X-11.928 Y-8.69 I-1.471 J0.294
G1 X-14.083 Y-8.259
G2 X-15.26 Y-6.494 I0.294 J1.471
G3 X-20.163 Y-5.514 I-2.451 J0.49
X-20.163 Y-6.494 I2.451 J-0.49
G2 X-21.34 Y-8.259 I-1.471 J-0.294
G1 X-23.495 Y-8.69
G2 X-25.26 Y-7.514 I-0.294 J1.471
G3 X-30.163 Y-8.494 I-2.451 J-0.49
X-27.955 Y-10.492 I2.451 J0.49
G2 X-26.609 Y-12.131 I-0.146 J-1.493
G1 X-28.328 Y-29.669
G2 X-29.968 Y-31.016 I-1.493 J0.146
G3 X-30.455 Y-35.992 I-0.244 J-2.488
X-27.712 Y-33.504 I0.244 J2.488
G2 X-26.212 Y-32.004 I1.5 J0
G1 X-9.212
G2 X-7.712 Y-33.504 I0 J-1.5
G3 X-2.712 Y-33.504 I2.5 J0
X-5.455 Y-31.016 I-2.5 J0
G2 X-7.095 Y-29.669 I-0.146 J1.493
G1 X-8.814 Y-12.131
G3 X-9.142 Y-11.862 I-0.299 J-0.029 F450
G1 X-9.44 Y-11.891
X-9.507 Y-11.898 Z-4.792
X-9.57 Y-11.904 Z-4.77
X-9.627 Y-11.909 Z-4.735
X-9.674 Y-11.914 Z-4.687
X-9.709 Y-11.917 Z-4.63
X-9.732 Y-11.92 Z-4.567
X-9.739 Z-4.5
G0 Z5
X-38.612 Y-33.804
G1 Z2 F200
Z-0.7
G18 G2 X-38.312 Z-1 I0.3 K0 F450
G1 X-38.012
G17 G3 X-37.712 Y-33.504 I0 J0.3
X-40.455 Y-31.016 I-2.5 J0 F250
G2 X-42.095 Y-29.669 I-0.146 J1.493
G1 X-43.814 Y-12.131
G2 X-42.468 Y-10.492 I1.493 J0.146
G3 X-42.955 Y-5.516 I-0.244 J2.488
X-45.163 Y-7.514 I0.244 J-2.488
G2 X-46.928 Y-8.69 I-1.471 J0.294
G1 X-49.083 Y-8.259
G2 X-50.26 Y-6.494 I0.294 J1.471
G3 X-55.163 Y-5.514 I-2.451 J0.49
X-55.163 Y-6.494 I2.451 J-0.49
G2 X-56.34 Y-8.259 I-1.471 J-0.294
G1 X-58.495 Y-8.69
G2 X-60.26 Y-7.514 I-0.294 J1.471
G3 X-65.163 Y-8.494 I-2.451 J-0.49
X-62.955 Y-10.492 I2.451 J0.49
G2 X-61.609 Y-12.131 I-0.146 J-1.493
G1 X-63.328 Y-29.669
G2 X-64.968 Y-31.016 I-1.493 J0.146
G3 X-65.455 Y-35.992 I-0.244 J-2.488
X-62.711 Y-33.504 I0.244 J2.488
G2 X-61.211 Y-32.004 I1.5 J0
G1 X-44.211
G2 X-42.711 Y-33.504 I0 J-1.5
G3 X-37.712 Y-33.504 I2.5 J0
X-38.012 Y-33.204 I-0.3 J0 F450
G1 X-38.312
G18 G3 X-38.612 Z-0.7 I0 K0.3
G0 Z5
Y-33.804
G1 Z1 F200
Z-1.7
G2 X-38.312 Z-2 I0.3 K0 F450
G1 X-38.012
G17 G3 X-37.712 Y-33.504 I0 J0.3
X-40.455 Y-31.016 I-2.5 J0 F250
G2 X-42.095 Y-29.669 I-0.146 J1.493
G1 X-43.814 Y-12.131
G2 X-42.468 Y-10.492 I1.493 J0.146
G3 X-42.955 Y-5.516 I-0.244 J2.488
X-45.163 Y-7.514 I0.244 J-2.488
G2 X-46.928 Y-8.69 I-1.471 J0.294
G1 X-49.083 Y-8.259
G2 X-50.26 Y-6.494 I0.294 J1.471
G3 X-55.163 Y-5.514 I-2.451 J0.49
X-55.163 Y-6.494 I2.451 J-0.49
G2 X-56.34 Y-8.259 I-1.471 J-0.294
G1 X-58.495 Y-8.69
G2 X-60.26 Y-7.514 I-0.294 J1.471
G3 X-65.163 Y-8.494 I-2.451 J-0.49
X-62.955 Y-10.492 I2.451 J0.49
G2 X-61.609 Y-12.131 I-0.146 J-1.493
G1 X-63.328 Y-29.669
G2 X-64.968 Y-31.016 I-1.493 J0.146
G3 X-65.455 Y-35.992 I-0.244 J-2.488
X-62.711 Y-33.504 I0.244 J2.488
G2 X-61.211 Y-32.004 I1.5 J0
G1 X-44.211
G2 X-42.711 Y-33.504 I0 J-1.5
G3 X-37.712 Y-33.504 I2.5 J0
X-38.012 Y-33.204 I-0.3 J0 F450
G1 X-38.312
G18 G3 X-38.612 Z-1.7 I0 K0.3
G0 Z5
Y-33.804
G1 Z0 F200
Z-2.7
G2 X-38.312 Z-3 I0.3 K0 F450
G1 X-38.012
G17 G3 X-37.712 Y-33.504 I0 J0.3
X-40.455 Y-31.016 I-2.5 J0 F250
G2 X-42.095 Y-29.669 I-0.146 J1.493
G1 X-43.814 Y-12.131
G2 X-42.468 Y-10.492 I1.493 J0.146
G3 X-42.955 Y-5.516 I-0.244 J2.488
X-45.163 Y-7.514 I0.244 J-2.488
G2 X-46.928 Y-8.69 I-1.471 J0.294
G1 X-49.083 Y-8.259
G2 X-50.26 Y-6.494 I0.294 J1.471
G3 X-55.163 Y-5.514 I-2.451 J0.49
X-55.163 Y-6.494 I2.451 J-0.49
G2 X-56.34 Y-8.259 I-1.471 J-0.294
G1 X-58.495 Y-8.69
G2 X-60.26 Y-7.514 I-0.294 J1.471
G3 X-65.163 Y-8.494 I-2.451 J-0.49
X-62.955 Y-10.492 I2.451 J0.49
G2 X-61.609 Y-12.131 I-0.146 J-1.493
G1 X-63.328 Y-29.669
G2 X-64.968 Y-31.016 I-1.493 J0.146
G3 X-65.455 Y-35.992 I-0.244 J-2.488
X-62.711 Y-33.504 I0.244 J2.488
G2 X-61.211 Y-32.004 I1.5 J0
G1 X-44.211
G2 X-42.711 Y-33.504 I0 J-1.5
G3 X-37.712 Y-33.504 I2.5 J0
X-38.012 Y-33.204 I-0.3 J0 F450
G1 X-38.312
G18 G3 X-38.612 Z-2.7 I0 K0.3
G0 Z5
Y-33.804
G1 Z-1 F200
Z-3.7
G2 X-38.312 Z-4 I0.3 K0 F450
G1 X-38.012
G17 G3 X-37.712 Y-33.504 I0 J0.3
X-40.455 Y-31.016 I-2.5 J0 F250
G2 X-42.095 Y-29.669 I-0.146 J1.493
G1 X-43.814 Y-12.131
G2 X-42.468 Y-10.492 I1.493 J0.146
G3 X-42.955 Y-5.516 I-0.244 J2.488
X-45.163 Y-7.514 I0.244 J-2.488
G2 X-46.928 Y-8.69 I-1.471 J0.294
G1 X-49.083 Y-8.259
G2 X-50.26 Y-6.494 I0.294 J1.471
G3 X-55.163 Y-5.514 I-2.451 J0.49
X-55.163 Y-6.494 I2.451 J-0.49
G2 X-56.34 Y-8.259 I-1.471 J-0.294
G1 X-58.495 Y-8.69
G2 X-60.26 Y-7.514 I-0.294 J1.471
G3 X-65.163 Y-8.494 I-2.451 J-0.49
X-62.955 Y-10.492 I2.451 J0.49
G2 X-61.609 Y-12.131 I-0.146 J-1.493
G1 X-63.328 Y-29.669
G2 X-64.968 Y-31.016 I-1.493 J0.146
G3 X-65.455 Y-35.992 I-0.244 J-2.488
X-62.711 Y-33.504 I0.244 J2.488
G2 X-61.211 Y-32.004 I1.5 J0
G1 X-44.211
G2 X-42.711 Y-33.504 I0 J-1.5
G3 X-37.712 Y-33.504 I2.5 J0
X-38.012 Y-33.204 I-0.3 J0 F450
G1 X-38.312
G18 G3 X-38.612 Z-3.7 I0 K0.3
G0 Z5
Y-33.804
G1 Z-2 F200
Z-4.5
G2 X-38.312 Z-4.8 I0.3 K0 F450
G1 X-38.012
G17 G3 X-37.712 Y-33.504 I0 J0.3
X-40.455 Y-31.016 I-2.5 J0 F250
G2 X-42.095 Y-29.669 I-0.146 J1.493
G1 X-43.814 Y-12.131
G2 X-42.468 Y-10.492 I1.493 J0.146
G3 X-42.955 Y-5.516 I-0.244 J2.488
X-45.163 Y-7.514 I0.244 J-2.488
G2 X-46.928 Y-8.69 I-1.471 J0.294
G1 X-49.083 Y-8.259
G2 X-50.26 Y-6.494 I0.294 J1.471
G3 X-55.163 Y-5.514 I-2.451 J0.49
X-55.163 Y-6.494 I2.451 J-0.49
G2 X-56.34 Y-8.259 I-1.471 J-0.294
G1 X-58.495 Y-8.69
G2 X-60.26 Y-7.514 I-0.294 J1.471
G3 X-65.163 Y-8.494 I-2.451 J-0.49
X-62.955 Y-10.492 I2.451 J0.49
G2 X-61.609 Y-12.131 I-0.146 J-1.493
G1 X-63.328 Y-29.669
G2 X-64.968 Y-31.016 I-1.493 J0.146
G3 X-65.455 Y-35.992 I-0.244 J-2.488
X-62.711 Y-33.504 I0.244 J2.488
G2 X-61.211 Y-32.004 I1.5 J0
G1 X-44.211
G2 X-42.711 Y-33.504 I0 J-1.5
G3 X-37.712 Y-33.504 I2.5 J0
X-38.012 Y-33.204 I-0.3 J0 F450
G1 X-38.312
G18 G3 X-38.612 Z-4.5 I0 K0.3
G0 Z5
Y7.196
G1 Z2 F200
Z-0.7
G2 X-38.312 Z-1 I0.3 K0 F450
G1 X-38.012
G17 G3 X-37.712 Y7.496 I0 J0.3
X-40.455 Y9.984 I-2.5 J0 F250
G2 X-42.095 Y11.331 I-0.146 J1.493
G1 X-43.814 Y28.869
G2 X-42.468 Y30.508 I1.493 J0.146
G3 X-42.955 Y35.484 I-0.244 J2.488
X-45.163 Y33.487 I0.244 J-2.488
G2 X-46.928 Y32.31 I-1.471 J0.294
G1 X-49.083 Y32.741
G2 X-50.26 Y34.506 I0.294 J1.471
G3 X-55.163 Y35.487 I-2.451 J0.49
X-55.163 Y34.506 I2.451 J-0.49
G2 X-56.34 Y32.741 I-1.471 J-0.294
G1 X-58.495 Y32.31
G2 X-60.26 Y33.487 I-0.294 J1.471
G3 X-65.163 Y32.506 I-2.451 J-0.49
X-62.955 Y30.508 I2.451 J0.49
G2 X-61.609 Y28.869 I-0.146 J-1.493
G1 X-63.328 Y11.331
G2 X-64.968 Y9.984 I-1.493 J0.146
G3 X-65.455 Y5.008 I-0.244 J-2.488
X-62.711 Y7.496 I0.244 J2.488
G2 X-61.211 Y8.996 I1.5 J0
G1 X-44.211
G2 X-42.711 Y7.496 I0 J-1.5
G3 X-37.712 Y7.496 I2.5 J0
X-38.012 Y7.796 I-0.3 J0 F450
G1 X-38.312
G18 G3 X-38.612 Z-0.7 I0 K0.3
G0 Z5
Y7.196
G1 Z1 F200
Z-1.7
G2 X-38.312 Z-2 I0.3 K0 F450
G1 X-38.012
G17 G3 X-37.712 Y7.496 I0 J0.3
X-40.455 Y9.984 I-2.5 J0 F250
G2 X-42.095 Y11.331 I-0.146 J1.493
G1 X-43.814 Y28.869
G2 X-42.468 Y30.508 I1.493 J0.146
G3 X-42.955 Y35.484 I-0.244 J2.488
X-45.163 Y33.487 I0.244 J-2.488
G2 X-46.928 Y32.31 I-1.471 J0.294
G1 X-49.083 Y32.741
G2 X-50.26 Y34.506 I0.294 J1.471
G3 X-55.163 Y35.487 I-2.451 J0.49
X-55.163 Y34.506 I2.451 J-0.49
G2 X-56.34 Y32.741 I-1.471 J-0.294
G1 X-58.495 Y32.31
G2 X-60.26 Y33.487 I-0.294 J1.471
G3 X-65.163 Y32.506 I-2.451 J-0.49
X-62.955 Y30.508 I2.451 J0.49
G2 X-61.609 Y28.869 I-0.146 J-1.493
G1 X-63.328 Y11.331
G2 X-64.968 Y9.984 I-1.493 J0.146
G3 X-65.455 Y5.008 I-0.244 J-2.488
X-62.711 Y7.496 I0.244 J2.488
G2 X-61.211 Y8.996 I1.5 J0
G1 X-44.211
G2 X-42.711 Y7.496 I0 J-1.5
G3 X-37.712 Y7.496 I2.5 J0
X-38.012 Y7.796 I-0.3 J0 F450
G1 X-38.312
G18 G3 X-38.612 Z-1.7 I0 K0.3
G0 Z5
Y7.196
G1 Z0 F200
Z-2.7
G2 X-38.312 Z-3 I0.3 K0 F450
G1 X-38.012
G17 G3 X-37.712 Y7.496 I0 J0.3
X-40.455 Y9.984 I-2.5 J0 F250
G2 X-42.095 Y11.331 I-0.146 J1.493
G1 X-43.814 Y28.869
G2 X-42.468 Y30.508 I1.493 J0.146
G3 X-42.955 Y35.484 I-0.244 J2.488
X-45.163 Y33.487 I0.244 J-2.488
G2 X-46.928 Y32.31 I-1.471 J0.294
G1 X-49.083 Y32.741
G2 X-50.26 Y34.506 I0.294 J1.471
G3 X-55.163 Y35.487 I-2.451 J0.49
X-55.163 Y34.506 I2.451 J-0.49
G2 X-56.34 Y32.741 I-1.471 J-0.294
G1 X-58.495 Y32.31
G2 X-60.26 Y33.487 I-0.294 J1.471
G3 X-65.163 Y32.506 I-2.451 J-0.49
X-62.955 Y30.508 I2.451 J0.49
G2 X-61.609 Y28.869 I-0.146 J-1.493
G1 X-63.328 Y11.331
G2 X-64.968 Y9.984 I-1.493 J0.146
G3 X-65.455 Y5.008 I-0.244 J-2.488
X-62.711 Y7.496 I0.244 J2.488
G2 X-61.211 Y8.996 I1.5 J0
G1 X-44.211
G2 X-42.711 Y7.496 I0 J-1.5
G3 X-37.712 Y7.496 I2.5 J0
X-38.012 Y7.796 I-0.3 J0 F450
G1 X-38.312
G18 G3 X-38.612 Z-2.7 I0 K0.3
G0 Z5
Y7.196
G1 Z-1 F200
Z-3.7
G2 X-38.312 Z-4 I0.3 K0 F450
G1 X-38.012
G17 G3 X-37.712 Y7.496 I0 J0.3
X-40.455 Y9.984 I-2.5 J0 F250
G2 X-42.095 Y11.331 I-0.146 J1.493
G1 X-43.814 Y28.869
G2 X-42.468 Y30.508 I1.493 J0.146
G3 X-42.955 Y35.484 I-0.244 J2.488
X-45.163 Y33.487 I0.244 J-2.488
G2 X-46.928 Y32.31 I-1.471 J0.294
G1 X-49.083 Y32.741
G2 X-50.26 Y34.506 I0.294 J1.471
G3 X-55.163 Y35.487 I-2.451 J0.49
X-55.163 Y34.506 I2.451 J-0.49
G2 X-56.34 Y32.741 I-1.471 J-0.294
G1 X-58.495 Y32.31
G2 X-60.26 Y33.487 I-0.294 J1.471
G3 X-65.163 Y32.506 I-2.451 J-0.49
X-62.955 Y30.508 I2.451 J0.49
G2 X-61.609 Y28.869 I-0.146 J-1.493
G1 X-63.328 Y11.331
G2 X-64.968 Y9.984 I-1.493 J0.146
G3 X-65.455 Y5.008 I-0.244 J-2.488
X-62.711 Y7.496 I0.244 J2.488
G2 X-61.211 Y8.996 I1.5 J0
G1 X-44.211
G2 X-42.711 Y7.496 I0 J-1.5
G3 X-37.712 Y7.496 I2.5 J0
X-38.012 Y7.796 I-0.3 J0 F450
G1 X-38.312
G18 G3 X-38.612 Z-3.7 I0 K0.3
G0 Z5
Y7.196
G1 Z-2 F200
Z-4.5
G2 X-38.312 Z-4.8 I0.3 K0 F450
G1 X-38.012
G17 G3 X-37.712 Y7.496 I0 J0.3
X-40.455 Y9.984 I-2.5 J0 F250
G2 X-42.095 Y11.331 I-0.146 J1.493
G1 X-43.814 Y28.869
G2 X-42.468 Y30.508 I1.493 J0.146
G3 X-42.955 Y35.484 I-0.244 J2.488
X-45.163 Y33.487 I0.244 J-2.488
G2 X-46.928 Y32.31 I-1.471 J0.294
G1 X-49.083 Y32.741
G2 X-50.26 Y34.506 I0.294 J1.471
G3 X-55.163 Y35.487 I-2.451 J0.49
X-55.163 Y34.506 I2.451 J-0.49
G2 X-56.34 Y32.741 I-1.471 J-0.294
G1 X-58.495 Y32.31
G2 X-60.26 Y33.487 I-0.294 J1.471
G3 X-65.163 Y32.506 I-2.451 J-0.49
X-62.955 Y30.508 I2.451 J0.49
G2 X-61.609 Y28.869 I-0.146 J-1.493
G1 X-63.328 Y11.331
G2 X-64.968 Y9.984 I-1.493 J0.146
G3 X-65.455 Y5.008 I-0.244 J-2.488
X-62.711 Y7.496 I0.244 J2.488
G2 X-61.211 Y8.996 I1.5 J0
G1 X-44.211
G2 X-42.711 Y7.496 I0 J-1.5
G3 X-37.712 Y7.496 I2.5 J0
X-38.012 Y7.796 I-0.3 J0 F450
G1 X-38.312
G18 G3 X-38.612 Z-4.5 I0 K0.3
G0 Z5
X41.389 Y7.196
G1 Z2 F200
Z-0.7
G2 X41.688 Z-1 I0.3 K0 F450
G1 X41.989
G17 G3 X42.289 Y7.496 I0 J0.3
G2 X43.789 Y8.996 I1.5 J0 F250
G1 X60.789
G2 X62.289 Y7.496 I0 J-1.5
G3 X67.288 Y7.496 I2.5 J0
X64.545 Y9.984 I-2.5 J0
G2 X62.905 Y11.331 I-0.146 J1.493
G1 X61.186 Y28.869
G2 X62.532 Y30.508 I1.493 J0.146
G3 X62.045 Y35.484 I-0.244 J2.488
X59.837 Y33.487 I0.244 J-2.488
G2 X58.072 Y32.31 I-1.471 J0.294
G1 X55.917 Y32.741
G2 X54.74 Y34.506 I0.294 J1.471
G3 X49.837 Y35.487 I-2.451 J0.49
X49.837 Y34.506 I2.451 J-0.49
G2 X48.66 Y32.741 I-1.471 J-0.294
G1 X46.505 Y32.31
G2 X44.74 Y33.487 I-0.294 J1.471
G3 X39.837 Y32.506 I-2.451 J-0.49
X42.045 Y30.508 I2.451 J0.49
G2 X43.391 Y28.869 I-0.146 J-1.493
G1 X41.672 Y11.331
G2 X40.032 Y9.984 I-1.493 J0.146
G3 X39.545 Y5.008 I-0.244 J-2.488
X42.289 Y7.496 I0.244 J2.488
X41.988 Y7.796 I-0.3 J0 F450
G1 X41.688
G18 G3 X41.389 Z-0.7 I0 K0.3
G0 Z5
Y7.196
G1 Z1 F200
Z-1.7
G2 X41.688 Z-2 I0.3 K0 F450
G1 X41.989
G17 G3 X42.289 Y7.496 I0 J0.3
G2 X43.789 Y8.996 I1.5 J0 F250
G1 X60.789
G2 X62.289 Y7.496 I0 J-1.5
G3 X67.288 Y7.496 I2.5 J0
X64.545 Y9.984 I-2.5 J0
G2 X62.905 Y11.331 I-0.146 J1.493
G1 X61.186 Y28.869
G2 X62.532 Y30.508 I1.493 J0.146
G3 X62.045 Y35.484 I-0.244 J2.488
X59.837 Y33.487 I0.244 J-2.488
G2 X58.072 Y32.31 I-1.471 J0.294
G1 X55.917 Y32.741
G2 X54.74 Y34.506 I0.294 J1.471
G3 X49.837 Y35.487 I-2.451 J0.49
X49.837 Y34.506 I2.451 J-0.49
G2 X48.66 Y32.741 I-1.471 J-0.294
G1 X46.505 Y32.31
G2 X44.74 Y33.487 I-0.294 J1.471
G3 X39.837 Y32.506 I-2.451 J-0.49
X42.045 Y30.508 I2.451 J0.49
G2 X43.391 Y28.869 I-0.146 J-1.493
G1 X41.672 Y11.331
G2 X40.032 Y9.984 I-1.493 J0.146
G3 X39.545 Y5.008 I-0.244 J-2.488
X42.289 Y7.496 I0.244 J2.488
X41.988 Y7.796 I-0.3 J0 F450
G1 X41.688
G18 G3 X41.389 Z-1.7 I0 K0.3
G0 Z5
Y7.196
G1 Z0 F200
Z-2.7
G2 X41.688 Z-3 I0.3 K0 F450
G1 X41.989
G17 G3 X42.289 Y7.496 I0 J0.3
G2 X43.789 Y8.996 I1.5 J0 F250
G1 X60.789
G2 X62.289 Y7.496 I0 J-1.5
G3 X67.288 Y7.496 I2.5 J0
X64.545 Y9.984 I-2.5 J0
G2 X62.905 Y11.331 I-0.146 J1.493
G1 X61.186 Y28.869
G2 X62.532 Y30.508 I1.493 J0.146
G3 X62.045 Y35.484 I-0.244 J2.488
X59.837 Y33.487 I0.244 J-2.488
G2 X58.072 Y32.31 I-1.471 J0.294
G1 X55.917 Y32.741
G2 X54.74 Y34.506 I0.294 J1.471
G3 X49.837 Y35.487 I-2.451 J0.49
X49.837 Y34.506 I2.451 J-0.49
G2 X48.66 Y32.741 I-1.471 J-0.294
G1 X46.505 Y32.31
G2 X44.74 Y33.487 I-0.294 J1.471
G3 X39.837 Y32.506 I-2.451 J-0.49
X42.045 Y30.508 I2.451 J0.49
G2 X43.391 Y28.869 I-0.146 J-1.493
G1 X41.672 Y11.331
G2 X40.032 Y9.984 I-1.493 J0.146
G3 X39.545 Y5.008 I-0.244 J-2.488
X42.289 Y7.496 I0.244 J2.488
X41.988 Y7.796 I-0.3 J0 F450
G1 X41.688
G18 G3 X41.389 Z-2.7 I0 K0.3
G0 Z5
Y7.196
G1 Z-1 F200
Z-3.7
G2 X41.688 Z-4 I0.3 K0 F450
G1 X41.989
G17 G3 X42.289 Y7.496 I0 J0.3
G2 X43.789 Y8.996 I1.5 J0 F250
G1 X60.789
G2 X62.289 Y7.496 I0 J-1.5
G3 X67.288 Y7.496 I2.5 J0
X64.545 Y9.984 I-2.5 J0
G2 X62.905 Y11.331 I-0.146 J1.493
G1 X61.186 Y28.869
G2 X62.532 Y30.508 I1.493 J0.146
G3 X62.045 Y35.484 I-0.244 J2.488
X59.837 Y33.487 I0.244 J-2.488
G2 X58.072 Y32.31 I-1.471 J0.294
G1 X55.917 Y32.741
G2 X54.74 Y34.506 I0.294 J1.471
G3 X49.837 Y35.487 I-2.451 J0.49
X49.837 Y34.506 I2.451 J-0.49
G2 X48.66 Y32.741 I-1.471 J-0.294
G1 X46.505 Y32.31
G2 X44.74 Y33.487 I-0.294 J1.471
G3 X39.837 Y32.506 I-2.451 J-0.49
X42.045 Y30.508 I2.451 J0.49
G2 X43.391 Y28.869 I-0.146 J-1.493
G1 X41.672 Y11.331
G2 X40.032 Y9.984 I-1.493 J0.146
G3 X39.545 Y5.008 I-0.244 J-2.488
X42.289 Y7.496 I0.244 J2.488
X41.988 Y7.796 I-0.3 J0 F450
G1 X41.688
G18 G3 X41.389 Z-3.7 I0 K0.3
G0 Z5
Y7.196
G1 Z-2 F200
Z-4.5
G2 X41.688 Z-4.8 I0.3 K0 F450
G1 X41.989
G17 G3 X42.289 Y7.496 I0 J0.3
G2 X43.789 Y8.996 I1.5 J0 F250
G1 X60.789
G2 X62.289 Y7.496 I0 J-1.5
G3 X67.288 Y7.496 I2.5 J0
X64.545 Y9.984 I-2.5 J0
G2 X62.905 Y11.331 I-0.146 J1.493
G1 X61.186 Y28.869
G2 X62.532 Y30.508 I1.493 J0.146
G3 X62.045 Y35.484 I-0.244 J2.488
X59.837 Y33.487 I0.244 J-2.488
G2 X58.072 Y32.31 I-1.471 J0.294
G1 X55.917 Y32.741
G2 X54.74 Y34.506 I0.294 J1.471
G3 X49.837 Y35.487 I-2.451 J0.49
X49.837 Y34.506 I2.451 J-0.49
G2 X48.66 Y32.741 I-1.471 J-0.294
G1 X46.505 Y32.31
G2 X44.74 Y33.487 I-0.294 J1.471
G3 X39.837 Y32.506 I-2.451 J-0.49
X42.045 Y30.508 I2.451 J0.49
G2 X43.391 Y28.869 I-0.146 J-1.493
G1 X41.672 Y11.331
G2 X40.032 Y9.984 I-1.493 J0.146
G3 X39.545 Y5.008 I-0.244 J-2.488
X42.289 Y7.496 I0.244 J2.488
X41.988 Y7.796 I-0.3 J0 F450
G1 X41.688
G18 G3 X41.389 Z-4.5 I0 K0.3
G0 Z5
X46.976 Y-9.514
G1 Z2 F200
Z-0.7
X46.974 Y-9.507 Z-0.767 F450
X46.97 Y-9.485 Z-0.83
X46.963 Y-9.45 Z-0.887
X46.954 Y-9.403 Z-0.935
X46.942 Y-9.347 Z-0.97
X46.93 Y-9.285 Z-0.992
X46.917 Y-9.22 Z-1
X46.858 Y-8.926
G17 G3 X46.505 Y-8.69 I-0.294 J-0.059
G2 X44.74 Y-7.514 I-0.294 J1.471 F250
G3 X39.837 Y-8.494 I-2.451 J-0.49
X42.045 Y-10.492 I2.451 J0.49
G2 X43.391 Y-12.131 I-0.146 J-1.493
G1 X41.672 Y-29.669
G2 X40.032 Y-31.016 I-1.493 J0.146
G3 X39.545 Y-35.992 I-0.244 J-2.488
X42.289 Y-33.504 I0.244 J2.488
G2 X43.789 Y-32.004 I1.5 J0
G1 X60.789
G2 X62.289 Y-33.504 I0 J-1.5
G3 X67.288 Y-33.504 I2.5 J0
X64.545 Y-31.016 I-2.5 J0
G2 X62.905 Y-29.669 I-0.146 J1.493
G1 X61.186 Y-12.131
G2 X62.532 Y-10.492 I1.493 J0.146
G3 X62.045 Y-5.516 I-0.244 J2.488
X59.837 Y-7.514 I0.244 J-2.488
G2 X58.072 Y-8.69 I-1.471 J0.294
G1 X55.917 Y-8.259
G2 X54.74 Y-6.494 I0.294 J1.471
G3 X49.837 Y-5.514 I-2.451 J0.49
X49.837 Y-6.494 I2.451 J-0.49
G2 X48.66 Y-8.259 I-1.471 J-0.294
G1 X46.505 Y-8.69
G3 X46.27 Y-9.043 I0.059 J-0.294 F450
G1 X46.328 Y-9.337
X46.342 Y-9.403 Z-0.992
X46.354 Y-9.465 Z-0.97
X46.365 Y-9.521 Z-0.935
X46.374 Y-9.567 Z-0.887
X46.381 Y-9.602 Z-0.83
X46.386 Y-9.624 Z-0.767
X46.387 Y-9.632 Z-0.7
G0 Z5
X46.976 Y-9.514
G1 Z1 F200
Z-1.7
X46.974 Y-9.507 Z-1.767 F450
X46.97 Y-9.485 Z-1.83
X46.963 Y-9.45 Z-1.887
X46.954 Y-9.403 Z-1.935
X46.942 Y-9.347 Z-1.97
X46.93 Y-9.285 Z-1.992
X46.917 Y-9.22 Z-2
X46.858 Y-8.926
G3 X46.505 Y-8.69 I-0.294 J-0.059
G2 X44.74 Y-7.514 I-0.294 J1.471 F250
G3 X39.837 Y-8.494 I-2.451 J-0.49
X42.045 Y-10.492 I2.451 J0.49
G2 X43.391 Y-12.131 I-0.146 J-1.493
G1 X41.672 Y-29.669
G2 X40.032 Y-31.016 I-1.493 J0.146
G3 X39.545 Y-35.992 I-0.244 J-2.488
X42.289 Y-33.504 I0.244 J2.488
G2 X43.789 Y-32.004 I1.5 J0
G1 X60.789
G2 X62.289 Y-33.504 I0 J-1.5
G3 X67.288 Y-33.504 I2.5 J0
X64.545 Y-31.016 I-2.5 J0
G2 X62.905 Y-29.669 I-0.146 J1.493
G1 X61.186 Y-12.131
G2 X62.532 Y-10.492 I1.493 J0.146
G3 X62.045 Y-5.516 I-0.244 J2.488
X59.837 Y-7.514 I0.244 J-2.488
G2 X58.072 Y-8.69 I-1.471 J0.294
G1 X55.917 Y-8.259
G2 X54.74 Y-6.494 I0.294 J1.471
G3 X49.837 Y-5.514 I-2.451 J0.49
X49.837 Y-6.494 I2.451 J-0.49
G2 X48.66 Y-8.259 I-1.471 J-0.294
G1 X46.505 Y-8.69
G3 X46.27 Y-9.043 I0.059 J-0.294 F450
G1 X46.328 Y-9.337
X46.342 Y-9.403 Z-1.992
X46.354 Y-9.465 Z-1.97
X46.365 Y-9.521 Z-1.935
X46.374 Y-9.567 Z-1.887
X46.381 Y-9.602 Z-1.83
X46.386 Y-9.624 Z-1.767
X46.387 Y-9.632 Z-1.7
G0 Z5
X46.976 Y-9.514
G1 Z0 F200
Z-2.7
X46.974 Y-9.507 Z-2.767 F450
X46.97 Y-9.485 Z-2.83
X46.963 Y-9.45 Z-2.887
X46.954 Y-9.403 Z-2.935
X46.942 Y-9.347 Z-2.97
X46.93 Y-9.285 Z-2.992
X46.917 Y-9.22 Z-3
X46.858 Y-8.926
G3 X46.505 Y-8.69 I-0.294 J-0.059
G2 X44.74 Y-7.514 I-0.294 J1.471 F250
G3 X39.837 Y-8.494 I-2.451 J-0.49
X42.045 Y-10.492 I2.451 J0.49
G2 X43.391 Y-12.131 I-0.146 J-1.493
G1 X41.672 Y-29.669
G2 X40.032 Y-31.016 I-1.493 J0.146
G3 X39.545 Y-35.992 I-0.244 J-2.488
X42.289 Y-33.504 I0.244 J2.488
G2 X43.789 Y-32.004 I1.5 J0
G1 X60.789
G2 X62.289 Y-33.504 I0 J-1.5
G3 X67.288 Y-33.504 I2.5 J0
X64.545 Y-31.016 I-2.5 J0
G2 X62.905 Y-29.669 I-0.146 J1.493
G1 X61.186 Y-12.131
G2 X62.532 Y-10.492 I1.493 J0.146
G3 X62.045 Y-5.516 I-0.244 J2.488
X59.837 Y-7.514 I0.244 J-2.488
G2 X58.072 Y-8.69 I-1.471 J0.294
G1 X55.917 Y-8.259
G2 X54.74 Y-6.494 I0.294 J1.471
G3 X49.837 Y-5.514 I-2.451 J0.49
X49.837 Y-6.494 I2.451 J-0.49
G2 X48.66 Y-8.259 I-1.471 J-0.294
G1 X46.505 Y-8.69
G3 X46.27 Y-9.043 I0.059 J-0.294 F450
G1 X46.328 Y-9.337
X46.342 Y-9.403 Z-2.992
X46.354 Y-9.465 Z-2.97
X46.365 Y-9.521 Z-2.935
X46.374 Y-9.567 Z-2.887
X46.381 Y-9.602 Z-2.83
X46.386 Y-9.624 Z-2.767
X46.387 Y-9.632 Z-2.7
G0 Z5
X46.976 Y-9.514
G1 Z-1 F200
Z-3.7
X46.974 Y-9.507 Z-3.767 F450
X46.97 Y-9.485 Z-3.83
X46.963 Y-9.45 Z-3.887
X46.954 Y-9.403 Z-3.935
X46.942 Y-9.347 Z-3.97
X46.93 Y-9.285 Z-3.992
X46.917 Y-9.22 Z-4
X46.858 Y-8.926
G3 X46.505 Y-8.69 I-0.294 J-0.059
G2 X44.74 Y-7.514 I-0.294 J1.471 F250
G3 X39.837 Y-8.494 I-2.451 J-0.49
X42.045 Y-10.492 I2.451 J0.49
G2 X43.391 Y-12.131 I-0.146 J-1.493
G1 X41.672 Y-29.669
G2 X40.032 Y-31.016 I-1.493 J0.146
G3 X39.545 Y-35.992 I-0.244 J-2.488
X42.289 Y-33.504 I0.244 J2.488
G2 X43.789 Y-32.004 I1.5 J0
G1 X60.789
G2 X62.289 Y-33.504 I0 J-1.5
G3 X67.288 Y-33.504 I2.5 J0
X64.545 Y-31.016 I-2.5 J0
G2 X62.905 Y-29.669 I-0.146 J1.493
G1 X61.186 Y-12.131
G2 X62.532 Y-10.492 I1.493 J0.146
G3 X62.045 Y-5.516 I-0.244 J2.488
X59.837 Y-7.514 I0.244 J-2.488
G2 X58.072 Y-8.69 I-1.471 J0.294
G1 X55.917 Y-8.259
G2 X54.74 Y-6.494 I0.294 J1.471
G3 X49.837 Y-5.514 I-2.451 J0.49
X49.837 Y-6.494 I2.451 J-0.49
G2 X48.66 Y-8.259 I-1.471 J-0.294
G1 X46.505 Y-8.69
G3 X46.27 Y-9.043 I0.059 J-0.294 F450
G1 X46.328 Y-9.337
X46.342 Y-9.403 Z-3.992
X46.354 Y-9.465 Z-3.97
X46.365 Y-9.521 Z-3.935
X46.374 Y-9.567 Z-3.887
X46.381 Y-9.602 Z-3.83
X46.386 Y-9.624 Z-3.767
X46.387 Y-9.632 Z-3.7
G0 Z5
X46.976 Y-9.514
G1 Z-2 F200
Z-4.5
X46.974 Y-9.507 Z-4.567 F450
X46.97 Y-9.485 Z-4.63
X46.963 Y-9.45 Z-4.687
X46.954 Y-9.403 Z-4.735
X46.942 Y-9.347 Z-4.77
X46.93 Y-9.285 Z-4.792
X46.917 Y-9.22 Z-4.8
X46.858 Y-8.926
G3 X46.505 Y-8.69 I-0.294 J-0.059
G2 X44.74 Y-7.514 I-0.294 J1.471 F250
G3 X39.837 Y-8.494 I-2.451 J-0.49
X42.045 Y-10.492 I2.451 J0.49
G2 X43.391 Y-12.131 I-0.146 J-1.493
G1 X41.672 Y-29.669
G2 X40.032 Y-31.016 I-1.493 J0.146
G3 X39.545 Y-35.992 I-0.244 J-2.488
X42.289 Y-33.504 I0.244 J2.488
G2 X43.789 Y-32.004 I1.5 J0
G1 X60.789
G2 X62.289 Y-33.504 I0 J-1.5
G3 X67.288 Y-33.504 I2.5 J0
X64.545 Y-31.016 I-2.5 J0
G2 X62.905 Y-29.669 I-0.146 J1.493
G1 X61.186 Y-12.131
G2 X62.532 Y-10.492 I1.493 J0.146
G3 X62.045 Y-5.516 I-0.244 J2.488
X59.837 Y-7.514 I0.244 J-2.488
G2 X58.072 Y-8.69 I-1.471 J0.294
G1 X55.917 Y-8.259
G2 X54.74 Y-6.494 I0.294 J1.471
G3 X49.837 Y-5.514 I-2.451 J0.49
X49.837 Y-6.494 I2.451 J-0.49
G2 X48.66 Y-8.259 I-1.471 J-0.294
G1 X46.505 Y-8.69
G3 X46.27 Y-9.043 I0.059 J-0.294 F450
G1 X46.328 Y-9.337
X46.342 Y-9.403 Z-4.792
X46.354 Y-9.465 Z-4.77
X46.365 Y-9.521 Z-4.735
X46.374 Y-9.567 Z-4.687
X46.381 Y-9.602 Z-4.63
X46.386 Y-9.624 Z-4.567
X46.387 Y-9.632 Z-4.5
G0 Z15
M9
M5
M30
