(Aiki)
(Machine)
(  vendor: Autodesk)
(  description: Generic 3-axis)
(T4  D=0.1 CR=0 - ZMIN=0 - flat end mill)
G90 G94
G17
G21

(2D Contour3)
T4
S1 M3
G54
M8
G0 X45.24 Y-13.858
Z4
Z2
G1 Z1 F333.3
Z0.01
X45.242 Z0.003 F1000
X45.249 Y-13.86 Z0
X45.259 Y-13.863
X45.266
X45.271 Y-13.857
X45.407 Y-13.414
X45.661 Y-12.52
X45.898 Y-11.623
X46.117 Y-10.721
X46.318 Y-9.815
X46.502 Y-8.905
X46.667 Y-7.992
X46.815 Y-7.075
X46.945 Y-6.156
X47.057 Y-5.234
X47.15 Y-4.309
X47.226 Y-3.383
X47.283 Y-2.454
X47.322 Y-1.524
X47.343 Y-0.592
X47.346 Y0.34
X47.33 Y1.271
X47.296 Y2.201
X47.243 Y3.13
X47.173 Y4.056
X47.084 Y4.981
X46.977 Y5.904
X46.853 Y6.823
X46.71 Y7.741
X46.549 Y8.655
X46.371 Y9.565
X46.174 Y10.472
X45.96 Y11.376
X45.728 Y12.275
X45.478 Y13.17
X45.211 Y14.06
X44.926 Y14.945
X44.624 Y15.825
X44.304 Y16.699
X43.967 Y17.568
X43.612 Y18.43
X43.242 Y19.284
X42.854 Y20.13
X42.451 Y20.968
X42.031 Y21.797
X41.595 Y22.618
X41.144 Y23.429
X40.676 Y24.231
X40.194 Y25.024
X39.695 Y25.807
X39.182 Y26.58
X38.653 Y27.343
X38.11 Y28.096
X37.552 Y28.838
X36.978 Y29.569
X36.391 Y30.289
X35.789 Y30.998
X35.173 Y31.695
X34.543 Y32.381
X33.898 Y33.055
X33.241 Y33.715
X32.572 Y34.363
X31.891 Y34.996
X31.197 Y35.615
X30.492 Y36.221
X29.776 Y36.812
X29.048 Y37.389
X28.31 Y37.951
X27.56 Y38.499
X26.8 Y39.031
X26.03 Y39.549
X25.25 Y40.052
X24.46 Y40.539
X23.66 Y41.011
X22.851 Y41.468
X22.032 Y41.908
X21.205 Y42.333
X20.369 Y42.742
X19.524 Y43.134
X18.671 Y43.51
X17.811 Y43.869
X16.945 Y44.211
X16.073 Y44.535
X15.196 Y44.842
X14.313 Y45.132
X13.425 Y45.404
X12.532 Y45.658
X11.634 Y45.895
X10.732 Y46.114
X9.827 Y46.316
X8.917 Y46.5
X8.004 Y46.665
X7.087 Y46.813
X6.167 Y46.943
X5.245 Y47.055
X4.32 Y47.149
X3.393 Y47.225
X2.464 Y47.283
X1.533 Y47.322
X0.601 Y47.343
X-0.33 Y47.346
X-1.261 Y47.33
X-2.19 Y47.296
X-3.119 Y47.244
X-4.045 Y47.174
X-4.969 Y47.085
X-5.892 Y46.979
X-6.812 Y46.854
X-7.729 Y46.712
X-8.643 Y46.551
X-9.554 Y46.373
X-10.461 Y46.177
X-11.364 Y45.963
X-12.264 Y45.731
X-13.159 Y45.481
X-14.049 Y45.214
X-14.935 Y44.93
X-15.815 Y44.627
X-16.69 Y44.307
X-17.56 Y43.97
X-18.421 Y43.616
X-19.275 Y43.246
X-20.121 Y42.859
X-20.958 Y42.456
X-21.787 Y42.036
X-22.607 Y41.601
X-23.419 Y41.15
X-24.221 Y40.683
X-25.014 Y40.2
X-25.797 Y39.702
X-26.57 Y39.189
X-27.333 Y38.66
X-28.086 Y38.117
X-28.828 Y37.559
X-29.56 Y36.985
X-30.281 Y36.398
X-30.99 Y35.796
X-31.688 Y35.18
X-32.374 Y34.549
X-33.048 Y33.905
X-33.708 Y33.249
X-34.355 Y32.58
X-34.989 Y31.899
X-35.608 Y31.206
X-36.213 Y30.501
X-36.805 Y29.785
X-37.382 Y29.058
X-37.944 Y28.319
X-38.492 Y27.57
X-39.025 Y26.81
X-39.543 Y26.04
X-40.046 Y25.26
X-40.533 Y24.47
X-41.006 Y23.67
X-41.462 Y22.86
X-41.903 Y22.042
X-42.328 Y21.214
X-42.737 Y20.377
X-43.13 Y19.532
X-43.506 Y18.679
X-43.865 Y17.82
X-44.208 Y16.953
X-44.532 Y16.081
X-44.84 Y15.202
X-45.13 Y14.317
X-45.403 Y13.427
X-45.658 Y12.532
X-45.896 Y11.631
X-46.116 Y10.726
X-46.318 Y9.816
X-46.502 Y8.902
X-46.669 Y7.985
X-46.817 Y7.065
X-46.947 Y6.143
X-47.058 Y5.219
X-47.152 Y4.292
X-47.227 Y3.364
X-47.284 Y2.435
X-47.323 Y1.505
X-47.343 Y0.573
X-47.345 Y-0.359
X-47.329 Y-1.291
X-47.295 Y-2.222
X-47.242 Y-3.151
X-47.171 Y-4.079
X-47.082 Y-5.004
X-46.974 Y-5.927
X-46.849 Y-6.847
X-46.706 Y-7.764
X-46.545 Y-8.678
X-46.366 Y-9.589
X-46.169 Y-10.496
X-45.954 Y-11.399
X-45.722 Y-12.298
X-45.472 Y-13.192
X-45.204 Y-14.081
X-44.919 Y-14.966
X-44.617 Y-15.845
X-44.297 Y-16.718
X-43.96 Y-17.586
X-43.605 Y-18.448
X-43.233 Y-19.303
X-42.845 Y-20.149
X-42.441 Y-20.988
X-42.021 Y-21.817
X-41.584 Y-22.638
X-41.132 Y-23.449
X-40.664 Y-24.252
X-40.181 Y-25.044
X-39.682 Y-25.827
X-39.168 Y-26.6
X-38.639 Y-27.363
X-38.096 Y-28.115
X-37.537 Y-28.856
X-36.964 Y-29.587
X-36.377 Y-30.306
X-35.775 Y-31.014
X-35.159 Y-31.711
X-34.529 Y-32.395
X-33.885 Y-33.068
X-33.228 Y-33.729
X-32.558 Y-34.376
X-31.875 Y-35.01
X-31.181 Y-35.63
X-30.475 Y-36.235
X-29.758 Y-36.826
X-29.03 Y-37.403
X-28.291 Y-37.965
X-27.541 Y-38.513
X-26.781 Y-39.045
X-26.01 Y-39.563
X-25.23 Y-40.065
X-24.439 Y-40.552
X-23.64 Y-41.023
X-22.831 Y-41.479
X-22.012 Y-41.919
X-21.185 Y-42.343
X-20.35 Y-42.751
X-19.506 Y-43.142
X-18.653 Y-43.517
X-17.793 Y-43.876
X-16.926 Y-44.218
X-16.053 Y-44.542
X-15.175 Y-44.849
X-14.291 Y-45.138
X-13.403 Y-45.41
X-12.509 Y-45.664
X-11.611 Y-45.901
X-10.709 Y-46.12
X-9.803 Y-46.321
X-8.893 Y-46.504
X-7.98 Y-46.669
X-7.064 Y-46.817
X-6.144 Y-46.946
X-5.222 Y-47.058
X-4.298 Y-47.151
X-3.372 Y-47.227
X-2.443 Y-47.284
X-1.514 Y-47.323
X-0.583 Y-47.343
X0.35 Y-47.345
X1.281 Y-47.33
X2.212 Y-47.295
X3.14 Y-47.243
X4.068 Y-47.172
X4.993 Y-47.083
X5.915 Y-46.976
X6.835 Y-46.851
X7.752 Y-46.708
X8.666 Y-46.547
X9.577 Y-46.368
X10.484 Y-46.171
X11.387 Y-45.957
X12.286 Y-45.725
X13.181 Y-45.475
X14.07 Y-45.208
X14.955 Y-44.923
X15.835 Y-44.62
X16.709 Y-44.301
X17.577 Y-43.963
X18.439 Y-43.609
X19.294 Y-43.237
X20.14 Y-42.85
X20.978 Y-42.446
X21.807 Y-42.026
X22.628 Y-41.59
X23.439 Y-41.138
X24.241 Y-40.67
X25.034 Y-40.187
X25.817 Y-39.689
X26.59 Y-39.175
X27.353 Y-38.646
X28.105 Y-38.103
X28.847 Y-37.544
X29.578 Y-36.971
X30.298 Y-36.384
X31.006 Y-35.782
X31.703 Y-35.166
X32.388 Y-34.536
X33.061 Y-33.892
X33.722 Y-33.235
X34.37 Y-32.565
X35.003 Y-31.883
X35.623 Y-31.189
X36.228 Y-30.484
X36.819 Y-29.767
X37.396 Y-29.039
X37.958 Y-28.3
X38.506 Y-27.551
X39.038 Y-26.79
X39.556 Y-26.02
X40.058 Y-25.24
X40.545 Y-24.45
X41.017 Y-23.65
X41.473 Y-22.841
X41.913 Y-22.022
X42.338 Y-21.195
X42.746 Y-20.359
X43.138 Y-19.515
X43.514 Y-18.662
X43.873 Y-17.802
X44.214 Y-16.936
X44.539 Y-16.063
X44.846 Y-15.185
X45.135 Y-14.302
X45.271 Y-13.857
Y-13.849
X45.265 Y-13.844
X45.255 Y-13.841
X45.248 Y-13.839 Z0.003
X45.246 Y-13.838 Z0.01
G0 Z2
X46.328 Y-11.72
G1 Z1 F333.3
Z0.01
X46.329 Y-11.717 Z0.003 F1000
X46.331 Y-11.71 Z0
X46.333 Y-11.701
X46.332 Y-11.693
X46.326 Y-11.688
X46.012 Y-11.604
X45.844 Y-12.232
X49.929 Y-13.327
X50.098 Y-12.699
X46.326 Y-11.688
X46.319 Y-11.689
X46.314 Y-11.696
X46.312 Y-11.705
X46.31 Y-11.712 Z0.003
X46.309 Y-11.715 Z0.01
G0 Z2
X50.926 Y-8.609
G1 Z1 F333.3
Z0.01
X50.929 Y-8.61 Z0.003 F1000
X50.936 Y-8.611 Z0
X50.946 Y-8.613
X50.953 Y-8.611
X50.957 Y-8.604
X51.014 Y-8.284
X46.849 Y-7.55
X46.736 Y-8.19
X50.901 Y-8.924
X50.957 Y-8.604
X50.956 Y-8.597
X50.949 Y-8.593
X50.939 Y-8.591
X50.932 Y-8.59 Z0.003
X50.93 Y-8.589 Z0.01
G0 Z2
X51.483 Y-4.138
G1 Z1 F333.3
Z0.01
X51.486 Z0.003 F1000
X51.493 Y-4.139 Z0
X51.503 Y-4.14
X51.51 Y-4.137
X51.513 Y-4.13
X51.542 Y-3.807
X47.329 Y-3.438
X47.272 Y-4.086
X51.485 Y-4.454
X51.513 Y-4.13
X51.511 Y-4.123
X51.504 Y-4.12
X51.494 Y-4.119
X51.487 Y-4.118 Z0.003
X51.484 Z0.01
G0 Z2
X51.647 Y0.365
G1 Z1 F333.3
Z0.01
X51.65 Z0.003 F1000
X51.657 Z0
X51.667
X51.674 Y0.368
X51.677 Y0.375
Y0.7
X47.448
Y0.05
X51.677
Y0.375
X51.674 Y0.382
X51.667 Y0.385
X51.657
X51.65 Z0.003
X51.647 Z0.01
G0 Z2
X47.574 Y4.243
G1 Z1 F333.3
Z0.01
X47.575 Y4.24 Z0.003 F1000
Y4.233 Z0
X47.576 Y4.223
X47.58 Y4.216
X47.587 Y4.214
X51.476 Y4.554
X51.42 Y5.201
X47.206 Y4.833
X47.263 Y4.185
X47.587 Y4.214
X47.594 Y4.217
X47.596 Y4.224
X47.595 Y4.234
Y4.241 Z0.003
X47.594 Y4.244 Z0.01
G0 Z2
X47.024 Y8.373
G1 Z1 F333.3
Z0.01
Y8.37 Z0.003 F1000
X47.025 Y8.363 Z0
X47.027 Y8.353
X47.031 Y8.347
X47.039 Y8.345
X50.884 Y9.023
X50.771 Y9.663
X46.606 Y8.929
X46.719 Y8.289
X47.039 Y8.345
X47.045 Y8.349
X47.047 Y8.357
X47.045 Y8.366
X47.044 Y8.373 Z0.003
X47.043 Y8.376 Z0.01
G0 Z2
X49.793 Y13.72
G1 Z1 F333.3
Z0.01
X49.796 Y13.721 Z0.003 F1000
X49.803 Y13.722 Z0
X49.812 Y13.725
X49.818 Y13.73
X49.819 Y13.737
X49.735 Y14.051
X45.65 Y12.957
X45.818 Y12.329
X49.904 Y13.423
X49.819 Y13.737
X49.815 Y13.743
X49.807 Y13.744
X49.798 Y13.742
X49.791 Y13.74 Z0.003
X49.788 Y13.739 Z0.01
G0 Z2
X48.408 Y18.007
G1 Z1 F333.3
Z0.01
X48.411 Y18.008 Z0.003 F1000
X48.417 Y18.011 Z0
X48.427 Y18.014
X48.432 Y18.019
X48.433 Y18.027
X48.321 Y18.333
X44.347 Y16.886
X44.569 Y16.275
X48.544 Y17.722
X48.433 Y18.027
X48.427 Y18.033
X48.42
X48.41 Y18.03
X48.404 Y18.027 Z0.003
X48.401 Y18.026 Z0.01
G0 Z2
X46.654 Y22.158
G1 Z1 F333.3
Z0.01
X46.657 Y22.159 Z0.003 F1000
X46.663 Y22.162 Z0
X46.672 Y22.166
X46.677 Y22.172
Y22.18
X46.54 Y22.474
X42.707 Y20.687
X42.981 Y20.098
X46.814 Y21.885
X46.677 Y22.18
X46.672 Y22.185
X46.664 Y22.184
X46.655 Y22.18
X46.648 Y22.177 Z0.003
X46.646 Y22.176 Z0.01
G0 Z2
X41.324 Y23.951
G1 Z1 F333.3
Z0.01
X41.326 Y23.948 Z0.003 F1000
X41.329 Y23.942 Z0
X41.334 Y23.933
X41.34 Y23.929
X41.348 Y23.93
X44.729 Y25.882
X44.404 Y26.445
X40.741 Y24.33
X41.066 Y23.767
X41.348 Y23.93
X41.352 Y23.936
X41.351 Y23.943
X41.346 Y23.952
X41.343 Y23.958 Z0.003
X41.341 Y23.961 Z0.01
G0 Z2
X42.098 Y29.923
G1 Z1 F333.3
Z0.01
X42.1 Y29.924 Z0.003 F1000
X42.106 Y29.928 Z0
X42.114 Y29.934
X42.118 Y29.941
X42.117 Y29.948
X41.93 Y30.214
X38.466 Y27.789
X38.838 Y27.256
X42.303 Y29.682
X42.117 Y29.948
X42.11 Y29.952
X42.103 Y29.951
X42.094 Y29.945
X42.089 Y29.941 Z0.003
X42.086 Y29.939 Z0.01
G0 Z2
X36.537 Y30.763
G1 Z1 F333.3
Z0.01
X36.539 Y30.761 Z0.003 F1000
X36.544 Y30.755 Z0
X36.55 Y30.747
X36.557 Y30.744
X36.564 Y30.746
X39.555 Y33.256
X39.137 Y33.754
X35.897 Y31.035
X36.315 Y30.537
X36.564 Y30.746
X36.568 Y30.753
X36.565 Y30.76
X36.559 Y30.768
X36.554 Y30.773 Z0.003
X36.552 Y30.776 Z0.01
G0 Z2
X36.248 Y36.361
G1 Z1 F333.3
Z0.01
X36.25 Y36.359 Z0.003 F1000
X36.255 Y36.354 Z0
X36.262 Y36.347
X36.269 Y36.344
X36.276 Y36.347
X36.506 Y36.577
X36.046 Y37.036
X33.056 Y34.046
X33.515 Y33.586
X36.276 Y36.347
X36.279 Y36.354
X36.276 Y36.361
X36.269 Y36.368
X36.264 Y36.373 Z0.003
X36.262 Y36.375 Z0.01
G0 Z2
X30.64 Y36.64
G1 Z1 F333.3
Z0.01
X30.642 Y36.638 Z0.003 F1000
X30.648 Y36.634 Z0
X30.656 Y36.627
X30.663 Y36.625
X30.67 Y36.628
X33.179 Y39.619
X32.681 Y40.037
X29.963 Y36.797
X30.461 Y36.379
X30.67 Y36.628
X30.672 Y36.636
X30.668 Y36.643
X30.661 Y36.649
X30.655 Y36.653 Z0.003
X30.653 Y36.655 Z0.01
G0 Z2
X27.33 Y39.171
G1 Z1 F333.3
Z0.01
X27.333 Y39.169 Z0.003 F1000
X27.338 Y39.165 Z0
X27.347 Y39.16
X27.354 Y39.158
X27.361 Y39.162
X29.6 Y42.36
X29.067 Y42.733
X26.642 Y39.269
X27.174 Y38.896
X27.361 Y39.162
X27.362 Y39.17
X27.358 Y39.176
X27.35 Y39.182
X27.344 Y39.186 Z0.003
X27.342 Y39.187 Z0.01
G0 Z2
X23.812 Y41.404
G1 Z1 F333.3
Z0.01
X23.815 Y41.403 Z0.003 F1000
X23.821 Y41.399 Z0
X23.83 Y41.394
X23.837 Y41.393
X23.843 Y41.398
X25.795 Y44.779
X25.233 Y45.104
X23.118 Y41.441
X23.681 Y41.116
X23.843 Y41.398
X23.844 Y41.405
X23.84 Y41.411
X23.831 Y41.416
X23.825 Y41.42 Z0.003
X23.822 Y41.421 Z0.01
G0 Z2
X20.113 Y43.322
G1 Z1 F333.3
Z0.01
X20.116 Y43.321 Z0.003 F1000
X20.122 Y43.318 Z0
X20.131 Y43.313
X20.139
X20.144 Y43.318
X21.794 Y46.857
X21.205 Y47.131
X19.418 Y43.298
X20.007 Y43.024
X20.144 Y43.318
X20.145 Y43.326
X20.14 Y43.332
X20.131 Y43.336
X20.124 Y43.339 Z0.003
X20.122 Y43.34 Z0.01
G0 Z2
X16.261 Y44.91
G1 Z1 F333.3
Z0.01
X16.264 Y44.909 Z0.003 F1000
X16.27 Y44.907 Z0
X16.28 Y44.903
X16.287
X16.292 Y44.909
X17.628 Y48.578
X17.017 Y48.8
X15.57 Y44.826
X16.181 Y44.604
X16.292 Y44.909
Y44.917
X16.286 Y44.922
X16.277 Y44.925
X16.27 Y44.928 Z0.003
X16.268 Y44.929 Z0.01
G0 Z2
X13.211 Y49.614
G1 Z1 F333.3
Z0.01
X13.214 Y49.613 Z0.003 F1000
X13.221 Y49.611 Z0
X13.23 Y49.608
X13.238 Y49.609
X13.243 Y49.616
X13.327 Y49.929
X12.699 Y50.098
X11.604 Y46.012
X12.232 Y45.844
X13.243 Y49.616
X13.242 Y49.623
X13.236 Y49.628
X13.226 Y49.63
X13.219 Y49.632 Z0.003
X13.216 Y49.633 Z0.01
G0 Z2
X8.837 Y50.576
G1 Z1 F333.3
Z0.01
X8.84 Z0.003 F1000
X8.847 Y50.575 Z0
X8.856 Y50.573
X8.864 Y50.574
X8.868 Y50.581
X8.924 Y50.901
X8.284 Y51.014
X7.55 Y46.849
X8.19 Y46.736
X8.868 Y50.581
X8.866 Y50.588
X8.86 Y50.592
X8.85 Y50.594
X8.843 Y50.595 Z0.003
X8.84 Y50.596 Z0.01
G0 Z2
X3.307 Y47.321
G1 Z1 F333.3
Z0.01
X3.31 Z0.003 F1000
X3.317 Y47.32 Z0
X3.327
X3.334 Y47.322
X3.338 Y47.329
X3.711 Y51.6
X3.72 Y51.625
X3.74 Y51.641
X3.766 Y51.646
X4.513 Y51.58
X4.537 Y51.571
X4.554 Y51.552
X4.558 Y51.526
X4.185 Y47.261
G0 Z2
X-0.08 Y47.763
G1 Z1 F333.3
Z0.01
X-0.077 Z0.003 F1000
X-0.07 Z0
X-0.06
X-0.053 Y47.766
X-0.05 Y47.773
Y51.677
X-0.7
Y47.448
X-0.05
Y47.773
X-0.053 Y47.78
X-0.06 Y47.783
X-0.07
X-0.077 Z0.003
X-0.08 Z0.01
G0 Z2
X-4.243 Y47.574
G1 Z1 F333.3
Z0.01
X-4.24 Y47.575 Z0.003 F1000
X-4.233 Z0
X-4.223 Y47.576
X-4.216 Y47.58
X-4.214 Y47.587
X-4.554 Y51.476
X-5.201 Y51.42
X-4.833 Y47.206
X-4.185 Y47.263
X-4.214 Y47.587
X-4.217 Y47.594
X-4.224 Y47.596
X-4.234 Y47.595
X-4.241 Z0.003
X-4.244 Y47.594 Z0.01
G0 Z2
X-8.373 Y47.024
G1 Z1 F333.3
Z0.01
X-8.37 Z0.003 F1000
X-8.363 Y47.025 Z0
X-8.353 Y47.027
X-8.347 Y47.031
X-8.345 Y47.039
X-9.023 Y50.884
X-9.663 Y50.771
X-8.929 Y46.606
X-8.289 Y46.719
X-8.345 Y47.039
X-8.349 Y47.045
X-8.357 Y47.047
X-8.366 Y47.045
X-8.373 Y47.044 Z0.003
X-8.376 Y47.043 Z0.01
G0 Z2
X-12.439 Y46.115
G1 Z1 F333.3
Z0.01
X-12.436 Y46.116 Z0.003 F1000
X-12.43 Y46.117 Z0
X-12.42 Y46.12
X-12.414 Y46.125
X-12.413 Y46.132
X-13.423 Y49.904
X-14.051 Y49.735
X-12.957 Y45.65
X-12.329 Y45.818
X-12.413 Y46.132
X-12.418 Y46.138
X-12.425 Y46.139
X-12.435 Y46.137
X-12.442 Y46.135 Z0.003
X-12.444 Y46.134 Z0.01
G0 Z2
X-17.635 Y48.219
G1 Z1 F333.3
Z0.01
X-17.633 Y48.22 Z0.003 F1000
X-17.626 Y48.222 Z0
X-17.617 Y48.225
X-17.611 Y48.231
Y48.238
X-17.722 Y48.544
X-18.333 Y48.321
X-16.886 Y44.347
X-16.275 Y44.569
X-17.611 Y48.238
X-17.616 Y48.244
X-17.623
X-17.633 Y48.241
X-17.639 Y48.238 Z0.003
X-17.642 Y48.237 Z0.01
G0 Z2
X-21.771 Y46.498
G1 Z1 F333.3
Z0.01
X-21.768 Y46.499 Z0.003 F1000
X-21.762 Y46.502 Z0
X-21.753 Y46.507
X-21.747 Y46.512
X-21.748 Y46.52
X-21.885 Y46.814
X-22.474 Y46.54
X-20.687 Y42.707
X-20.098 Y42.981
X-21.748 Y46.52
X-21.753 Y46.525
X-21.761
X-21.77 Y46.521
X-21.777 Y46.518 Z0.003
X-21.779 Y46.516 Z0.01
G0 Z2
X-23.951 Y41.324
G1 Z1 F333.3
Z0.01
X-23.948 Y41.326 Z0.003 F1000
X-23.942 Y41.329 Z0
X-23.933 Y41.334
X-23.929 Y41.34
X-23.93 Y41.348
X-25.882 Y44.729
X-26.445 Y44.404
X-24.33 Y40.741
X-23.767 Y41.066
X-23.93 Y41.348
X-23.936 Y41.352
X-23.943 Y41.351
X-23.952 Y41.346
X-23.958 Y41.343 Z0.003
X-23.961 Y41.341 Z0.01
G0 Z2
X-27.461 Y39.079
G1 Z1 F333.3
Z0.01
X-27.459 Y39.081 Z0.003 F1000
X-27.453 Y39.085 Z0
X-27.445 Y39.091
X-27.441 Y39.097
X-27.442 Y39.105
X-29.682 Y42.303
X-30.214 Y41.93
X-27.789 Y38.466
X-27.256 Y38.838
X-27.442 Y39.105
X-27.449 Y39.109
X-27.456 Y39.107
X-27.465 Y39.101
X-27.47 Y39.097 Z0.003
X-27.473 Y39.096 Z0.01
G0 Z2
X-33.064 Y39.279
G1 Z1 F333.3
Z0.01
X-33.061 Y39.281 Z0.003 F1000
X-33.056 Y39.286 Z0
X-33.048 Y39.292
X-33.045 Y39.299
X-33.047 Y39.306
X-33.256 Y39.555
X-33.754 Y39.137
X-31.035 Y35.897
X-30.537 Y36.315
X-33.047 Y39.306
X-33.054 Y39.31
X-33.061 Y39.307
X-33.069 Y39.301
X-33.074 Y39.296 Z0.003
X-33.076 Y39.294 Z0.01
G0 Z2
X-36.361 Y36.248
G1 Z1 F333.3
Z0.01
X-36.359 Y36.25 Z0.003 F1000
X-36.354 Y36.255 Z0
X-36.347 Y36.262
X-36.344 Y36.269
X-36.347 Y36.276
X-36.577 Y36.506
X-37.036 Y36.046
X-34.046 Y33.056
X-33.586 Y33.515
X-36.347 Y36.276
X-36.354 Y36.279
X-36.361 Y36.276
X-36.368 Y36.269
X-36.373 Y36.264 Z0.003
X-36.375 Y36.262 Z0.01
G0 Z2
X-39.382 Y32.941
G1 Z1 F333.3
Z0.01
X-39.38 Y32.943 Z0.003 F1000
X-39.376 Y32.949 Z0
X-39.369 Y32.956
X-39.367 Y32.964
X-39.37 Y32.97
X-39.619 Y33.179
X-40.037 Y32.681
X-36.797 Y29.963
X-36.379 Y30.461
X-39.37 Y32.97
X-39.378 Y32.973
X-39.384 Y32.969
X-39.391 Y32.961
X-39.395 Y32.956 Z0.003
X-39.397 Y32.954 Z0.01
G0 Z2
X-42.103 Y29.383
G1 Z1 F333.3
Z0.01
X-42.101 Y29.386 Z0.003 F1000
X-42.097 Y29.391 Z0
X-42.092 Y29.4
X-42.09 Y29.407
X-42.094 Y29.414
X-42.36 Y29.6
X-42.733 Y29.067
X-39.269 Y26.642
X-38.896 Y27.174
X-42.094 Y29.414
X-42.102 Y29.415
X-42.108 Y29.411
X-42.114 Y29.403
X-42.118 Y29.397 Z0.003
X-42.119 Y29.395 Z0.01
G0 Z2
X-44.504 Y25.602
G1 Z1 F333.3
Z0.01
X-44.502 Y25.604 Z0.003 F1000
X-44.499 Y25.611 Z0
X-44.494 Y25.619
X-44.493 Y25.627
X-44.497 Y25.633
X-44.779 Y25.795
X-45.104 Y25.233
X-41.441 Y23.118
X-41.116 Y23.681
X-44.497 Y25.633
X-44.505 Y25.634
X-44.511 Y25.629
X-44.516 Y25.621
X-44.52 Y25.614 Z0.003
X-44.521 Y25.612 Z0.01
G0 Z2
X-43.192 Y19.716
G1 Z1 F333.3
Z0.01
X-43.19 Y19.715 Z0.003 F1000
X-43.183 Y19.712 Z0
X-43.174 Y19.708
X-43.167 Y19.707
X-43.161 Y19.713
X-43.024 Y20.007
X-46.857 Y21.794
X-47.131 Y21.205
X-43.298 Y19.418
X-43.161 Y19.713
Y19.72
X-43.166 Y19.726
X-43.175 Y19.73
X-43.181 Y19.733 Z0.003
X-43.184 Y19.734 Z0.01
G0 Z2
X-48.273 Y17.485
G1 Z1 F333.3
Z0.01
X-48.272 Y17.488 Z0.003 F1000
X-48.27 Y17.494 Z0
X-48.267 Y17.504
Y17.511
X-48.272 Y17.517
X-48.578 Y17.628
X-48.8 Y17.017
X-44.826 Y15.57
X-44.604 Y16.181
X-48.272 Y17.517
X-48.28 Y17.516
X-48.285 Y17.511
X-48.289 Y17.501
X-48.291 Y17.495 Z0.003
X-48.292 Y17.492 Z0.01
G0 Z2
X-49.614 Y13.211
G1 Z1 F333.3
Z0.01
X-49.613 Y13.214 Z0.003 F1000
X-49.611 Y13.221 Z0
X-49.608 Y13.23
X-49.609 Y13.238
X-49.616 Y13.243
X-49.929 Y13.327
X-50.098 Y12.699
X-46.012 Y11.604
X-45.844 Y12.232
X-49.616 Y13.243
X-49.623 Y13.242
X-49.628 Y13.236
X-49.63 Y13.226
X-49.632 Y13.219 Z0.003
X-49.633 Y13.216 Z0.01
G0 Z2
X-50.576 Y8.837
G1 Z1 F333.3
Z0.01
Y8.84 Z0.003 F1000
X-50.575 Y8.847 Z0
X-50.573 Y8.856
X-50.574 Y8.864
X-50.581 Y8.868
X-50.901 Y8.924
X-51.014 Y8.284
X-46.849 Y7.55
X-46.736 Y8.19
X-50.581 Y8.868
X-50.588 Y8.866
X-50.592 Y8.86
X-50.594 Y8.85
X-50.595 Y8.843 Z0.003
X-50.596 Y8.84 Z0.01
G0 Z2
X-51.154 Y4.395
G1 Z1 F333.3
Z0.01
Y4.398 Z0.003 F1000
X-51.153 Y4.405 Z0
X-51.152 Y4.415
X-51.155 Y4.422
X-51.161 Y4.426
X-51.485 Y4.454
X-51.542 Y3.807
X-47.329 Y3.438
X-47.272 Y4.086
X-51.161 Y4.426
X-51.169 Y4.424
X-51.172 Y4.417
X-51.173 Y4.407
X-51.174 Y4.4 Z0.003
Y4.397 Z0.01
G0 Z2
X-51.362 Y-0.67
G1 Z1 F333.3
Z0.01
Y-0.673 Z0.003 F1000
Y-0.68 Z0
Y-0.69
X-51.359 Y-0.697
X-51.352 Y-0.7
X-47.448
Y-0.05
X-51.677
Y-0.7
X-51.352
X-51.345 Y-0.697
X-51.342 Y-0.69
Y-0.68
Y-0.673 Z0.003
Y-0.67 Z0.01
G0 Z2
X-47.264 Y-4.522
G1 Z1 F333.3
Z0.01
X-47.261 Y-4.521 Z0.003 F1000
X-47.254 Z0
X-47.244 Y-4.52
X-47.237 Y-4.516
X-47.235 Y-4.509
X-47.263 Y-4.185
X-51.476 Y-4.554
X-51.42 Y-5.201
X-47.206 Y-4.833
X-47.235 Y-4.509
X-47.238 Y-4.502
X-47.246 Y-4.5
X-47.256 Y-4.501
X-47.263 Z0.003
X-47.266 Y-4.502 Z0.01
G0 Z2
X-46.69 Y-8.624
G1 Z1 F333.3
Z0.01
X-46.687 Y-8.623 Z0.003 F1000
X-46.68 Y-8.622 Z0
X-46.67 Y-8.62
X-46.664 Y-8.616
X-46.662 Y-8.609
X-46.719 Y-8.289
X-50.884 Y-9.023
X-50.771 Y-9.663
X-46.606 Y-8.929
X-46.662 Y-8.609
X-46.666 Y-8.602
X-46.674 Y-8.6
X-46.684 Y-8.602
X-46.69 Y-8.603 Z0.003
X-46.693 Y-8.604 Z0.01
G0 Z2
X-49.439 Y-13.941
G1 Z1 F333.3
Z0.01
X-49.438 Y-13.944 Z0.003 F1000
X-49.436 Y-13.95 Z0
X-49.434 Y-13.96
X-49.429 Y-13.966
X-49.421 Y-13.967
X-45.65 Y-12.957
X-45.818 Y-12.329
X-49.904 Y-13.423
X-49.735 Y-14.051
X-49.421 Y-13.967
X-49.415 Y-13.962
X-49.414 Y-13.955
X-49.417 Y-13.945
X-49.419 Y-13.938 Z0.003
Y-13.936 Z0.01
G0 Z2
X-44.483 Y-16.6
G1 Z1 F333.3
Z0.01
X-44.48 Y-16.599 Z0.003 F1000
X-44.474 Y-16.597 Z0
X-44.464 Y-16.593
X-44.459 Y-16.588
X-44.458 Y-16.581
X-44.569 Y-16.275
X-48.544 Y-17.722
X-48.321 Y-18.333
X-44.347 Y-16.886
X-44.458 Y-16.581
X-44.464 Y-16.575
X-44.471
X-44.481 Y-16.578
X-44.487 Y-16.58 Z0.003
X-44.49 Y-16.581 Z0.01
G0 Z2
X-46.267 Y-22.314
G1 Z1 F333.3
Z0.01
X-46.266 Y-22.317 Z0.003 F1000
X-46.263 Y-22.323 Z0
X-46.258 Y-22.332
X-46.253 Y-22.337
X-46.245
X-42.707 Y-20.687
X-42.981 Y-20.098
X-46.814 Y-21.885
X-46.54 Y-22.474
X-46.245 Y-22.337
X-46.24 Y-22.331
Y-22.324
X-46.245 Y-22.315
X-46.248 Y-22.308 Z0.003
X-46.249 Y-22.305 Z0.01
G0 Z2
X-40.925 Y-24.072
G1 Z1 F333.3
Z0.01
X-40.922 Y-24.071 Z0.003 F1000
X-40.916 Y-24.067 Z0
X-40.907 Y-24.062
X-40.903 Y-24.056
X-40.904 Y-24.049
X-41.066 Y-23.767
X-44.729 Y-25.882
X-44.404 Y-26.445
X-40.741 Y-24.33
X-40.904 Y-24.049
X-40.91 Y-24.044
X-40.917 Y-24.045
X-40.926 Y-24.05
X-40.932 Y-24.054 Z0.003
X-40.935 Y-24.055 Z0.01
G0 Z2
X-38.671 Y-27.548
G1 Z1 F333.3
Z0.01
X-38.668 Y-27.546 Z0.003 F1000
X-38.663 Y-27.542 Z0
X-38.655 Y-27.536
X-38.65 Y-27.53
X-38.652 Y-27.522
X-38.838 Y-27.256
X-42.303 Y-29.682
X-41.93 Y-30.214
X-38.466 Y-27.789
X-38.652 Y-27.522
X-38.659 Y-27.518
X-38.666 Y-27.52
X-38.674 Y-27.526
X-38.68 Y-27.53 Z0.003
X-38.682 Y-27.531 Z0.01
G0 Z2
X-38.915 Y-33.528
G1 Z1 F333.3
Z0.01
X-38.913 Y-33.531 Z0.003 F1000
X-38.909 Y-33.536 Z0
X-38.902 Y-33.544
X-38.896 Y-33.547
X-38.888 Y-33.545
X-35.897 Y-31.035
X-36.315 Y-30.537
X-39.555 Y-33.256
X-39.137 Y-33.754
X-38.888 Y-33.545
X-38.885 Y-33.538
X-38.887 Y-33.531
X-38.893 Y-33.523
X-38.898 Y-33.518 Z0.003
X-38.9 Y-33.515 Z0.01
G0 Z2
X-35.845 Y-36.792
G1 Z1 F333.3
Z0.01
X-35.843 Y-36.795 Z0.003 F1000
X-35.838 Y-36.8 Z0
X-35.831 Y-36.807
X-35.824 Y-36.81
X-35.817 Y-36.807
X-33.056 Y-34.046
X-33.515 Y-33.586
X-36.506 Y-36.577
X-36.046 Y-37.036
X-35.817 Y-36.807
X-35.814 Y-36.8
X-35.817 Y-36.792
X-35.824 Y-36.785
X-35.829 Y-36.78 Z0.003
X-35.831 Y-36.778 Z0.01
G0 Z2
X-30.201 Y-37.035
G1 Z1 F333.3
Z0.01
X-30.199 Y-37.036 Z0.003 F1000
X-30.193 Y-37.041 Z0
X-30.186 Y-37.047
X-30.179 Y-37.05
X-30.172 Y-37.046
X-29.963 Y-36.797
X-30.461 Y-36.379
X-33.179 Y-39.619
X-32.681 Y-40.037
X-30.172 Y-37.046
X-30.169 Y-37.039
X-30.173 Y-37.032
X-30.181 Y-37.026
X-30.186 Y-37.021 Z0.003
X-30.188 Y-37.019 Z0.01
G0 Z2
X-28.911 Y-42.458
G1 Z1 F333.3
Z0.01
X-28.909 Y-42.46 Z0.003 F1000
X-28.903 Y-42.464 Z0
X-28.895 Y-42.469
X-28.888 Y-42.471
X-28.881 Y-42.467
X-26.642 Y-39.269
X-27.174 Y-38.896
X-29.6 Y-42.36
X-29.067 Y-42.733
X-28.881 Y-42.467
X-28.879 Y-42.459
X-28.884 Y-42.453
X-28.892 Y-42.447
X-28.897 Y-42.443 Z0.003
X-28.9 Y-42.442 Z0.01
G0 Z2
X-23.311 Y-41.716
G1 Z1 F333.3
Z0.01
X-23.309 Y-41.718 Z0.003 F1000
X-23.303 Y-41.721 Z0
X-23.294 Y-41.726
X-23.286 Y-41.727
X-23.28 Y-41.723
X-23.118 Y-41.441
X-23.681 Y-41.116
X-25.795 Y-44.779
X-25.233 Y-45.104
X-23.28 Y-41.723
X-23.279 Y-41.715
X-23.284 Y-41.709
X-23.293 Y-41.704
X-23.299 Y-41.7 Z0.003
X-23.301 Y-41.699 Z0.01
G0 Z2
X-19.587 Y-43.589
G1 Z1 F333.3
Z0.01
X-19.584 Y-43.591 Z0.003 F1000
X-19.578 Y-43.594 Z0
X-19.569 Y-43.598
X-19.561
X-19.555 Y-43.593
X-19.418 Y-43.298
X-20.007 Y-43.024
X-21.794 Y-46.857
X-21.205 Y-47.131
X-19.555 Y-43.593
Y-43.585
X-19.56 Y-43.58
X-19.569 Y-43.575
X-19.576 Y-43.572 Z0.003
X-19.578 Y-43.571 Z0.01
G0 Z2
X-15.713 Y-45.131
G1 Z1 F333.3
Z0.01
X-15.71 Y-45.132 Z0.003 F1000
X-15.704 Y-45.134 Z0
X-15.694 Y-45.137
X-15.687
X-15.682 Y-45.131
X-15.57 Y-44.826
X-16.181 Y-44.604
X-17.628 Y-48.578
X-17.017 Y-48.8
X-15.682 Y-45.131
Y-45.124
X-15.688 Y-45.119
X-15.697 Y-45.115
X-15.704 Y-45.113 Z0.003
X-15.706 Y-45.112 Z0.01
G0 Z2
X-12.646 Y-49.786
G1 Z1 F333.3
Z0.01
X-12.644 Z0.003 F1000
X-12.637 Y-49.788 Z0
X-12.627 Y-49.791
X-12.62 Y-49.79
X-12.615 Y-49.784
X-11.604 Y-46.012
X-12.232 Y-45.844
X-13.327 Y-49.929
X-12.699 Y-50.098
X-12.615 Y-49.784
X-12.616 Y-49.776
X-12.622 Y-49.772
X-12.632 Y-49.769
X-12.638 Y-49.767 Z0.003
X-12.641 Y-49.766 Z0.01
G0 Z2
X-8.259 Y-50.698
G1 Z1 F333.3
Z0.01
X-8.256 Y-50.699 Z0.003 F1000
X-8.249 Y-50.7 Z0
X-8.239 Y-50.702
X-8.232 Y-50.7
X-8.228 Y-50.694
X-7.55 Y-46.849
X-8.19 Y-46.736
X-8.924 Y-50.901
X-8.284 Y-51.014
X-8.228 Y-50.694
X-8.23 Y-50.686
X-8.236 Y-50.682
X-8.246 Y-50.68
X-8.253 Y-50.679 Z0.003
X-8.256 Z0.01
G0 Z2
X-3.809 Y-51.225
G1 Z1 F333.3
Z0.01
X-3.806 Y-51.226 Z0.003 F1000
X-3.799 Z0
X-3.789 Y-51.227
X-3.782 Y-51.225
X-3.778 Y-51.218
X-3.438 Y-47.329
X-4.086 Y-47.272
X-4.454 Y-51.485
X-3.807 Y-51.542
X-3.778 Y-51.218
X-3.781 Y-51.211
X-3.787 Y-51.207
X-3.797 Y-51.206
X-3.804 Z0.003
X-3.807 Y-51.205 Z0.01
G0 Z2
X0.67 Y-47.783
G1 Z1 F333.3
Z0.01
X0.673 Z0.003 F1000
X0.68 Z0
X0.69
X0.697 Y-47.78
X0.7 Y-47.773
Y-47.448
X0.05
Y-51.677
X0.7
Y-47.773
X0.697 Y-47.766
X0.69 Y-47.763
X0.68
X0.673 Z0.003
X0.67 Z0.01
G0 Z2
X4.832 Y-47.543
G1 Z1 F333.3
Z0.01
X4.835 Z0.003 F1000
X4.842 Y-47.542 Z0
X4.852 Y-47.541
X4.859 Y-47.538
X4.861 Y-47.53
X4.833 Y-47.206
X4.185 Y-47.263
X4.554 Y-51.476
X5.201 Y-51.42
X4.861 Y-47.53
X4.858 Y-47.523
X4.85 Y-47.521
X4.84 Y-47.522
X4.833 Y-47.523 Z0.003
X4.83 Z0.01
G0 Z2
X8.957 Y-46.941
G1 Z1 F333.3
Z0.01
X8.96 Y-46.94 Z0.003 F1000
X8.967 Y-46.939 Z0
X8.977 Y-46.937
X8.983 Y-46.933
X8.985 Y-46.926
X8.929 Y-46.606
X8.289 Y-46.719
X9.023 Y-50.884
X9.663 Y-50.771
X8.985 Y-46.926
X8.981 Y-46.919
X8.973 Y-46.918
X8.964 Y-46.919
X8.957 Y-46.921 Z0.003
X8.954 Z0.01
G0 Z2
X13.941 Y-49.439
G1 Z1 F333.3
Z0.01
X13.944 Y-49.438 Z0.003 F1000
X13.95 Y-49.436 Z0
X13.96 Y-49.434
X13.966 Y-49.429
X13.967 Y-49.421
X12.957 Y-45.65
X12.329 Y-45.818
X13.423 Y-49.904
X14.051 Y-49.735
X13.967 Y-49.421
X13.962 Y-49.415
X13.955 Y-49.414
X13.945 Y-49.417
X13.938 Y-49.419 Z0.003
X13.936 Z0.01
G0 Z2
X16.972 Y-44.672
G1 Z1 F333.3
Z0.01
X16.975 Y-44.671 Z0.003 F1000
X16.982 Y-44.669 Z0
X16.991 Y-44.665
X16.997 Y-44.66
Y-44.653
X16.886 Y-44.347
X16.275 Y-44.569
X17.722 Y-48.544
X18.333 Y-48.321
X16.997 Y-44.653
X16.992 Y-44.647
X16.984
X16.975 Y-44.65
X16.968 Y-44.652 Z0.003
X16.966 Y-44.653 Z0.01
G0 Z2
X22.314 Y-46.267
G1 Z1 F333.3
Z0.01
X22.317 Y-46.266 Z0.003 F1000
X22.323 Y-46.263 Z0
X22.332 Y-46.259
X22.337 Y-46.253
Y-46.245
X20.687 Y-42.707
X20.098 Y-42.981
X21.885 Y-46.814
X22.474 Y-46.54
X22.337 Y-46.245
X22.331 Y-46.24
X22.324
X22.315 Y-46.245
X22.308 Y-46.248 Z0.003
X22.305 Y-46.249 Z0.01
G0 Z2
X24.472 Y-41.046
G1 Z1 F333.3
Z0.01
X24.474 Y-41.045 Z0.003 F1000
X24.48 Y-41.041 Z0
X24.489 Y-41.036
X24.494 Y-41.03
X24.493 Y-41.023
X24.33 Y-40.741
X23.767 Y-41.066
X25.882 Y-44.729
X26.445 Y-44.404
X24.493 Y-41.023
X24.487 Y-41.018
X24.479 Y-41.019
X24.47 Y-41.024
X24.464 Y-41.028 Z0.003
X24.462 Y-41.029 Z0.01
G0 Z2
X30.009 Y-41.689
G1 Z1 F333.3
Z0.01
X30.012 Y-41.688 Z0.003 F1000
X30.017 Y-41.684 Z0
X30.025 Y-41.678
X30.03 Y-41.671
X30.028 Y-41.664
X27.789 Y-38.466
X27.256 Y-38.838
X29.682 Y-42.303
X30.214 Y-41.93
X30.028 Y-41.664
X30.021 Y-41.66
X30.014 Y-41.661
X30.006 Y-41.667
X30 Y-41.671 Z0.003
X29.998 Y-41.673 Z0.01
G0 Z2
X31.228 Y-36.173
G1 Z1 F333.3
Z0.01
X31.23 Y-36.171 Z0.003 F1000
X31.235 Y-36.167 Z0
X31.243 Y-36.16
X31.246 Y-36.154
X31.244 Y-36.146
X31.035 Y-35.897
X30.537 Y-36.315
X33.256 Y-39.555
X33.754 Y-39.137
X31.244 Y-36.146
X31.237 Y-36.143
X31.23 Y-36.145
X31.222 Y-36.152
X31.217 Y-36.156 Z0.003
X31.215 Y-36.158 Z0.01
G0 Z2
X36.778 Y-36.262
G1 Z1 F333.3
Z0.01
X36.78 Y-36.264 Z0.003 F1000
X36.785 Y-36.269 Z0
X36.792 Y-36.276
X36.8 Y-36.279
X36.807 Y-36.276
X37.036 Y-36.046
X34.046 Y-33.056
X33.586 Y-33.515
X36.577 Y-36.506
X36.807 Y-36.276
X36.81 Y-36.269
X36.807 Y-36.262
X36.8 Y-36.255
X36.795 Y-36.25 Z0.003
X36.792 Y-36.248 Z0.01
G0 Z2
X37.035 Y-30.201
G1 Z1 F333.3
Z0.01
X37.036 Y-30.199 Z0.003 F1000
X37.041 Y-30.193 Z0
X37.047 Y-30.186
X37.05 Y-30.179
X37.046 Y-30.172
X36.797 Y-29.963
X36.379 Y-30.461
X39.619 Y-33.179
X40.037 Y-32.681
X37.046 Y-30.172
X37.039 Y-30.169
X37.032 Y-30.173
X37.026 Y-30.181
X37.021 Y-30.186 Z0.003
X37.019 Y-30.188 Z0.01
G0 Z2
X39.526 Y-26.858
G1 Z1 F333.3
Z0.01
X39.528 Y-26.856 Z0.003 F1000
X39.532 Y-26.85 Z0
X39.537 Y-26.842
X39.539 Y-26.835
X39.535 Y-26.828
X39.269 Y-26.642
X38.896 Y-27.174
X42.36 Y-29.6
X42.733 Y-29.067
X39.535 Y-26.828
X39.527 Y-26.826
X39.521 Y-26.831
X39.515 Y-26.839
X39.511 Y-26.845 Z0.003
X39.51 Y-26.847 Z0.01
G0 Z2
X44.91 Y-25.508
G1 Z1 F333.3
Z0.01
X44.913 Y-25.509 Z0.003 F1000
X44.919 Y-25.513 Z0
X44.928 Y-25.518
X44.935 Y-25.519
X44.941 Y-25.514
X45.104 Y-25.233
X41.441 Y-23.118
X41.116 Y-23.681
X44.779 Y-25.795
X44.941 Y-25.514
X44.942 Y-25.506
X44.938 Y-25.5
X44.929 Y-25.495
X44.923 Y-25.492 Z0.003
X44.92 Y-25.49 Z0.01
G0 Z2
X43.589 Y-19.587
G1 Z1 F333.3
Z0.01
X43.591 Y-19.584 Z0.003 F1000
X43.594 Y-19.578 Z0
X43.598 Y-19.569
Y-19.561
X43.593 Y-19.555
X43.298 Y-19.418
X43.024 Y-20.007
X46.857 Y-21.794
X47.131 Y-21.205
X43.593 Y-19.555
X43.585
X43.58 Y-19.56
X43.575 Y-19.569
X43.572 Y-19.576 Z0.003
X43.571 Y-19.578 Z0.01
G0 Z2
X45.131 Y-15.713
G1 Z1 F333.3
Z0.01
X45.132 Y-15.71 Z0.003 F1000
X45.134 Y-15.704 Z0
X45.137 Y-15.694
Y-15.687
X45.131 Y-15.682
X44.826 Y-15.57
X44.604 Y-16.181
X48.578 Y-17.628
X48.8 Y-17.017
X45.131 Y-15.682
X45.124
X45.119 Y-15.688
X45.115 Y-15.697
X45.113 Y-15.704 Z0.003
X45.112 Y-15.706 Z0.01
G0 Z4
M9
M5
M30
