(1001)
(Machine)
(  vendor: Autodesk)
(  description: Generic 3-axis)
(T4  D=0.1 CR=0 - ZMIN=-8 - flat end mill)
G90 G94
G17
G21

(Drill1)
T4
S1 M3
G54
M8
G0 X-30 Y-25
Z8
Z4
Z1
G1 Z-8 F333.3
G0 Z4
X-27.5
Z1
G1 Z-8 F333.3
G0 Z4
X-25
Z1
G1 Z-8 F333.3
G0 Z4
X-22.5
Z1
G1 Z-8 F333.3
G0 Z4
X-20
Z1
G1 Z-8 F333.3
G0 Z4
X-17.5
Z1
G1 Z-8 F333.3
G0 Z4
X-15
Z1
G1 Z-8 F333.3
G0 Z4
X-12.5
Z1
G1 Z-8 F333.3
G0 Z4
X-10
Z1
G1 Z-8 F333.3
G0 Z4
X-7.5
Z1
G1 Z-8 F333.3
G0 Z4
X-5
Z1
G1 Z-8 F333.3
G0 Z4
X-2.5
Z1
G1 Z-8 F333.3
G0 Z4
X0
Z1
G1 Z-8 F333.3
G0 Z4
X2.5
Z1
G1 Z-8 F333.3
G0 Z4
X5
Z1
G1 Z-8 F333.3
G0 Z4
X7.5
Z1
G1 Z-8 F333.3
G0 Z4
X10
Z1
G1 Z-8 F333.3
G0 Z4
X12.5
Z1
G1 Z-8 F333.3
G0 Z4
X15
Z1
G1 Z-8 F333.3
G0 Z4
X17.5
Z1
G1 Z-8 F333.3
G0 Z4
X20
Z1
G1 Z-8 F333.3
G0 Z4
X22.5
Z1
G1 Z-8 F333.3
G0 Z4
X25
Z1
G1 Z-8 F333.3
G0 Z4
X27.5
Z1
G1 Z-8 F333.3
G0 Z4
X29.512 Y-25.5
Z1
G1 Z-8 F333.3
G0 Z4
X29.947 Y-27.955
Z1
G1 Z-8 F333.3
G0 Z4
X30.975 Y-30.227
Z1
G1 Z-8 F333.3
G0 Z4
X32.533 Y-32.174
Z1
G1 Z-8 F333.3
G0 Z4
X34.524 Y-33.674
Z1
G1 Z-8 F333.3
G0 Z4
X36.825 Y-34.636
Z1
G1 Z-8 F333.3
G0 Z4
X39.292 Y-34.998
Z1
G1 Z-8 F333.3
G0 Z4
X41.772 Y-34.738
Z1
G1 Z-8 F333.3
G0 Z4
X44.111 Y-33.874
Z1
G1 Z-8 F333.3
G0 Z4
X46.163 Y-32.457
Z1
G1 Z-8 F333.3
G0 Z4
X47.801 Y-30.577
Z1
G1 Z-8 F333.3
G0 Z4
X48.922 Y-28.35
Z1
G1 Z-8 F333.3
G0 Z4
X49.458 Y-25.915
Z1
G1 Z-8 F333.3
G0 Z4
X49.375 Y-23.423
Z1
G1 Z-8 F333.3
G0 Z4
X48.678 Y-21.029
Z1
G1 Z-8 F333.3
G0 Z4
X47.41 Y-18.881
Z1
G1 Z-8 F333.3
G0 Z4
X45.65 Y-17.115
Z1
G1 Z-8 F333.3
G0 Z4
X43.508 Y-15.838
Z1
G1 Z-8 F333.3
G0 Z4
X41.117 Y-15.132
Z1
G1 Z-8 F333.3
G0 Z4
X39.5 Y-14.124
Z1
G1 Z-8 F333.3
G0 Z4
Y-11.624
Z1
G1 Z-8 F333.3
G0 Z4
Y-9.124
Z1
G1 Z-8 F333.3
G0 Z4
Y-6.624
Z1
G1 Z-8 F333.3
G0 Z4
Y-4.124
Z1
G1 Z-8 F333.3
G0 Z4
Y-1.624
Z1
G1 Z-8 F333.3
G0 Z4
Y0.876
Z1
G1 Z-8 F333.3
G0 Z4
Y3.376
Z1
G1 Z-8 F333.3
G0 Z4
Y5.876
Z1
G1 Z-8 F333.3
G0 Z4
Y8.376
Z1
G1 Z-8 F333.3
G0 Z4
Y10.876
Z1
G1 Z-8 F333.3
G0 Z4
Y13.376
Z1
G1 Z-8 F333.3
G0 Z4
X40.375 Y15.038
Z1
G1 Z-8 F333.3
G0 Z4
X42.812 Y15.565
Z1
G1 Z-8 F333.3
G0 Z4
X45.044 Y16.677
Z1
G1 Z-8 F333.3
G0 Z4
X46.93 Y18.308
Z1
G1 Z-8 F333.3
G0 Z4
X48.355 Y20.354
Z1
G1 Z-8 F333.3
G0 Z4
X49.229 Y22.689
Z1
G1 Z-8 F333.3
G0 Z4
X49.499 Y25.168
Z1
G1 Z-8 F333.3
G0 Z4
X49.146 Y27.637
Z1
G1 Z-8 F333.3
G0 Z4
X48.194 Y29.941
Z1
G1 Z-8 F333.3
G0 Z4
X46.701 Y31.938
Z1
G1 Z-8 F333.3
G0 Z4
X44.761 Y33.504
Z1
G1 Z-8 F333.3
G0 Z4
X42.493 Y34.542
Z1
G1 Z-8 F333.3
G0 Z4
X40.04 Y34.985
Z1
G1 Z-8 F333.3
G0 Z4
X37.552 Y34.808
Z1
G1 Z-8 F333.3
G0 Z4
X35.186 Y34.022
Z1
G1 Z-8 F333.3
G0 Z4
X33.088 Y32.674
Z1
G1 Z-8 F333.3
G0 Z4
X31.389 Y30.849
Z1
G1 Z-8 F333.3
G0 Z4
X30.194 Y28.661
Z1
G1 Z-8 F333.3
G0 Z4
X29.578 Y26.245
Z1
G1 Z-8 F333.3
G0 Z4
X28.248 Y25
Z1
G1 Z-8 F333.3
G0 Z4
X25.748
Z1
G1 Z-8 F333.3
G0 Z4
X23.248
Z1
G1 Z-8 F333.3
G0 Z4
X20.748
Z1
G1 Z-8 F333.3
G0 Z4
X18.248
Z1
G1 Z-8 F333.3
G0 Z4
X15.748
Z1
G1 Z-8 F333.3
G0 Z4
X13.248
Z1
G1 Z-8 F333.3
G0 Z4
X10.748
Z1
G1 Z-8 F333.3
G0 Z4
X8.248
Z1
G1 Z-8 F333.3
G0 Z4
X5.748
Z1
G1 Z-8 F333.3
G0 Z4
X3.248
Z1
G1 Z-8 F333.3
G0 Z4
X0.748
Z1
G1 Z-8 F333.3
G0 Z4
X-1.752
Z1
G1 Z-8 F333.3
G0 Z4
X-4.252
Z1
G1 Z-8 F333.3
G0 Z4
X-6.752
Z1
G1 Z-8 F333.3
G0 Z4
X-9.252
Z1
G1 Z-8 F333.3
G0 Z4
X-11.752
Z1
G1 Z-8 F333.3
G0 Z4
X-14.252
Z1
G1 Z-8 F333.3
G0 Z4
X-16.752
Z1
G1 Z-8 F333.3
G0 Z4
X-19.252
Z1
G1 Z-8 F333.3
G0 Z4
X-21.752
Z1
G1 Z-8 F333.3
G0 Z4
X-24.252
Z1
G1 Z-8 F333.3
G0 Z4
X-26.752
Z1
G1 Z-8 F333.3
G0 Z4
X-29.252
Z1
G1 Z-8 F333.3
G0 Z4
X-30.578 Y26.249
Z1
G1 Z-8 F333.3
G0 Z4
X-31.196 Y28.665
Z1
G1 Z-8 F333.3
G0 Z4
X-32.392 Y30.853
Z1
G1 Z-8 F333.3
G0 Z4
X-34.092 Y32.677
Z1
G1 Z-8 F333.3
G0 Z4
X-36.19 Y34.024
Z1
G1 Z-8 F333.3
G0 Z4
X-38.557 Y34.809
Z1
G1 Z-8 F333.3
G0 Z4
X-41.044 Y34.985
Z1
G1 Z-8 F333.3
G0 Z4
X-43.497 Y34.54
Z1
G1 Z-8 F333.3
G0 Z4
X-45.765 Y33.502
Z1
G1 Z-8 F333.3
G0 Z4
X-47.704 Y31.935
Z1
G1 Z-8 F333.3
G0 Z4
X-49.196 Y29.937
Z1
G1 Z-8 F333.3
G0 Z4
X-50.147 Y27.632
Z1
G1 Z-8 F333.3
G0 Z4
X-50.499 Y25.164
Z1
G1 Z-8 F333.3
G0 Z4
X-50.228 Y22.685
Z1
G1 Z-8 F333.3
G0 Z4
X-49.353 Y20.35
Z1
G1 Z-8 F333.3
G0 Z4
X-47.927 Y18.304
Z1
G1 Z-8 F333.3
G0 Z4
X-46.04 Y16.675
Z1
G1 Z-8 F333.3
G0 Z4
X-43.808 Y15.563
Z1
G1 Z-8 F333.3
G0 Z4
X-41.371 Y15.038
Z1
G1 Z-8 F333.3
G0 Z4
X-40.5 Y13.372
Z1
G1 Z-8 F333.3
G0 Z4
Y10.872
Z1
G1 Z-8 F333.3
G0 Z4
Y8.372
Z1
G1 Z-8 F333.3
G0 Z4
Y5.872
Z1
G1 Z-8 F333.3
G0 Z4
Y3.372
Z1
G1 Z-8 F333.3
G0 Z4
Y0.872
Z1
G1 Z-8 F333.3
G0 Z4
Y-1.628
Z1
G1 Z-8 F333.3
G0 Z4
Y-4.128
Z1
G1 Z-8 F333.3
G0 Z4
Y-6.628
Z1
G1 Z-8 F333.3
G0 Z4
Y-9.128
Z1
G1 Z-8 F333.3
G0 Z4
Y-11.628
Z1
G1 Z-8 F333.3
G0 Z4
Y-14.128
Z1
G1 Z-8 F333.3
G0 Z4
X-42.121 Y-15.132
Z1
G1 Z-8 F333.3
G0 Z4
X-44.512 Y-15.84
Z1
G1 Z-8 F333.3
G0 Z4
X-46.654 Y-17.117
Z1
G1 Z-8 F333.3
G0 Z4
X-48.412 Y-18.885
Z1
G1 Z-8 F333.3
G0 Z4
X-49.679 Y-21.033
Z1
G1 Z-8 F333.3
G0 Z4
X-50.375 Y-23.427
Z1
G1 Z-8 F333.3
G0 Z4
X-50.458 Y-25.919
Z1
G1 Z-8 F333.3
G0 Z4
X-49.921 Y-28.354
Z1
G1 Z-8 F333.3
G0 Z4
X-48.798 Y-30.581
Z1
G1 Z-8 F333.3
G0 Z4
X-47.159 Y-32.46
Z1
G1 Z-8 F333.3
G0 Z4
X-45.107 Y-33.876
Z1
G1 Z-8 F333.3
G0 Z4
X-42.768 Y-34.739
Z1
G1 Z-8 F333.3
G0 Z4
X-40.288 Y-34.998
Z1
G1 Z-8 F333.3
G0 Z4
X-37.821 Y-34.634
Z1
G1 Z-8 F333.3
G0 Z4
X-35.52 Y-33.672
Z1
G1 Z-8 F333.3
G0 Z4
X-33.53 Y-32.17
Z1
G1 Z-8 F333.3
G0 Z4
X-31.972 Y-30.223
Z1
G1 Z-8 F333.3
G0 Z4
Z8
M9
M5
M30
