(1001)
(Machine)
(  vendor: Autodesk)
(  description: Generic 3-axis)
(T3  D=3.1 CR=0 - ZMIN=-0.5 - flat end mill)
G90 G94
G17
G21

(2D Pocket4)
T3
S1000 M3
G54
M8
G0 X-5.12 Y-5.507
Z16
Z6
G1 Z3.5 F450
Z0.8 F200
G3 X-4.88 Y-5.827 I0.12 J-0.16 F450
X-5.12 Y-5.507 I-0.12 J0.16
X-4.88 Y-5.827 Z0.778 I0.12 J-0.16 F333.3
X-5.12 Y-5.507 Z0.756 I-0.12 J0.16
X-4.88 Y-5.827 Z0.734 I0.12 J-0.16
X-5.12 Y-5.507 Z0.712 I-0.12 J0.16
X-4.88 Y-5.827 Z0.69 I0.12 J-0.16
X-5.12 Y-5.507 Z0.668 I-0.12 J0.16
X-4.88 Y-5.827 Z0.646 I0.12 J-0.16
X-5.12 Y-5.507 Z0.624 I-0.12 J0.16
X-4.88 Y-5.827 Z0.603 I0.12 J-0.16
X-4.831 Y-5.774 Z0.6 I-0.12 J0.16
X-5.169 Y-5.56 I-0.169 J0.107 F450
X-4.831 Y-5.774 I0.169 J-0.107
X-5.169 Y-5.56 Z0.578 I-0.169 J0.107 F333.3
X-4.831 Y-5.774 Z0.556 I0.169 J-0.107
X-5.169 Y-5.56 Z0.534 I-0.169 J0.107
X-4.831 Y-5.774 Z0.512 I0.169 J-0.107
X-5.169 Y-5.56 Z0.49 I-0.169 J0.107
X-4.831 Y-5.774 Z0.468 I0.169 J-0.107
X-5.169 Y-5.56 Z0.446 I-0.169 J0.107
X-4.831 Y-5.774 Z0.424 I0.169 J-0.107
X-5.169 Y-5.56 Z0.403 I-0.169 J0.107
X-5.196 Y-5.626 Z0.4 I0.169 J-0.107
X-4.804 Y-5.707 I0.196 J-0.04 F450
X-5.196 Y-5.626 I-0.196 J0.04
X-4.804 Y-5.707 Z0.378 I0.196 J-0.04 F333.3
X-5.196 Y-5.626 Z0.356 I-0.196 J0.04
X-4.804 Y-5.707 Z0.334 I0.196 J-0.04
X-5.196 Y-5.626 Z0.312 I-0.196 J0.04
X-4.804 Y-5.707 Z0.29 I0.196 J-0.04
X-5.196 Y-5.626 Z0.268 I-0.196 J0.04
X-4.804 Y-5.707 Z0.246 I0.196 J-0.04
X-5.196 Y-5.626 Z0.224 I-0.196 J0.04
X-4.804 Y-5.707 Z0.203 I0.196 J-0.04
X-4.803 Y-5.635 Z0.2 I-0.196 J0.04
X-5.197 Y-5.698 I-0.197 J-0.032 F450
X-4.803 Y-5.635 I0.197 J0.032
X-5.197 Y-5.698 Z0.178 I-0.197 J-0.032 F333.3
X-4.803 Y-5.635 Z0.156 I0.197 J0.032
X-5.197 Y-5.698 Z0.134 I-0.197 J-0.032
X-4.803 Y-5.635 Z0.112 I0.197 J0.032
X-5.197 Y-5.698 Z0.09 I-0.197 J-0.032
X-4.803 Y-5.635 Z0.068 I0.197 J0.032
X-5.197 Y-5.698 Z0.046 I-0.197 J-0.032
X-4.803 Y-5.635 Z0.024 I0.197 J0.032
X-5.197 Y-5.698 Z0.003 I-0.197 J-0.032
X-5.174 Y-5.766 Z0 I0.197 J0.032
X-4.826 Y-5.567 I0.174 J0.099 F450
X-5.174 Y-5.766 I-0.174 J-0.099
X-4.826 Y-5.567 Z-0.022 I0.174 J0.099 F333.3
X-5.174 Y-5.766 Z-0.044 I-0.174 J-0.099
X-4.826 Y-5.567 Z-0.066 I0.174 J0.099
X-5.174 Y-5.766 Z-0.088 I-0.174 J-0.099
X-4.826 Y-5.567 Z-0.11 I0.174 J0.099
X-5.174 Y-5.766 Z-0.132 I-0.174 J-0.099
X-4.826 Y-5.567 Z-0.154 I0.174 J0.099
X-5.174 Y-5.766 Z-0.176 I-0.174 J-0.099
X-4.826 Y-5.567 Z-0.197 I0.174 J0.099
X-4.873 Y-5.512 Z-0.2 I-0.174 J-0.099
X-5.127 Y-5.821 I-0.127 J-0.154 F450
X-4.873 Y-5.512 I0.127 J0.154
X-5.127 Y-5.821 Z-0.222 I-0.127 J-0.154 F333.3
X-4.873 Y-5.512 Z-0.244 I0.127 J0.154
X-5.127 Y-5.821 Z-0.266 I-0.127 J-0.154
X-4.873 Y-5.512 Z-0.288 I0.127 J0.154
X-5.127 Y-5.821 Z-0.31 I-0.127 J-0.154
X-4.873 Y-5.512 Z-0.332 I0.127 J0.154
X-5.127 Y-5.821 Z-0.354 I-0.127 J-0.154
X-4.873 Y-5.512 Z-0.376 I0.127 J0.154
X-5.127 Y-5.821 Z-0.397 I-0.127 J-0.154
X-5.064 Y-5.856 Z-0.4 I0.127 J0.154
X-4.936 Y-5.477 I0.064 J0.189 F450
X-5.064 Y-5.856 I-0.064 J-0.189
X-4.936 Y-5.477 Z-0.422 I0.064 J0.189 F333.3
X-5.064 Y-5.856 Z-0.444 I-0.064 J-0.189
X-4.936 Y-5.477 Z-0.466 I0.064 J0.189
X-5.064 Y-5.856 Z-0.488 I-0.064 J-0.189
X-4.802 Y-5.696 Z-0.5 I0.064 J0.189
X-5.198 Y-5.638 I-0.198 J0.029 F450
X-4.802 Y-5.696 I0.198 J-0.029
G1 X-4.8 Y-5.667 Z-0.499
X-4.806 Y-5.62 Z-0.482
X-4.822 Y-5.575 Z-0.465
X-4.849 Y-5.536 Z-0.448
X-4.886 Y-5.502 Z-0.392
X-4.931 Y-5.479 Z-0.337
X-4.967 Y-5.469 Z-0.19
G0 Z16
X-0.12 Y-5.507
Z6
G1 Z3.5 F450
Z0.8 F200
G3 X0.12 Y-5.827 I0.12 J-0.16 F450
X-0.12 Y-5.507 I-0.12 J0.16
X0.12 Y-5.827 Z0.778 I0.12 J-0.16 F333.3
X-0.12 Y-5.507 Z0.756 I-0.12 J0.16
X0.12 Y-5.827 Z0.734 I0.12 J-0.16
X-0.12 Y-5.507 Z0.712 I-0.12 J0.16
X0.12 Y-5.827 Z0.69 I0.12 J-0.16
X-0.12 Y-5.507 Z0.668 I-0.12 J0.16
X0.12 Y-5.827 Z0.646 I0.12 J-0.16
X-0.12 Y-5.507 Z0.624 I-0.12 J0.16
X0.12 Y-5.827 Z0.603 I0.12 J-0.16
X0.169 Y-5.774 Z0.6 I-0.12 J0.16
X-0.169 Y-5.56 I-0.169 J0.107 F450
X0.169 Y-5.774 I0.169 J-0.107
X-0.169 Y-5.56 Z0.578 I-0.169 J0.107 F333.3
X0.169 Y-5.774 Z0.556 I0.169 J-0.107
X-0.169 Y-5.56 Z0.534 I-0.169 J0.107
X0.169 Y-5.774 Z0.512 I0.169 J-0.107
X-0.169 Y-5.56 Z0.49 I-0.169 J0.107
X0.169 Y-5.774 Z0.468 I0.169 J-0.107
X-0.169 Y-5.56 Z0.446 I-0.169 J0.107
X0.169 Y-5.774 Z0.424 I0.169 J-0.107
X-0.169 Y-5.56 Z0.403 I-0.169 J0.107
X-0.196 Y-5.626 Z0.4 I0.169 J-0.107
X0.196 Y-5.707 I0.196 J-0.04 F450
X-0.196 Y-5.626 I-0.196 J0.04
X0.196 Y-5.707 Z0.378 I0.196 J-0.04 F333.3
X-0.196 Y-5.626 Z0.356 I-0.196 J0.04
X0.196 Y-5.707 Z0.334 I0.196 J-0.04
X-0.196 Y-5.626 Z0.312 I-0.196 J0.04
X0.196 Y-5.707 Z0.29 I0.196 J-0.04
X-0.196 Y-5.626 Z0.268 I-0.196 J0.04
X0.196 Y-5.707 Z0.246 I0.196 J-0.04
X-0.196 Y-5.626 Z0.224 I-0.196 J0.04
X0.196 Y-5.707 Z0.203 I0.196 J-0.04
X0.197 Y-5.635 Z0.2 I-0.196 J0.04
X-0.197 Y-5.698 I-0.197 J-0.032 F450
X0.197 Y-5.635 I0.197 J0.032
X-0.197 Y-5.698 Z0.178 I-0.197 J-0.032 F333.3
X0.197 Y-5.635 Z0.156 I0.197 J0.032
X-0.197 Y-5.698 Z0.134 I-0.197 J-0.032
X0.197 Y-5.635 Z0.112 I0.197 J0.032
X-0.197 Y-5.698 Z0.09 I-0.197 J-0.032
X0.197 Y-5.635 Z0.068 I0.197 J0.032
X-0.197 Y-5.698 Z0.046 I-0.197 J-0.032
X0.197 Y-5.635 Z0.024 I0.197 J0.032
X-0.197 Y-5.698 Z0.003 I-0.197 J-0.032
X-0.174 Y-5.766 Z0 I0.197 J0.032
X0.174 Y-5.567 I0.174 J0.099 F450
X-0.174 Y-5.766 I-0.174 J-0.099
X0.174 Y-5.567 Z-0.022 I0.174 J0.099 F333.3
X-0.174 Y-5.766 Z-0.044 I-0.174 J-0.099
X0.174 Y-5.567 Z-0.066 I0.174 J0.099
X-0.174 Y-5.766 Z-0.088 I-0.174 J-0.099
X0.174 Y-5.567 Z-0.11 I0.174 J0.099
X-0.174 Y-5.766 Z-0.132 I-0.174 J-0.099
X0.174 Y-5.567 Z-0.154 I0.174 J0.099
X-0.174 Y-5.766 Z-0.176 I-0.174 J-0.099
X0.174 Y-5.567 Z-0.197 I0.174 J0.099
X0.127 Y-5.512 Z-0.2 I-0.174 J-0.099
X-0.127 Y-5.821 I-0.127 J-0.154 F450
X0.127 Y-5.512 I0.127 J0.154
X-0.127 Y-5.821 Z-0.222 I-0.127 J-0.154 F333.3
X0.127 Y-5.512 Z-0.244 I0.127 J0.154
X-0.127 Y-5.821 Z-0.266 I-0.127 J-0.154
X0.127 Y-5.512 Z-0.288 I0.127 J0.154
X-0.127 Y-5.821 Z-0.31 I-0.127 J-0.154
X0.127 Y-5.512 Z-0.332 I0.127 J0.154
X-0.127 Y-5.821 Z-0.354 I-0.127 J-0.154
X0.127 Y-5.512 Z-0.376 I0.127 J0.154
X-0.127 Y-5.821 Z-0.397 I-0.127 J-0.154
X-0.064 Y-5.856 Z-0.4 I0.127 J0.154
X0.064 Y-5.477 I0.064 J0.189 F450
X-0.064 Y-5.856 I-0.064 J-0.189
X0.064 Y-5.477 Z-0.422 I0.064 J0.189 F333.3
X-0.064 Y-5.856 Z-0.444 I-0.064 J-0.189
X0.064 Y-5.477 Z-0.466 I0.064 J0.189
X-0.064 Y-5.856 Z-0.488 I-0.064 J-0.189
X0.198 Y-5.696 Z-0.5 I0.064 J0.189
X-0.198 Y-5.638 I-0.198 J0.029 F450
X0.198 Y-5.696 I0.198 J-0.029
G1 X0.2 Y-5.667 Z-0.499
X0.194 Y-5.62 Z-0.482
X0.178 Y-5.575 Z-0.465
X0.151 Y-5.536 Z-0.448
X0.114 Y-5.502 Z-0.392
X0.069 Y-5.479 Z-0.337
X0.033 Y-5.469 Z-0.19
G0 Z16
X4.88 Y-5.507
Z6
G1 Z3.5 F450
Z0.8 F200
G3 X5.12 Y-5.827 I0.12 J-0.16 F450
X4.88 Y-5.507 I-0.12 J0.16
X5.12 Y-5.827 Z0.778 I0.12 J-0.16 F333.3
X4.88 Y-5.507 Z0.756 I-0.12 J0.16
X5.12 Y-5.827 Z0.734 I0.12 J-0.16
X4.88 Y-5.507 Z0.712 I-0.12 J0.16
X5.12 Y-5.827 Z0.69 I0.12 J-0.16
X4.88 Y-5.507 Z0.668 I-0.12 J0.16
X5.12 Y-5.827 Z0.646 I0.12 J-0.16
X4.88 Y-5.507 Z0.624 I-0.12 J0.16
X5.12 Y-5.827 Z0.603 I0.12 J-0.16
X5.169 Y-5.774 Z0.6 I-0.12 J0.16
X4.831 Y-5.56 I-0.169 J0.107 F450
X5.169 Y-5.774 I0.169 J-0.107
X4.831 Y-5.56 Z0.578 I-0.169 J0.107 F333.3
X5.169 Y-5.774 Z0.556 I0.169 J-0.107
X4.831 Y-5.56 Z0.534 I-0.169 J0.107
X5.169 Y-5.774 Z0.512 I0.169 J-0.107
X4.831 Y-5.56 Z0.49 I-0.169 J0.107
X5.169 Y-5.774 Z0.468 I0.169 J-0.107
X4.831 Y-5.56 Z0.446 I-0.169 J0.107
X5.169 Y-5.774 Z0.424 I0.169 J-0.107
X4.831 Y-5.56 Z0.403 I-0.169 J0.107
X4.804 Y-5.626 Z0.4 I0.169 J-0.107
X5.196 Y-5.707 I0.196 J-0.04 F450
X4.804 Y-5.626 I-0.196 J0.04
X5.196 Y-5.707 Z0.378 I0.196 J-0.04 F333.3
X4.804 Y-5.626 Z0.356 I-0.196 J0.04
X5.196 Y-5.707 Z0.334 I0.196 J-0.04
X4.804 Y-5.626 Z0.312 I-0.196 J0.04
X5.196 Y-5.707 Z0.29 I0.196 J-0.04
X4.804 Y-5.626 Z0.268 I-0.196 J0.04
X5.196 Y-5.707 Z0.246 I0.196 J-0.04
X4.804 Y-5.626 Z0.224 I-0.196 J0.04
X5.196 Y-5.707 Z0.203 I0.196 J-0.04
X5.197 Y-5.635 Z0.2 I-0.196 J0.04
X4.803 Y-5.698 I-0.197 J-0.032 F450
X5.197 Y-5.635 I0.197 J0.032
X4.803 Y-5.698 Z0.178 I-0.197 J-0.032 F333.3
X5.197 Y-5.635 Z0.156 I0.197 J0.032
X4.803 Y-5.698 Z0.134 I-0.197 J-0.032
X5.197 Y-5.635 Z0.112 I0.197 J0.032
X4.803 Y-5.698 Z0.09 I-0.197 J-0.032
X5.197 Y-5.635 Z0.068 I0.197 J0.032
X4.803 Y-5.698 Z0.046 I-0.197 J-0.032
X5.197 Y-5.635 Z0.024 I0.197 J0.032
X4.803 Y-5.698 Z0.003 I-0.197 J-0.032
X4.826 Y-5.766 Z0 I0.197 J0.032
X5.174 Y-5.567 I0.174 J0.099 F450
X4.826 Y-5.766 I-0.174 J-0.099
X5.174 Y-5.567 Z-0.022 I0.174 J0.099 F333.3
X4.826 Y-5.766 Z-0.044 I-0.174 J-0.099
X5.174 Y-5.567 Z-0.066 I0.174 J0.099
X4.826 Y-5.766 Z-0.088 I-0.174 J-0.099
X5.174 Y-5.567 Z-0.11 I0.174 J0.099
X4.826 Y-5.766 Z-0.132 I-0.174 J-0.099
X5.174 Y-5.567 Z-0.154 I0.174 J0.099
X4.826 Y-5.766 Z-0.176 I-0.174 J-0.099
X5.174 Y-5.567 Z-0.197 I0.174 J0.099
X5.127 Y-5.512 Z-0.2 I-0.174 J-0.099
X4.873 Y-5.821 I-0.127 J-0.154 F450
X5.127 Y-5.512 I0.127 J0.154
X4.873 Y-5.821 Z-0.222 I-0.127 J-0.154 F333.3
X5.127 Y-5.512 Z-0.244 I0.127 J0.154
X4.873 Y-5.821 Z-0.266 I-0.127 J-0.154
X5.127 Y-5.512 Z-0.288 I0.127 J0.154
X4.873 Y-5.821 Z-0.31 I-0.127 J-0.154
X5.127 Y-5.512 Z-0.332 I0.127 J0.154
X4.873 Y-5.821 Z-0.354 I-0.127 J-0.154
X5.127 Y-5.512 Z-0.376 I0.127 J0.154
X4.873 Y-5.821 Z-0.397 I-0.127 J-0.154
X4.936 Y-5.856 Z-0.4 I0.127 J0.154
X5.064 Y-5.477 I0.064 J0.189 F450
X4.936 Y-5.856 I-0.064 J-0.189
X5.064 Y-5.477 Z-0.422 I0.064 J0.189 F333.3
X4.936 Y-5.856 Z-0.444 I-0.064 J-0.189
X5.064 Y-5.477 Z-0.466 I0.064 J0.189
X4.936 Y-5.856 Z-0.488 I-0.064 J-0.189
X5.198 Y-5.696 Z-0.5 I0.064 J0.189
X4.802 Y-5.638 I-0.198 J0.029 F450
X5.198 Y-5.696 I0.198 J-0.029
G1 X5.2 Y-5.667 Z-0.499
X5.194 Y-5.62 Z-0.482
X5.178 Y-5.575 Z-0.465
X5.151 Y-5.536 Z-0.448
X5.114 Y-5.502 Z-0.392
X5.069 Y-5.479 Z-0.337
X5.033 Y-5.469 Z-0.19
G0 Z16
X4.88 Y-10.507
Z6
G1 Z3.5 F450
Z0.8 F200
G3 X5.12 Y-10.827 I0.12 J-0.16 F450
X4.88 Y-10.507 I-0.12 J0.16
X5.12 Y-10.827 Z0.778 I0.12 J-0.16 F333.3
X4.88 Y-10.507 Z0.756 I-0.12 J0.16
X5.12 Y-10.827 Z0.734 I0.12 J-0.16
X4.88 Y-10.507 Z0.712 I-0.12 J0.16
X5.12 Y-10.827 Z0.69 I0.12 J-0.16
X4.88 Y-10.507 Z0.668 I-0.12 J0.16
X5.12 Y-10.827 Z0.646 I0.12 J-0.16
X4.88 Y-10.507 Z0.624 I-0.12 J0.16
X5.12 Y-10.827 Z0.603 I0.12 J-0.16
X5.169 Y-10.774 Z0.6 I-0.12 J0.16
X4.831 Y-10.56 I-0.169 J0.107 F450
X5.169 Y-10.774 I0.169 J-0.107
X4.831 Y-10.56 Z0.578 I-0.169 J0.107 F333.3
X5.169 Y-10.774 Z0.556 I0.169 J-0.107
X4.831 Y-10.56 Z0.534 I-0.169 J0.107
X5.169 Y-10.774 Z0.512 I0.169 J-0.107
X4.831 Y-10.56 Z0.49 I-0.169 J0.107
X5.169 Y-10.774 Z0.468 I0.169 J-0.107
X4.831 Y-10.56 Z0.446 I-0.169 J0.107
X5.169 Y-10.774 Z0.424 I0.169 J-0.107
X4.831 Y-10.56 Z0.403 I-0.169 J0.107
X4.804 Y-10.626 Z0.4 I0.169 J-0.107
X5.196 Y-10.707 I0.196 J-0.04 F450
X4.804 Y-10.626 I-0.196 J0.04
X5.196 Y-10.707 Z0.378 I0.196 J-0.04 F333.3
X4.804 Y-10.626 Z0.356 I-0.196 J0.04
X5.196 Y-10.707 Z0.334 I0.196 J-0.04
X4.804 Y-10.626 Z0.312 I-0.196 J0.04
X5.196 Y-10.707 Z0.29 I0.196 J-0.04
X4.804 Y-10.626 Z0.268 I-0.196 J0.04
X5.196 Y-10.707 Z0.246 I0.196 J-0.04
X4.804 Y-10.626 Z0.224 I-0.196 J0.04
X5.196 Y-10.707 Z0.203 I0.196 J-0.04
X5.197 Y-10.635 Z0.2 I-0.196 J0.04
X4.803 Y-10.698 I-0.197 J-0.032 F450
X5.197 Y-10.635 I0.197 J0.032
X4.803 Y-10.698 Z0.178 I-0.197 J-0.032 F333.3
X5.197 Y-10.635 Z0.156 I0.197 J0.032
X4.803 Y-10.698 Z0.134 I-0.197 J-0.032
X5.197 Y-10.635 Z0.112 I0.197 J0.032
X4.803 Y-10.698 Z0.09 I-0.197 J-0.032
X5.197 Y-10.635 Z0.068 I0.197 J0.032
X4.803 Y-10.698 Z0.046 I-0.197 J-0.032
X5.197 Y-10.635 Z0.024 I0.197 J0.032
X4.803 Y-10.698 Z0.003 I-0.197 J-0.032
X4.826 Y-10.766 Z0 I0.197 J0.032
X5.174 Y-10.567 I0.174 J0.099 F450
X4.826 Y-10.766 I-0.174 J-0.099
X5.174 Y-10.567 Z-0.022 I0.174 J0.099 F333.3
X4.826 Y-10.766 Z-0.044 I-0.174 J-0.099
X5.174 Y-10.567 Z-0.066 I0.174 J0.099
X4.826 Y-10.766 Z-0.088 I-0.174 J-0.099
X5.174 Y-10.567 Z-0.11 I0.174 J0.099
X4.826 Y-10.766 Z-0.132 I-0.174 J-0.099
X5.174 Y-10.567 Z-0.154 I0.174 J0.099
X4.826 Y-10.766 Z-0.176 I-0.174 J-0.099
X5.174 Y-10.567 Z-0.197 I0.174 J0.099
X5.127 Y-10.512 Z-0.2 I-0.174 J-0.099
X4.873 Y-10.821 I-0.127 J-0.154 F450
X5.127 Y-10.512 I0.127 J0.154
X4.873 Y-10.821 Z-0.222 I-0.127 J-0.154 F333.3
X5.127 Y-10.512 Z-0.244 I0.127 J0.154
X4.873 Y-10.821 Z-0.266 I-0.127 J-0.154
X5.127 Y-10.512 Z-0.288 I0.127 J0.154
X4.873 Y-10.821 Z-0.31 I-0.127 J-0.154
X5.127 Y-10.512 Z-0.332 I0.127 J0.154
X4.873 Y-10.821 Z-0.354 I-0.127 J-0.154
X5.127 Y-10.512 Z-0.376 I0.127 J0.154
X4.873 Y-10.821 Z-0.397 I-0.127 J-0.154
X4.936 Y-10.856 Z-0.4 I0.127 J0.154
X5.064 Y-10.477 I0.064 J0.189 F450
X4.936 Y-10.856 I-0.064 J-0.189
X5.064 Y-10.477 Z-0.422 I0.064 J0.189 F333.3
X4.936 Y-10.856 Z-0.444 I-0.064 J-0.189
X5.064 Y-10.477 Z-0.466 I0.064 J0.189
X4.936 Y-10.856 Z-0.488 I-0.064 J-0.189
X5.198 Y-10.696 Z-0.5 I0.064 J0.189
X4.802 Y-10.638 I-0.198 J0.029 F450
X5.198 Y-10.696 I0.198 J-0.029
G1 X5.2 Y-10.667 Z-0.499
X5.194 Y-10.62 Z-0.482
X5.178 Y-10.575 Z-0.465
X5.151 Y-10.536 Z-0.448
X5.114 Y-10.502 Z-0.392
X5.069 Y-10.479 Z-0.337
X5.033 Y-10.469 Z-0.19
G0 Z16
X0.024 Y-10.264
Z6
G1 Z3.5 F450
Z1.11 F200
X0.002 Y-10.257 Z0.991
X-0.064 Y-10.245 Z0.891
X-0.115 Y-10.246 Z0.857
X-0.164 Y-10.255 Z0.824
X-0.219 Y-10.276 Z0.812
X-0.27 Y-10.307 Z0.8
G3 X0.27 Y-11.027 I0.27 J-0.36 F450
X-0.27 Y-10.307 I-0.27 J0.36
X0.27 Y-11.027 Z0.751 I0.27 J-0.36 F333.3
X-0.27 Y-10.307 Z0.701 I-0.27 J0.36
X0.27 Y-11.027 Z0.652 I0.27 J-0.36
X0.337 Y-10.369 Z0.626 I-0.27 J0.36
X-0.324 Y-10.355 Z0.6 I-0.337 J-0.298
X0.324 Y-10.979 I0.324 J-0.312 F450
X-0.324 Y-10.355 I-0.324 J0.312
X0.324 Y-10.979 Z0.551 I0.324 J-0.312 F333.3
X-0.324 Y-10.355 Z0.501 I-0.324 J0.312
X0.324 Y-10.979 Z0.452 I0.324 J-0.312
X0.285 Y-10.319 Z0.426 I-0.324 J0.312
X-0.37 Y-10.411 Z0.4 I-0.285 J-0.348
X0.37 Y-10.923 I0.37 J-0.256 F450
X-0.37 Y-10.411 I-0.37 J0.256
X0.37 Y-10.923 Z0.351 I0.37 J-0.256 F333.3
X-0.37 Y-10.411 Z0.301 I-0.37 J0.256
X0.37 Y-10.923 Z0.252 I0.37 J-0.256
X0.226 Y-10.277 Z0.226 I-0.37 J0.256
X-0.406 Y-10.473 Z0.2 I-0.226 J-0.389
X0.406 Y-10.86 I0.406 J-0.194 F450
X-0.406 Y-10.473 I-0.406 J0.194
X0.406 Y-10.86 Z0.151 I0.406 J-0.194 F333.3
X-0.406 Y-10.473 Z0.101 I-0.406 J0.194
X0.406 Y-10.86 Z0.052 I0.406 J-0.194
X0.16 Y-10.246 Z0.026 I-0.406 J0.194
X-0.432 Y-10.541 Z0 I-0.16 J-0.42
X0.432 Y-10.793 I0.432 J-0.126 F450
X-0.432 Y-10.541 I-0.432 J0.126
X0.432 Y-10.793 Z-0.049 I0.432 J-0.126 F333.3
X-0.432 Y-10.541 Z-0.099 I-0.432 J0.126
X0.432 Y-10.793 Z-0.148 I0.432 J-0.126
X0.091 Y-10.226 Z-0.174 I-0.432 J0.126
X-0.447 Y-10.611 Z-0.2 I-0.091 J-0.441
X0.447 Y-10.722 I0.447 J-0.055 F450
X-0.447 Y-10.611 I-0.447 J0.055
X0.447 Y-10.722 Z-0.249 I0.447 J-0.055 F333.3
X-0.447 Y-10.611 Z-0.299 I-0.447 J0.055
X0.447 Y-10.722 Z-0.348 I0.447 J-0.055
X0.019 Y-10.217 Z-0.374 I-0.447 J0.055
X-0.45 Y-10.684 Z-0.4 I-0.019 J-0.45
X0.45 Y-10.65 I0.45 J0.017 F450
X-0.45 Y-10.684 I-0.45 J-0.017
X0.45 Y-10.65 Z-0.449 I0.45 J0.017 F333.3
X-0.035 Y-10.218 Z-0.475 I-0.45 J-0.017
X-0.447 Y-10.72 Z-0.5 I0.035 J-0.449
X0.447 Y-10.614 I0.447 J0.053 F450
X-0.447 Y-10.72 I-0.447 J-0.053
G1 X-0.434 Y-10.778 Z-0.488
X-0.411 Y-10.832 Z-0.476
X-0.383 Y-10.874 Z-0.443
X-0.349 Y-10.911 Z-0.409
X-0.295 Y-10.951 Z-0.309
X-0.275 Y-10.962 Z-0.19
G0 Z16
X-5.12 Y-10.507
Z6
G1 Z3.5 F450
Z0.8 F200
G3 X-4.88 Y-10.827 I0.12 J-0.16 F450
X-5.12 Y-10.507 I-0.12 J0.16
X-4.88 Y-10.827 Z0.778 I0.12 J-0.16 F333.3
X-5.12 Y-10.507 Z0.756 I-0.12 J0.16
X-4.88 Y-10.827 Z0.734 I0.12 J-0.16
X-5.12 Y-10.507 Z0.712 I-0.12 J0.16
X-4.88 Y-10.827 Z0.69 I0.12 J-0.16
X-5.12 Y-10.507 Z0.668 I-0.12 J0.16
X-4.88 Y-10.827 Z0.646 I0.12 J-0.16
X-5.12 Y-10.507 Z0.624 I-0.12 J0.16
X-4.88 Y-10.827 Z0.603 I0.12 J-0.16
X-4.831 Y-10.774 Z0.6 I-0.12 J0.16
X-5.169 Y-10.56 I-0.169 J0.107 F450
X-4.831 Y-10.774 I0.169 J-0.107
X-5.169 Y-10.56 Z0.578 I-0.169 J0.107 F333.3
X-4.831 Y-10.774 Z0.556 I0.169 J-0.107
X-5.169 Y-10.56 Z0.534 I-0.169 J0.107
X-4.831 Y-10.774 Z0.512 I0.169 J-0.107
X-5.169 Y-10.56 Z0.49 I-0.169 J0.107
X-4.831 Y-10.774 Z0.468 I0.169 J-0.107
X-5.169 Y-10.56 Z0.446 I-0.169 J0.107
X-4.831 Y-10.774 Z0.424 I0.169 J-0.107
X-5.169 Y-10.56 Z0.403 I-0.169 J0.107
X-5.196 Y-10.626 Z0.4 I0.169 J-0.107
X-4.804 Y-10.707 I0.196 J-0.04 F450
X-5.196 Y-10.626 I-0.196 J0.04
X-4.804 Y-10.707 Z0.378 I0.196 J-0.04 F333.3
X-5.196 Y-10.626 Z0.356 I-0.196 J0.04
X-4.804 Y-10.707 Z0.334 I0.196 J-0.04
X-5.196 Y-10.626 Z0.312 I-0.196 J0.04
X-4.804 Y-10.707 Z0.29 I0.196 J-0.04
X-5.196 Y-10.626 Z0.268 I-0.196 J0.04
X-4.804 Y-10.707 Z0.246 I0.196 J-0.04
X-5.196 Y-10.626 Z0.224 I-0.196 J0.04
X-4.804 Y-10.707 Z0.203 I0.196 J-0.04
X-4.803 Y-10.635 Z0.2 I-0.196 J0.04
X-5.197 Y-10.698 I-0.197 J-0.032 F450
X-4.803 Y-10.635 I0.197 J0.032
X-5.197 Y-10.698 Z0.178 I-0.197 J-0.032 F333.3
X-4.803 Y-10.635 Z0.156 I0.197 J0.032
X-5.197 Y-10.698 Z0.134 I-0.197 J-0.032
X-4.803 Y-10.635 Z0.112 I0.197 J0.032
X-5.197 Y-10.698 Z0.09 I-0.197 J-0.032
X-4.803 Y-10.635 Z0.068 I0.197 J0.032
X-5.197 Y-10.698 Z0.046 I-0.197 J-0.032
X-4.803 Y-10.635 Z0.024 I0.197 J0.032
X-5.197 Y-10.698 Z0.003 I-0.197 J-0.032
X-5.174 Y-10.766 Z0 I0.197 J0.032
X-4.826 Y-10.567 I0.174 J0.099 F450
X-5.174 Y-10.766 I-0.174 J-0.099
X-4.826 Y-10.567 Z-0.022 I0.174 J0.099 F333.3
X-5.174 Y-10.766 Z-0.044 I-0.174 J-0.099
X-4.826 Y-10.567 Z-0.066 I0.174 J0.099
X-5.174 Y-10.766 Z-0.088 I-0.174 J-0.099
X-4.826 Y-10.567 Z-0.11 I0.174 J0.099
X-5.174 Y-10.766 Z-0.132 I-0.174 J-0.099
X-4.826 Y-10.567 Z-0.154 I0.174 J0.099
X-5.174 Y-10.766 Z-0.176 I-0.174 J-0.099
X-4.826 Y-10.567 Z-0.197 I0.174 J0.099
X-4.873 Y-10.512 Z-0.2 I-0.174 J-0.099
X-5.127 Y-10.821 I-0.127 J-0.154 F450
X-4.873 Y-10.512 I0.127 J0.154
X-5.127 Y-10.821 Z-0.222 I-0.127 J-0.154 F333.3
X-4.873 Y-10.512 Z-0.244 I0.127 J0.154
X-5.127 Y-10.821 Z-0.266 I-0.127 J-0.154
X-4.873 Y-10.512 Z-0.288 I0.127 J0.154
X-5.127 Y-10.821 Z-0.31 I-0.127 J-0.154
X-4.873 Y-10.512 Z-0.332 I0.127 J0.154
X-5.127 Y-10.821 Z-0.354 I-0.127 J-0.154
X-4.873 Y-10.512 Z-0.376 I0.127 J0.154
X-5.127 Y-10.821 Z-0.397 I-0.127 J-0.154
X-5.064 Y-10.856 Z-0.4 I0.127 J0.154
X-4.936 Y-10.477 I0.064 J0.189 F450
X-5.064 Y-10.856 I-0.064 J-0.189
X-4.936 Y-10.477 Z-0.422 I0.064 J0.189 F333.3
X-5.064 Y-10.856 Z-0.444 I-0.064 J-0.189
X-4.936 Y-10.477 Z-0.466 I0.064 J0.189
X-5.064 Y-10.856 Z-0.488 I-0.064 J-0.189
X-4.802 Y-10.696 Z-0.5 I0.064 J0.189
X-5.198 Y-10.638 I-0.198 J0.029 F450
X-4.802 Y-10.696 I0.198 J-0.029
G1 X-4.8 Y-10.667 Z-0.499
X-4.806 Y-10.62 Z-0.482
X-4.822 Y-10.575 Z-0.465
X-4.849 Y-10.536 Z-0.448
X-4.886 Y-10.502 Z-0.392
X-4.931 Y-10.479 Z-0.337
X-4.967 Y-10.469 Z-0.19
G0 Z16
X-0.12 Y-15.507
Z6
G1 Z3.5 F450
Z0.8 F200
G3 X0.12 Y-15.827 I0.12 J-0.16 F450
X-0.12 Y-15.507 I-0.12 J0.16
X0.12 Y-15.827 Z0.778 I0.12 J-0.16 F333.3
X-0.12 Y-15.507 Z0.756 I-0.12 J0.16
X0.12 Y-15.827 Z0.734 I0.12 J-0.16
X-0.12 Y-15.507 Z0.712 I-0.12 J0.16
X0.12 Y-15.827 Z0.69 I0.12 J-0.16
X-0.12 Y-15.507 Z0.668 I-0.12 J0.16
X0.12 Y-15.827 Z0.646 I0.12 J-0.16
X-0.12 Y-15.507 Z0.624 I-0.12 J0.16
X0.12 Y-15.827 Z0.603 I0.12 J-0.16
X0.169 Y-15.774 Z0.6 I-0.12 J0.16
X-0.169 Y-15.56 I-0.169 J0.107 F450
X0.169 Y-15.774 I0.169 J-0.107
X-0.169 Y-15.56 Z0.578 I-0.169 J0.107 F333.3
X0.169 Y-15.774 Z0.556 I0.169 J-0.107
X-0.169 Y-15.56 Z0.534 I-0.169 J0.107
X0.169 Y-15.774 Z0.512 I0.169 J-0.107
X-0.169 Y-15.56 Z0.49 I-0.169 J0.107
X0.169 Y-15.774 Z0.468 I0.169 J-0.107
X-0.169 Y-15.56 Z0.446 I-0.169 J0.107
X0.169 Y-15.774 Z0.424 I0.169 J-0.107
X-0.169 Y-15.56 Z0.403 I-0.169 J0.107
X-0.196 Y-15.626 Z0.4 I0.169 J-0.107
X0.196 Y-15.707 I0.196 J-0.04 F450
X-0.196 Y-15.626 I-0.196 J0.04
X0.196 Y-15.707 Z0.378 I0.196 J-0.04 F333.3
X-0.196 Y-15.626 Z0.356 I-0.196 J0.04
X0.196 Y-15.707 Z0.334 I0.196 J-0.04
X-0.196 Y-15.626 Z0.312 I-0.196 J0.04
X0.196 Y-15.707 Z0.29 I0.196 J-0.04
X-0.196 Y-15.626 Z0.268 I-0.196 J0.04
X0.196 Y-15.707 Z0.246 I0.196 J-0.04
X-0.196 Y-15.626 Z0.224 I-0.196 J0.04
X0.196 Y-15.707 Z0.203 I0.196 J-0.04
X0.197 Y-15.635 Z0.2 I-0.196 J0.04
X-0.197 Y-15.698 I-0.197 J-0.032 F450
X0.197 Y-15.635 I0.197 J0.032
X-0.197 Y-15.698 Z0.178 I-0.197 J-0.032 F333.3
X0.197 Y-15.635 Z0.156 I0.197 J0.032
X-0.197 Y-15.698 Z0.134 I-0.197 J-0.032
X0.197 Y-15.635 Z0.112 I0.197 J0.032
X-0.197 Y-15.698 Z0.09 I-0.197 J-0.032
X0.197 Y-15.635 Z0.068 I0.197 J0.032
X-0.197 Y-15.698 Z0.046 I-0.197 J-0.032
X0.197 Y-15.635 Z0.024 I0.197 J0.032
X-0.197 Y-15.698 Z0.003 I-0.197 J-0.032
X-0.174 Y-15.766 Z0 I0.197 J0.032
X0.174 Y-15.567 I0.174 J0.099 F450
X-0.174 Y-15.766 I-0.174 J-0.099
X0.174 Y-15.567 Z-0.022 I0.174 J0.099 F333.3
X-0.174 Y-15.766 Z-0.044 I-0.174 J-0.099
X0.174 Y-15.567 Z-0.066 I0.174 J0.099
X-0.174 Y-15.766 Z-0.088 I-0.174 J-0.099
X0.174 Y-15.567 Z-0.11 I0.174 J0.099
X-0.174 Y-15.766 Z-0.132 I-0.174 J-0.099
X0.174 Y-15.567 Z-0.154 I0.174 J0.099
X-0.174 Y-15.766 Z-0.176 I-0.174 J-0.099
X0.174 Y-15.567 Z-0.197 I0.174 J0.099
X0.127 Y-15.512 Z-0.2 I-0.174 J-0.099
X-0.127 Y-15.821 I-0.127 J-0.154 F450
X0.127 Y-15.512 I0.127 J0.154
X-0.127 Y-15.821 Z-0.222 I-0.127 J-0.154 F333.3
X0.127 Y-15.512 Z-0.244 I0.127 J0.154
X-0.127 Y-15.821 Z-0.266 I-0.127 J-0.154
X0.127 Y-15.512 Z-0.288 I0.127 J0.154
X-0.127 Y-15.821 Z-0.31 I-0.127 J-0.154
X0.127 Y-15.512 Z-0.332 I0.127 J0.154
X-0.127 Y-15.821 Z-0.354 I-0.127 J-0.154
X0.127 Y-15.512 Z-0.376 I0.127 J0.154
X-0.127 Y-15.821 Z-0.397 I-0.127 J-0.154
X-0.064 Y-15.856 Z-0.4 I0.127 J0.154
X0.064 Y-15.477 I0.064 J0.189 F450
X-0.064 Y-15.856 I-0.064 J-0.189
X0.064 Y-15.477 Z-0.422 I0.064 J0.189 F333.3
X-0.064 Y-15.856 Z-0.444 I-0.064 J-0.189
X0.064 Y-15.477 Z-0.466 I0.064 J0.189
X-0.064 Y-15.856 Z-0.488 I-0.064 J-0.189
X0.198 Y-15.696 Z-0.5 I0.064 J0.189
X-0.198 Y-15.638 I-0.198 J0.029 F450
X0.198 Y-15.696 I0.198 J-0.029
G1 X0.2 Y-15.667 Z-0.499
X0.194 Y-15.62 Z-0.482
X0.178 Y-15.575 Z-0.465
X0.151 Y-15.536 Z-0.448
X0.114 Y-15.502 Z-0.392
X0.069 Y-15.479 Z-0.337
X0.033 Y-15.469 Z-0.19
G0 Z16
M9
M5
M30
