(1001)
(Machine)
(  vendor: Autodesk)
(  description: Generic 3-axis)
(T3  D=3.1 CR=0 - ZMIN=-4.8 - flat end mill)
G90 G94
G17
G21

(2D Contour4)
T3
S1540 M3
G54
M8
G0 X6.308 Y7.186
Z16
Z6
G1 Z2 F200
Z-4.49
G18 G2 X6.618 Z-4.8 I0.31 K0 F450
G1 X6.928
G17 G3 X7.238 Y7.496 I0 J0.31
G2 X8.788 Y9.046 I1.55 J0
G1 X25.788
G2 X27.338 Y7.496 I0 J-1.55
G3 X32.238 Y7.496 I2.45 J0
X29.549 Y9.934 I-2.45 J0
G2 X27.856 Y11.326 I-0.151 J1.543
G1 X26.136 Y28.864
G2 X27.528 Y30.558 I1.543 J0.151
G3 X27.049 Y35.434 I-0.239 J2.438
X24.886 Y33.477 I0.239 J-2.438
G2 X23.062 Y32.261 I-1.52 J0.304
G1 X20.907 Y32.692
G2 X19.691 Y34.516 I0.304 J1.52
G3 X14.886 Y35.477 I-2.402 J0.481
X14.886 Y34.516 I2.402 J-0.481
G2 X13.67 Y32.692 I-1.52 J-0.304
G1 X11.515 Y32.261
G2 X9.691 Y33.477 I-0.304 J1.52
G3 X4.886 Y32.516 I-2.402 J-0.48
X7.049 Y30.558 I2.402 J0.48
G2 X8.441 Y28.864 I-0.151 J-1.543
G1 X6.721 Y11.326
G2 X5.028 Y9.934 I-1.543 J0.151
G3 X4.549 Y5.058 I-0.239 J-2.438
X7.238 Y7.496 I0.239 J2.438
X6.928 Y7.806 I-0.31 J0
G1 X6.618
G18 G3 X6.308 Z-4.49 I0 K0.31
G0 Z6
X-4.294 Y6.246
G1 Z2 F200
Z-4.49
X-4.288 Y6.24 Z-4.559 F450
X-4.271 Y6.225 Z-4.625
X-4.244 Y6.2 Z-4.683
X-4.207 Y6.167 Z-4.732
X-4.164 Y6.128 Z-4.769
X-4.115 Y6.084 Z-4.792
X-4.064 Y6.037 Z-4.8
X-3.834 Y5.829
G17 G3 X-3.397 Y5.85 I0.208 J0.23
X-5.451 Y9.934 I-1.815 J1.646
G2 X-7.144 Y11.326 I-0.151 J1.543
G1 X-8.864 Y28.864
G2 X-7.472 Y30.558 I1.543 J0.151
G3 X-7.951 Y35.434 I-0.239 J2.438
X-10.114 Y33.477 I0.239 J-2.438
G2 X-11.938 Y32.261 I-1.52 J0.304
G1 X-14.093 Y32.692
G2 X-15.309 Y34.516 I0.304 J1.52
G3 X-20.114 Y35.477 I-2.402 J0.481
X-20.114 Y34.516 I2.402 J-0.481
G2 X-21.33 Y32.692 I-1.52 J-0.304
G1 X-23.485 Y32.261
G2 X-25.309 Y33.477 I-0.304 J1.52
G3 X-30.114 Y32.516 I-2.402 J-0.481
X-27.951 Y30.558 I2.402 J0.481
G2 X-26.559 Y28.864 I-0.151 J-1.543
G1 X-28.279 Y11.326
G2 X-29.972 Y9.934 I-1.543 J0.151
G3 X-30.451 Y5.058 I-0.239 J-2.438
X-27.761 Y7.496 I0.239 J2.438
G2 X-26.212 Y9.046 I1.55 J0
G1 X-9.212
G2 X-7.662 Y7.496 I0 J-1.55
G3 X-3.397 Y5.85 I2.45 J0
X-3.418 Y6.288 I-0.23 J0.208
G1 X-3.648 Y6.497
X-3.699 Y6.543 Z-4.792
X-3.747 Y6.587 Z-4.769
X-3.791 Y6.626 Z-4.732
X-3.827 Y6.659 Z-4.683
X-3.855 Y6.684 Z-4.625
X-3.872 Y6.7 Z-4.559
X-3.877 Y6.705 Z-4.49
G0 Z6
X-9.759 Y-12.535
G1 Z2 F200
Z-4.49
X-9.751 Y-12.534 Z-4.559 F450
X-9.729 Y-12.532 Z-4.625
X-9.692 Y-12.529 Z-4.683
X-9.643 Y-12.524 Z-4.732
X-9.584 Y-12.518 Z-4.769
X-9.519 Y-12.512 Z-4.792
X-9.451 Y-12.505 Z-4.8
X-9.142 Y-12.475
G3 X-8.864 Y-12.136 I-0.03 J0.309
G2 X-7.472 Y-10.442 I1.543 J0.151
G3 X-7.951 Y-5.566 I-0.239 J2.438
X-10.114 Y-7.523 I0.239 J-2.438
G2 X-11.938 Y-8.739 I-1.52 J0.304
G1 X-14.093 Y-8.308
G2 X-15.309 Y-6.484 I0.304 J1.52
G3 X-20.114 Y-5.523 I-2.402 J0.48
X-20.114 Y-6.484 I2.402 J-0.48
G2 X-21.33 Y-8.308 I-1.52 J-0.304
G1 X-23.485 Y-8.739
G2 X-25.309 Y-7.523 I-0.304 J1.52
G3 X-30.114 Y-8.484 I-2.402 J-0.48
X-27.951 Y-10.442 I2.402 J0.48
G2 X-26.559 Y-12.136 I-0.151 J-1.543
G1 X-28.279 Y-29.674
G2 X-29.972 Y-31.066 I-1.543 J0.151
G3 X-30.451 Y-35.942 I-0.239 J-2.438
X-27.761 Y-33.504 I0.239 J2.438
G2 X-26.212 Y-31.954 I1.55 J0
G1 X-9.212
G2 X-7.662 Y-33.504 I0 J-1.55
G3 X-2.762 Y-33.504 I2.45 J0
X-5.451 Y-31.066 I-2.45 J0
G2 X-7.144 Y-29.674 I-0.151 J1.543
G1 X-8.864 Y-12.136
G3 X-9.203 Y-11.858 I-0.309 J-0.03
G1 X-9.511 Y-11.888
X-9.58 Y-11.895 Z-4.792
X-9.645 Y-11.901 Z-4.769
X-9.703 Y-11.907 Z-4.732
X-9.752 Y-11.912 Z-4.683
X-9.789 Y-11.915 Z-4.625
X-9.812 Y-11.917 Z-4.559
X-9.82 Y-11.918 Z-4.49
G0 Z6
X12.001 Y-9.59
G1 Z2 F200
Z-4.49
X12 Y-9.583 Z-4.559 F450
X11.995 Y-9.56 Z-4.625
X11.988 Y-9.524 Z-4.683
X11.978 Y-9.476 Z-4.732
X11.967 Y-9.418 Z-4.769
X11.954 Y-9.354 Z-4.792
X11.94 Y-9.286 Z-4.8
X11.88 Y-8.982
G3 X11.515 Y-8.739 I-0.304 J-0.061
G2 X9.691 Y-7.523 I-0.304 J1.52
G3 X4.886 Y-8.484 I-2.402 J-0.48
X7.049 Y-10.442 I2.402 J0.48
G2 X8.441 Y-12.136 I-0.151 J-1.543
G1 X6.721 Y-29.674
G2 X5.028 Y-31.066 I-1.543 J0.151
G3 X4.549 Y-35.942 I-0.239 J-2.438
X7.238 Y-33.504 I0.239 J2.438
G2 X8.788 Y-31.954 I1.55 J0
G1 X25.788
G2 X27.338 Y-33.504 I0 J-1.55
G3 X32.238 Y-33.504 I2.45 J0
X29.549 Y-31.066 I-2.45 J0
G2 X27.856 Y-29.674 I-0.151 J1.543
G1 X26.136 Y-12.136
G2 X27.528 Y-10.442 I1.543 J0.151
G3 X27.049 Y-5.566 I-0.239 J2.438
X24.886 Y-7.523 I0.239 J-2.438
G2 X23.062 Y-8.739 I-1.52 J0.304
G1 X20.907 Y-8.308
G2 X19.691 Y-6.484 I0.304 J1.52
G3 X14.886 Y-5.523 I-2.402 J0.48
X14.886 Y-6.484 I2.402 J-0.48
G2 X13.67 Y-8.308 I-1.52 J-0.304
G1 X11.515 Y-8.739
G3 X11.272 Y-9.104 I0.061 J-0.304
G1 X11.332 Y-9.408
X11.346 Y-9.476 Z-4.792
X11.359 Y-9.54 Z-4.769
X11.37 Y-9.597 Z-4.732
X11.38 Y-9.646 Z-4.683
X11.387 Y-9.682 Z-4.625
X11.392 Y-9.704 Z-4.559
X11.393 Y-9.712 Z-4.49
G0 Z6
X47.001 Y-9.59
G1 Z2 F200
Z-4.49
X47 Y-9.583 Z-4.559 F450
X46.995 Y-9.56 Z-4.625
X46.988 Y-9.524 Z-4.683
X46.978 Y-9.476 Z-4.732
X46.967 Y-9.418 Z-4.769
X46.954 Y-9.354 Z-4.792
X46.94 Y-9.286 Z-4.8
X46.88 Y-8.982
G3 X46.515 Y-8.739 I-0.304 J-0.061
G2 X44.691 Y-7.523 I-0.304 J1.52
G3 X39.886 Y-8.484 I-2.402 J-0.48
X42.049 Y-10.442 I2.402 J0.48
G2 X43.441 Y-12.136 I-0.151 J-1.543
G1 X41.721 Y-29.674
G2 X40.028 Y-31.066 I-1.543 J0.151
G3 X39.549 Y-35.942 I-0.239 J-2.438
X42.238 Y-33.504 I0.239 J2.438
G2 X43.789 Y-31.954 I1.55 J0
G1 X60.789
G2 X62.339 Y-33.504 I0 J-1.55
G3 X67.238 Y-33.504 I2.45 J0
X64.549 Y-31.066 I-2.45 J0
G2 X62.856 Y-29.674 I-0.151 J1.543
G1 X61.136 Y-12.136
G2 X62.528 Y-10.442 I1.543 J0.151
G3 X62.049 Y-5.565 I-0.239 J2.438
X59.886 Y-7.523 I0.239 J-2.438
G2 X58.062 Y-8.739 I-1.52 J0.304
G1 X55.907 Y-8.308
G2 X54.691 Y-6.484 I0.304 J1.52
G3 X49.886 Y-5.523 I-2.402 J0.48
X49.886 Y-6.484 I2.402 J-0.48
G2 X48.67 Y-8.308 I-1.52 J-0.304
G1 X46.515 Y-8.739
G3 X46.272 Y-9.104 I0.061 J-0.304
G1 X46.332 Y-9.408
X46.346 Y-9.476 Z-4.792
X46.359 Y-9.54 Z-4.769
X46.37 Y-9.597 Z-4.732
X46.38 Y-9.646 Z-4.683
X46.387 Y-9.682 Z-4.625
X46.392 Y-9.704 Z-4.559
X46.393 Y-9.712 Z-4.49
G0 Z6
X41.309 Y7.186
G1 Z2 F200
Z-4.49
G18 G2 X41.618 Z-4.8 I0.31 K0 F450
G1 X41.929
G17 G3 X42.238 Y7.496 I0 J0.31
G2 X43.789 Y9.046 I1.55 J0
G1 X60.789
G2 X62.339 Y7.496 I0 J-1.55
G3 X67.238 Y7.496 I2.45 J0
X64.549 Y9.934 I-2.45 J0
G2 X62.856 Y11.326 I-0.151 J1.543
G1 X61.136 Y28.864
G2 X62.528 Y30.558 I1.543 J0.151
G3 X62.049 Y35.434 I-0.239 J2.438
X59.886 Y33.477 I0.239 J-2.438
G2 X58.062 Y32.261 I-1.52 J0.304
G1 X55.907 Y32.692
G2 X54.691 Y34.516 I0.304 J1.52
G3 X49.886 Y35.477 I-2.402 J0.481
X49.886 Y34.516 I2.402 J-0.481
G2 X48.67 Y32.692 I-1.52 J-0.304
G1 X46.515 Y32.261
G2 X44.691 Y33.477 I-0.304 J1.52
G3 X39.886 Y32.516 I-2.402 J-0.481
X42.049 Y30.558 I2.402 J0.481
G2 X43.441 Y28.864 I-0.151 J-1.543
G1 X41.721 Y11.326
G2 X40.028 Y9.934 I-1.543 J0.151
G3 X39.549 Y5.058 I-0.239 J-2.438
X42.238 Y7.496 I0.239 J2.438
X41.928 Y7.806 I-0.31 J0
G1 X41.618
G18 G3 X41.308 Z-4.49 I0 K0.31
G0 Z6
X-38.692 Y7.186
G1 Z2 F200
Z-4.49
G2 X-38.382 Z-4.8 I0.31 K0 F450
G1 X-38.072
G17 G3 X-37.762 Y7.496 I0 J0.31
X-40.451 Y9.934 I-2.45 J0
G2 X-42.144 Y11.326 I-0.151 J1.543
G1 X-43.864 Y28.864
G2 X-42.472 Y30.558 I1.543 J0.151
G3 X-42.951 Y35.434 I-0.239 J2.438
X-45.114 Y33.477 I0.239 J-2.438
G2 X-46.938 Y32.261 I-1.52 J0.304
G1 X-49.093 Y32.692
G2 X-50.309 Y34.516 I0.304 J1.52
G3 X-55.114 Y35.477 I-2.402 J0.481
X-55.114 Y34.516 I2.402 J-0.481
G2 X-56.33 Y32.692 I-1.52 J-0.304
G1 X-58.485 Y32.261
G2 X-60.309 Y33.477 I-0.304 J1.52
G3 X-65.114 Y32.516 I-2.402 J-0.481
X-62.951 Y30.558 I2.402 J0.481
G2 X-61.559 Y28.864 I-0.151 J-1.543
G1 X-63.279 Y11.326
G2 X-64.972 Y9.934 I-1.543 J0.151
G3 X-65.451 Y5.058 I-0.239 J-2.438
X-62.762 Y7.496 I0.239 J2.438
G2 X-61.211 Y9.046 I1.55 J0
G1 X-44.211
G2 X-42.661 Y7.496 I0 J-1.55
G3 X-40.212 Y5.046 I2.45 J0
X-37.762 Y7.496 I0 J2.45
X-38.072 Y7.806 I-0.31 J0
G1 X-38.382
G18 G3 X-38.692 Z-4.49 I0 K0.31
G0 Z6
X-44.759 Y-12.535
G1 Z2 F200
Z-4.49
X-44.751 Y-12.534 Z-4.559 F450
X-44.729 Y-12.532 Z-4.625
X-44.692 Y-12.529 Z-4.683
X-44.643 Y-12.524 Z-4.732
X-44.584 Y-12.518 Z-4.769
X-44.519 Y-12.512 Z-4.792
X-44.451 Y-12.505 Z-4.8
X-44.142 Y-12.475
G17 G3 X-43.864 Y-12.136 I-0.03 J0.309
G2 X-42.472 Y-10.442 I1.543 J0.151
G3 X-42.951 Y-5.565 I-0.239 J2.438
X-45.114 Y-7.523 I0.239 J-2.438
G2 X-46.938 Y-8.739 I-1.52 J0.304
G1 X-49.093 Y-8.308
G2 X-50.309 Y-6.484 I0.304 J1.52
G3 X-55.114 Y-5.523 I-2.402 J0.48
X-55.114 Y-6.484 I2.402 J-0.48
G2 X-56.33 Y-8.308 I-1.52 J-0.304
G1 X-58.485 Y-8.739
G2 X-60.309 Y-7.523 I-0.304 J1.52
G3 X-65.114 Y-8.484 I-2.402 J-0.48
X-62.951 Y-10.442 I2.402 J0.48
G2 X-61.559 Y-12.136 I-0.151 J-1.543
G1 X-63.279 Y-29.674
G2 X-64.972 Y-31.066 I-1.543 J0.151
G3 X-65.451 Y-35.942 I-0.239 J-2.438
X-62.762 Y-33.504 I0.239 J2.438
G2 X-61.211 Y-31.954 I1.55 J0
G1 X-44.211
G2 X-42.661 Y-33.504 I0 J-1.55
G3 X-37.762 Y-33.504 I2.45 J0
X-40.451 Y-31.066 I-2.45 J0
G2 X-42.144 Y-29.674 I-0.151 J1.543
G1 X-43.864 Y-12.136
G3 X-44.203 Y-11.858 I-0.309 J-0.03
G1 X-44.511 Y-11.888
X-44.58 Y-11.895 Z-4.792
X-44.645 Y-11.901 Z-4.769
X-44.703 Y-11.907 Z-4.732
X-44.752 Y-11.912 Z-4.683
X-44.789 Y-11.915 Z-4.625
X-44.812 Y-11.917 Z-4.559
X-44.82 Y-11.918 Z-4.49
G0 Z16
M9
M5
M30
