(1001)
(Machine)
(  vendor: Autodesk)
(  description: Generic 3-axis)
(T3  D=3.1 CR=0 - ZMIN=-2 - flat end mill)
G90 G94
G17
G21

(2D Adaptive5)
T3
S1000 M3
G54
M8
G0 X-0.916 Y10.182
Z6
Z3
Z2.5
G3 X0.917 Y12.487 Z2.338 I0.916 J1.153 F333.3
X-0.916 Y10.182 Z2.177 I-0.916 J-1.153
X0.917 Y12.487 Z2.015 I0.916 J1.153
X-0.916 Y10.182 Z1.854 I-0.916 J-1.153
X0.917 Y12.487 Z1.692 I0.916 J1.153
X-0.916 Y10.182 Z1.531 I-0.916 J-1.153
X0.917 Y12.487 Z1.369 I0.916 J1.153
X-0.916 Y10.182 Z1.208 I-0.916 J-1.153
X0.917 Y12.487 Z1.046 I0.916 J1.153
X-0.916 Y10.182 Z0.885 I-0.916 J-1.153
X0.917 Y12.487 Z0.723 I0.916 J1.153
X-0.916 Y10.182 Z0.561 I-0.916 J-1.153
X0.917 Y12.487 Z0.4 I0.916 J1.153
X-0.916 Y10.182 Z0.238 I-0.916 J-1.153
X0.917 Y12.487 Z0.077 I0.916 J1.153
X-0.916 Y10.182 Z-0.085 I-0.916 J-1.153
X1.473 Y11.334 Z-0.2 I0.916 J1.153
X-1.472 Y11.334 I-1.473 J0
X1.473 Y11.334 I1.473 J0
G1 X1.505 Y11.968 F450
X1.531 Y12.043
X1.561 Y12.19
Y12.34
X1.537 Y12.488
X1.491 Y12.631
X1.428 Y12.767
X1.349 Y12.894
X1.257 Y13.013
X1.153 Y13.121
X1.04 Y13.219
X0.918 Y13.307
X0.789 Y13.383
X0.654 Y13.449
X0.512 Y13.504
X0.363 Y13.548
X0.208 Y13.581
X0.048 Y13.601
X-0.117 Y13.609
X-0.284 Y13.604
X-0.453 Y13.585
X-0.622 Y13.552
X-0.79 Y13.505
X-0.955 Y13.444
X-1.115 Y13.369
X-1.271 Y13.281
X-1.42 Y13.18
X-1.562 Y13.067
X-1.694 Y12.942
X-1.817 Y12.806
X-1.929 Y12.66
X-2.029 Y12.505
X-2.117 Y12.342
X-2.191 Y12.172
X-2.252 Y11.996
X-2.299 Y11.816
X-2.331 Y11.632
X-2.348 Y11.445
X-2.35 Y11.258
X-2.338 Y11.071
X-2.31 Y10.885
X-2.267 Y10.701
X-2.21 Y10.522
X-2.138 Y10.348
X-2.053 Y10.18
X-1.954 Y10.019
X-1.842 Y9.867
X-1.719 Y9.724
X-1.585 Y9.591
X-1.44 Y9.469
X-1.286 Y9.36
X-1.124 Y9.263
X-0.954 Y9.179
X-0.778 Y9.11
X-0.597 Y9.054
X-0.413 Y9.013
X-0.225 Y8.988
X-0.036 Y8.977
X0.153 Y8.982
X0.341 Y9.002
X0.527 Y9.036
X0.71 Y9.086
X0.888 Y9.15
X1.061 Y9.228
X1.226 Y9.32
X1.384 Y9.425
X1.533 Y9.542
X1.671 Y9.671
X1.8 Y9.81
X1.916 Y9.96
X2.021 Y10.118
X2.133 Y10.323
X2.302 Y10.701
X2.418 Y11.026
X2.489 Y11.293
X2.534 Y11.537
X2.557 Y11.769
X2.562 Y11.99
X2.549 Y12.2
X2.52 Y12.402
X2.476 Y12.6
X2.416 Y12.794
X2.34 Y12.984
X2.249 Y13.166
X2.143 Y13.342
X2.023 Y13.509
X1.888 Y13.668
X1.74 Y13.817
X1.578 Y13.955
X1.402 Y14.082
X1.215 Y14.196
X1.016 Y14.296
X0.806 Y14.382
X0.587 Y14.45
X0.36 Y14.502
X0.127 Y14.536
X-0.11 Y14.552
X-0.351 Y14.548
X-0.594 Y14.524
X-0.836 Y14.481
X-1.075 Y14.418
X-1.311 Y14.335
X-1.54 Y14.233
X-1.763 Y14.113
X-1.976 Y13.973
X-2.178 Y13.817
X-2.369 Y13.643
X-2.545 Y13.454
X-2.707 Y13.251
X-2.852 Y13.034
X-2.98 Y12.806
X-3.089 Y12.567
X-3.179 Y12.32
X-3.249 Y12.066
X-3.299 Y11.806
X-3.328 Y11.542
X-3.335 Y11.277
X-3.321 Y11.012
X-3.286 Y10.748
X-3.23 Y10.487
X-3.153 Y10.232
X-3.055 Y9.983
X-2.938 Y9.743
X-2.802 Y9.513
X-2.648 Y9.294
X-2.476 Y9.088
X-2.289 Y8.897
X-2.086 Y8.721
X-1.871 Y8.562
X-1.643 Y8.421
X-1.404 Y8.299
X-1.156 Y8.196
X-0.901 Y8.113
X-0.64 Y8.051
X-0.374 Y8.01
X-0.106 Y7.99
X0.162 Y7.992
X0.43 Y8.016
X0.695 Y8.061
X0.955 Y8.127
X1.209 Y8.214
X1.456 Y8.321
X1.693 Y8.448
X1.919 Y8.593
X2.133 Y8.756
X2.34 Y8.941
X2.56 Y9.173
X2.767 Y9.43
X2.961 Y9.714
X3.134 Y10.017
X3.28 Y10.328
X3.397 Y10.642
X3.487 Y10.956
X3.549 Y11.266
X3.585 Y11.574
X3.596 Y11.879
X3.583 Y12.179
X3.546 Y12.475
X3.486 Y12.765
X3.403 Y13.047
X3.298 Y13.321
X3.172 Y13.585
X3.025 Y13.838
X2.857 Y14.08
X2.67 Y14.308
X2.464 Y14.522
X2.24 Y14.72
X1.999 Y14.901
X1.741 Y15.063
X1.47 Y15.206
X1.185 Y15.327
X0.889 Y15.425
X0.583 Y15.501
X0.27 Y15.552
X-0.049 Y15.577
X-0.371
X-0.694 Y15.552
X-1.017 Y15.499
X-1.336 Y15.421
X-1.65 Y15.317
X-1.956 Y15.187
X-2.253 Y15.032
X-2.537 Y14.852
X-2.808 Y14.65
X-3.063 Y14.425
X-3.299 Y14.18
X-3.517 Y13.916
X-3.713 Y13.633
X-3.886 Y13.336
X-4.035 Y13.024
X-4.159 Y12.7
X-4.257 Y12.367
X-4.328 Y12.027
X-4.371 Y11.681
X-4.387 Y11.332
X-4.374 Y10.982
X-4.334 Y10.634
X-4.265 Y10.291
X-4.17 Y9.953
X-4.047 Y9.624
X-3.898 Y9.305
X-3.724 Y9
X-3.526 Y8.709
X-3.305 Y8.435
X-3.062 Y8.179
X-2.8 Y7.944
X-2.52 Y7.73
X-2.223 Y7.539
X-1.912 Y7.373
X-1.588 Y7.232
X-1.254 Y7.118
X-0.912 Y7.031
X-0.564 Y6.971
X-0.212 Y6.94
X0.141 Y6.937
X0.493 Y6.962
X0.842 Y7.016
X1.186 Y7.097
X1.522 Y7.206
X1.849 Y7.341
X2.165 Y7.503
X2.478 Y7.696
X2.783 Y7.921
X3.079 Y8.177
X3.36 Y8.464
X3.622 Y8.778
X3.86 Y9.115
X4.07 Y9.469
X4.251 Y9.838
X4.399 Y10.217
X4.516 Y10.603
X4.601 Y10.994
X4.654 Y11.386
X4.674 Y11.778
X4.664 Y12.168
X4.622 Y12.553
X4.55 Y12.931
X4.448 Y13.301
X4.317 Y13.661
X4.158 Y14.009
X3.972 Y14.343
X3.758 Y14.661
X3.52 Y14.963
X3.257 Y15.245
X2.971 Y15.506
X2.663 Y15.744
X2.335 Y15.959
X1.989 Y16.147
X1.627 Y16.308
X1.251 Y16.44
X0.863 Y16.543
X0.466 Y16.614
X0.062 Y16.653
X-0.346 Y16.66
X-0.756 Y16.634
X-1.164 Y16.575
X-1.569 Y16.483
X-1.967 Y16.358
X-2.356 Y16.2
X-2.732 Y16.011
X-3.093 Y15.792
X-3.438 Y15.543
X-3.762 Y15.266
X-4.064 Y14.964
X-4.341 Y14.637
X-4.593 Y14.287
X-4.816 Y13.918
X-5.009 Y13.531
X-5.171 Y13.129
X-5.3 Y12.714
X-5.396 Y12.289
X-5.457 Y11.857
X-5.484 Y11.422
X-5.475 Y10.984
X-5.432 Y10.549
X-5.354 Y10.117
X-5.241 Y9.693
X-5.094 Y9.279
X-4.914 Y8.878
X-4.703 Y8.493
X-4.461 Y8.125
X-4.191 Y7.778
X-3.893 Y7.453
X-3.57 Y7.153
X-3.224 Y6.88
X-2.857 Y6.636
X-2.471 Y6.422
X-2.07 Y6.239
X-1.655 Y6.089
X-1.229 Y5.973
X-0.795 Y5.892
X-0.356 Y5.845
X0.086 Y5.834
X0.526 Y5.859
X0.964 Y5.918
X1.396 Y6.013
X1.821 Y6.143
X2.238 Y6.308
X2.645 Y6.508
X3.041 Y6.744
X3.424 Y7.016
X3.791 Y7.324
X4.137 Y7.665
X4.458 Y8.037
X4.749 Y8.435
X5.009 Y8.857
X5.233 Y9.297
X5.421 Y9.753
X5.57 Y10.22
X5.682 Y10.695
X5.754 Y11.175
X5.787 Y11.656
X5.782 Y12.136
X5.739 Y12.612
X5.657 Y13.082
X5.539 Y13.541
X5.384 Y13.989
X5.194 Y14.423
X4.97 Y14.84
X4.713 Y15.238
X4.424 Y15.615
X4.105 Y15.969
X3.758 Y16.296
X3.384 Y16.596
X2.986 Y16.866
X2.565 Y17.105
X2.124 Y17.309
X1.667 Y17.479
X1.195 Y17.612
X0.711 Y17.707
X0.219 Y17.763
X-0.278 Y17.779
X-0.778 Y17.756
X-1.276 Y17.692
X-1.769 Y17.588
X-2.255 Y17.444
X-2.729 Y17.261
X-3.189 Y17.039
X-3.631 Y16.781
X-4.053 Y16.487
X-4.451 Y16.158
X-4.822 Y15.798
X-5.164 Y15.408
X-5.475 Y14.991
X-5.751 Y14.55
X-5.992 Y14.086
X-6.196 Y13.604
X-6.36 Y13.106
X-6.484 Y12.595
X-6.567 Y12.076
X-6.607 Y11.55
X-6.606 Y11.023
X-6.562 Y10.497
X-6.476 Y9.975
X-6.348 Y9.462
X-6.18 Y8.96
X-5.971 Y8.473
X-5.724 Y8.004
X-5.44 Y7.556
X-5.121 Y7.132
X-4.768 Y6.735
X-4.385 Y6.367
X-3.973 Y6.031
X-3.536 Y5.73
X-3.076 Y5.464
X-2.595 Y5.236
X-2.098 Y5.047
X-1.587 Y4.899
X-1.066 Y4.792
X-0.538 Y4.727
X-0.006 Y4.705
X0.526 Y4.726
X1.055 Y4.789
X1.58 Y4.895
X2.097 Y5.044
X2.604 Y5.235
X3.1 Y5.469
X3.582 Y5.745
X4.045 Y6.063
X4.486 Y6.421
X4.901 Y6.817
X5.286 Y7.248
X5.636 Y7.71
X5.949 Y8.201
X6.222 Y8.715
X6.452 Y9.249
X6.638 Y9.798
X6.779 Y10.358
X6.874 Y10.927
X6.924 Y11.499
X6.927 Y12.071
X6.884 Y12.639
X6.796 Y13.201
X6.664 Y13.753
X6.487 Y14.292
X6.269 Y14.814
X6.009 Y15.318
X5.71 Y15.799
X5.372 Y16.255
X4.998 Y16.683
X4.59 Y17.081
X4.15 Y17.445
X3.681 Y17.775
X3.185 Y18.067
X2.666 Y18.319
X2.125 Y18.529
X1.568 Y18.696
X0.996 Y18.818
X0.415 Y18.894
X-0.174 Y18.923
X-0.765 Y18.905
X-1.354 Y18.839
X-1.939 Y18.726
X-2.515 Y18.566
X-3.079 Y18.359
X-3.625 Y18.106
X-4.151 Y17.81
X-4.654 Y17.472
X-5.128 Y17.093
X-5.572 Y16.676
X-5.982 Y16.224
X-6.356 Y15.74
X-6.69 Y15.225
X-6.982 Y14.685
X-7.23 Y14.122
X-7.433 Y13.54
X-7.589 Y12.942
X-7.696 Y12.334
X-7.754 Y11.717
X-7.762 Y11.098
X-7.721 Y10.479
X-7.63 Y9.865
X-7.49 Y9.259
X-7.302 Y8.667
X-7.066 Y8.091
X-6.785 Y7.535
X-6.46 Y7.004
X-6.094 Y6.5
X-5.687 Y6.027
X-5.244 Y5.587
X-4.768 Y5.185
X-4.26 Y4.822
X-3.724 Y4.501
X-3.165 Y4.224
X-2.585 Y3.993
X-1.988 Y3.809
X-1.378 Y3.674
X-0.759 Y3.588
X-0.135 Y3.551
X0.491 Y3.565
X1.115 Y3.63
X1.735 Y3.744
X2.346 Y3.909
X2.943 Y4.123
X3.522 Y4.384
X4.078 Y4.689
X4.608 Y5.038
X5.11 Y5.426
X5.58 Y5.852
X6.016 Y6.313
X6.415 Y6.806
X6.775 Y7.328
X7.096 Y7.876
X7.374 Y8.446
X7.608 Y9.036
X7.797 Y9.642
X7.94 Y10.26
X8.035 Y10.887
X8.083 Y11.52
X8.082 Y12.154
X8.032 Y12.786
X7.934 Y13.413
X7.789 Y14.031
X7.596 Y14.635
X7.357 Y15.223
X7.073 Y15.791
X6.747 Y16.335
X6.38 Y16.852
X5.973 Y17.339
X5.53 Y17.793
X5.054 Y18.212
X4.546 Y18.592
X4.011 Y18.933
X3.451 Y19.232
X2.871 Y19.488
X2.273 Y19.699
X1.66 Y19.865
X1.037 Y19.984
X0.407 Y20.057
X-0.227 Y20.082
X-0.861 Y20.061
X-1.492 Y19.992
X-2.116 Y19.878
X-2.73 Y19.718
X-3.33 Y19.511
X-3.913 Y19.261
X-4.476 Y18.968
X-5.016 Y18.635
X-5.53 Y18.264
X-6.017 Y17.857
X-6.472 Y17.416
X-6.896 Y16.943
X-7.284 Y16.441
X-7.635 Y15.913
X-7.947 Y15.36
X-8.216 Y14.786
X-8.444 Y14.194
X-8.628 Y13.587
X-8.769 Y12.968
X-8.866 Y12.341
X-8.918 Y11.709
X-8.925 Y11.074
X-8.888 Y10.441
X-8.805 Y9.812
X-8.676 Y9.191
X-8.502 Y8.581
X-8.286 Y7.984
X-8.028 Y7.405
X-7.73 Y6.845
X-7.393 Y6.307
X-7.019 Y5.794
X-6.611 Y5.309
X-6.168 Y4.855
X-5.693 Y4.434
X-5.189 Y4.048
X-4.66 Y3.699
X-4.107 Y3.388
X-3.533 Y3.117
X-2.942 Y2.886
X-2.337 Y2.697
X-1.719 Y2.551
X-1.092 Y2.452
X-0.46 Y2.397
X0.174 Y2.388
X0.807 Y2.423
X1.437 Y2.503
X2.059 Y2.626
X2.672 Y2.791
X3.271 Y2.998
X3.855 Y3.248
X4.419 Y3.539
X4.961 Y3.867
X5.48 Y4.232
X5.974 Y4.631
X6.439 Y5.062
X6.875 Y5.523
X7.28 Y6.012
X7.65 Y6.527
X7.984 Y7.067
X8.281 Y7.627
X8.54 Y8.206
X8.761 Y8.801
X8.943 Y9.408
X9.085 Y10.027
X9.186 Y10.653
X9.243 Y11.285
X9.257 Y11.919
X9.228 Y12.553
X9.157 Y13.184
X9.044 Y13.808
X8.89 Y14.423
X8.695 Y15.027
X8.461 Y15.617
X8.187 Y16.189
X7.873 Y16.74
X7.522 Y17.269
X7.137 Y17.773
X6.719 Y18.25
X6.27 Y18.698
X5.792 Y19.116
X5.288 Y19.5
X4.758 Y19.85
X4.205 Y20.161
X3.633 Y20.436
X3.044 Y20.671
X2.441 Y20.868
X1.826 Y21.024
X1.202 Y21.141
X0.573 Y21.218
X-0.061 Y21.252
X-0.695 Y21.243
X-1.328 Y21.193
X-1.956 Y21.102
X-2.576 Y20.97
X-3.187 Y20.799
X-3.785 Y20.588
X-4.369 Y20.34
X-4.936 Y20.054
X-5.482 Y19.731
X-6.006 Y19.373
X-6.505 Y18.982
X-6.979 Y18.561
X-7.426 Y18.11
X-7.844 Y17.633
X-8.231 Y17.13
X-8.586 Y16.604
X-8.905 Y16.056
X-9.187 Y15.488
X-9.433 Y14.903
X-9.473 Y14.786
X-9.489 Y14.731
X-9.502 Y14.676
X-9.509 Y14.62
X-9.874 Y10.895
X-9.904 Y10.284
X-9.888 Y9.812
X-9.827 Y9.271
X-9.707 Y8.66
X-9.536 Y8.05
X-9.32 Y7.453
X-9.064 Y6.873
X-8.771 Y6.31
X-8.442 Y5.767
X-8.078 Y5.247
X-7.682 Y4.752
X-7.254 Y4.283
X-6.798 Y3.843
X-6.315 Y3.432
X-5.807 Y3.051
X-5.277 Y2.703
X-4.726 Y2.388
X-4.157 Y2.108
X-3.571 Y1.865
X-2.97 Y1.66
X-2.662 Y1.576
X-2.599 Y1.561
X-2.535 Y1.553
X-2.471 Y1.55
X1.408
X2.042 Y1.582
X2.517 Y1.643
X3.063 Y1.758
X3.658 Y1.934
X4.25 Y2.163
X4.823 Y2.435
X5.375 Y2.747
X5.906 Y3.095
X6.414 Y3.474
X6.899 Y3.884
X7.358 Y4.321
X7.791 Y4.785
X8.195 Y5.275
X8.569 Y5.787
X8.911 Y6.321
X9.22 Y6.875
X9.495 Y7.447
X9.736 Y8.034
X9.943 Y8.634
X10.02 Y8.907
X10.039 Y8.994
X10.046 Y9.083
X10.043 Y9.173
X9.436 Y15.365
X9.379 Y15.751
X9.296 Y16.108
X9.171 Y16.501
X8.989 Y16.944
X8.732 Y17.451
X8.401 Y17.992
X8.028 Y18.505
X7.62 Y18.99
X7.18 Y19.448
X6.712 Y19.876
X6.218 Y20.274
X5.7 Y20.64
X5.161 Y20.975
X4.603 Y21.276
X4.028 Y21.545
X3.438 Y21.779
X2.836 Y21.979
X2.223 Y22.143
X1.602 Y22.27
X0.974 Y22.361
X0.341 Y22.413
X-0.293 Y22.429
X-0.927 Y22.408
X-1.559 Y22.35
X-2.186 Y22.256
X-2.807 Y22.126
X-3.42 Y21.961
X-4.021 Y21.76
X-4.61 Y21.523
X-5.184 Y21.253
X-5.741 Y20.95
X-6.28 Y20.615
X-6.799 Y20.249
X-7.296 Y19.855
X-7.771 Y19.434
X-8.221 Y18.987
X-8.645 Y18.516
X-9.042 Y18.02
X-9.087 Y17.957
X-9.15 Y17.849
X-9.193 Y17.732
X-9.216 Y17.609
X-9.509 Y14.62
G3 X-8.957 Y14.408 I0.309 J-0.019
G1 X-8.914 Y14.462 Z-0.192
X-8.873 Y14.513 Z-0.169
X-8.837 Y14.559 Z-0.132
X-8.806 Y14.597 Z-0.083
X-8.783 Y14.626 Z-0.025
X-8.769 Y14.644 Z0.041
X-8.764 Y14.65 Z0.11
G0 Z3
X0.388 Y1.93
Z0.42
G1 Z0.11 F450
X0.395 Y1.926 Z0.041
X0.415 Y1.914 Z-0.025
X0.446 Y1.895 Z-0.083
X0.489 Y1.87 Z-0.132
X0.539 Y1.84 Z-0.169
X0.595 Y1.807 Z-0.192
X0.655 Y1.771 Z-0.2
G3 X1.408 Y1.55 I0.809 J1.36
G1 X4.436
X4.681 Y1.562
X4.914 Y1.593
X5.206 Y1.655
X5.518 Y1.749
X5.906 Y1.9
X6.321 Y2.101
X6.801 Y2.384
X7.32 Y2.749
X7.809 Y3.152
X8.271 Y3.588
X8.705 Y4.05
X9.112 Y4.537
X9.491 Y5.046
X9.84 Y5.576
X10.159 Y6.124
X10.216 Y6.237
X10.267 Y6.364
X10.292 Y6.499
Y6.636
X10.043 Y9.173
G3 X9.485 Y9.314 I-0.307 J-0.041
G1 X9.457 Y9.276
X4.263 Y2.135
X4.196 Y2.042
G3 X4.436 Y1.55 I0.251 J-0.182
G1 X6.454
X6.62 Y1.558
X6.811 Y1.583
X7.023 Y1.629
X7.283 Y1.707
X7.553 Y1.812
X7.886 Y1.973
X8.235 Y2.179
X8.648 Y2.469
X9.112 Y2.854
X9.566 Y3.297
X9.988 Y3.772
X10.329 Y4.208
X10.423 Y4.365
X10.474 Y4.541
X10.479 Y4.724
X10.292 Y6.636
G3 X9.736 Y6.78 I-0.307 J-0.041
G1 X9.706 Y6.739
X6.282 Y2.134
X6.216 Y2.045
G3 X6.454 Y1.55 I0.249 J-0.185
G1 X8.184
X8.334 Y1.555
X8.516 Y1.583
X8.713 Y1.629
X8.93 Y1.7
X9.193 Y1.809
X9.46 Y1.945
X9.787 Y2.148
X10.126 Y2.398
X10.459 Y2.686
X10.486 Y2.714
X10.607 Y2.878
X10.677 Y3.068
X10.692 Y3.27
X10.65 Y3.468
X10.624 Y3.542
X10.589 Y3.686
X10.571 Y3.83
X10.539 Y4.118
X10.482 Y4.695
X10.479 Y4.724
G3 X9.918 Y4.861 I-0.307 J-0.041
G1 X9.894 Y4.827
X8.018 Y2.14
X7.946 Y2.037
G3 X8.184 Y1.55 I0.254 J-0.178
G1 X8.616 Y1.542
X8.763 Y1.523
X8.905 Y1.495
X9.049 Y1.445
X9.191 Y1.397
X9.339 Y1.374
X9.489 Y1.367
X9.639 Y1.375
X9.803 Y1.396
X9.996 Y1.437
X10.174 Y1.49
X10.337 Y1.554
X10.502 Y1.634
X10.636 Y1.713
X10.765 Y1.803
X10.886 Y1.903
X11.02 Y2.05
X11.109 Y2.227
X11.146 Y2.422
X11.129 Y2.619
X11.059 Y2.805
X10.942 Y2.965
G3 X10.539 Y3.013 I-0.229 J-0.209
G1 X10.254 Y2.821
X9.119 Y2.057
X9.009 Y1.982
G3 X9.049 Y1.445 I0.173 J-0.257
G1 X9.193 Y1.383
X9.337 Y1.301
X9.434 Y1.235
X9.481 Y1.198
X9.516 Y1.166
X9.631 Y1.069
X9.763 Y0.998
X9.905 Y0.948
X10.051 Y0.916
X10.2 Y0.899
X10.35
X10.5 Y0.912
X10.647 Y0.939
X10.792 Y0.978
X10.933 Y1.03
X11.068 Y1.095
X11.196 Y1.172
X11.317 Y1.261
X11.429 Y1.361
X11.531 Y1.471
X11.567 Y1.52
X11.67 Y1.704
X11.718 Y1.91
X11.708 Y2.121
X11.639 Y2.321
X11.519 Y2.494
X11.355 Y2.627
G3 X11.033 Y2.615 I-0.151 J-0.271
G1 X10.661 Y2.369
X9.761 Y1.774
X9.564 Y1.643
G3 X9.516 Y1.166 I0.171 J-0.259
G1 X9.597 Y1.09
X9.727 Y0.946
X9.823 Y0.802
X9.846 Y0.758
X9.921 Y0.629
X10.035 Y0.531
X10.163 Y0.453
X10.3 Y0.393
X10.444 Y0.35
X10.592 Y0.324
X10.741 Y0.313
X10.891 Y0.316
X11.04 Y0.333
X11.187 Y0.363
X11.331 Y0.405
X11.471 Y0.459
X11.608 Y0.527
X11.737 Y0.604
X11.858 Y0.691
X11.971 Y0.79
X12.075 Y0.898
X12.169 Y1.015
X12.251 Y1.141
X12.322 Y1.273
X12.38 Y1.411
X12.424 Y1.555
X12.433 Y1.594
X12.447 Y1.79
X12.409 Y1.982
X12.32 Y2.157
X12.187 Y2.302
X12.02 Y2.406
X11.831 Y2.46
X11.773 Y2.461
X11.715 Y2.451
X11.66 Y2.431
X11.61 Y2.4
X11.171 Y2.068
X10.229 Y1.356
X9.939 Y1.138
G3 X9.816 Y0.891 I0.187 J-0.247
G1 X9.824 Y0.823
X9.846 Y0.758
X9.898 Y0.658
X9.914 Y0.624
X9.96 Y0.514
X10.002 Y0.37
X10.044 Y0.226
X10.123 Y0.098
X10.224 Y-0.013
X10.341 Y-0.107
X10.469 Y-0.185
X10.606 Y-0.247
X10.748 Y-0.294
X10.894 Y-0.327
X11.043 Y-0.346
X11.193 Y-0.352
X11.345 Y-0.345
X11.501 Y-0.326
X11.659 Y-0.293
X11.817 Y-0.247
X11.976 Y-0.186
X12.134 Y-0.11
X12.288 Y-0.021
X12.435 Y0.08
X12.574 Y0.195
X12.708 Y0.323
X12.819 Y0.45
X12.922 Y0.587
X13.012 Y0.728
X13.081 Y0.861
X13.143 Y1.006
X13.19 Y1.149
X13.225 Y1.295
X13.248 Y1.443
X13.258 Y1.593
X13.255 Y1.743
X13.252 Y1.766
X13.201 Y1.961
X13.097 Y2.135
X12.95 Y2.274
X12.77 Y2.366
X12.571 Y2.404
X12.076 Y2.431
X11.932 Y2.446
X11.831 Y2.46
G3 X11.562 Y2.355 I-0.035 J-0.308
G1 X11.246 Y1.988
X10.408 Y1.012
X10.073 Y0.623
G3 X10.002 Y0.37 I0.235 J-0.202
G1 X10.031 Y0.225
X10.089 Y-0.142
X10.119 Y-0.289
X10.177 Y-0.427
X10.259 Y-0.553
X10.358 Y-0.666
X10.471 Y-0.764
X10.595 Y-0.85
X10.726 Y-0.922
X10.864 Y-0.981
X11.007 Y-1.027
X11.159 Y-1.063
X11.318 Y-1.088
X11.486 Y-1.1
X11.666 Y-1.098
X11.854 Y-1.081
X12.046 Y-1.048
X12.24 Y-0.999
X12.436 Y-0.931
X12.632 Y-0.846
X12.825 Y-0.743
X13.012 Y-0.623
X13.189 Y-0.488
X13.355 Y-0.338
X13.509 Y-0.175
X13.65 Y-0.001
X13.774 Y0.182
X13.884 Y0.375
X13.977 Y0.574
X14.045 Y0.757
X14.097 Y0.939
X14.133 Y1.121
X14.151 Y1.278
X14.155 Y1.379
X14.126 Y1.606
X14.029 Y1.813
X13.872 Y1.979
X13.688 Y2.12
X13.675 Y2.128
X13.662 Y2.134
X13.366 Y2.244
X13.013 Y2.374
X12.995 Y2.38
X12.977 Y2.383
X12.571 Y2.404
X12.509 Y2.399
X12.449 Y2.382
X12.394 Y2.352
X12.345 Y2.312
X11.97 Y1.932
X10.532 Y0.473
X10.176 Y0.112
G3 X10.089 Y-0.142 I0.221 J-0.218
G1 X10.165 Y-0.64
X10.175 Y-0.706
X10.179 Y-0.723
X10.186 Y-0.739
X10.346 Y-1.07
X10.418 Y-1.202
X10.506 Y-1.323
X10.609 Y-1.433
X10.723 Y-1.529
X10.847 Y-1.614
X10.978 Y-1.687
X11.118 Y-1.749
X11.272 Y-1.803
X11.435 Y-1.846
X11.615 Y-1.878
X11.81 Y-1.897
X12.012 Y-1.901
X12.224 Y-1.887
X12.448 Y-1.855
X12.68 Y-1.802
X12.915 Y-1.728
X13.149 Y-1.634
X13.38 Y-1.518
X13.608 Y-1.379
X13.83 Y-1.219
X14.042 Y-1.038
X14.242 Y-0.838
X14.424 Y-0.623
X14.588 Y-0.397
X14.731 Y-0.16
X14.824 Y0.027
X14.867 Y0.133
X14.892 Y0.246
X14.9 Y0.361
G3 X14.494 Y0.64 I-0.31 J-0.015
G1 X14.288 Y0.573
X10.788 Y-0.567
X10.534 Y-0.65
G3 X10.346 Y-1.07 I0.096 J-0.295
G1 X10.49 Y-1.366
X10.501 Y-1.383
X10.923 Y-1.835
X10.983 Y-1.897
X10.998 Y-1.911
X11.013 Y-1.92
X11.62 Y-2.266
X11.632 Y-2.271
X12.292 Y-2.417
X12.328 Y-2.424
X12.364
X13.022 Y-2.37
X13.053 Y-2.366
X13.069 Y-2.363
X13.085 Y-2.357
X13.707 Y-2.106
X13.73 Y-2.096
X13.741 Y-2.09
X13.753 Y-2.082
X14.283 Y-1.649
X14.302 Y-1.632
X14.315 Y-1.615
X14.675 Y-1.072
X14.698 Y-1.036
X14.713 Y-1
X14.903 Y-0.351
X14.908 Y-0.333
X14.909 Y-0.315
Y-0.279
X14.899 Y0.388
X14.897 Y0.406
X14.721 Y0.946
X14.673 Y1.09
X14.671 Y1.094
X14.47 Y1.379
X14.255 Y1.682
X14.239 Y1.697
X13.872 Y1.979
G3 X13.4 Y1.622 I-0.18 J-0.252
G1 X13.423 Y1.557 Z-0.192
X13.445 Y1.495 Z-0.169
X13.465 Y1.44 Z-0.132
X13.482 Y1.393 Z-0.083
X13.494 Y1.359 Z-0.025
X13.502 Y1.337 Z0.041
X13.504 Y1.33 Z0.11
G0 Z3
X9.158 Y14.312
Z0.42
G1 Z0.11 F450
X9.161 Y14.319 Z0.041
X9.171 Y14.34 Z-0.025
X9.187 Y14.374 Z-0.083
X9.207 Y14.418 Z-0.132
X9.232 Y14.471 Z-0.169
X9.26 Y14.531 Z-0.192
X9.29 Y14.593 Z-0.2
G3 X9.436 Y15.365 I-1.433 J0.672
G1 X9.196 Y17.816
X9.158 Y18.069
X9.108 Y18.285
X9.026 Y18.541
X8.916 Y18.81
X8.749 Y19.14
X8.537 Y19.487
X8.247 Y19.884
X7.867 Y20.326
X7.416 Y20.773
X6.933 Y21.184
X6.424 Y21.562
X5.892 Y21.908
X5.341 Y22.222
X4.773 Y22.505
X4.19 Y22.756
X3.595 Y22.976
X2.989 Y23.164
X2.374 Y23.32
X1.752 Y23.443
X1.124 Y23.533
X0.492 Y23.59
X-0.142 Y23.613
X-0.777 Y23.602
X-1.409 Y23.557
X-2.039 Y23.479
X-2.664 Y23.369
X-3.282 Y23.227
X-3.892 Y23.052
X-4.492 Y22.846
X-5.08 Y22.608
X-5.655 Y22.34
X-6.216 Y22.043
X-6.76 Y21.716
X-7.285 Y21.361
X-7.792 Y20.98
X-8.279 Y20.573
X-8.744 Y20.142
X-8.816 Y20.068
X-8.915 Y19.94
X-8.984 Y19.793
X-9.018 Y19.634
X-9.216 Y17.609
G3 X-8.664 Y17.397 I0.309 J-0.019
G1 X-8.621 Y17.451 Z-0.192
X-8.58 Y17.502 Z-0.169
X-8.544 Y17.548 Z-0.132
X-8.513 Y17.587 Z-0.083
X-8.49 Y17.616 Z-0.025
X-8.476 Y17.634 Z0.041
X-8.471 Y17.64 Z0.11
G0 Z3
X8.918 Y16.763
Z0.42
G1 Z0.11 F450
X8.921 Y16.77 Z0.041
X8.931 Y16.791 Z-0.025
X8.946 Y16.825 Z-0.083
X8.967 Y16.869 Z-0.132
X8.992 Y16.922 Z-0.169
X9.02 Y16.982 Z-0.192
X9.049 Y17.044 Z-0.2
G3 X9.196 Y17.816 I-1.433 J0.672
G1 X9.012 Y19.69
X8.982 Y19.896
X8.942 Y20.066
X8.877 Y20.271
X8.784 Y20.498
X8.66 Y20.742
X8.483 Y21.032
X8.262 Y21.334
X7.965 Y21.68
X7.576 Y22.065
X7.091 Y22.474
X6.574 Y22.842
X6.034 Y23.175
X5.474 Y23.474
X4.899 Y23.741
X4.31 Y23.978
X3.711 Y24.185
X3.101 Y24.362
X2.484 Y24.51
X1.861 Y24.627
X1.233 Y24.715
X0.601 Y24.772
X-0.033 Y24.799
X-0.668 Y24.796
X-1.301 Y24.761
X-1.932 Y24.695
X-2.559 Y24.599
X-3.181 Y24.473
X-3.796 Y24.318
X-4.403 Y24.134
X-5.001 Y23.922
X-5.589 Y23.682
X-6.164 Y23.414
X-6.726 Y23.12
X-7.273 Y22.799
X-7.804 Y22.451
X-8.317 Y22.079
X-8.58 Y21.868
X-8.713 Y21.729
X-8.805 Y21.559
X-8.848 Y21.371
X-8.927 Y20.555
X-9.018 Y19.634
G3 X-8.465 Y19.422 I0.309 J-0.019
G1 X-8.423 Y19.476 Z-0.192
X-8.382 Y19.527 Z-0.169
X-8.345 Y19.573 Z-0.132
X-8.315 Y19.612 Z-0.083
X-8.292 Y19.641 Z-0.025
X-8.278 Y19.659 Z0.041
X-8.273 Y19.665 Z0.11
G0 Z3
X8.734 Y18.638
Z0.42
G1 Z0.11 F450
X8.737 Y18.645 Z0.041
X8.747 Y18.666 Z-0.025
X8.763 Y18.699 Z-0.083
X8.783 Y18.743 Z-0.132
X8.808 Y18.797 Z-0.169
X8.836 Y18.856 Z-0.192
X8.865 Y18.918 Z-0.2
G3 X9.012 Y19.69 I-1.433 J0.672
G1 X8.857 Y21.276
X8.826 Y21.493
X8.788 Y21.66
X8.735 Y21.828
X8.656 Y22.025
X8.54 Y22.256
X8.402 Y22.484
X8.201 Y22.762
X7.964 Y23.04
X7.639 Y23.365
X7.225 Y23.717
X6.717 Y24.083
X6.175 Y24.411
X5.611 Y24.703
X5.3 Y24.841
X5.25 Y24.861
X5.199 Y24.877
X5.147 Y24.89
X4.003 Y25.119
X3.859 Y25.148
X3.427 Y25.248
X3.269 Y25.313
X2.919 Y25.461
X2.404 Y25.631
X1.787 Y25.782
X1.161 Y25.885
X0.53 Y25.949
X-0.103 Y25.98
X-0.738 Y25.978
X-1.371 Y25.946
X-2.003 Y25.885
X-2.419 Y25.826
X-2.57 Y25.787
X-2.71 Y25.718
X-2.831 Y25.619
X-2.849 Y25.601
X-2.917 Y25.537
X-3.061 Y25.428
X-3.205 Y25.343
X-3.267 Y25.313
X-3.349 Y25.277
X-3.493 Y25.237
X-3.782 Y25.166
X-3.926 Y25.134
X-5.079 Y24.904
X-5.694 Y24.748
X-6.22 Y24.588
X-6.81 Y24.355
X-7.381 Y24.078
X-7.934 Y23.766
X-8.469 Y23.426
X-8.747 Y23.217
X-8.861 Y23.116
X-8.985 Y22.973
X-9.068 Y22.804
X-9.104 Y22.619
X-9.091 Y22.431
X-9.03 Y22.253
G3 X-8.6 Y22.133 I0.273 J0.147
G1 X-8.353 Y22.279
X-4.871 Y24.331
G3 X-5.079 Y24.904 I-0.157 J0.267
G1 X-5.656 Y24.788
X-5.8 Y24.762
X-5.944 Y24.743
X-6.088 Y24.739
X-6.232 Y24.744
X-6.376 Y24.767
X-6.521 Y24.804
X-6.6 Y24.83
X-6.745 Y24.869
X-6.893 Y24.89
X-7.064 Y24.9
X-7.264 Y24.896
X-7.488 Y24.873
X-7.768 Y24.821
X-8.054 Y24.744
X-8.36 Y24.634
X-8.62 Y24.516
X-8.854 Y24.387
X-9.028 Y24.272
X-9.197 Y24.14
X-9.33 Y24.017
X-9.451 Y23.886
X-9.557 Y23.75
X-9.591 Y23.7
X-9.682 Y23.5
X-9.71 Y23.282
X-9.671 Y23.066
X-9.568 Y22.872
X-9.412 Y22.718
G3 X-9.058 Y22.7 I0.19 J0.245
G1 X-8.712 Y22.917
X-6.621 Y24.226
X-6.542 Y24.276
G3 X-6.6 Y24.83 I-0.164 J0.263
G1 X-6.665 Y24.851
X-6.726 Y24.881
X-6.809 Y24.924
X-6.953 Y25.007
X-6.979 Y25.025
X-7.097 Y25.119
X-7.126 Y25.146
X-7.239 Y25.245
X-7.371 Y25.317
X-7.51 Y25.373
X-7.654 Y25.415
X-7.805 Y25.444
X-7.964 Y25.462
X-8.146 Y25.467
X-8.335 Y25.457
X-8.531 Y25.432
X-8.739 Y25.387
X-8.948 Y25.324
X-9.157 Y25.243
X-9.361 Y25.143
X-9.545 Y25.035
X-9.705 Y24.923
X-9.862 Y24.792
X-9.984 Y24.673
X-10.091 Y24.55
X-10.195 Y24.409
X-10.275 Y24.281
X-10.343 Y24.148
X-10.404 Y24.001
X-10.43 Y23.919
X-10.465 Y23.695
X-10.429 Y23.471
X-10.326 Y23.27
X-10.167 Y23.109
X-9.965 Y23.006
G3 X-9.711 Y23.043 I0.086 J0.298
G1 X-9.273 Y23.325
X-7.379 Y24.542
X-7.181 Y24.669
G3 X-7.126 Y25.146 I-0.168 J0.261
G1 X-7.15 Y25.169
X-7.241 Y25.266
X-7.285 Y25.313
X-7.387 Y25.457
X-7.429 Y25.537
X-7.507 Y25.665
X-7.605 Y25.778
X-7.72 Y25.874
X-7.847 Y25.955
X-7.982 Y26.021
X-8.122 Y26.073
X-8.267 Y26.112
X-8.422 Y26.141
X-8.596 Y26.158
X-8.775 Y26.162
X-8.967 Y26.151
X-9.168 Y26.123
X-9.377 Y26.077
X-9.584 Y26.013
X-9.789 Y25.931
X-9.99 Y25.832
X-10.185 Y25.715
X-10.369 Y25.583
X-10.542 Y25.437
X-10.701 Y25.28
X-10.829 Y25.13
X-10.953 Y24.96
X-11.049 Y24.802
X-11.122 Y24.659
X-11.189 Y24.495
X-11.238 Y24.34
X-11.272 Y24.194
X-11.293 Y24.042
X-11.298 Y23.962
X-11.283 Y23.764
X-11.215 Y23.577
X-11.098 Y23.417
X-10.943 Y23.294
X-10.759 Y23.217
X-10.125 Y23.052
X-9.965 Y23.006
G3 X-9.675 Y23.083 I0.076 J0.301
G1 X-9.334 Y23.41
X-7.777 Y24.903
X-7.493 Y25.176
G3 X-7.429 Y25.537 I-0.215 J0.224
G1 X-7.464 Y25.601
X-7.53 Y25.746
X-7.584 Y25.89
X-7.674 Y26.131
X-7.733 Y26.269
X-7.819 Y26.392
X-7.922 Y26.501
X-8.037 Y26.596
X-8.162 Y26.679
X-8.295 Y26.749
X-8.435 Y26.807
X-8.583 Y26.856
X-8.749 Y26.895
X-8.932 Y26.924
X-9.122 Y26.938
X-9.326 Y26.937
X-9.544 Y26.918
X-9.77 Y26.879
X-9.998 Y26.822
X-10.23 Y26.743
X-10.464 Y26.642
X-10.693 Y26.52
X-10.916 Y26.378
X-11.126 Y26.218
X-11.32 Y26.045
X-11.498 Y25.858
X-11.659 Y25.659
X-11.8 Y25.453
X-11.921 Y25.242
X-12.012 Y25.05
X-12.089 Y24.844
X-12.108 Y24.778
X-12.135 Y24.548
X-12.089 Y24.321
X-11.973 Y24.121
X-11.632 Y23.704
X-11.621 Y23.691
X-11.609 Y23.681
X-10.99 Y23.283
X-10.972 Y23.275
X-10.954 Y23.268
X-10.759 Y23.217
G3 X-10.481 Y23.292 I0.068 J0.302
G1 X-10.124 Y23.622
X-8.074 Y25.514
X-7.758 Y25.805
G3 X-7.674 Y26.131 I-0.21 J0.228
G1 X-7.852 Y26.611
X-7.88 Y26.683
X-7.932 Y26.755
X-8.25 Y27.157
X-8.275 Y27.187
X-8.303 Y27.223
X-8.351 Y27.274
X-8.4 Y27.316
X-8.451 Y27.353
G3 X-8.811 Y26.85 I-0.162 J-0.264
G1 X-8.75 Y26.8
G3 X-8.303 Y27.223 I0.197 J0.239
G1 X-8.35 Y27.282
X-8.36 Y27.292
X-8.418 Y27.332
X-8.539 Y27.411
X-8.668 Y27.488
X-8.803 Y27.553
X-8.946 Y27.609
X-9.11 Y27.658
X-9.291 Y27.697
X-9.481 Y27.722
X-9.693 Y27.732
X-9.921 Y27.725
X-10.153 Y27.699
X-10.399 Y27.651
X-10.657 Y27.579
X-10.92 Y27.483
X-11.182 Y27.362
X-11.438 Y27.218
X-11.688 Y27.049
X-11.929 Y26.857
X-11.999 Y26.791
X-12.039 Y26.75
X-12.076 Y26.706
X-12.11 Y26.659
G3 X-11.78 Y26.196 I0.265 J-0.16
G1 X-11.716 Y26.209
X-8.721 Y26.842
X-8.655 Y26.856
G3 X-8.539 Y27.411 I-0.064 J0.303
G1 X-8.971 Y27.698
X-8.989 Y27.708
X-9.007 Y27.716
X-9.721 Y27.913
X-9.738 Y27.915
X-10.413 Y27.884
X-10.485 Y27.879
X-10.503 Y27.876
X-10.701 Y27.801
X-11.179 Y27.62
X-11.204 Y27.609
X-11.229 Y27.592
X-11.771 Y27.156
X-11.79 Y27.14
X-11.809 Y27.119
X-12.212 Y26.502
X-12.219 Y26.484
X-12.226 Y26.467
X-12.381 Y25.89
X-12.416 Y25.746
X-12.401 Y25.457
X-12.377 Y25.007
X-12.374 Y24.989
X-12.362 Y24.953
X-12.111 Y24.304
X-12.103 Y24.286
X-12.091 Y24.268
X-12.063 Y24.232
X-11.973 Y24.121
G0 Z3
X4.002 Y24.508
Z0.42
G1 Z0.11 F450
X3.998 Y24.515 Z0.041
X3.985 Y24.534 Z-0.025
X3.966 Y24.566 Z-0.083
X3.94 Y24.607 Z-0.132
X3.909 Y24.657 Z-0.169
X3.874 Y24.713 Z-0.192
X3.837 Y24.771 Z-0.2
G3 X3.269 Y25.313 I-1.342 J-0.839
G1 X3.138 Y25.38
X3.021 Y25.457
X2.994 Y25.476
X2.849 Y25.601
X2.716 Y25.746
X2.706 Y25.758
X2.613 Y25.89
X2.597 Y25.916
X2.515 Y26.042
X2.413 Y26.152
X2.294 Y26.26
X2.152 Y26.369
X1.967 Y26.489
X1.745 Y26.609
X1.47 Y26.729
X1.128 Y26.848
X0.693 Y26.961
X0.174 Y27.052
X-0.458 Y27.11
X-1.092 Y27.121
X-1.629 Y27.097
X-1.803 Y27.075
X-1.98 Y27.028
X-2.137 Y26.936
X-2.264 Y26.804
X-2.352 Y26.644
X-2.393 Y26.467
G3 X-2.134 Y26.1 I0.304 J-0.06
G1 X-1.854 Y26.059
X2.18 Y25.477
X2.28 Y25.463
G3 X2.597 Y25.916 I0.044 J0.307
G1 X2.562 Y25.978
X2.532 Y26.034
X2.471 Y26.178
X2.428 Y26.322
X2.393 Y26.467
X2.389 Y26.51
X2.368 Y26.659
X2.307 Y26.796
X2.23 Y26.924
X2.141 Y27.045
X2.033 Y27.167
X1.902 Y27.293
X1.748 Y27.419
X1.547 Y27.558
X1.33 Y27.683
X1.045 Y27.819
X0.724 Y27.941
X0.314 Y28.061
X-0.145 Y28.155
X-0.63 Y28.215
X-0.986 Y28.23
X-1.246 Y28.22
X-1.49 Y28.191
X-1.688 Y28.151
X-1.874 Y28.098
X-1.935 Y28.075
X-2.132 Y27.963
X-2.285 Y27.795
X-2.378 Y27.588
X-2.403 Y27.362
X-2.394 Y27.187
X-2.379 Y26.82
G3 X-2.096 Y26.534 I0.309 J0.024
G1 X-1.749 Y26.505
X1.801 Y26.204
X2.054 Y26.183
G3 X2.389 Y26.51 I0.026 J0.309
G1 X2.38 Y26.611
X2.376 Y26.755
X2.391 Y27.123
X2.39 Y27.273
X2.365 Y27.421
X2.321 Y27.564
X2.261 Y27.701
X2.188 Y27.833
X2.103 Y27.96
X1.99 Y28.102
X1.862 Y28.238
X1.694 Y28.392
X1.509 Y28.535
X1.27 Y28.691
X1.012 Y28.831
X0.694 Y28.972
X0.347 Y29.094
X-0.005 Y29.186
X-0.355 Y29.248
X-0.695 Y29.281
X-1.016 Y29.286
X-1.269 Y29.27
X-1.523 Y29.233
X-1.537 Y29.229
X-1.66 Y29.189
X-1.774 Y29.128
X-1.876 Y29.047
X-1.894 Y29.019
X-1.9 Y28.987
X-1.894 Y28.955
X-1.876 Y28.927
X-1.849 Y28.908
X-1.284 Y28.653
X1.704 Y27.306
X2.27 Y27.051
X2.302 Y27.043
X2.334 Y27.048
X2.363 Y27.065
X2.382 Y27.091
X2.391 Y27.123
X2.421 Y27.728
X2.42 Y27.741
X2.415 Y27.764
X2.253 Y28.413
X2.246 Y28.431
X2.237 Y28.449
X1.985 Y28.87
X1.891 Y29.026
X1.878 Y29.044
X1.86 Y29.062
X1.383 Y29.494
X1.354 Y29.52
X1.324 Y29.536
X0.716 Y29.823
X0.687 Y29.831
X0.041 Y29.927
X0.004 Y29.931
X-0.041 Y29.927
X-0.682 Y29.832
X-0.7 Y29.828
X-0.718 Y29.822
X-1.107 Y29.639
X-1.344 Y29.526
X-1.357 Y29.517
X-1.383 Y29.494
X-1.86 Y29.062
X-1.876 Y29.046
X-1.889 Y29.031
X-2.237 Y28.449
X-2.246 Y28.431
X-2.253 Y28.413
X-2.419 Y27.746
X-2.421 Y27.728
X-2.403 Y27.362
G0 Z3
X8.574 Y20.225
Z0.42
G1 Z0.11 F450
X8.577 Y20.232 Z0.041
X8.587 Y20.253 Z-0.025
X8.603 Y20.286 Z-0.083
X8.624 Y20.331 Z-0.132
X8.649 Y20.384 Z-0.169
X8.677 Y20.443 Z-0.192
X8.707 Y20.505 Z-0.2
G3 X8.857 Y21.276 I-1.43 J0.679
G1 X8.844 Y21.42
X8.845 Y21.564
X8.856 Y21.709
X8.878 Y21.853
X8.905 Y21.945
X8.921 Y21.997
X8.937 Y22.041
X8.983 Y22.183
X9 Y22.332
Y22.482
X8.986 Y22.632
X8.957 Y22.787
X8.907 Y22.971
X8.842 Y23.155
X8.743 Y23.374
X8.616 Y23.605
X8.448 Y23.858
X8.229 Y24.138
X7.956 Y24.435
X7.617 Y24.748
X7.528 Y24.818
X7.345 Y24.922
X7.14 Y24.97
X6.93 Y24.956
X6.733 Y24.882
X6.697 Y24.864
X6.664 Y24.851
X6.598 Y24.829
X6.454 Y24.782
X6.31 Y24.755
X6.166 Y24.741
X6.053 Y24.736
X6.021 Y24.737
X5.877 Y24.751
X5.733 Y24.773
X5.147 Y24.89
G3 X4.922 Y24.328 I-0.05 J-0.306
G1 X8.282 Y22.035
X8.476 Y21.903
G3 X8.937 Y22.041 I0.175 J0.256
G1 X8.975 Y22.141
X9.049 Y22.291
X9.136 Y22.429
X9.193 Y22.501
X9.286 Y22.618
X9.352 Y22.753
X9.398 Y22.896
X9.426 Y23.043
X9.438 Y23.193
Y23.343
X9.423 Y23.511
X9.392 Y23.692
X9.342 Y23.892
X9.268 Y24.109
X9.166 Y24.346
X9.032 Y24.598
X8.899 Y24.805
X8.75 Y25.002
X8.617 Y25.151
X8.48 Y25.282
X8.332 Y25.402
X8.199 Y25.492
X8.184 Y25.501
X7.997 Y25.575
X7.798 Y25.591
X7.602 Y25.55
X7.426 Y25.455
X7.285 Y25.313
X7.252 Y25.276
G3 X7.226 Y24.912 I0.237 J-0.2
G1 X7.435 Y24.577
X8.588 Y22.734
X8.704 Y22.549
G3 X9.193 Y22.501 I0.263 J0.164
G1 X9.257 Y22.574
X9.337 Y22.655
X9.411 Y22.718
X9.481 Y22.773
X9.56 Y22.822
X9.683 Y22.907
X9.786 Y23.017
X9.869 Y23.142
X9.935 Y23.277
X9.985 Y23.418
X10.021 Y23.564
X10.045 Y23.712
X10.057 Y23.882
X10.056 Y24.058
X10.039 Y24.249
X10.004 Y24.456
X9.951 Y24.666
X9.88 Y24.876
X9.789 Y25.086
X9.678 Y25.294
X9.554 Y25.488
X9.436 Y25.643
X9.299 Y25.797
X9.172 Y25.917
X9.046 Y26.019
X8.903 Y26.117
X8.772 Y26.192
X8.637 Y26.255
X8.49 Y26.31
X8.454 Y26.32
X8.242 Y26.347
X8.031 Y26.311
X7.84 Y26.215
X7.686 Y26.067
X7.581 Y25.881
X7.53 Y25.746
X7.463 Y25.599
X7.387 Y25.457
X7.319 Y25.359
X7.285 Y25.313
G3 X7.311 Y24.928 I0.255 J-0.176
G1 X7.56 Y24.656
X8.93 Y23.153
X9.177 Y22.882
G3 X9.56 Y22.822 I0.229 J0.209
G1 X9.625 Y22.863
X9.77 Y22.934
X9.914 Y22.993
X9.96 Y23.006
X10.103 Y23.053
X10.234 Y23.126
X10.35 Y23.22
X10.451 Y23.331
X10.538 Y23.453
X10.611 Y23.585
X10.671 Y23.722
X10.719 Y23.864
X10.759 Y24.024
X10.786 Y24.194
X10.801 Y24.377
X10.802 Y24.578
X10.785 Y24.788
X10.751 Y25.003
X10.697 Y25.224
X10.623 Y25.448
X10.53 Y25.667
X10.42 Y25.879
X10.292 Y26.083
X10.149 Y26.274
X9.993 Y26.451
X9.825 Y26.614
X9.67 Y26.741
X9.499 Y26.861
X9.339 Y26.954
X9.193 Y27.024
X9.027 Y27.088
X8.874 Y27.133
X8.727 Y27.164
X8.701 Y27.167
X8.516 Y27.166
X8.338 Y27.119
X8.178 Y27.028
X8.046 Y26.899
X7.895 Y26.709
X7.881 Y26.685
X7.87 Y26.66
X7.581 Y25.881
G3 X7.634 Y25.585 I0.293 J-0.1
G1 X7.932 Y25.219
X9.371 Y23.452
X9.648 Y23.112
G3 X9.96 Y23.006 I0.24 J0.196
G1 X10.202 Y23.072
X10.635 Y23.185
X10.778 Y23.23
X10.91 Y23.3
X11.031 Y23.389
X11.14 Y23.492
X11.236 Y23.608
X11.32 Y23.731
X11.393 Y23.862
X11.46 Y24.01
X11.516 Y24.167
X11.564 Y24.341
X11.6 Y24.536
X11.621 Y24.739
X11.626 Y24.956
X11.613 Y25.189
X11.579 Y25.433
X11.524 Y25.68
X11.448 Y25.929
X11.348 Y26.18
X11.225 Y26.43
X11.082 Y26.669
X10.918 Y26.898
X10.739 Y27.111
X10.549 Y27.303
X10.346 Y27.478
X10.135 Y27.632
X9.936 Y27.754
X9.906 Y27.769
X9.739 Y27.829
X9.563 Y27.847
X9.387 Y27.821
X9.013 Y27.717
X8.995 Y27.711
X8.977 Y27.701
X8.373 Y27.302
X8.36 Y27.291
X8.347 Y27.278
X8.046 Y26.899
G3 X8.042 Y26.537 I0.249 J-0.184
G1 X8.271 Y26.211
X10.071 Y23.653
X10.313 Y23.309
G3 X10.635 Y23.185 I0.254 J0.178
G1 X10.923 Y23.26
X10.965 Y23.272
X10.987 Y23.282
X11.008 Y23.295
X11.572 Y23.657
X11.608 Y23.681
X11.629 Y23.699
X12.004 Y24.16
X12.076 Y24.248
X12.097 Y24.276
X12.111 Y24.304
X12.278 Y24.736
X12.295 Y24.78
X12.342 Y24.922
X12.378 Y25.104
X12.387 Y25.191
X12.388 Y25.206
G3 X11.775 Y25.278 I-0.31 J0.006
G1 X11.707 Y24.968
G3 X12.295 Y24.78 I0.303 J-0.067
G1 X12.364 Y24.96
X12.374 Y24.992
X12.377 Y25.008
X12.394 Y25.313
X12.401 Y25.457
X12.404 Y25.501
Y25.651
X12.389 Y25.818
X12.384 Y25.859
X12.377 Y25.9
X12.367 Y25.94
G3 X11.762 Y25.826 I-0.296 J-0.091
G1 X11.786 Y25.505
G3 X12.404 Y25.501 I0.309 J0.023
G1 X12.416 Y25.746
X12.381 Y25.89
X12.226 Y26.467
X12.22 Y26.483
X12.141 Y26.611
X11.811 Y27.117
X11.8 Y27.13
X11.788 Y27.142
X11.355 Y27.49
X11.211 Y27.604
X11.195 Y27.613
X11.067 Y27.663
X10.508 Y27.874
X10.49 Y27.879
X10.346 Y27.887
X9.77 Y27.914
X9.737
X9.721 Y27.912
X9.387 Y27.821
G3 X9.387 Y27.229 I0.093 J-0.296
G1 X9.453 Y27.209 Z-0.192
X9.515 Y27.189 Z-0.169
X9.571 Y27.171 Z-0.132
X9.618 Y27.157 Z-0.083
X9.653 Y27.146 Z-0.025
X9.675 Y27.139 Z0.041
X9.683 Y27.136 Z0.11
G0 Z3
X-9.397 Y11.873
Z0.42
G1 Z0.11 F450
X-9.402 Y11.867 Z0.041
X-9.415 Y11.848 Z-0.025
X-9.437 Y11.818 Z-0.083
X-9.466 Y11.779 Z-0.132
X-9.501 Y11.732 Z-0.169
X-9.54 Y11.679 Z-0.192
X-9.581 Y11.623 Z-0.2
G3 X-9.874 Y10.895 I1.275 J-0.938
G1 X-10.157 Y8.011
X-10.173 Y7.674
X-10.166 Y7.439
X-10.132 Y7.141
X-10.07 Y6.823
X-9.958 Y6.425
X-9.802 Y6.004
X-9.575 Y5.515
X-9.267 Y4.969
X-8.911 Y4.444
X-8.519 Y3.945
X-8.096 Y3.472
X-7.645 Y3.026
X-7.169 Y2.607
X-6.668 Y2.217
X-6.146 Y1.857
X-5.817 Y1.656
X-5.699 Y1.598
X-5.572 Y1.562
X-5.441 Y1.55
X-2.471
G3 X-2.284 Y2.098 I-0.011 J0.31
G1 X-2.312 Y2.122
X-9.556 Y8.129
X-9.652 Y8.209
G3 X-10.157 Y8.011 I-0.198 J-0.239
G1 X-10.355 Y5.993
X-10.366 Y5.753
X-10.36 Y5.566
X-10.336 Y5.352
X-10.285 Y5.089
X-10.209 Y4.818
X-10.083 Y4.48
X-9.919 Y4.126
X-9.679 Y3.701
X-9.355 Y3.223
X-8.959 Y2.728
X-8.526 Y2.264
X-8.062 Y1.831
X-7.923 Y1.716
X-7.784 Y1.625
X-7.627 Y1.569
X-7.462 Y1.55
X-5.441
G3 X-5.245 Y2.091 I-0.011 J0.31
G1 X-5.281 Y2.123
X-9.756 Y6.107
X-9.842 Y6.183
G3 X-10.355 Y5.993 I-0.206 J-0.232
G1 X-10.525 Y4.262
X-10.533 Y4.113
X-10.527 Y3.938
X-10.506 Y3.749
X-10.465 Y3.539
X-10.393 Y3.281
X-10.296 Y3.017
X-10.148 Y2.697
X-9.959 Y2.361
X-9.691 Y1.963
X-9.56 Y1.799
X-9.412 Y1.657
X-9.232 Y1.558
X-9.032 Y1.509
X-8.827 Y1.513
X-8.683 Y1.536
X-8.539 Y1.546
X-8.106 Y1.55
X-7.462
G3 X-7.271 Y2.095 I-0.011 J0.31
G1 X-7.303 Y2.123
X-9.924 Y4.376
X-10.015 Y4.455
G3 X-10.525 Y4.262 I-0.202 J-0.235
G1 X-10.557 Y3.956
X-10.571 Y3.83
X-10.59 Y3.686
X-10.628 Y3.542
X-10.678 Y3.397
X-10.701 Y3.344
X-10.756 Y3.205
X-10.792 Y3.059
X-10.813 Y2.91
X-10.819 Y2.761
X-10.812 Y2.584
X-10.79 Y2.404
X-10.752 Y2.22
X-10.699 Y2.035
X-10.635 Y1.867
X-10.567 Y1.724
X-10.479 Y1.573
X-10.391 Y1.444
X-10.358 Y1.404
X-10.201 Y1.261
X-10.01 Y1.17
X-9.8 Y1.138
X-9.59 Y1.169
X-9.398 Y1.259
G3 X-9.3 Y1.649 I-0.18 J0.252
G1 X-9.456 Y1.96
X-10.103 Y3.258
X-10.146 Y3.345
G3 X-10.423 Y3.517 I-0.277 J-0.138
X-10.701 Y3.344 I0 J-0.31
G1 X-10.742 Y3.253
X-10.845 Y3.093
X-10.942 Y2.965
X-10.99 Y2.911
X-11.018 Y2.884
X-11.121 Y2.774
X-11.202 Y2.648
X-11.264 Y2.512
X-11.309 Y2.369
X-11.337 Y2.221
X-11.351 Y2.072
Y1.922
X-11.337 Y1.773
X-11.31 Y1.625
X-11.27 Y1.481
X-11.217 Y1.34
X-11.151 Y1.206
X-11.073 Y1.077
X-10.983 Y0.957
X-10.882 Y0.847
X-10.825 Y0.795
X-10.654 Y0.679
X-10.458 Y0.617
X-10.253 Y0.612
X-10.054 Y0.665
X-9.878 Y0.772
X-9.74 Y0.925
G3 X-9.727 Y1.232 I-0.262 J0.165
G1 X-9.94 Y1.644
X-10.435 Y2.6
X-10.535 Y2.795
G3 X-11.018 Y2.884 I-0.275 J-0.142
G1 X-11.083 Y2.821
X-11.134 Y2.779
X-11.278 Y2.675
X-11.422 Y2.598
X-11.554 Y2.527
X-11.666 Y2.427
X-11.759 Y2.309
X-11.834 Y2.179
X-11.892 Y2.041
X-11.934 Y1.897
X-11.96 Y1.749
X-11.972 Y1.6
X-11.97 Y1.45
X-11.955 Y1.3
X-11.927 Y1.153
X-11.887 Y1.008
X-11.834 Y0.867
X-11.77 Y0.732
X-11.695 Y0.602
X-11.608 Y0.479
X-11.511 Y0.365
X-11.404 Y0.26
X-11.288 Y0.166
X-11.163 Y0.082
X-11.031 Y0.011
X-10.891 Y-0.047
X-10.662 Y-0.08
X-10.434 Y-0.038
X-10.231 Y0.074
X-10.075 Y0.245
X-9.98 Y0.456
X-9.968 Y0.519
X-9.969 Y0.583
X-9.982 Y0.645
X-10.008 Y0.704
X-10.274 Y1.162
X-10.863 Y2.177
X-11.032 Y2.468
G3 X-11.422 Y2.598 I-0.268 J-0.156
G1 X-11.562 Y2.532
X-11.71 Y2.487
X-11.855 Y2.456
X-12.001 Y2.425
X-12.134 Y2.355
X-12.252 Y2.263
X-12.355 Y2.153
X-12.442 Y2.031
X-12.515 Y1.9
X-12.573 Y1.762
X-12.617 Y1.618
X-12.647 Y1.471
X-12.665 Y1.322
X-12.671 Y1.173
X-12.664 Y1.015
X-12.644 Y0.852
X-12.61 Y0.69
X-12.563 Y0.529
X-12.501 Y0.366
X-12.424 Y0.205
X-12.334 Y0.049
X-12.232 Y-0.097
X-12.118 Y-0.236
X-12.011 Y-0.348
X-11.887 Y-0.458
X-11.755 Y-0.556
X-11.628 Y-0.636
X-11.495 Y-0.706
X-11.352 Y-0.765
X-11.209 Y-0.811
X-11.063 Y-0.844
X-10.914 Y-0.863
X-10.853 Y-0.866
X-10.643 Y-0.845
X-10.448 Y-0.763
X-10.285 Y-0.629
X-10.168 Y-0.454
X-10.106 Y-0.252
X-10.031 Y0.225
X-10.003 Y0.37
X-9.98 Y0.456
G3 X-10.058 Y0.738 I-0.302 J0.069
G1 X-10.389 Y1.087
X-11.252 Y1.998
X-11.596 Y2.361
G3 X-11.855 Y2.456 I-0.225 J-0.213
G1 X-11.999 Y2.435
X-12.366 Y2.415
X-12.515 Y2.4
X-12.658 Y2.353
X-12.79 Y2.281
X-12.91 Y2.191
X-13.017 Y2.087
X-13.112 Y1.971
X-13.195 Y1.845
X-13.265 Y1.713
X-13.323 Y1.575
X-13.372 Y1.426
X-13.41 Y1.27
X-13.436 Y1.103
X-13.449 Y0.923
X-13.448 Y0.734
X-13.431 Y0.54
X-13.398 Y0.343
X-13.348 Y0.142
X-13.28 Y-0.058
X-13.195 Y-0.255
X-13.092 Y-0.449
X-12.974 Y-0.634
X-12.841 Y-0.809
X-12.695 Y-0.973
X-12.536 Y-1.125
X-12.366 Y-1.263
X-12.188 Y-1.385
X-12.012 Y-1.486
X-11.842 Y-1.566
X-11.658 Y-1.635
X-11.499 Y-1.681
X-11.34 Y-1.713
X-11.171 Y-1.733
X-10.966 Y-1.712
X-10.775 Y-1.633
X-10.614 Y-1.504
X-10.519 Y-1.402
X-10.501 Y-1.381
X-10.488 Y-1.361
X-10.347 Y-1.072
X-10.182 Y-0.73
X-10.176 Y-0.712
X-10.165 Y-0.64
X-10.106 Y-0.252
X-10.105 Y-0.189
X-10.117 Y-0.127
X-10.141 Y-0.069
X-10.176 Y-0.017
X-10.519 Y0.392
X-11.796 Y1.914
X-12.123 Y2.305
G3 X-12.366 Y2.415 I-0.238 J-0.199
G1 X-12.976 Y2.383
X-12.992 Y2.38
X-13.008 Y2.376
X-13.296 Y2.27
X-13.434 Y2.211
X-13.563 Y2.134
X-13.681 Y2.042
X-13.789 Y1.937
X-13.884 Y1.822
X-13.969 Y1.698
X-14.045 Y1.563
X-14.113 Y1.418
X-14.172 Y1.258
X-14.222 Y1.079
X-14.259 Y0.889
X-14.281 Y0.69
X-14.288 Y0.476
X-14.277 Y0.25
X-14.247 Y0.015
X-14.197 Y-0.222
X-14.126 Y-0.461
X-14.033 Y-0.701
X-13.917 Y-0.939
X-13.78 Y-1.173
X-13.622 Y-1.399
X-13.445 Y-1.613
X-13.254 Y-1.81
X-13.046 Y-1.992
X-12.83 Y-2.153
X-12.605 Y-2.293
X-12.577 Y-2.308
X-12.42 Y-2.367
X-12.254 Y-2.389
X-12.087 Y-2.372
G3 X-11.865 Y-1.995 I-0.078 J0.3
G1 X-11.939 Y-1.705
X-12.83 Y1.783
X-12.899 Y2.052
G3 X-13.296 Y2.27 I-0.3 J-0.077
G1 X-13.649 Y2.139
X-13.681 Y2.123
X-13.729 Y2.088
X-14.24 Y1.696
X-14.254 Y1.682
X-14.266 Y1.667
X-14.594 Y1.205
X-14.672 Y1.09
X-14.68 Y1.072
X-14.895 Y0.411
X-14.898 Y0.401
X-14.899 Y0.39
X-14.909 Y-0.279
Y-0.315
X-14.908 Y-0.333
X-14.903 Y-0.351
X-14.713 Y-1
X-14.698 Y-1.036
X-14.675 Y-1.072
X-14.388 Y-1.505
X-14.305 Y-1.627
X-14.283 Y-1.649
X-13.753 Y-2.082
X-13.741 Y-2.09
X-13.729 Y-2.097
X-13.296 Y-2.272
X-13.087 Y-2.356
X-13.054 Y-2.366
X-13.008 Y-2.371
X-12.359 Y-2.425
X-12.341
X-12.323 Y-2.424
X-11.638 Y-2.272
X-11.62 Y-2.265
X-11.602 Y-2.257
X-11.003 Y-1.914
X-10.99 Y-1.903
X-10.845 Y-1.752
X-10.614 Y-1.504
G3 X-10.636 Y-1.075 I-0.234 J0.204
G1 X-10.683 Y-1.049 Z-0.195
X-10.728 Y-1.024 Z-0.181
X-10.771 Y-1 Z-0.158
X-10.812 Y-0.995 Z-0.129
X-10.848 Y-0.991 Z-0.094
X-10.88 Y-0.995 Z-0.049
X-10.904 Y-0.998 Z0.001
X-10.919 Y-0.999 Z0.055
X-10.923 Y-1 Z0.11
G0 Z3
X-0.916 Y10.182
Z2.3
G3 X0.917 Y12.487 Z2.138 I0.916 J1.153 F333.3
X-0.916 Y10.182 Z1.977 I-0.916 J-1.153
X0.917 Y12.487 Z1.815 I0.916 J1.153
X-0.916 Y10.182 Z1.654 I-0.916 J-1.153
X0.917 Y12.487 Z1.492 I0.916 J1.153
X-0.916 Y10.182 Z1.331 I-0.916 J-1.153
X0.917 Y12.487 Z1.169 I0.916 J1.153
X-0.916 Y10.182 Z1.008 I-0.916 J-1.153
X0.917 Y12.487 Z0.846 I0.916 J1.153
X-0.916 Y10.182 Z0.685 I-0.916 J-1.153
X0.917 Y12.487 Z0.523 I0.916 J1.153
X-0.916 Y10.182 Z0.361 I-0.916 J-1.153
X0.917 Y12.487 Z0.2 I0.916 J1.153
X-0.916 Y10.182 Z0.038 I-0.916 J-1.153
X0.917 Y12.487 Z-0.123 I0.916 J1.153
X-0.916 Y10.182 Z-0.285 I-0.916 J-1.153
X1.473 Y11.334 Z-0.4 I0.916 J1.153
X-1.472 Y11.334 I-1.473 J0
X1.473 Y11.334 I1.473 J0
G1 X1.505 Y11.968 F450
X1.531 Y12.043
X1.561 Y12.19
Y12.34
X1.537 Y12.488
X1.491 Y12.631
X1.428 Y12.767
X1.349 Y12.894
X1.257 Y13.013
X1.153 Y13.121
X1.04 Y13.219
X0.918 Y13.307
X0.789 Y13.383
X0.654 Y13.449
X0.512 Y13.504
X0.363 Y13.548
X0.208 Y13.581
X0.048 Y13.601
X-0.117 Y13.609
X-0.284 Y13.604
X-0.453 Y13.585
X-0.622 Y13.552
X-0.79 Y13.505
X-0.955 Y13.444
X-1.115 Y13.369
X-1.271 Y13.281
X-1.42 Y13.18
X-1.562 Y13.067
X-1.694 Y12.942
X-1.817 Y12.806
X-1.929 Y12.66
X-2.029 Y12.505
X-2.117 Y12.342
X-2.191 Y12.172
X-2.252 Y11.996
X-2.299 Y11.816
X-2.331 Y11.632
X-2.348 Y11.445
X-2.35 Y11.258
X-2.338 Y11.071
X-2.31 Y10.885
X-2.267 Y10.701
X-2.21 Y10.522
X-2.138 Y10.348
X-2.053 Y10.18
X-1.954 Y10.019
X-1.842 Y9.867
X-1.719 Y9.724
X-1.585 Y9.591
X-1.44 Y9.469
X-1.286 Y9.36
X-1.124 Y9.263
X-0.954 Y9.179
X-0.778 Y9.11
X-0.597 Y9.054
X-0.413 Y9.013
X-0.225 Y8.988
X-0.036 Y8.977
X0.153 Y8.982
X0.341 Y9.002
X0.527 Y9.036
X0.71 Y9.086
X0.888 Y9.15
X1.061 Y9.228
X1.226 Y9.32
X1.384 Y9.425
X1.533 Y9.542
X1.671 Y9.671
X1.8 Y9.81
X1.916 Y9.96
X2.021 Y10.118
X2.133 Y10.323
X2.302 Y10.701
X2.418 Y11.026
X2.489 Y11.293
X2.534 Y11.537
X2.557 Y11.769
X2.562 Y11.99
X2.549 Y12.2
X2.52 Y12.402
X2.476 Y12.6
X2.416 Y12.794
X2.34 Y12.984
X2.249 Y13.166
X2.143 Y13.342
X2.023 Y13.509
X1.888 Y13.668
X1.74 Y13.817
X1.578 Y13.955
X1.402 Y14.082
X1.215 Y14.196
X1.016 Y14.296
X0.806 Y14.382
X0.587 Y14.45
X0.36 Y14.502
X0.127 Y14.536
X-0.11 Y14.552
X-0.351 Y14.548
X-0.594 Y14.524
X-0.836 Y14.481
X-1.075 Y14.418
X-1.311 Y14.335
X-1.54 Y14.233
X-1.763 Y14.113
X-1.976 Y13.973
X-2.178 Y13.817
X-2.369 Y13.643
X-2.545 Y13.454
X-2.707 Y13.251
X-2.852 Y13.034
X-2.98 Y12.806
X-3.089 Y12.567
X-3.179 Y12.32
X-3.249 Y12.066
X-3.299 Y11.806
X-3.328 Y11.542
X-3.335 Y11.277
X-3.321 Y11.012
X-3.286 Y10.748
X-3.23 Y10.487
X-3.153 Y10.232
X-3.055 Y9.983
X-2.938 Y9.743
X-2.802 Y9.513
X-2.648 Y9.294
X-2.476 Y9.088
X-2.289 Y8.897
X-2.086 Y8.721
X-1.871 Y8.562
X-1.643 Y8.421
X-1.404 Y8.299
X-1.156 Y8.196
X-0.901 Y8.113
X-0.64 Y8.051
X-0.374 Y8.01
X-0.106 Y7.99
X0.162 Y7.992
X0.43 Y8.016
X0.695 Y8.061
X0.955 Y8.127
X1.209 Y8.214
X1.456 Y8.321
X1.693 Y8.448
X1.919 Y8.593
X2.133 Y8.756
X2.34 Y8.941
X2.56 Y9.173
X2.767 Y9.43
X2.961 Y9.714
X3.134 Y10.017
X3.28 Y10.328
X3.397 Y10.642
X3.487 Y10.956
X3.549 Y11.266
X3.585 Y11.574
X3.596 Y11.879
X3.583 Y12.179
X3.546 Y12.475
X3.486 Y12.765
X3.403 Y13.047
X3.298 Y13.321
X3.172 Y13.585
X3.025 Y13.838
X2.857 Y14.08
X2.67 Y14.308
X2.464 Y14.522
X2.24 Y14.72
X1.999 Y14.901
X1.741 Y15.063
X1.47 Y15.206
X1.185 Y15.327
X0.889 Y15.425
X0.583 Y15.501
X0.27 Y15.552
X-0.049 Y15.577
X-0.371
X-0.694 Y15.552
X-1.017 Y15.499
X-1.336 Y15.421
X-1.65 Y15.317
X-1.956 Y15.187
X-2.253 Y15.032
X-2.537 Y14.852
X-2.808 Y14.65
X-3.063 Y14.425
X-3.299 Y14.18
X-3.517 Y13.916
X-3.713 Y13.633
X-3.886 Y13.336
X-4.035 Y13.024
X-4.159 Y12.7
X-4.257 Y12.367
X-4.328 Y12.027
X-4.371 Y11.681
X-4.387 Y11.332
X-4.374 Y10.982
X-4.334 Y10.634
X-4.265 Y10.291
X-4.17 Y9.953
X-4.047 Y9.624
X-3.898 Y9.305
X-3.724 Y9
X-3.526 Y8.709
X-3.305 Y8.435
X-3.062 Y8.179
X-2.8 Y7.944
X-2.52 Y7.73
X-2.223 Y7.539
X-1.912 Y7.373
X-1.588 Y7.232
X-1.254 Y7.118
X-0.912 Y7.031
X-0.564 Y6.971
X-0.212 Y6.94
X0.141 Y6.937
X0.493 Y6.962
X0.842 Y7.016
X1.186 Y7.097
X1.522 Y7.206
X1.849 Y7.341
X2.165 Y7.503
X2.478 Y7.696
X2.783 Y7.921
X3.079 Y8.177
X3.36 Y8.464
X3.622 Y8.778
X3.86 Y9.115
X4.07 Y9.469
X4.251 Y9.838
X4.399 Y10.217
X4.516 Y10.603
X4.601 Y10.994
X4.654 Y11.386
X4.674 Y11.778
X4.664 Y12.168
X4.622 Y12.553
X4.55 Y12.931
X4.448 Y13.301
X4.317 Y13.661
X4.158 Y14.009
X3.972 Y14.343
X3.758 Y14.661
X3.52 Y14.963
X3.257 Y15.245
X2.971 Y15.506
X2.663 Y15.744
X2.335 Y15.959
X1.989 Y16.147
X1.627 Y16.308
X1.251 Y16.44
X0.863 Y16.543
X0.466 Y16.614
X0.062 Y16.653
X-0.346 Y16.66
X-0.756 Y16.634
X-1.164 Y16.575
X-1.569 Y16.483
X-1.967 Y16.358
X-2.356 Y16.2
X-2.732 Y16.011
X-3.093 Y15.792
X-3.438 Y15.543
X-3.762 Y15.266
X-4.064 Y14.964
X-4.341 Y14.637
X-4.593 Y14.287
X-4.816 Y13.918
X-5.009 Y13.531
X-5.171 Y13.129
X-5.3 Y12.714
X-5.396 Y12.289
X-5.457 Y11.857
X-5.484 Y11.422
X-5.475 Y10.984
X-5.432 Y10.549
X-5.354 Y10.117
X-5.241 Y9.693
X-5.094 Y9.279
X-4.914 Y8.878
X-4.703 Y8.493
X-4.461 Y8.125
X-4.191 Y7.778
X-3.893 Y7.453
X-3.57 Y7.153
X-3.224 Y6.88
X-2.857 Y6.636
X-2.471 Y6.422
X-2.07 Y6.239
X-1.655 Y6.089
X-1.229 Y5.973
X-0.795 Y5.892
X-0.356 Y5.845
X0.086 Y5.834
X0.526 Y5.859
X0.964 Y5.918
X1.396 Y6.013
X1.821 Y6.143
X2.238 Y6.308
X2.645 Y6.508
X3.041 Y6.744
X3.424 Y7.016
X3.791 Y7.324
X4.137 Y7.665
X4.458 Y8.037
X4.749 Y8.435
X5.009 Y8.857
X5.233 Y9.297
X5.421 Y9.753
X5.57 Y10.22
X5.682 Y10.695
X5.754 Y11.175
X5.787 Y11.656
X5.782 Y12.136
X5.739 Y12.612
X5.657 Y13.082
X5.539 Y13.541
X5.384 Y13.989
X5.194 Y14.423
X4.97 Y14.84
X4.713 Y15.238
X4.424 Y15.615
X4.105 Y15.969
X3.758 Y16.296
X3.384 Y16.596
X2.986 Y16.866
X2.565 Y17.105
X2.124 Y17.309
X1.667 Y17.479
X1.195 Y17.612
X0.711 Y17.707
X0.219 Y17.763
X-0.278 Y17.779
X-0.778 Y17.756
X-1.276 Y17.692
X-1.769 Y17.588
X-2.255 Y17.444
X-2.729 Y17.261
X-3.189 Y17.039
X-3.631 Y16.781
X-4.053 Y16.487
X-4.451 Y16.158
X-4.822 Y15.798
X-5.164 Y15.408
X-5.475 Y14.991
X-5.751 Y14.55
X-5.992 Y14.086
X-6.196 Y13.604
X-6.36 Y13.106
X-6.484 Y12.595
X-6.567 Y12.076
X-6.607 Y11.55
X-6.606 Y11.023
X-6.562 Y10.497
X-6.476 Y9.975
X-6.348 Y9.462
X-6.18 Y8.96
X-5.971 Y8.473
X-5.724 Y8.004
X-5.44 Y7.556
X-5.121 Y7.132
X-4.768 Y6.735
X-4.385 Y6.367
X-3.973 Y6.031
X-3.536 Y5.73
X-3.076 Y5.464
X-2.595 Y5.236
X-2.098 Y5.047
X-1.587 Y4.899
X-1.066 Y4.792
X-0.538 Y4.727
X-0.006 Y4.705
X0.526 Y4.726
X1.055 Y4.789
X1.58 Y4.895
X2.097 Y5.044
X2.604 Y5.235
X3.1 Y5.469
X3.582 Y5.745
X4.045 Y6.063
X4.486 Y6.421
X4.901 Y6.817
X5.286 Y7.248
X5.636 Y7.71
X5.949 Y8.201
X6.222 Y8.715
X6.452 Y9.249
X6.638 Y9.798
X6.779 Y10.358
X6.874 Y10.927
X6.924 Y11.499
X6.927 Y12.071
X6.884 Y12.639
X6.796 Y13.201
X6.664 Y13.753
X6.487 Y14.292
X6.269 Y14.814
X6.009 Y15.318
X5.71 Y15.799
X5.372 Y16.255
X4.998 Y16.683
X4.59 Y17.081
X4.15 Y17.445
X3.681 Y17.775
X3.185 Y18.067
X2.666 Y18.319
X2.125 Y18.529
X1.568 Y18.696
X0.996 Y18.818
X0.415 Y18.894
X-0.174 Y18.923
X-0.765 Y18.905
X-1.354 Y18.839
X-1.939 Y18.726
X-2.515 Y18.566
X-3.079 Y18.359
X-3.625 Y18.106
X-4.151 Y17.81
X-4.654 Y17.472
X-5.128 Y17.093
X-5.572 Y16.676
X-5.982 Y16.224
X-6.356 Y15.74
X-6.69 Y15.225
X-6.982 Y14.685
X-7.23 Y14.122
X-7.433 Y13.54
X-7.589 Y12.942
X-7.696 Y12.334
X-7.754 Y11.717
X-7.762 Y11.098
X-7.721 Y10.479
X-7.63 Y9.865
X-7.49 Y9.259
X-7.302 Y8.667
X-7.066 Y8.091
X-6.785 Y7.535
X-6.46 Y7.004
X-6.094 Y6.5
X-5.687 Y6.027
X-5.244 Y5.587
X-4.768 Y5.185
X-4.26 Y4.822
X-3.724 Y4.501
X-3.165 Y4.224
X-2.585 Y3.993
X-1.988 Y3.809
X-1.378 Y3.674
X-0.759 Y3.588
X-0.135 Y3.551
X0.491 Y3.565
X1.115 Y3.63
X1.735 Y3.744
X2.346 Y3.909
X2.943 Y4.123
X3.522 Y4.384
X4.078 Y4.689
X4.608 Y5.038
X5.11 Y5.426
X5.58 Y5.852
X6.016 Y6.313
X6.415 Y6.806
X6.775 Y7.328
X7.096 Y7.876
X7.374 Y8.446
X7.608 Y9.036
X7.797 Y9.642
X7.94 Y10.26
X8.035 Y10.887
X8.083 Y11.52
X8.082 Y12.154
X8.032 Y12.786
X7.934 Y13.413
X7.789 Y14.031
X7.596 Y14.635
X7.357 Y15.223
X7.073 Y15.791
X6.747 Y16.335
X6.38 Y16.852
X5.973 Y17.339
X5.53 Y17.793
X5.054 Y18.212
X4.546 Y18.592
X4.011 Y18.933
X3.451 Y19.232
X2.871 Y19.488
X2.273 Y19.699
X1.66 Y19.865
X1.037 Y19.984
X0.407 Y20.057
X-0.227 Y20.082
X-0.861 Y20.061
X-1.492 Y19.992
X-2.116 Y19.878
X-2.73 Y19.718
X-3.33 Y19.511
X-3.913 Y19.261
X-4.476 Y18.968
X-5.016 Y18.635
X-5.53 Y18.264
X-6.017 Y17.857
X-6.472 Y17.416
X-6.896 Y16.943
X-7.284 Y16.441
X-7.635 Y15.913
X-7.947 Y15.36
X-8.216 Y14.786
X-8.444 Y14.194
X-8.628 Y13.587
X-8.769 Y12.968
X-8.866 Y12.341
X-8.918 Y11.709
X-8.925 Y11.074
X-8.888 Y10.441
X-8.805 Y9.812
X-8.676 Y9.191
X-8.502 Y8.581
X-8.286 Y7.984
X-8.028 Y7.405
X-7.73 Y6.845
X-7.393 Y6.307
X-7.019 Y5.794
X-6.611 Y5.309
X-6.168 Y4.855
X-5.693 Y4.434
X-5.189 Y4.048
X-4.66 Y3.699
X-4.107 Y3.388
X-3.533 Y3.117
X-2.942 Y2.886
X-2.337 Y2.697
X-1.719 Y2.551
X-1.092 Y2.452
X-0.46 Y2.397
X0.174 Y2.388
X0.807 Y2.423
X1.437 Y2.503
X2.059 Y2.626
X2.672 Y2.791
X3.271 Y2.998
X3.855 Y3.248
X4.419 Y3.539
X4.961 Y3.867
X5.48 Y4.232
X5.974 Y4.631
X6.439 Y5.062
X6.875 Y5.523
X7.28 Y6.012
X7.65 Y6.527
X7.984 Y7.067
X8.281 Y7.627
X8.54 Y8.206
X8.761 Y8.801
X8.943 Y9.408
X9.085 Y10.027
X9.186 Y10.653
X9.243 Y11.285
X9.257 Y11.919
X9.228 Y12.553
X9.157 Y13.184
X9.044 Y13.808
X8.89 Y14.423
X8.695 Y15.027
X8.461 Y15.617
X8.187 Y16.189
X7.873 Y16.74
X7.522 Y17.269
X7.137 Y17.773
X6.719 Y18.25
X6.27 Y18.698
X5.792 Y19.116
X5.288 Y19.5
X4.758 Y19.85
X4.205 Y20.161
X3.633 Y20.436
X3.044 Y20.671
X2.441 Y20.868
X1.826 Y21.024
X1.202 Y21.141
X0.573 Y21.218
X-0.061 Y21.252
X-0.695 Y21.243
X-1.328 Y21.193
X-1.956 Y21.102
X-2.576 Y20.97
X-3.187 Y20.799
X-3.785 Y20.588
X-4.369 Y20.34
X-4.936 Y20.054
X-5.482 Y19.731
X-6.006 Y19.373
X-6.505 Y18.982
X-6.979 Y18.561
X-7.426 Y18.11
X-7.844 Y17.633
X-8.231 Y17.13
X-8.586 Y16.604
X-8.905 Y16.056
X-9.187 Y15.488
X-9.433 Y14.903
X-9.473 Y14.786
X-9.489 Y14.731
X-9.502 Y14.676
X-9.509 Y14.62
X-9.874 Y10.895
X-9.904 Y10.284
X-9.888 Y9.812
X-9.827 Y9.271
X-9.707 Y8.66
X-9.536 Y8.05
X-9.32 Y7.453
X-9.064 Y6.873
X-8.771 Y6.31
X-8.442 Y5.767
X-8.078 Y5.247
X-7.682 Y4.752
X-7.254 Y4.283
X-6.798 Y3.843
X-6.315 Y3.432
X-5.807 Y3.051
X-5.277 Y2.703
X-4.726 Y2.388
X-4.157 Y2.108
X-3.571 Y1.865
X-2.97 Y1.66
X-2.662 Y1.576
X-2.599 Y1.561
X-2.535 Y1.553
X-2.471 Y1.55
X1.408
X2.042 Y1.582
X2.517 Y1.643
X3.063 Y1.758
X3.658 Y1.934
X4.25 Y2.163
X4.823 Y2.435
X5.375 Y2.747
X5.906 Y3.095
X6.414 Y3.474
X6.899 Y3.884
X7.358 Y4.321
X7.791 Y4.785
X8.195 Y5.275
X8.569 Y5.787
X8.911 Y6.321
X9.22 Y6.875
X9.495 Y7.447
X9.736 Y8.034
X9.943 Y8.634
X10.02 Y8.907
X10.039 Y8.994
X10.046 Y9.083
X10.043 Y9.173
X9.436 Y15.365
X9.379 Y15.751
X9.296 Y16.108
X9.171 Y16.501
X8.989 Y16.944
X8.732 Y17.451
X8.401 Y17.992
X8.028 Y18.505
X7.62 Y18.99
X7.18 Y19.448
X6.712 Y19.876
X6.218 Y20.274
X5.7 Y20.64
X5.161 Y20.975
X4.603 Y21.276
X4.028 Y21.545
X3.438 Y21.779
X2.836 Y21.979
X2.223 Y22.143
X1.602 Y22.27
X0.974 Y22.361
X0.341 Y22.413
X-0.293 Y22.429
X-0.927 Y22.408
X-1.559 Y22.35
X-2.186 Y22.256
X-2.807 Y22.126
X-3.42 Y21.961
X-4.021 Y21.76
X-4.61 Y21.523
X-5.184 Y21.253
X-5.741 Y20.95
X-6.28 Y20.615
X-6.799 Y20.249
X-7.296 Y19.855
X-7.771 Y19.434
X-8.221 Y18.987
X-8.645 Y18.516
X-9.042 Y18.02
X-9.087 Y17.957
X-9.15 Y17.849
X-9.193 Y17.732
X-9.216 Y17.609
X-9.509 Y14.62
G3 X-8.957 Y14.408 I0.309 J-0.019
G1 X-8.914 Y14.462 Z-0.392
X-8.873 Y14.513 Z-0.369
X-8.837 Y14.559 Z-0.332
X-8.806 Y14.597 Z-0.283
X-8.783 Y14.626 Z-0.225
X-8.769 Y14.644 Z-0.159
X-8.764 Y14.65 Z-0.09
G0 Z3
X0.388 Y1.93
Z0.22
G1 Z-0.09 F450
X0.395 Y1.926 Z-0.159
X0.415 Y1.914 Z-0.225
X0.446 Y1.895 Z-0.283
X0.489 Y1.87 Z-0.332
X0.539 Y1.84 Z-0.369
X0.595 Y1.807 Z-0.392
X0.655 Y1.771 Z-0.4
G3 X1.408 Y1.55 I0.809 J1.36
G1 X4.436
X4.681 Y1.562
X4.914 Y1.593
X5.206 Y1.655
X5.518 Y1.749
X5.906 Y1.9
X6.321 Y2.101
X6.801 Y2.384
X7.32 Y2.749
X7.809 Y3.152
X8.271 Y3.588
X8.705 Y4.05
X9.112 Y4.537
X9.491 Y5.046
X9.84 Y5.576
X10.159 Y6.124
X10.216 Y6.237
X10.267 Y6.364
X10.292 Y6.499
Y6.636
X10.043 Y9.173
G3 X9.485 Y9.314 I-0.307 J-0.041
G1 X9.457 Y9.276
X4.263 Y2.135
X4.196 Y2.042
G3 X4.436 Y1.55 I0.251 J-0.182
G1 X6.454
X6.62 Y1.558
X6.811 Y1.583
X7.023 Y1.629
X7.283 Y1.707
X7.553 Y1.812
X7.886 Y1.973
X8.235 Y2.179
X8.648 Y2.469
X9.112 Y2.854
X9.566 Y3.297
X9.988 Y3.772
X10.329 Y4.208
X10.423 Y4.365
X10.474 Y4.541
X10.479 Y4.724
X10.292 Y6.636
G3 X9.736 Y6.78 I-0.307 J-0.041
G1 X9.706 Y6.739
X6.282 Y2.134
X6.216 Y2.045
G3 X6.454 Y1.55 I0.249 J-0.185
G1 X8.184
X8.334 Y1.555
X8.516 Y1.583
X8.713 Y1.629
X8.93 Y1.7
X9.193 Y1.809
X9.46 Y1.945
X9.787 Y2.148
X10.126 Y2.398
X10.459 Y2.686
X10.486 Y2.714
X10.607 Y2.878
X10.677 Y3.068
X10.692 Y3.27
X10.65 Y3.468
X10.624 Y3.542
X10.589 Y3.686
X10.571 Y3.83
X10.539 Y4.118
X10.482 Y4.695
X10.479 Y4.724
G3 X9.918 Y4.861 I-0.307 J-0.041
G1 X9.894 Y4.827
X8.018 Y2.14
X7.946 Y2.037
G3 X8.184 Y1.55 I0.254 J-0.178
G1 X8.616 Y1.542
X8.763 Y1.523
X8.905 Y1.495
X9.049 Y1.445
X9.191 Y1.397
X9.339 Y1.374
X9.489 Y1.367
X9.639 Y1.375
X9.803 Y1.396
X9.996 Y1.437
X10.174 Y1.49
X10.337 Y1.554
X10.502 Y1.634
X10.636 Y1.713
X10.765 Y1.803
X10.886 Y1.903
X11.02 Y2.05
X11.109 Y2.227
X11.146 Y2.422
X11.129 Y2.619
X11.059 Y2.805
X10.942 Y2.965
G3 X10.539 Y3.013 I-0.229 J-0.209
G1 X10.254 Y2.821
X9.119 Y2.057
X9.009 Y1.982
G3 X9.049 Y1.445 I0.173 J-0.257
G1 X9.193 Y1.383
X9.337 Y1.301
X9.434 Y1.235
X9.481 Y1.198
X9.516 Y1.166
X9.631 Y1.069
X9.763 Y0.998
X9.905 Y0.948
X10.051 Y0.916
X10.2 Y0.899
X10.35
X10.5 Y0.912
X10.647 Y0.939
X10.792 Y0.978
X10.933 Y1.03
X11.068 Y1.095
X11.196 Y1.172
X11.317 Y1.261
X11.429 Y1.361
X11.531 Y1.471
X11.567 Y1.52
X11.67 Y1.704
X11.718 Y1.91
X11.708 Y2.121
X11.639 Y2.321
X11.519 Y2.494
X11.355 Y2.627
G3 X11.033 Y2.615 I-0.151 J-0.271
G1 X10.661 Y2.369
X9.761 Y1.774
X9.564 Y1.643
G3 X9.516 Y1.166 I0.171 J-0.259
G1 X9.597 Y1.09
X9.727 Y0.946
X9.823 Y0.802
X9.846 Y0.758
X9.921 Y0.629
X10.035 Y0.531
X10.163 Y0.453
X10.3 Y0.393
X10.444 Y0.35
X10.592 Y0.324
X10.741 Y0.313
X10.891 Y0.316
X11.04 Y0.333
X11.187 Y0.363
X11.331 Y0.405
X11.471 Y0.459
X11.608 Y0.527
X11.737 Y0.604
X11.858 Y0.691
X11.971 Y0.79
X12.075 Y0.898
X12.169 Y1.015
X12.251 Y1.141
X12.322 Y1.273
X12.38 Y1.411
X12.424 Y1.555
X12.433 Y1.594
X12.447 Y1.79
X12.409 Y1.982
X12.32 Y2.157
X12.187 Y2.302
X12.02 Y2.406
X11.831 Y2.46
X11.773 Y2.461
X11.715 Y2.451
X11.66 Y2.431
X11.61 Y2.4
X11.171 Y2.068
X10.229 Y1.356
X9.939 Y1.138
G3 X9.816 Y0.891 I0.187 J-0.247
G1 X9.824 Y0.823
X9.846 Y0.758
X9.898 Y0.658
X9.914 Y0.624
X9.96 Y0.514
X10.002 Y0.37
X10.044 Y0.226
X10.123 Y0.098
X10.224 Y-0.013
X10.341 Y-0.107
X10.469 Y-0.185
X10.606 Y-0.247
X10.748 Y-0.294
X10.894 Y-0.327
X11.043 Y-0.346
X11.193 Y-0.352
X11.345 Y-0.345
X11.501 Y-0.326
X11.659 Y-0.293
X11.817 Y-0.247
X11.976 Y-0.186
X12.134 Y-0.11
X12.288 Y-0.021
X12.435 Y0.08
X12.574 Y0.195
X12.708 Y0.323
X12.819 Y0.45
X12.922 Y0.587
X13.012 Y0.728
X13.081 Y0.861
X13.143 Y1.006
X13.19 Y1.149
X13.225 Y1.295
X13.248 Y1.443
X13.258 Y1.593
X13.255 Y1.743
X13.252 Y1.766
X13.201 Y1.961
X13.097 Y2.135
X12.95 Y2.274
X12.77 Y2.366
X12.571 Y2.404
X12.076 Y2.431
X11.932 Y2.446
X11.831 Y2.46
G3 X11.562 Y2.355 I-0.035 J-0.308
G1 X11.246 Y1.988
X10.408 Y1.012
X10.073 Y0.623
G3 X10.002 Y0.37 I0.235 J-0.202
G1 X10.031 Y0.225
X10.089 Y-0.142
X10.119 Y-0.289
X10.177 Y-0.427
X10.259 Y-0.553
X10.358 Y-0.666
X10.471 Y-0.764
X10.595 Y-0.85
X10.726 Y-0.922
X10.864 Y-0.981
X11.007 Y-1.027
X11.159 Y-1.063
X11.318 Y-1.088
X11.486 Y-1.1
X11.666 Y-1.098
X11.854 Y-1.081
X12.046 Y-1.048
X12.24 Y-0.999
X12.436 Y-0.931
X12.632 Y-0.846
X12.825 Y-0.743
X13.012 Y-0.623
X13.189 Y-0.488
X13.355 Y-0.338
X13.509 Y-0.175
X13.65 Y-0.001
X13.774 Y0.182
X13.884 Y0.375
X13.977 Y0.574
X14.045 Y0.757
X14.097 Y0.939
X14.133 Y1.121
X14.151 Y1.278
X14.155 Y1.379
X14.126 Y1.606
X14.029 Y1.813
X13.872 Y1.979
X13.688 Y2.12
X13.675 Y2.128
X13.662 Y2.134
X13.366 Y2.244
X13.013 Y2.374
X12.995 Y2.38
X12.977 Y2.383
X12.571 Y2.404
X12.509 Y2.399
X12.449 Y2.382
X12.394 Y2.352
X12.345 Y2.312
X11.97 Y1.932
X10.532 Y0.473
X10.176 Y0.112
G3 X10.089 Y-0.142 I0.221 J-0.218
G1 X10.165 Y-0.64
X10.175 Y-0.706
X10.179 Y-0.723
X10.186 Y-0.739
X10.346 Y-1.07
X10.418 Y-1.202
X10.506 Y-1.323
X10.609 Y-1.433
X10.723 Y-1.529
X10.847 Y-1.614
X10.978 Y-1.687
X11.118 Y-1.749
X11.272 Y-1.803
X11.435 Y-1.846
X11.615 Y-1.878
X11.81 Y-1.897
X12.012 Y-1.901
X12.224 Y-1.887
X12.448 Y-1.855
X12.68 Y-1.802
X12.915 Y-1.728
X13.149 Y-1.634
X13.38 Y-1.518
X13.608 Y-1.379
X13.83 Y-1.219
X14.042 Y-1.038
X14.242 Y-0.838
X14.424 Y-0.623
X14.588 Y-0.397
X14.731 Y-0.16
X14.824 Y0.027
X14.867 Y0.133
X14.892 Y0.246
X14.9 Y0.361
G3 X14.494 Y0.64 I-0.31 J-0.015
G1 X14.288 Y0.573
X10.788 Y-0.567
X10.534 Y-0.65
G3 X10.346 Y-1.07 I0.096 J-0.295
G1 X10.49 Y-1.366
X10.501 Y-1.383
X10.923 Y-1.835
X10.983 Y-1.897
X10.998 Y-1.911
X11.013 Y-1.92
X11.62 Y-2.266
X11.632 Y-2.271
X12.292 Y-2.417
X12.328 Y-2.424
X12.364
X13.022 Y-2.37
X13.053 Y-2.366
X13.069 Y-2.363
X13.085 Y-2.357
X13.707 Y-2.106
X13.73 Y-2.096
X13.741 Y-2.09
X13.753 Y-2.082
X14.283 Y-1.649
X14.302 Y-1.632
X14.315 Y-1.615
X14.675 Y-1.072
X14.698 Y-1.036
X14.713 Y-1
X14.903 Y-0.351
X14.908 Y-0.333
X14.909 Y-0.315
Y-0.279
X14.899 Y0.388
X14.897 Y0.406
X14.721 Y0.946
X14.673 Y1.09
X14.671 Y1.094
X14.47 Y1.379
X14.255 Y1.682
X14.239 Y1.697
X13.872 Y1.979
G3 X13.4 Y1.622 I-0.18 J-0.252
G1 X13.423 Y1.557 Z-0.392
X13.445 Y1.495 Z-0.369
X13.465 Y1.44 Z-0.332
X13.482 Y1.393 Z-0.283
X13.494 Y1.359 Z-0.225
X13.502 Y1.337 Z-0.159
X13.504 Y1.33 Z-0.09
G0 Z3
X9.158 Y14.312
Z0.22
G1 Z-0.09 F450
X9.161 Y14.319 Z-0.159
X9.171 Y14.34 Z-0.225
X9.187 Y14.374 Z-0.283
X9.207 Y14.418 Z-0.332
X9.232 Y14.471 Z-0.369
X9.26 Y14.531 Z-0.392
X9.29 Y14.593 Z-0.4
G3 X9.436 Y15.365 I-1.433 J0.672
G1 X9.196 Y17.816
X9.158 Y18.069
X9.108 Y18.285
X9.026 Y18.541
X8.916 Y18.81
X8.749 Y19.14
X8.537 Y19.487
X8.247 Y19.884
X7.867 Y20.326
X7.416 Y20.773
X6.933 Y21.184
X6.424 Y21.562
X5.892 Y21.908
X5.341 Y22.222
X4.773 Y22.505
X4.19 Y22.756
X3.595 Y22.976
X2.989 Y23.164
X2.374 Y23.32
X1.752 Y23.443
X1.124 Y23.533
X0.492 Y23.59
X-0.142 Y23.613
X-0.777 Y23.602
X-1.409 Y23.557
X-2.039 Y23.479
X-2.664 Y23.369
X-3.282 Y23.227
X-3.892 Y23.052
X-4.492 Y22.846
X-5.08 Y22.608
X-5.655 Y22.34
X-6.216 Y22.043
X-6.76 Y21.716
X-7.285 Y21.361
X-7.792 Y20.98
X-8.279 Y20.573
X-8.744 Y20.142
X-8.816 Y20.068
X-8.915 Y19.94
X-8.984 Y19.793
X-9.018 Y19.634
X-9.216 Y17.609
G3 X-8.664 Y17.397 I0.309 J-0.019
G1 X-8.621 Y17.451 Z-0.392
X-8.58 Y17.502 Z-0.369
X-8.544 Y17.548 Z-0.332
X-8.513 Y17.587 Z-0.283
X-8.49 Y17.616 Z-0.225
X-8.476 Y17.634 Z-0.159
X-8.471 Y17.64 Z-0.09
G0 Z3
X8.918 Y16.763
Z0.22
G1 Z-0.09 F450
X8.921 Y16.77 Z-0.159
X8.931 Y16.791 Z-0.225
X8.946 Y16.825 Z-0.283
X8.967 Y16.869 Z-0.332
X8.992 Y16.922 Z-0.369
X9.02 Y16.982 Z-0.392
X9.049 Y17.044 Z-0.4
G3 X9.196 Y17.816 I-1.433 J0.672
G1 X9.012 Y19.69
X8.982 Y19.896
X8.942 Y20.066
X8.877 Y20.271
X8.784 Y20.498
X8.66 Y20.742
X8.483 Y21.032
X8.262 Y21.334
X7.965 Y21.68
X7.576 Y22.065
X7.091 Y22.474
X6.574 Y22.842
X6.034 Y23.175
X5.474 Y23.474
X4.899 Y23.741
X4.31 Y23.978
X3.711 Y24.185
X3.101 Y24.362
X2.484 Y24.51
X1.861 Y24.627
X1.233 Y24.715
X0.601 Y24.772
X-0.033 Y24.799
X-0.668 Y24.796
X-1.301 Y24.761
X-1.932 Y24.695
X-2.559 Y24.599
X-3.181 Y24.473
X-3.796 Y24.318
X-4.403 Y24.134
X-5.001 Y23.922
X-5.589 Y23.682
X-6.164 Y23.414
X-6.726 Y23.12
X-7.273 Y22.799
X-7.804 Y22.451
X-8.317 Y22.079
X-8.58 Y21.868
X-8.713 Y21.729
X-8.805 Y21.559
X-8.848 Y21.371
X-8.927 Y20.555
X-9.018 Y19.634
G3 X-8.465 Y19.422 I0.309 J-0.019
G1 X-8.423 Y19.476 Z-0.392
X-8.382 Y19.527 Z-0.369
X-8.345 Y19.573 Z-0.332
X-8.315 Y19.612 Z-0.283
X-8.292 Y19.641 Z-0.225
X-8.278 Y19.659 Z-0.159
X-8.273 Y19.665 Z-0.09
G0 Z3
X8.734 Y18.638
Z0.22
G1 Z-0.09 F450
X8.737 Y18.645 Z-0.159
X8.747 Y18.666 Z-0.225
X8.763 Y18.699 Z-0.283
X8.783 Y18.743 Z-0.332
X8.808 Y18.797 Z-0.369
X8.836 Y18.856 Z-0.392
X8.865 Y18.918 Z-0.4
G3 X9.012 Y19.69 I-1.433 J0.672
G1 X8.857 Y21.276
X8.826 Y21.493
X8.788 Y21.66
X8.735 Y21.828
X8.656 Y22.025
X8.54 Y22.256
X8.402 Y22.484
X8.201 Y22.762
X7.964 Y23.04
X7.639 Y23.365
X7.225 Y23.717
X6.717 Y24.083
X6.175 Y24.411
X5.611 Y24.703
X5.3 Y24.841
X5.25 Y24.861
X5.199 Y24.877
X5.147 Y24.89
X4.003 Y25.119
X3.859 Y25.148
X3.427 Y25.248
X3.269 Y25.313
X2.919 Y25.461
X2.404 Y25.631
X1.787 Y25.782
X1.161 Y25.885
X0.53 Y25.949
X-0.103 Y25.98
X-0.738 Y25.978
X-1.371 Y25.946
X-2.003 Y25.885
X-2.419 Y25.826
X-2.57 Y25.787
X-2.71 Y25.718
X-2.831 Y25.619
X-2.849 Y25.601
X-2.917 Y25.537
X-3.061 Y25.428
X-3.205 Y25.343
X-3.267 Y25.313
X-3.349 Y25.277
X-3.493 Y25.237
X-3.782 Y25.166
X-3.926 Y25.134
X-5.079 Y24.904
X-5.694 Y24.748
X-6.22 Y24.588
X-6.81 Y24.355
X-7.381 Y24.078
X-7.934 Y23.766
X-8.469 Y23.426
X-8.747 Y23.217
X-8.861 Y23.116
X-8.985 Y22.973
X-9.068 Y22.804
X-9.104 Y22.619
X-9.091 Y22.431
X-9.03 Y22.253
G3 X-8.6 Y22.133 I0.273 J0.147
G1 X-8.353 Y22.279
X-4.871 Y24.331
G3 X-5.079 Y24.904 I-0.157 J0.267
G1 X-5.656 Y24.788
X-5.8 Y24.762
X-5.944 Y24.743
X-6.088 Y24.739
X-6.232 Y24.744
X-6.376 Y24.767
X-6.521 Y24.804
X-6.6 Y24.83
X-6.745 Y24.869
X-6.893 Y24.89
X-7.064 Y24.9
X-7.264 Y24.896
X-7.488 Y24.873
X-7.768 Y24.821
X-8.054 Y24.744
X-8.36 Y24.634
X-8.62 Y24.516
X-8.854 Y24.387
X-9.028 Y24.272
X-9.197 Y24.14
X-9.33 Y24.017
X-9.451 Y23.886
X-9.557 Y23.75
X-9.591 Y23.7
X-9.682 Y23.5
X-9.71 Y23.282
X-9.671 Y23.066
X-9.568 Y22.872
X-9.412 Y22.718
G3 X-9.058 Y22.7 I0.19 J0.245
G1 X-8.712 Y22.917
X-6.621 Y24.226
X-6.542 Y24.276
G3 X-6.6 Y24.83 I-0.164 J0.263
G1 X-6.665 Y24.851
X-6.726 Y24.881
X-6.809 Y24.924
X-6.953 Y25.007
X-6.979 Y25.025
X-7.097 Y25.119
X-7.126 Y25.146
X-7.239 Y25.245
X-7.371 Y25.317
X-7.51 Y25.373
X-7.654 Y25.415
X-7.805 Y25.444
X-7.964 Y25.462
X-8.146 Y25.467
X-8.335 Y25.457
X-8.531 Y25.432
X-8.739 Y25.387
X-8.948 Y25.324
X-9.157 Y25.243
X-9.361 Y25.143
X-9.545 Y25.035
X-9.705 Y24.923
X-9.862 Y24.792
X-9.984 Y24.673
X-10.091 Y24.55
X-10.195 Y24.409
X-10.275 Y24.281
X-10.343 Y24.148
X-10.404 Y24.001
X-10.43 Y23.919
X-10.465 Y23.695
X-10.429 Y23.471
X-10.326 Y23.27
X-10.167 Y23.109
X-9.965 Y23.006
G3 X-9.711 Y23.043 I0.086 J0.298
G1 X-9.273 Y23.325
X-7.379 Y24.542
X-7.181 Y24.669
G3 X-7.126 Y25.146 I-0.168 J0.261
G1 X-7.15 Y25.169
X-7.241 Y25.266
X-7.285 Y25.313
X-7.387 Y25.457
X-7.429 Y25.537
X-7.507 Y25.665
X-7.605 Y25.778
X-7.72 Y25.874
X-7.847 Y25.955
X-7.982 Y26.021
X-8.122 Y26.073
X-8.267 Y26.112
X-8.422 Y26.141
X-8.596 Y26.158
X-8.775 Y26.162
X-8.967 Y26.151
X-9.168 Y26.123
X-9.377 Y26.077
X-9.584 Y26.013
X-9.789 Y25.931
X-9.99 Y25.832
X-10.185 Y25.715
X-10.369 Y25.583
X-10.542 Y25.437
X-10.701 Y25.28
X-10.829 Y25.13
X-10.953 Y24.96
X-11.049 Y24.802
X-11.122 Y24.659
X-11.189 Y24.495
X-11.238 Y24.34
X-11.272 Y24.194
X-11.293 Y24.042
X-11.298 Y23.962
X-11.283 Y23.764
X-11.215 Y23.577
X-11.098 Y23.417
X-10.943 Y23.294
X-10.759 Y23.217
X-10.125 Y23.052
X-9.965 Y23.006
G3 X-9.675 Y23.083 I0.076 J0.301
G1 X-9.334 Y23.41
X-7.777 Y24.903
X-7.493 Y25.176
G3 X-7.429 Y25.537 I-0.215 J0.224
G1 X-7.464 Y25.601
X-7.53 Y25.746
X-7.584 Y25.89
X-7.674 Y26.131
X-7.733 Y26.269
X-7.819 Y26.392
X-7.922 Y26.501
X-8.037 Y26.596
X-8.162 Y26.679
X-8.295 Y26.749
X-8.435 Y26.807
X-8.583 Y26.856
X-8.749 Y26.895
X-8.932 Y26.924
X-9.122 Y26.938
X-9.326 Y26.937
X-9.544 Y26.918
X-9.77 Y26.879
X-9.998 Y26.822
X-10.23 Y26.743
X-10.464 Y26.642
X-10.693 Y26.52
X-10.916 Y26.378
X-11.126 Y26.218
X-11.32 Y26.045
X-11.498 Y25.858
X-11.659 Y25.659
X-11.8 Y25.453
X-11.921 Y25.242
X-12.012 Y25.05
X-12.089 Y24.844
X-12.108 Y24.778
X-12.135 Y24.548
X-12.089 Y24.321
X-11.973 Y24.121
X-11.632 Y23.704
X-11.621 Y23.691
X-11.609 Y23.681
X-10.99 Y23.283
X-10.972 Y23.275
X-10.954 Y23.268
X-10.759 Y23.217
G3 X-10.481 Y23.292 I0.068 J0.302
G1 X-10.124 Y23.622
X-8.074 Y25.514
X-7.758 Y25.805
G3 X-7.674 Y26.131 I-0.21 J0.228
G1 X-7.852 Y26.611
X-7.88 Y26.683
X-7.932 Y26.755
X-8.25 Y27.157
X-8.275 Y27.187
X-8.303 Y27.223
X-8.351 Y27.274
X-8.4 Y27.316
X-8.451 Y27.353
G3 X-8.811 Y26.85 I-0.162 J-0.264
G1 X-8.75 Y26.8
G3 X-8.303 Y27.223 I0.197 J0.239
G1 X-8.35 Y27.282
X-8.36 Y27.292
X-8.418 Y27.332
X-8.539 Y27.411
X-8.668 Y27.488
X-8.803 Y27.553
X-8.946 Y27.609
X-9.11 Y27.658
X-9.291 Y27.697
X-9.481 Y27.722
X-9.693 Y27.732
X-9.921 Y27.725
X-10.153 Y27.699
X-10.399 Y27.651
X-10.657 Y27.579
X-10.92 Y27.483
X-11.182 Y27.362
X-11.438 Y27.218
X-11.688 Y27.049
X-11.929 Y26.857
X-11.999 Y26.791
X-12.039 Y26.75
X-12.076 Y26.706
X-12.11 Y26.659
G3 X-11.78 Y26.196 I0.265 J-0.16
G1 X-11.716 Y26.209
X-8.721 Y26.842
X-8.655 Y26.856
G3 X-8.539 Y27.411 I-0.064 J0.303
G1 X-8.971 Y27.698
X-8.989 Y27.708
X-9.007 Y27.716
X-9.721 Y27.913
X-9.738 Y27.915
X-10.413 Y27.884
X-10.485 Y27.879
X-10.503 Y27.876
X-10.701 Y27.801
X-11.179 Y27.62
X-11.204 Y27.609
X-11.229 Y27.592
X-11.771 Y27.156
X-11.79 Y27.14
X-11.809 Y27.119
X-12.212 Y26.502
X-12.219 Y26.484
X-12.226 Y26.467
X-12.381 Y25.89
X-12.416 Y25.746
X-12.401 Y25.457
X-12.377 Y25.007
X-12.374 Y24.989
X-12.362 Y24.953
X-12.111 Y24.304
X-12.103 Y24.286
X-12.091 Y24.268
X-12.063 Y24.232
X-11.973 Y24.121
G0 Z3
X4.002 Y24.508
Z0.22
G1 Z-0.09 F450
X3.998 Y24.515 Z-0.159
X3.985 Y24.534 Z-0.225
X3.966 Y24.566 Z-0.283
X3.94 Y24.607 Z-0.332
X3.909 Y24.657 Z-0.369
X3.874 Y24.713 Z-0.392
X3.837 Y24.771 Z-0.4
G3 X3.269 Y25.313 I-1.342 J-0.839
G1 X3.138 Y25.38
X3.021 Y25.457
X2.994 Y25.476
X2.849 Y25.601
X2.716 Y25.746
X2.706 Y25.758
X2.613 Y25.89
X2.597 Y25.916
X2.515 Y26.042
X2.413 Y26.152
X2.294 Y26.26
X2.152 Y26.369
X1.967 Y26.489
X1.745 Y26.609
X1.47 Y26.729
X1.128 Y26.848
X0.693 Y26.961
X0.174 Y27.052
X-0.458 Y27.11
X-1.092 Y27.121
X-1.629 Y27.097
X-1.803 Y27.075
X-1.98 Y27.028
X-2.137 Y26.936
X-2.264 Y26.804
X-2.352 Y26.644
X-2.393 Y26.467
G3 X-2.134 Y26.1 I0.304 J-0.06
G1 X-1.854 Y26.059
X2.18 Y25.477
X2.28 Y25.463
G3 X2.597 Y25.916 I0.044 J0.307
G1 X2.562 Y25.978
X2.532 Y26.034
X2.471 Y26.178
X2.428 Y26.322
X2.393 Y26.467
X2.389 Y26.51
X2.368 Y26.659
X2.307 Y26.796
X2.23 Y26.924
X2.141 Y27.045
X2.033 Y27.167
X1.902 Y27.293
X1.748 Y27.419
X1.547 Y27.558
X1.33 Y27.683
X1.045 Y27.819
X0.724 Y27.941
X0.314 Y28.061
X-0.145 Y28.155
X-0.63 Y28.215
X-0.986 Y28.23
X-1.246 Y28.22
X-1.49 Y28.191
X-1.688 Y28.151
X-1.874 Y28.098
X-1.935 Y28.075
X-2.132 Y27.963
X-2.285 Y27.795
X-2.378 Y27.588
X-2.403 Y27.362
X-2.394 Y27.187
X-2.379 Y26.82
G3 X-2.096 Y26.534 I0.309 J0.024
G1 X-1.749 Y26.505
X1.801 Y26.204
X2.054 Y26.183
G3 X2.389 Y26.51 I0.026 J0.309
G1 X2.38 Y26.611
X2.376 Y26.755
X2.391 Y27.123
X2.39 Y27.273
X2.365 Y27.421
X2.321 Y27.564
X2.261 Y27.701
X2.188 Y27.833
X2.103 Y27.96
X1.99 Y28.102
X1.862 Y28.238
X1.694 Y28.392
X1.509 Y28.535
X1.27 Y28.691
X1.012 Y28.831
X0.694 Y28.972
X0.347 Y29.094
X-0.005 Y29.186
X-0.355 Y29.248
X-0.695 Y29.281
X-1.016 Y29.286
X-1.269 Y29.27
X-1.523 Y29.233
X-1.537 Y29.229
X-1.66 Y29.189
X-1.774 Y29.128
X-1.876 Y29.047
X-1.894 Y29.019
X-1.9 Y28.987
X-1.894 Y28.955
X-1.876 Y28.927
X-1.849 Y28.908
X-1.284 Y28.653
X1.704 Y27.306
X2.27 Y27.051
X2.302 Y27.043
X2.334 Y27.048
X2.363 Y27.065
X2.382 Y27.091
X2.391 Y27.123
X2.421 Y27.728
X2.42 Y27.741
X2.415 Y27.764
X2.253 Y28.413
X2.246 Y28.431
X2.237 Y28.449
X1.985 Y28.87
X1.891 Y29.026
X1.878 Y29.044
X1.86 Y29.062
X1.383 Y29.494
X1.354 Y29.52
X1.324 Y29.536
X0.716 Y29.823
X0.687 Y29.831
X0.041 Y29.927
X0.004 Y29.931
X-0.041 Y29.927
X-0.682 Y29.832
X-0.7 Y29.828
X-0.718 Y29.822
X-1.107 Y29.639
X-1.344 Y29.526
X-1.357 Y29.517
X-1.383 Y29.494
X-1.86 Y29.062
X-1.876 Y29.046
X-1.889 Y29.031
X-2.237 Y28.449
X-2.246 Y28.431
X-2.253 Y28.413
X-2.419 Y27.746
X-2.421 Y27.728
X-2.403 Y27.362
G0 Z3
X8.574 Y20.225
Z0.22
G1 Z-0.09 F450
X8.577 Y20.232 Z-0.159
X8.587 Y20.253 Z-0.225
X8.603 Y20.286 Z-0.283
X8.624 Y20.331 Z-0.332
X8.649 Y20.384 Z-0.369
X8.677 Y20.443 Z-0.392
X8.707 Y20.505 Z-0.4
G3 X8.857 Y21.276 I-1.43 J0.679
G1 X8.844 Y21.42
X8.845 Y21.564
X8.856 Y21.709
X8.878 Y21.853
X8.905 Y21.945
X8.921 Y21.997
X8.937 Y22.041
X8.983 Y22.183
X9 Y22.332
Y22.482
X8.986 Y22.632
X8.957 Y22.787
X8.907 Y22.971
X8.842 Y23.155
X8.743 Y23.374
X8.616 Y23.605
X8.448 Y23.858
X8.229 Y24.138
X7.956 Y24.435
X7.617 Y24.748
X7.528 Y24.818
X7.345 Y24.922
X7.14 Y24.97
X6.93 Y24.956
X6.733 Y24.882
X6.697 Y24.864
X6.664 Y24.851
X6.598 Y24.829
X6.454 Y24.782
X6.31 Y24.755
X6.166 Y24.741
X6.053 Y24.736
X6.021 Y24.737
X5.877 Y24.751
X5.733 Y24.773
X5.147 Y24.89
G3 X4.922 Y24.328 I-0.05 J-0.306
G1 X8.282 Y22.035
X8.476 Y21.903
G3 X8.937 Y22.041 I0.175 J0.256
G1 X8.975 Y22.141
X9.049 Y22.291
X9.136 Y22.429
X9.193 Y22.501
X9.286 Y22.618
X9.352 Y22.753
X9.398 Y22.896
X9.426 Y23.043
X9.438 Y23.193
Y23.343
X9.423 Y23.511
X9.392 Y23.692
X9.342 Y23.892
X9.268 Y24.109
X9.166 Y24.346
X9.032 Y24.598
X8.899 Y24.805
X8.75 Y25.002
X8.617 Y25.151
X8.48 Y25.282
X8.332 Y25.402
X8.199 Y25.492
X8.184 Y25.501
X7.997 Y25.575
X7.798 Y25.591
X7.602 Y25.55
X7.426 Y25.455
X7.285 Y25.313
X7.252 Y25.276
G3 X7.226 Y24.912 I0.237 J-0.2
G1 X7.435 Y24.577
X8.588 Y22.734
X8.704 Y22.549
G3 X9.193 Y22.501 I0.263 J0.164
G1 X9.257 Y22.574
X9.337 Y22.655
X9.411 Y22.718
X9.481 Y22.773
X9.56 Y22.822
X9.683 Y22.907
X9.786 Y23.017
X9.869 Y23.142
X9.935 Y23.277
X9.985 Y23.418
X10.021 Y23.564
X10.045 Y23.712
X10.057 Y23.882
X10.056 Y24.058
X10.039 Y24.249
X10.004 Y24.456
X9.951 Y24.666
X9.88 Y24.876
X9.789 Y25.086
X9.678 Y25.294
X9.554 Y25.488
X9.436 Y25.643
X9.299 Y25.797
X9.172 Y25.917
X9.046 Y26.019
X8.903 Y26.117
X8.772 Y26.192
X8.637 Y26.255
X8.49 Y26.31
X8.454 Y26.32
X8.242 Y26.347
X8.031 Y26.311
X7.84 Y26.215
X7.686 Y26.067
X7.581 Y25.881
X7.53 Y25.746
X7.463 Y25.599
X7.387 Y25.457
X7.319 Y25.359
X7.285 Y25.313
G3 X7.311 Y24.928 I0.255 J-0.176
G1 X7.56 Y24.656
X8.93 Y23.153
X9.177 Y22.882
G3 X9.56 Y22.822 I0.229 J0.209
G1 X9.625 Y22.863
X9.77 Y22.934
X9.914 Y22.993
X9.96 Y23.006
X10.103 Y23.053
X10.234 Y23.126
X10.35 Y23.22
X10.451 Y23.331
X10.538 Y23.453
X10.611 Y23.585
X10.671 Y23.722
X10.719 Y23.864
X10.759 Y24.024
X10.786 Y24.194
X10.801 Y24.377
X10.802 Y24.578
X10.785 Y24.788
X10.751 Y25.003
X10.697 Y25.224
X10.623 Y25.448
X10.53 Y25.667
X10.42 Y25.879
X10.292 Y26.083
X10.149 Y26.274
X9.993 Y26.451
X9.825 Y26.614
X9.67 Y26.741
X9.499 Y26.861
X9.339 Y26.954
X9.193 Y27.024
X9.027 Y27.088
X8.874 Y27.133
X8.727 Y27.164
X8.701 Y27.167
X8.516 Y27.166
X8.338 Y27.119
X8.178 Y27.028
X8.046 Y26.899
X7.895 Y26.709
X7.881 Y26.685
X7.87 Y26.66
X7.581 Y25.881
G3 X7.634 Y25.585 I0.293 J-0.1
G1 X7.932 Y25.219
X9.371 Y23.452
X9.648 Y23.112
G3 X9.96 Y23.006 I0.24 J0.196
G1 X10.202 Y23.072
X10.635 Y23.185
X10.778 Y23.23
X10.91 Y23.3
X11.031 Y23.389
X11.14 Y23.492
X11.236 Y23.608
X11.32 Y23.731
X11.393 Y23.862
X11.46 Y24.01
X11.516 Y24.167
X11.564 Y24.341
X11.6 Y24.536
X11.621 Y24.739
X11.626 Y24.956
X11.613 Y25.189
X11.579 Y25.433
X11.524 Y25.68
X11.448 Y25.929
X11.348 Y26.18
X11.225 Y26.43
X11.082 Y26.669
X10.918 Y26.898
X10.739 Y27.111
X10.549 Y27.303
X10.346 Y27.478
X10.135 Y27.632
X9.936 Y27.754
X9.906 Y27.769
X9.739 Y27.829
X9.563 Y27.847
X9.387 Y27.821
X9.013 Y27.717
X8.995 Y27.711
X8.977 Y27.701
X8.373 Y27.302
X8.36 Y27.291
X8.347 Y27.278
X8.046 Y26.899
G3 X8.042 Y26.537 I0.249 J-0.184
G1 X8.271 Y26.211
X10.071 Y23.653
X10.313 Y23.309
G3 X10.635 Y23.185 I0.254 J0.178
G1 X10.923 Y23.26
X10.965 Y23.272
X10.987 Y23.282
X11.008 Y23.295
X11.572 Y23.657
X11.608 Y23.681
X11.629 Y23.699
X12.004 Y24.16
X12.076 Y24.248
X12.097 Y24.276
X12.111 Y24.304
X12.278 Y24.736
X12.295 Y24.78
X12.342 Y24.922
X12.378 Y25.104
X12.387 Y25.191
X12.388 Y25.206
G3 X11.775 Y25.278 I-0.31 J0.006
G1 X11.707 Y24.968
G3 X12.295 Y24.78 I0.303 J-0.067
G1 X12.364 Y24.96
X12.374 Y24.992
X12.377 Y25.008
X12.394 Y25.313
X12.401 Y25.457
X12.404 Y25.501
Y25.651
X12.389 Y25.818
X12.384 Y25.859
X12.377 Y25.9
X12.367 Y25.94
G3 X11.762 Y25.826 I-0.296 J-0.091
G1 X11.786 Y25.505
G3 X12.404 Y25.501 I0.309 J0.023
G1 X12.416 Y25.746
X12.381 Y25.89
X12.226 Y26.467
X12.22 Y26.483
X12.141 Y26.611
X11.811 Y27.117
X11.8 Y27.13
X11.788 Y27.142
X11.355 Y27.49
X11.211 Y27.604
X11.195 Y27.613
X11.067 Y27.663
X10.508 Y27.874
X10.49 Y27.879
X10.346 Y27.887
X9.77 Y27.914
X9.737
X9.721 Y27.912
X9.387 Y27.821
G3 X9.387 Y27.229 I0.093 J-0.296
G1 X9.453 Y27.209 Z-0.392
X9.515 Y27.189 Z-0.369
X9.571 Y27.171 Z-0.332
X9.618 Y27.157 Z-0.283
X9.653 Y27.146 Z-0.225
X9.675 Y27.139 Z-0.159
X9.683 Y27.136 Z-0.09
G0 Z3
X-9.397 Y11.873
Z0.22
G1 Z-0.09 F450
X-9.402 Y11.867 Z-0.159
X-9.415 Y11.848 Z-0.225
X-9.437 Y11.818 Z-0.283
X-9.466 Y11.779 Z-0.332
X-9.501 Y11.732 Z-0.369
X-9.54 Y11.679 Z-0.392
X-9.581 Y11.623 Z-0.4
G3 X-9.874 Y10.895 I1.275 J-0.938
G1 X-10.157 Y8.011
X-10.173 Y7.674
X-10.166 Y7.439
X-10.132 Y7.141
X-10.07 Y6.823
X-9.958 Y6.425
X-9.802 Y6.004
X-9.575 Y5.515
X-9.267 Y4.969
X-8.911 Y4.444
X-8.519 Y3.945
X-8.096 Y3.472
X-7.645 Y3.026
X-7.169 Y2.607
X-6.668 Y2.217
X-6.146 Y1.857
X-5.817 Y1.656
X-5.699 Y1.598
X-5.572 Y1.562
X-5.441 Y1.55
X-2.471
G3 X-2.284 Y2.098 I-0.011 J0.31
G1 X-2.312 Y2.122
X-9.556 Y8.129
X-9.652 Y8.209
G3 X-10.157 Y8.011 I-0.198 J-0.239
G1 X-10.355 Y5.993
X-10.366 Y5.753
X-10.36 Y5.566
X-10.336 Y5.352
X-10.285 Y5.089
X-10.209 Y4.818
X-10.083 Y4.48
X-9.919 Y4.126
X-9.679 Y3.701
X-9.355 Y3.223
X-8.959 Y2.728
X-8.526 Y2.264
X-8.062 Y1.831
X-7.923 Y1.716
X-7.784 Y1.625
X-7.627 Y1.569
X-7.462 Y1.55
X-5.441
G3 X-5.245 Y2.091 I-0.011 J0.31
G1 X-5.281 Y2.123
X-9.756 Y6.107
X-9.842 Y6.183
G3 X-10.355 Y5.993 I-0.206 J-0.232
G1 X-10.525 Y4.262
X-10.533 Y4.113
X-10.527 Y3.938
X-10.506 Y3.749
X-10.465 Y3.539
X-10.393 Y3.281
X-10.296 Y3.017
X-10.148 Y2.697
X-9.959 Y2.361
X-9.691 Y1.963
X-9.56 Y1.799
X-9.412 Y1.657
X-9.232 Y1.558
X-9.032 Y1.509
X-8.827 Y1.513
X-8.683 Y1.536
X-8.539 Y1.546
X-8.106 Y1.55
X-7.462
G3 X-7.271 Y2.095 I-0.011 J0.31
G1 X-7.303 Y2.123
X-9.924 Y4.376
X-10.015 Y4.455
G3 X-10.525 Y4.262 I-0.202 J-0.235
G1 X-10.557 Y3.956
X-10.571 Y3.83
X-10.59 Y3.686
X-10.628 Y3.542
X-10.678 Y3.397
X-10.701 Y3.344
X-10.756 Y3.205
X-10.792 Y3.059
X-10.813 Y2.91
X-10.819 Y2.761
X-10.812 Y2.584
X-10.79 Y2.404
X-10.752 Y2.22
X-10.699 Y2.035
X-10.635 Y1.867
X-10.567 Y1.724
X-10.479 Y1.573
X-10.391 Y1.444
X-10.358 Y1.404
X-10.201 Y1.261
X-10.01 Y1.17
X-9.8 Y1.138
X-9.59 Y1.169
X-9.398 Y1.259
G3 X-9.3 Y1.649 I-0.18 J0.252
G1 X-9.456 Y1.96
X-10.103 Y3.258
X-10.146 Y3.345
G3 X-10.423 Y3.517 I-0.277 J-0.138
X-10.701 Y3.344 I0 J-0.31
G1 X-10.742 Y3.253
X-10.845 Y3.093
X-10.942 Y2.965
X-10.99 Y2.911
X-11.018 Y2.884
X-11.121 Y2.774
X-11.202 Y2.648
X-11.264 Y2.512
X-11.309 Y2.369
X-11.337 Y2.221
X-11.351 Y2.072
Y1.922
X-11.337 Y1.773
X-11.31 Y1.625
X-11.27 Y1.481
X-11.217 Y1.34
X-11.151 Y1.206
X-11.073 Y1.077
X-10.983 Y0.957
X-10.882 Y0.847
X-10.825 Y0.795
X-10.654 Y0.679
X-10.458 Y0.617
X-10.253 Y0.612
X-10.054 Y0.665
X-9.878 Y0.772
X-9.74 Y0.925
G3 X-9.727 Y1.232 I-0.262 J0.165
G1 X-9.94 Y1.644
X-10.435 Y2.6
X-10.535 Y2.795
G3 X-11.018 Y2.884 I-0.275 J-0.142
G1 X-11.083 Y2.821
X-11.134 Y2.779
X-11.278 Y2.675
X-11.422 Y2.598
X-11.554 Y2.527
X-11.666 Y2.427
X-11.759 Y2.309
X-11.834 Y2.179
X-11.892 Y2.041
X-11.934 Y1.897
X-11.96 Y1.749
X-11.972 Y1.6
X-11.97 Y1.45
X-11.955 Y1.3
X-11.927 Y1.153
X-11.887 Y1.008
X-11.834 Y0.867
X-11.77 Y0.732
X-11.695 Y0.602
X-11.608 Y0.479
X-11.511 Y0.365
X-11.404 Y0.26
X-11.288 Y0.166
X-11.163 Y0.082
X-11.031 Y0.011
X-10.891 Y-0.047
X-10.662 Y-0.08
X-10.434 Y-0.038
X-10.231 Y0.074
X-10.075 Y0.245
X-9.98 Y0.456
X-9.968 Y0.519
X-9.969 Y0.583
X-9.982 Y0.645
X-10.008 Y0.704
X-10.274 Y1.162
X-10.863 Y2.177
X-11.032 Y2.468
G3 X-11.422 Y2.598 I-0.268 J-0.156
G1 X-11.562 Y2.532
X-11.71 Y2.487
X-11.855 Y2.456
X-12.001 Y2.425
X-12.134 Y2.355
X-12.252 Y2.263
X-12.355 Y2.153
X-12.442 Y2.031
X-12.515 Y1.9
X-12.573 Y1.762
X-12.617 Y1.618
X-12.647 Y1.471
X-12.665 Y1.322
X-12.671 Y1.173
X-12.664 Y1.015
X-12.644 Y0.852
X-12.61 Y0.69
X-12.563 Y0.529
X-12.501 Y0.366
X-12.424 Y0.205
X-12.334 Y0.049
X-12.232 Y-0.097
X-12.118 Y-0.236
X-12.011 Y-0.348
X-11.887 Y-0.458
X-11.755 Y-0.556
X-11.628 Y-0.636
X-11.495 Y-0.706
X-11.352 Y-0.765
X-11.209 Y-0.811
X-11.063 Y-0.844
X-10.914 Y-0.863
X-10.853 Y-0.866
X-10.643 Y-0.845
X-10.448 Y-0.763
X-10.285 Y-0.629
X-10.168 Y-0.454
X-10.106 Y-0.252
X-10.031 Y0.225
X-10.003 Y0.37
X-9.98 Y0.456
G3 X-10.058 Y0.738 I-0.302 J0.069
G1 X-10.389 Y1.087
X-11.252 Y1.998
X-11.596 Y2.361
G3 X-11.855 Y2.456 I-0.225 J-0.213
G1 X-11.999 Y2.435
X-12.366 Y2.415
X-12.515 Y2.4
X-12.658 Y2.353
X-12.79 Y2.281
X-12.91 Y2.191
X-13.017 Y2.087
X-13.112 Y1.971
X-13.195 Y1.845
X-13.265 Y1.713
X-13.323 Y1.575
X-13.372 Y1.426
X-13.41 Y1.27
X-13.436 Y1.103
X-13.449 Y0.923
X-13.448 Y0.734
X-13.431 Y0.54
X-13.398 Y0.343
X-13.348 Y0.142
X-13.28 Y-0.058
X-13.195 Y-0.255
X-13.092 Y-0.449
X-12.974 Y-0.634
X-12.841 Y-0.809
X-12.695 Y-0.973
X-12.536 Y-1.125
X-12.366 Y-1.263
X-12.188 Y-1.385
X-12.012 Y-1.486
X-11.842 Y-1.566
X-11.658 Y-1.635
X-11.499 Y-1.681
X-11.34 Y-1.713
X-11.171 Y-1.733
X-10.966 Y-1.712
X-10.775 Y-1.633
X-10.614 Y-1.504
X-10.519 Y-1.402
X-10.501 Y-1.381
X-10.488 Y-1.361
X-10.347 Y-1.072
X-10.182 Y-0.73
X-10.176 Y-0.712
X-10.165 Y-0.64
X-10.106 Y-0.252
X-10.105 Y-0.189
X-10.117 Y-0.127
X-10.141 Y-0.069
X-10.176 Y-0.017
X-10.519 Y0.392
X-11.796 Y1.914
X-12.123 Y2.305
G3 X-12.366 Y2.415 I-0.238 J-0.199
G1 X-12.976 Y2.383
X-12.992 Y2.38
X-13.008 Y2.376
X-13.296 Y2.27
X-13.434 Y2.211
X-13.563 Y2.134
X-13.681 Y2.042
X-13.789 Y1.937
X-13.884 Y1.822
X-13.969 Y1.698
X-14.045 Y1.563
X-14.113 Y1.418
X-14.172 Y1.258
X-14.222 Y1.079
X-14.259 Y0.889
X-14.281 Y0.69
X-14.288 Y0.476
X-14.277 Y0.25
X-14.247 Y0.015
X-14.197 Y-0.222
X-14.126 Y-0.461
X-14.033 Y-0.701
X-13.917 Y-0.939
X-13.78 Y-1.173
X-13.622 Y-1.399
X-13.445 Y-1.613
X-13.254 Y-1.81
X-13.046 Y-1.992
X-12.83 Y-2.153
X-12.605 Y-2.293
X-12.577 Y-2.308
X-12.42 Y-2.367
X-12.254 Y-2.389
X-12.087 Y-2.372
G3 X-11.865 Y-1.995 I-0.078 J0.3
G1 X-11.939 Y-1.705
X-12.83 Y1.783
X-12.899 Y2.052
G3 X-13.296 Y2.27 I-0.3 J-0.077
G1 X-13.649 Y2.139
X-13.681 Y2.123
X-13.729 Y2.088
X-14.24 Y1.696
X-14.254 Y1.682
X-14.266 Y1.667
X-14.594 Y1.205
X-14.672 Y1.09
X-14.68 Y1.072
X-14.895 Y0.411
X-14.898 Y0.401
X-14.899 Y0.39
X-14.909 Y-0.279
Y-0.315
X-14.908 Y-0.333
X-14.903 Y-0.351
X-14.713 Y-1
X-14.698 Y-1.036
X-14.675 Y-1.072
X-14.388 Y-1.505
X-14.305 Y-1.627
X-14.283 Y-1.649
X-13.753 Y-2.082
X-13.741 Y-2.09
X-13.729 Y-2.097
X-13.296 Y-2.272
X-13.087 Y-2.356
X-13.054 Y-2.366
X-13.008 Y-2.371
X-12.359 Y-2.425
X-12.341
X-12.323 Y-2.424
X-11.638 Y-2.272
X-11.62 Y-2.265
X-11.602 Y-2.257
X-11.003 Y-1.914
X-10.99 Y-1.903
X-10.845 Y-1.752
X-10.614 Y-1.504
G3 X-10.636 Y-1.075 I-0.234 J0.204
G1 X-10.683 Y-1.049 Z-0.395
X-10.728 Y-1.024 Z-0.381
X-10.771 Y-1 Z-0.358
X-10.812 Y-0.995 Z-0.329
X-10.848 Y-0.991 Z-0.294
X-10.88 Y-0.995 Z-0.249
X-10.904 Y-0.998 Z-0.199
X-10.919 Y-0.999 Z-0.145
X-10.923 Y-1 Z-0.09
G0 Z3
X-0.916 Y10.182
Z2.1
G3 X0.917 Y12.487 Z1.938 I0.916 J1.153 F333.3
X-0.916 Y10.182 Z1.777 I-0.916 J-1.153
X0.917 Y12.487 Z1.615 I0.916 J1.153
X-0.916 Y10.182 Z1.454 I-0.916 J-1.153
X0.917 Y12.487 Z1.292 I0.916 J1.153
X-0.916 Y10.182 Z1.131 I-0.916 J-1.153
X0.917 Y12.487 Z0.969 I0.916 J1.153
X-0.916 Y10.182 Z0.808 I-0.916 J-1.153
X0.917 Y12.487 Z0.646 I0.916 J1.153
X-0.916 Y10.182 Z0.485 I-0.916 J-1.153
X0.917 Y12.487 Z0.323 I0.916 J1.153
X-0.916 Y10.182 Z0.161 I-0.916 J-1.153
X0.917 Y12.487 Z0 I0.916 J1.153
X-0.916 Y10.182 Z-0.162 I-0.916 J-1.153
X0.917 Y12.487 Z-0.323 I0.916 J1.153
X-0.916 Y10.182 Z-0.485 I-0.916 J-1.153
X1.473 Y11.334 Z-0.6 I0.916 J1.153
X-1.472 Y11.334 I-1.473 J0
X1.473 Y11.334 I1.473 J0
G1 X1.505 Y11.968 F450
X1.531 Y12.043
X1.561 Y12.19
Y12.34
X1.537 Y12.488
X1.491 Y12.631
X1.428 Y12.767
X1.349 Y12.894
X1.257 Y13.013
X1.153 Y13.121
X1.04 Y13.219
X0.918 Y13.307
X0.789 Y13.383
X0.654 Y13.449
X0.512 Y13.504
X0.363 Y13.548
X0.208 Y13.581
X0.048 Y13.601
X-0.117 Y13.609
X-0.284 Y13.604
X-0.453 Y13.585
X-0.622 Y13.552
X-0.79 Y13.505
X-0.955 Y13.444
X-1.115 Y13.369
X-1.271 Y13.281
X-1.42 Y13.18
X-1.562 Y13.067
X-1.694 Y12.942
X-1.817 Y12.806
X-1.929 Y12.66
X-2.029 Y12.505
X-2.117 Y12.342
X-2.191 Y12.172
X-2.252 Y11.996
X-2.299 Y11.816
X-2.331 Y11.632
X-2.348 Y11.445
X-2.35 Y11.258
X-2.338 Y11.071
X-2.31 Y10.885
X-2.267 Y10.701
X-2.21 Y10.522
X-2.138 Y10.348
X-2.053 Y10.18
X-1.954 Y10.019
X-1.842 Y9.867
X-1.719 Y9.724
X-1.585 Y9.591
X-1.44 Y9.469
X-1.286 Y9.36
X-1.124 Y9.263
X-0.954 Y9.179
X-0.778 Y9.11
X-0.597 Y9.054
X-0.413 Y9.013
X-0.225 Y8.988
X-0.036 Y8.977
X0.153 Y8.982
X0.341 Y9.002
X0.527 Y9.036
X0.71 Y9.086
X0.888 Y9.15
X1.061 Y9.228
X1.226 Y9.32
X1.384 Y9.425
X1.533 Y9.542
X1.671 Y9.671
X1.8 Y9.81
X1.916 Y9.96
X2.021 Y10.118
X2.133 Y10.323
X2.302 Y10.701
X2.418 Y11.026
X2.489 Y11.293
X2.534 Y11.537
X2.557 Y11.769
X2.562 Y11.99
X2.549 Y12.2
X2.52 Y12.402
X2.476 Y12.6
X2.416 Y12.794
X2.34 Y12.984
X2.249 Y13.166
X2.143 Y13.342
X2.023 Y13.509
X1.888 Y13.668
X1.74 Y13.817
X1.578 Y13.955
X1.402 Y14.082
X1.215 Y14.196
X1.016 Y14.296
X0.806 Y14.382
X0.587 Y14.45
X0.36 Y14.502
X0.127 Y14.536
X-0.11 Y14.552
X-0.351 Y14.548
X-0.594 Y14.524
X-0.836 Y14.481
X-1.075 Y14.418
X-1.311 Y14.335
X-1.54 Y14.233
X-1.763 Y14.113
X-1.976 Y13.973
X-2.178 Y13.817
X-2.369 Y13.643
X-2.545 Y13.454
X-2.707 Y13.251
X-2.852 Y13.034
X-2.98 Y12.806
X-3.089 Y12.567
X-3.179 Y12.32
X-3.249 Y12.066
X-3.299 Y11.806
X-3.328 Y11.542
X-3.335 Y11.277
X-3.321 Y11.012
X-3.286 Y10.748
X-3.23 Y10.487
X-3.153 Y10.232
X-3.055 Y9.983
X-2.938 Y9.743
X-2.802 Y9.513
X-2.648 Y9.294
X-2.476 Y9.088
X-2.289 Y8.897
X-2.086 Y8.721
X-1.871 Y8.562
X-1.643 Y8.421
X-1.404 Y8.299
X-1.156 Y8.196
X-0.901 Y8.113
X-0.64 Y8.051
X-0.374 Y8.01
X-0.106 Y7.99
X0.162 Y7.992
X0.43 Y8.016
X0.695 Y8.061
X0.955 Y8.127
X1.209 Y8.214
X1.456 Y8.321
X1.693 Y8.448
X1.919 Y8.593
X2.133 Y8.756
X2.34 Y8.941
X2.56 Y9.173
X2.767 Y9.43
X2.961 Y9.714
X3.134 Y10.017
X3.28 Y10.328
X3.397 Y10.642
X3.487 Y10.956
X3.549 Y11.266
X3.585 Y11.574
X3.596 Y11.879
X3.583 Y12.179
X3.546 Y12.475
X3.486 Y12.765
X3.403 Y13.047
X3.298 Y13.321
X3.172 Y13.585
X3.025 Y13.838
X2.857 Y14.08
X2.67 Y14.308
X2.464 Y14.522
X2.24 Y14.72
X1.999 Y14.901
X1.741 Y15.063
X1.47 Y15.206
X1.185 Y15.327
X0.889 Y15.425
X0.583 Y15.501
X0.27 Y15.552
X-0.049 Y15.577
X-0.371
X-0.694 Y15.552
X-1.017 Y15.499
X-1.336 Y15.421
X-1.65 Y15.317
X-1.956 Y15.187
X-2.253 Y15.032
X-2.537 Y14.852
X-2.808 Y14.65
X-3.063 Y14.425
X-3.299 Y14.18
X-3.517 Y13.916
X-3.713 Y13.633
X-3.886 Y13.336
X-4.035 Y13.024
X-4.159 Y12.7
X-4.257 Y12.367
X-4.328 Y12.027
X-4.371 Y11.681
X-4.387 Y11.332
X-4.374 Y10.982
X-4.334 Y10.634
X-4.265 Y10.291
X-4.17 Y9.953
X-4.047 Y9.624
X-3.898 Y9.305
X-3.724 Y9
X-3.526 Y8.709
X-3.305 Y8.435
X-3.062 Y8.179
X-2.8 Y7.944
X-2.52 Y7.73
X-2.223 Y7.539
X-1.912 Y7.373
X-1.588 Y7.232
X-1.254 Y7.118
X-0.912 Y7.031
X-0.564 Y6.971
X-0.212 Y6.94
X0.141 Y6.937
X0.493 Y6.962
X0.842 Y7.016
X1.186 Y7.097
X1.522 Y7.206
X1.849 Y7.341
X2.165 Y7.503
X2.478 Y7.696
X2.783 Y7.921
X3.079 Y8.177
X3.36 Y8.464
X3.622 Y8.778
X3.86 Y9.115
X4.07 Y9.469
X4.251 Y9.838
X4.399 Y10.217
X4.516 Y10.603
X4.601 Y10.994
X4.654 Y11.386
X4.674 Y11.778
X4.664 Y12.168
X4.622 Y12.553
X4.55 Y12.931
X4.448 Y13.301
X4.317 Y13.661
X4.158 Y14.009
X3.972 Y14.343
X3.758 Y14.661
X3.52 Y14.963
X3.257 Y15.245
X2.971 Y15.506
X2.663 Y15.744
X2.335 Y15.959
X1.989 Y16.147
X1.627 Y16.308
X1.251 Y16.44
X0.863 Y16.543
X0.466 Y16.614
X0.062 Y16.653
X-0.346 Y16.66
X-0.756 Y16.634
X-1.164 Y16.575
X-1.569 Y16.483
X-1.967 Y16.358
X-2.356 Y16.2
X-2.732 Y16.011
X-3.093 Y15.792
X-3.438 Y15.543
X-3.762 Y15.266
X-4.064 Y14.964
X-4.341 Y14.637
X-4.593 Y14.287
X-4.816 Y13.918
X-5.009 Y13.531
X-5.171 Y13.129
X-5.3 Y12.714
X-5.396 Y12.289
X-5.457 Y11.857
X-5.484 Y11.422
X-5.475 Y10.984
X-5.432 Y10.549
X-5.354 Y10.117
X-5.241 Y9.693
X-5.094 Y9.279
X-4.914 Y8.878
X-4.703 Y8.493
X-4.461 Y8.125
X-4.191 Y7.778
X-3.893 Y7.453
X-3.57 Y7.153
X-3.224 Y6.88
X-2.857 Y6.636
X-2.471 Y6.422
X-2.07 Y6.239
X-1.655 Y6.089
X-1.229 Y5.973
X-0.795 Y5.892
X-0.356 Y5.845
X0.086 Y5.834
X0.526 Y5.859
X0.964 Y5.918
X1.396 Y6.013
X1.821 Y6.143
X2.238 Y6.308
X2.645 Y6.508
X3.041 Y6.744
X3.424 Y7.016
X3.791 Y7.324
X4.137 Y7.665
X4.458 Y8.037
X4.749 Y8.435
X5.009 Y8.857
X5.233 Y9.297
X5.421 Y9.753
X5.57 Y10.22
X5.682 Y10.695
X5.754 Y11.175
X5.787 Y11.656
X5.782 Y12.136
X5.739 Y12.612
X5.657 Y13.082
X5.539 Y13.541
X5.384 Y13.989
X5.194 Y14.423
X4.97 Y14.84
X4.713 Y15.238
X4.424 Y15.615
X4.105 Y15.969
X3.758 Y16.296
X3.384 Y16.596
X2.986 Y16.866
X2.565 Y17.105
X2.124 Y17.309
X1.667 Y17.479
X1.195 Y17.612
X0.711 Y17.707
X0.219 Y17.763
X-0.278 Y17.779
X-0.778 Y17.756
X-1.276 Y17.692
X-1.769 Y17.588
X-2.255 Y17.444
X-2.729 Y17.261
X-3.189 Y17.039
X-3.631 Y16.781
X-4.053 Y16.487
X-4.451 Y16.158
X-4.822 Y15.798
X-5.164 Y15.408
X-5.475 Y14.991
X-5.751 Y14.55
X-5.992 Y14.086
X-6.196 Y13.604
X-6.36 Y13.106
X-6.484 Y12.595
X-6.567 Y12.076
X-6.607 Y11.55
X-6.606 Y11.023
X-6.562 Y10.497
X-6.476 Y9.975
X-6.348 Y9.462
X-6.18 Y8.96
X-5.971 Y8.473
X-5.724 Y8.004
X-5.44 Y7.556
X-5.121 Y7.132
X-4.768 Y6.735
X-4.385 Y6.367
X-3.973 Y6.031
X-3.536 Y5.73
X-3.076 Y5.464
X-2.595 Y5.236
X-2.098 Y5.047
X-1.587 Y4.899
X-1.066 Y4.792
X-0.538 Y4.727
X-0.006 Y4.705
X0.526 Y4.726
X1.055 Y4.789
X1.58 Y4.895
X2.097 Y5.044
X2.604 Y5.235
X3.1 Y5.469
X3.582 Y5.745
X4.045 Y6.063
X4.486 Y6.421
X4.901 Y6.817
X5.286 Y7.248
X5.636 Y7.71
X5.949 Y8.201
X6.222 Y8.715
X6.452 Y9.249
X6.638 Y9.798
X6.779 Y10.358
X6.874 Y10.927
X6.924 Y11.499
X6.927 Y12.071
X6.884 Y12.639
X6.796 Y13.201
X6.664 Y13.753
X6.487 Y14.292
X6.269 Y14.814
X6.009 Y15.318
X5.71 Y15.799
X5.372 Y16.255
X4.998 Y16.683
X4.59 Y17.081
X4.15 Y17.445
X3.681 Y17.775
X3.185 Y18.067
X2.666 Y18.319
X2.125 Y18.529
X1.568 Y18.696
X0.996 Y18.818
X0.415 Y18.894
X-0.174 Y18.923
X-0.765 Y18.905
X-1.354 Y18.839
X-1.939 Y18.726
X-2.515 Y18.566
X-3.079 Y18.359
X-3.625 Y18.106
X-4.151 Y17.81
X-4.654 Y17.472
X-5.128 Y17.093
X-5.572 Y16.676
X-5.982 Y16.224
X-6.356 Y15.74
X-6.69 Y15.225
X-6.982 Y14.685
X-7.23 Y14.122
X-7.433 Y13.54
X-7.589 Y12.942
X-7.696 Y12.334
X-7.754 Y11.717
X-7.762 Y11.098
X-7.721 Y10.479
X-7.63 Y9.865
X-7.49 Y9.259
X-7.302 Y8.667
X-7.066 Y8.091
X-6.785 Y7.535
X-6.46 Y7.004
X-6.094 Y6.5
X-5.687 Y6.027
X-5.244 Y5.587
X-4.768 Y5.185
X-4.26 Y4.822
X-3.724 Y4.501
X-3.165 Y4.224
X-2.585 Y3.993
X-1.988 Y3.809
X-1.378 Y3.674
X-0.759 Y3.588
X-0.135 Y3.551
X0.491 Y3.565
X1.115 Y3.63
X1.735 Y3.744
X2.346 Y3.909
X2.943 Y4.123
X3.522 Y4.384
X4.078 Y4.689
X4.608 Y5.038
X5.11 Y5.426
X5.58 Y5.852
X6.016 Y6.313
X6.415 Y6.806
X6.775 Y7.328
X7.096 Y7.876
X7.374 Y8.446
X7.608 Y9.036
X7.797 Y9.642
X7.94 Y10.26
X8.035 Y10.887
X8.083 Y11.52
X8.082 Y12.154
X8.032 Y12.786
X7.934 Y13.413
X7.789 Y14.031
X7.596 Y14.635
X7.357 Y15.223
X7.073 Y15.791
X6.747 Y16.335
X6.38 Y16.852
X5.973 Y17.339
X5.53 Y17.793
X5.054 Y18.212
X4.546 Y18.592
X4.011 Y18.933
X3.451 Y19.232
X2.871 Y19.488
X2.273 Y19.699
X1.66 Y19.865
X1.037 Y19.984
X0.407 Y20.057
X-0.227 Y20.082
X-0.861 Y20.061
X-1.492 Y19.992
X-2.116 Y19.878
X-2.73 Y19.718
X-3.33 Y19.511
X-3.913 Y19.261
X-4.476 Y18.968
X-5.016 Y18.635
X-5.53 Y18.264
X-6.017 Y17.857
X-6.472 Y17.416
X-6.896 Y16.943
X-7.284 Y16.441
X-7.635 Y15.913
X-7.947 Y15.36
X-8.216 Y14.786
X-8.444 Y14.194
X-8.628 Y13.587
X-8.769 Y12.968
X-8.866 Y12.341
X-8.918 Y11.709
X-8.925 Y11.074
X-8.888 Y10.441
X-8.805 Y9.812
X-8.676 Y9.191
X-8.502 Y8.581
X-8.286 Y7.984
X-8.028 Y7.405
X-7.73 Y6.845
X-7.393 Y6.307
X-7.019 Y5.794
X-6.611 Y5.309
X-6.168 Y4.855
X-5.693 Y4.434
X-5.189 Y4.048
X-4.66 Y3.699
X-4.107 Y3.388
X-3.533 Y3.117
X-2.942 Y2.886
X-2.337 Y2.697
X-1.719 Y2.551
X-1.092 Y2.452
X-0.46 Y2.397
X0.174 Y2.388
X0.807 Y2.423
X1.437 Y2.503
X2.059 Y2.626
X2.672 Y2.791
X3.271 Y2.998
X3.855 Y3.248
X4.419 Y3.539
X4.961 Y3.867
X5.48 Y4.232
X5.974 Y4.631
X6.439 Y5.062
X6.875 Y5.523
X7.28 Y6.012
X7.65 Y6.527
X7.984 Y7.067
X8.281 Y7.627
X8.54 Y8.206
X8.761 Y8.801
X8.943 Y9.408
X9.085 Y10.027
X9.186 Y10.653
X9.243 Y11.285
X9.257 Y11.919
X9.228 Y12.553
X9.157 Y13.184
X9.044 Y13.808
X8.89 Y14.423
X8.695 Y15.027
X8.461 Y15.617
X8.187 Y16.189
X7.873 Y16.74
X7.522 Y17.269
X7.137 Y17.773
X6.719 Y18.25
X6.27 Y18.698
X5.792 Y19.116
X5.288 Y19.5
X4.758 Y19.85
X4.205 Y20.161
X3.633 Y20.436
X3.044 Y20.671
X2.441 Y20.868
X1.826 Y21.024
X1.202 Y21.141
X0.573 Y21.218
X-0.061 Y21.252
X-0.695 Y21.243
X-1.328 Y21.193
X-1.956 Y21.102
X-2.576 Y20.97
X-3.187 Y20.799
X-3.785 Y20.588
X-4.369 Y20.34
X-4.936 Y20.054
X-5.482 Y19.731
X-6.006 Y19.373
X-6.505 Y18.982
X-6.979 Y18.561
X-7.426 Y18.11
X-7.844 Y17.633
X-8.231 Y17.13
X-8.586 Y16.604
X-8.905 Y16.056
X-9.187 Y15.488
X-9.433 Y14.903
X-9.473 Y14.786
X-9.489 Y14.731
X-9.502 Y14.676
X-9.509 Y14.62
X-9.874 Y10.895
X-9.904 Y10.284
X-9.888 Y9.812
X-9.827 Y9.271
X-9.707 Y8.66
X-9.536 Y8.05
X-9.32 Y7.453
X-9.064 Y6.873
X-8.771 Y6.31
X-8.442 Y5.767
X-8.078 Y5.247
X-7.682 Y4.752
X-7.254 Y4.283
X-6.798 Y3.843
X-6.315 Y3.432
X-5.807 Y3.051
X-5.277 Y2.703
X-4.726 Y2.388
X-4.157 Y2.108
X-3.571 Y1.865
X-2.97 Y1.66
X-2.662 Y1.576
X-2.599 Y1.561
X-2.535 Y1.553
X-2.471 Y1.55
X1.408
X2.042 Y1.582
X2.517 Y1.643
X3.063 Y1.758
X3.658 Y1.934
X4.25 Y2.163
X4.823 Y2.435
X5.375 Y2.747
X5.906 Y3.095
X6.414 Y3.474
X6.899 Y3.884
X7.358 Y4.321
X7.791 Y4.785
X8.195 Y5.275
X8.569 Y5.787
X8.911 Y6.321
X9.22 Y6.875
X9.495 Y7.447
X9.736 Y8.034
X9.943 Y8.634
X10.02 Y8.907
X10.039 Y8.994
X10.046 Y9.083
X10.043 Y9.173
X9.436 Y15.365
X9.379 Y15.751
X9.296 Y16.108
X9.171 Y16.501
X8.989 Y16.944
X8.732 Y17.451
X8.401 Y17.992
X8.028 Y18.505
X7.62 Y18.99
X7.18 Y19.448
X6.712 Y19.876
X6.218 Y20.274
X5.7 Y20.64
X5.161 Y20.975
X4.603 Y21.276
X4.028 Y21.545
X3.438 Y21.779
X2.836 Y21.979
X2.223 Y22.143
X1.602 Y22.27
X0.974 Y22.361
X0.341 Y22.413
X-0.293 Y22.429
X-0.927 Y22.408
X-1.559 Y22.35
X-2.186 Y22.256
X-2.807 Y22.126
X-3.42 Y21.961
X-4.021 Y21.76
X-4.61 Y21.523
X-5.184 Y21.253
X-5.741 Y20.95
X-6.28 Y20.615
X-6.799 Y20.249
X-7.296 Y19.855
X-7.771 Y19.434
X-8.221 Y18.987
X-8.645 Y18.516
X-9.042 Y18.02
X-9.087 Y17.957
X-9.15 Y17.849
X-9.193 Y17.732
X-9.216 Y17.609
X-9.509 Y14.62
G3 X-8.957 Y14.408 I0.309 J-0.019
G1 X-8.914 Y14.462 Z-0.592
X-8.873 Y14.513 Z-0.569
X-8.837 Y14.559 Z-0.532
X-8.806 Y14.597 Z-0.483
X-8.783 Y14.626 Z-0.425
X-8.769 Y14.644 Z-0.359
X-8.764 Y14.65 Z-0.29
G0 Z3
X0.388 Y1.93
Z0.02
G1 Z-0.29 F450
X0.395 Y1.926 Z-0.359
X0.415 Y1.914 Z-0.425
X0.446 Y1.895 Z-0.483
X0.489 Y1.87 Z-0.532
X0.539 Y1.84 Z-0.569
X0.595 Y1.807 Z-0.592
X0.655 Y1.771 Z-0.6
G3 X1.408 Y1.55 I0.809 J1.36
G1 X4.436
X4.681 Y1.562
X4.914 Y1.593
X5.206 Y1.655
X5.518 Y1.749
X5.906 Y1.9
X6.321 Y2.101
X6.801 Y2.384
X7.32 Y2.749
X7.809 Y3.152
X8.271 Y3.588
X8.705 Y4.05
X9.112 Y4.537
X9.491 Y5.046
X9.84 Y5.576
X10.159 Y6.124
X10.216 Y6.237
X10.267 Y6.364
X10.292 Y6.499
Y6.636
X10.043 Y9.173
G3 X9.485 Y9.314 I-0.307 J-0.041
G1 X9.457 Y9.276
X4.263 Y2.135
X4.196 Y2.042
G3 X4.436 Y1.55 I0.251 J-0.182
G1 X6.454
X6.62 Y1.558
X6.811 Y1.583
X7.023 Y1.629
X7.283 Y1.707
X7.553 Y1.812
X7.886 Y1.973
X8.235 Y2.179
X8.648 Y2.469
X9.112 Y2.854
X9.566 Y3.297
X9.988 Y3.772
X10.329 Y4.208
X10.423 Y4.365
X10.474 Y4.541
X10.479 Y4.724
X10.292 Y6.636
G3 X9.736 Y6.78 I-0.307 J-0.041
G1 X9.706 Y6.739
X6.282 Y2.134
X6.216 Y2.045
G3 X6.454 Y1.55 I0.249 J-0.185
G1 X8.184
X8.334 Y1.555
X8.516 Y1.583
X8.713 Y1.629
X8.93 Y1.7
X9.193 Y1.809
X9.46 Y1.945
X9.787 Y2.148
X10.126 Y2.398
X10.459 Y2.686
X10.486 Y2.714
X10.607 Y2.878
X10.677 Y3.068
X10.692 Y3.27
X10.65 Y3.468
X10.624 Y3.542
X10.589 Y3.686
X10.571 Y3.83
X10.539 Y4.118
X10.482 Y4.695
X10.479 Y4.724
G3 X9.918 Y4.861 I-0.307 J-0.041
G1 X9.894 Y4.827
X8.018 Y2.14
X7.946 Y2.037
G3 X8.184 Y1.55 I0.254 J-0.178
G1 X8.616 Y1.542
X8.763 Y1.523
X8.905 Y1.495
X9.049 Y1.445
X9.191 Y1.397
X9.339 Y1.374
X9.489 Y1.367
X9.639 Y1.375
X9.803 Y1.396
X9.996 Y1.437
X10.174 Y1.49
X10.337 Y1.554
X10.502 Y1.634
X10.636 Y1.713
X10.765 Y1.803
X10.886 Y1.903
X11.02 Y2.05
X11.109 Y2.227
X11.146 Y2.422
X11.129 Y2.619
X11.059 Y2.805
X10.942 Y2.965
G3 X10.539 Y3.013 I-0.229 J-0.209
G1 X10.254 Y2.821
X9.119 Y2.057
X9.009 Y1.982
G3 X9.049 Y1.445 I0.173 J-0.257
G1 X9.193 Y1.383
X9.337 Y1.301
X9.434 Y1.235
X9.481 Y1.198
X9.516 Y1.166
X9.631 Y1.069
X9.763 Y0.998
X9.905 Y0.948
X10.051 Y0.916
X10.2 Y0.899
X10.35
X10.5 Y0.912
X10.647 Y0.939
X10.792 Y0.978
X10.933 Y1.03
X11.068 Y1.095
X11.196 Y1.172
X11.317 Y1.261
X11.429 Y1.361
X11.531 Y1.471
X11.567 Y1.52
X11.67 Y1.704
X11.718 Y1.91
X11.708 Y2.121
X11.639 Y2.321
X11.519 Y2.494
X11.355 Y2.627
G3 X11.033 Y2.615 I-0.151 J-0.271
G1 X10.661 Y2.369
X9.761 Y1.774
X9.564 Y1.643
G3 X9.516 Y1.166 I0.171 J-0.259
G1 X9.597 Y1.09
X9.727 Y0.946
X9.823 Y0.802
X9.846 Y0.758
X9.921 Y0.629
X10.035 Y0.531
X10.163 Y0.453
X10.3 Y0.393
X10.444 Y0.35
X10.592 Y0.324
X10.741 Y0.313
X10.891 Y0.316
X11.04 Y0.333
X11.187 Y0.363
X11.331 Y0.405
X11.471 Y0.459
X11.608 Y0.527
X11.737 Y0.604
X11.858 Y0.691
X11.971 Y0.79
X12.075 Y0.898
X12.169 Y1.015
X12.251 Y1.141
X12.322 Y1.273
X12.38 Y1.411
X12.424 Y1.555
X12.433 Y1.594
X12.447 Y1.79
X12.409 Y1.982
X12.32 Y2.157
X12.187 Y2.302
X12.02 Y2.406
X11.831 Y2.46
X11.773 Y2.461
X11.715 Y2.451
X11.66 Y2.431
X11.61 Y2.4
X11.171 Y2.068
X10.229 Y1.356
X9.939 Y1.138
G3 X9.816 Y0.891 I0.187 J-0.247
G1 X9.824 Y0.823
X9.846 Y0.758
X9.898 Y0.658
X9.914 Y0.624
X9.96 Y0.514
X10.002 Y0.37
X10.044 Y0.226
X10.123 Y0.098
X10.224 Y-0.013
X10.341 Y-0.107
X10.469 Y-0.185
X10.606 Y-0.247
X10.748 Y-0.294
X10.894 Y-0.327
X11.043 Y-0.346
X11.193 Y-0.352
X11.345 Y-0.345
X11.501 Y-0.326
X11.659 Y-0.293
X11.817 Y-0.247
X11.976 Y-0.186
X12.134 Y-0.11
X12.288 Y-0.021
X12.435 Y0.08
X12.574 Y0.195
X12.708 Y0.323
X12.819 Y0.45
X12.922 Y0.587
X13.012 Y0.728
X13.081 Y0.861
X13.143 Y1.006
X13.19 Y1.149
X13.225 Y1.295
X13.248 Y1.443
X13.258 Y1.593
X13.255 Y1.743
X13.252 Y1.766
X13.201 Y1.961
X13.097 Y2.135
X12.95 Y2.274
X12.77 Y2.366
X12.571 Y2.404
X12.076 Y2.431
X11.932 Y2.446
X11.831 Y2.46
G3 X11.562 Y2.355 I-0.035 J-0.308
G1 X11.246 Y1.988
X10.408 Y1.012
X10.073 Y0.623
G3 X10.002 Y0.37 I0.235 J-0.202
G1 X10.031 Y0.225
X10.089 Y-0.142
X10.119 Y-0.289
X10.177 Y-0.427
X10.259 Y-0.553
X10.358 Y-0.666
X10.471 Y-0.764
X10.595 Y-0.85
X10.726 Y-0.922
X10.864 Y-0.981
X11.007 Y-1.027
X11.159 Y-1.063
X11.318 Y-1.088
X11.486 Y-1.1
X11.666 Y-1.098
X11.854 Y-1.081
X12.046 Y-1.048
X12.24 Y-0.999
X12.436 Y-0.931
X12.632 Y-0.846
X12.825 Y-0.743
X13.012 Y-0.623
X13.189 Y-0.488
X13.355 Y-0.338
X13.509 Y-0.175
X13.65 Y-0.001
X13.774 Y0.182
X13.884 Y0.375
X13.977 Y0.574
X14.045 Y0.757
X14.097 Y0.939
X14.133 Y1.121
X14.151 Y1.278
X14.155 Y1.379
X14.126 Y1.606
X14.029 Y1.813
X13.872 Y1.979
X13.688 Y2.12
X13.675 Y2.128
X13.662 Y2.134
X13.366 Y2.244
X13.013 Y2.374
X12.995 Y2.38
X12.977 Y2.383
X12.571 Y2.404
X12.509 Y2.399
X12.449 Y2.382
X12.394 Y2.352
X12.345 Y2.312
X11.97 Y1.932
X10.532 Y0.473
X10.176 Y0.112
G3 X10.089 Y-0.142 I0.221 J-0.218
G1 X10.165 Y-0.64
X10.175 Y-0.706
X10.179 Y-0.723
X10.186 Y-0.739
X10.346 Y-1.07
X10.418 Y-1.202
X10.506 Y-1.323
X10.609 Y-1.433
X10.723 Y-1.529
X10.847 Y-1.614
X10.978 Y-1.687
X11.118 Y-1.749
X11.272 Y-1.803
X11.435 Y-1.846
X11.615 Y-1.878
X11.81 Y-1.897
X12.012 Y-1.901
X12.224 Y-1.887
X12.448 Y-1.855
X12.68 Y-1.802
X12.915 Y-1.728
X13.149 Y-1.634
X13.38 Y-1.518
X13.608 Y-1.379
X13.83 Y-1.219
X14.042 Y-1.038
X14.242 Y-0.838
X14.424 Y-0.623
X14.588 Y-0.397
X14.731 Y-0.16
X14.824 Y0.027
X14.867 Y0.133
X14.892 Y0.246
X14.9 Y0.361
G3 X14.494 Y0.64 I-0.31 J-0.015
G1 X14.288 Y0.573
X10.788 Y-0.567
X10.534 Y-0.65
G3 X10.346 Y-1.07 I0.096 J-0.295
G1 X10.49 Y-1.366
X10.501 Y-1.383
X10.923 Y-1.835
X10.983 Y-1.897
X10.998 Y-1.911
X11.013 Y-1.92
X11.62 Y-2.266
X11.632 Y-2.271
X12.292 Y-2.417
X12.328 Y-2.424
X12.364
X13.022 Y-2.37
X13.053 Y-2.366
X13.069 Y-2.363
X13.085 Y-2.357
X13.707 Y-2.106
X13.73 Y-2.096
X13.741 Y-2.09
X13.753 Y-2.082
X14.283 Y-1.649
X14.302 Y-1.632
X14.315 Y-1.615
X14.675 Y-1.072
X14.698 Y-1.036
X14.713 Y-1
X14.903 Y-0.351
X14.908 Y-0.333
X14.909 Y-0.315
Y-0.279
X14.899 Y0.388
X14.897 Y0.406
X14.721 Y0.946
X14.673 Y1.09
X14.671 Y1.094
X14.47 Y1.379
X14.255 Y1.682
X14.239 Y1.697
X13.872 Y1.979
G3 X13.4 Y1.622 I-0.18 J-0.252
G1 X13.423 Y1.557 Z-0.592
X13.445 Y1.495 Z-0.569
X13.465 Y1.44 Z-0.532
X13.482 Y1.393 Z-0.483
X13.494 Y1.359 Z-0.425
X13.502 Y1.337 Z-0.359
X13.504 Y1.33 Z-0.29
G0 Z3
X9.158 Y14.312
Z0.02
G1 Z-0.29 F450
X9.161 Y14.319 Z-0.359
X9.171 Y14.34 Z-0.425
X9.187 Y14.374 Z-0.483
X9.207 Y14.418 Z-0.532
X9.232 Y14.471 Z-0.569
X9.26 Y14.531 Z-0.592
X9.29 Y14.593 Z-0.6
G3 X9.436 Y15.365 I-1.433 J0.672
G1 X9.196 Y17.816
X9.158 Y18.069
X9.108 Y18.285
X9.026 Y18.541
X8.916 Y18.81
X8.749 Y19.14
X8.537 Y19.487
X8.247 Y19.884
X7.867 Y20.326
X7.416 Y20.773
X6.933 Y21.184
X6.424 Y21.562
X5.892 Y21.908
X5.341 Y22.222
X4.773 Y22.505
X4.19 Y22.756
X3.595 Y22.976
X2.989 Y23.164
X2.374 Y23.32
X1.752 Y23.443
X1.124 Y23.533
X0.492 Y23.59
X-0.142 Y23.613
X-0.777 Y23.602
X-1.409 Y23.557
X-2.039 Y23.479
X-2.664 Y23.369
X-3.282 Y23.227
X-3.892 Y23.052
X-4.492 Y22.846
X-5.08 Y22.608
X-5.655 Y22.34
X-6.216 Y22.043
X-6.76 Y21.716
X-7.285 Y21.361
X-7.792 Y20.98
X-8.279 Y20.573
X-8.744 Y20.142
X-8.816 Y20.068
X-8.915 Y19.94
X-8.984 Y19.793
X-9.018 Y19.634
X-9.216 Y17.609
G3 X-8.664 Y17.397 I0.309 J-0.019
G1 X-8.621 Y17.451 Z-0.592
X-8.58 Y17.502 Z-0.569
X-8.544 Y17.548 Z-0.532
X-8.513 Y17.587 Z-0.483
X-8.49 Y17.616 Z-0.425
X-8.476 Y17.634 Z-0.359
X-8.471 Y17.64 Z-0.29
G0 Z3
X8.918 Y16.763
Z0.02
G1 Z-0.29 F450
X8.921 Y16.77 Z-0.359
X8.931 Y16.791 Z-0.425
X8.946 Y16.825 Z-0.483
X8.967 Y16.869 Z-0.532
X8.992 Y16.922 Z-0.569
X9.02 Y16.982 Z-0.592
X9.049 Y17.044 Z-0.6
G3 X9.196 Y17.816 I-1.433 J0.672
G1 X9.012 Y19.69
X8.982 Y19.896
X8.942 Y20.066
X8.877 Y20.271
X8.784 Y20.498
X8.66 Y20.742
X8.483 Y21.032
X8.262 Y21.334
X7.965 Y21.68
X7.576 Y22.065
X7.091 Y22.474
X6.574 Y22.842
X6.034 Y23.175
X5.474 Y23.474
X4.899 Y23.741
X4.31 Y23.978
X3.711 Y24.185
X3.101 Y24.362
X2.484 Y24.51
X1.861 Y24.627
X1.233 Y24.715
X0.601 Y24.772
X-0.033 Y24.799
X-0.668 Y24.796
X-1.301 Y24.761
X-1.932 Y24.695
X-2.559 Y24.599
X-3.181 Y24.473
X-3.796 Y24.318
X-4.403 Y24.134
X-5.001 Y23.922
X-5.589 Y23.682
X-6.164 Y23.414
X-6.726 Y23.12
X-7.273 Y22.799
X-7.804 Y22.451
X-8.317 Y22.079
X-8.58 Y21.868
X-8.713 Y21.729
X-8.805 Y21.559
X-8.848 Y21.371
X-8.927 Y20.555
X-9.018 Y19.634
G3 X-8.465 Y19.422 I0.309 J-0.019
G1 X-8.423 Y19.476 Z-0.592
X-8.382 Y19.527 Z-0.569
X-8.345 Y19.573 Z-0.532
X-8.315 Y19.612 Z-0.483
X-8.292 Y19.641 Z-0.425
X-8.278 Y19.659 Z-0.359
X-8.273 Y19.665 Z-0.29
G0 Z3
X8.734 Y18.638
Z0.02
G1 Z-0.29 F450
X8.737 Y18.645 Z-0.359
X8.747 Y18.666 Z-0.425
X8.763 Y18.699 Z-0.483
X8.783 Y18.743 Z-0.532
X8.808 Y18.797 Z-0.569
X8.836 Y18.856 Z-0.592
X8.865 Y18.918 Z-0.6
G3 X9.012 Y19.69 I-1.433 J0.672
G1 X8.857 Y21.276
X8.826 Y21.493
X8.788 Y21.66
X8.735 Y21.828
X8.656 Y22.025
X8.54 Y22.256
X8.402 Y22.484
X8.201 Y22.762
X7.964 Y23.04
X7.639 Y23.365
X7.225 Y23.717
X6.717 Y24.083
X6.175 Y24.411
X5.611 Y24.703
X5.3 Y24.841
X5.25 Y24.861
X5.199 Y24.877
X5.147 Y24.89
X4.003 Y25.119
X3.859 Y25.148
X3.427 Y25.248
X3.269 Y25.313
X2.919 Y25.461
X2.404 Y25.631
X1.787 Y25.782
X1.161 Y25.885
X0.53 Y25.949
X-0.103 Y25.98
X-0.738 Y25.978
X-1.371 Y25.946
X-2.003 Y25.885
X-2.419 Y25.826
X-2.57 Y25.787
X-2.71 Y25.718
X-2.831 Y25.619
X-2.849 Y25.601
X-2.917 Y25.537
X-3.061 Y25.428
X-3.205 Y25.343
X-3.267 Y25.313
X-3.349 Y25.277
X-3.493 Y25.237
X-3.782 Y25.166
X-3.926 Y25.134
X-5.079 Y24.904
X-5.694 Y24.748
X-6.22 Y24.588
X-6.81 Y24.355
X-7.381 Y24.078
X-7.934 Y23.766
X-8.469 Y23.426
X-8.747 Y23.217
X-8.861 Y23.116
X-8.985 Y22.973
X-9.068 Y22.804
X-9.104 Y22.619
X-9.091 Y22.431
X-9.03 Y22.253
G3 X-8.6 Y22.133 I0.273 J0.147
G1 X-8.353 Y22.279
X-4.871 Y24.331
G3 X-5.079 Y24.904 I-0.157 J0.267
G1 X-5.656 Y24.788
X-5.8 Y24.762
X-5.944 Y24.743
X-6.088 Y24.739
X-6.232 Y24.744
X-6.376 Y24.767
X-6.521 Y24.804
X-6.6 Y24.83
X-6.745 Y24.869
X-6.893 Y24.89
X-7.064 Y24.9
X-7.264 Y24.896
X-7.488 Y24.873
X-7.768 Y24.821
X-8.054 Y24.744
X-8.36 Y24.634
X-8.62 Y24.516
X-8.854 Y24.387
X-9.028 Y24.272
X-9.197 Y24.14
X-9.33 Y24.017
X-9.451 Y23.886
X-9.557 Y23.75
X-9.591 Y23.7
X-9.682 Y23.5
X-9.71 Y23.282
X-9.671 Y23.066
X-9.568 Y22.872
X-9.412 Y22.718
G3 X-9.058 Y22.7 I0.19 J0.245
G1 X-8.712 Y22.917
X-6.621 Y24.226
X-6.542 Y24.276
G3 X-6.6 Y24.83 I-0.164 J0.263
G1 X-6.665 Y24.851
X-6.726 Y24.881
X-6.809 Y24.924
X-6.953 Y25.007
X-6.979 Y25.025
X-7.097 Y25.119
X-7.126 Y25.146
X-7.239 Y25.245
X-7.371 Y25.317
X-7.51 Y25.373
X-7.654 Y25.415
X-7.805 Y25.444
X-7.964 Y25.462
X-8.146 Y25.467
X-8.335 Y25.457
X-8.531 Y25.432
X-8.739 Y25.387
X-8.948 Y25.324
X-9.157 Y25.243
X-9.361 Y25.143
X-9.545 Y25.035
X-9.705 Y24.923
X-9.862 Y24.792
X-9.984 Y24.673
X-10.091 Y24.55
X-10.195 Y24.409
X-10.275 Y24.281
X-10.343 Y24.148
X-10.404 Y24.001
X-10.43 Y23.919
X-10.465 Y23.695
X-10.429 Y23.471
X-10.326 Y23.27
X-10.167 Y23.109
X-9.965 Y23.006
G3 X-9.711 Y23.043 I0.086 J0.298
G1 X-9.273 Y23.325
X-7.379 Y24.542
X-7.181 Y24.669
G3 X-7.126 Y25.146 I-0.168 J0.261
G1 X-7.15 Y25.169
X-7.241 Y25.266
X-7.285 Y25.313
X-7.387 Y25.457
X-7.429 Y25.537
X-7.507 Y25.665
X-7.605 Y25.778
X-7.72 Y25.874
X-7.847 Y25.955
X-7.982 Y26.021
X-8.122 Y26.073
X-8.267 Y26.112
X-8.422 Y26.141
X-8.596 Y26.158
X-8.775 Y26.162
X-8.967 Y26.151
X-9.168 Y26.123
X-9.377 Y26.077
X-9.584 Y26.013
X-9.789 Y25.931
X-9.99 Y25.832
X-10.185 Y25.715
X-10.369 Y25.583
X-10.542 Y25.437
X-10.701 Y25.28
X-10.829 Y25.13
X-10.953 Y24.96
X-11.049 Y24.802
X-11.122 Y24.659
X-11.189 Y24.495
X-11.238 Y24.34
X-11.272 Y24.194
X-11.293 Y24.042
X-11.298 Y23.962
X-11.283 Y23.764
X-11.215 Y23.577
X-11.098 Y23.417
X-10.943 Y23.294
X-10.759 Y23.217
X-10.125 Y23.052
X-9.965 Y23.006
G3 X-9.675 Y23.083 I0.076 J0.301
G1 X-9.334 Y23.41
X-7.777 Y24.903
X-7.493 Y25.176
G3 X-7.429 Y25.537 I-0.215 J0.224
G1 X-7.464 Y25.601
X-7.53 Y25.746
X-7.584 Y25.89
X-7.674 Y26.131
X-7.733 Y26.269
X-7.819 Y26.392
X-7.922 Y26.501
X-8.037 Y26.596
X-8.162 Y26.679
X-8.295 Y26.749
X-8.435 Y26.807
X-8.583 Y26.856
X-8.749 Y26.895
X-8.932 Y26.924
X-9.122 Y26.938
X-9.326 Y26.937
X-9.544 Y26.918
X-9.77 Y26.879
X-9.998 Y26.822
X-10.23 Y26.743
X-10.464 Y26.642
X-10.693 Y26.52
X-10.916 Y26.378
X-11.126 Y26.218
X-11.32 Y26.045
X-11.498 Y25.858
X-11.659 Y25.659
X-11.8 Y25.453
X-11.921 Y25.242
X-12.012 Y25.05
X-12.089 Y24.844
X-12.108 Y24.778
X-12.135 Y24.548
X-12.089 Y24.321
X-11.973 Y24.121
X-11.632 Y23.704
X-11.621 Y23.691
X-11.609 Y23.681
X-10.99 Y23.283
X-10.972 Y23.275
X-10.954 Y23.268
X-10.759 Y23.217
G3 X-10.481 Y23.292 I0.068 J0.302
G1 X-10.124 Y23.622
