(1001)
(Machine)
(  vendor: Autodesk)
(  description: Generic 3-axis)
(T3  D=3.1 CR=0 - ZMIN=-3 - flat end mill)
G90 G94
G17
G21

(2D Contour3)
T3
S1000 M3
G54
M8
G0 X-0.31 Y2.48
Z15
Z5
G1 Z1.2 F200
Z0.11
G19 G2 Y2.17 Z-0.2 J-0.31 K0 F450
G1 Y1.86
G17 G3 X0 Y1.55 I0.31 J0
G2 X0.304 Y1.52 I0 J-1.55
G1 X8.304 Y-0.08
G2 X9.543 Y-1.449 I-0.304 J-1.52
G1 X11.543 Y-21.849
G2 X10 Y-23.55 I-1.543 J-0.151
G1 X-10
G2 X-11.543 Y-21.849 I0 J1.55
G1 X-9.543 Y-1.449
G2 X-8.304 Y-0.08 I1.543 J-0.151
G1 X-0.304 Y1.52
G2 X0 Y1.55 I0.304 J-1.52
G3 X0.31 Y1.86 I0 J0.31
G1 Y2.17
G19 G3 Y2.48 Z0.11 J0 K0.31
G0 Z5
X-0.31
G1 Z1 F200
Z-0.09
G2 Y2.17 Z-0.4 J-0.31 K0 F450
G1 Y1.86
G17 G3 X0 Y1.55 I0.31 J0
G2 X0.304 Y1.52 I0 J-1.55
G1 X8.304 Y-0.08
G2 X9.543 Y-1.449 I-0.304 J-1.52
G1 X11.543 Y-21.849
G2 X10 Y-23.55 I-1.543 J-0.151
G1 X-10
G2 X-11.543 Y-21.849 I0 J1.55
G1 X-9.543 Y-1.449
G2 X-8.304 Y-0.08 I1.543 J-0.151
G1 X-0.304 Y1.52
G2 X0 Y1.55 I0.304 J-1.52
G3 X0.31 Y1.86 I0 J0.31
G1 Y2.17
G19 G3 Y2.48 Z-0.09 J0 K0.31
G0 Z5
X-0.31
G1 Z0.8 F200
Z-0.29
G2 Y2.17 Z-0.6 J-0.31 K0 F450
G1 Y1.86
G17 G3 X0 Y1.55 I0.31 J0
G2 X0.304 Y1.52 I0 J-1.55
G1 X8.304 Y-0.08
G2 X9.543 Y-1.449 I-0.304 J-1.52
G1 X11.543 Y-21.849
G2 X10 Y-23.55 I-1.543 J-0.151
G1 X-10
G2 X-11.543 Y-21.849 I0 J1.55
G1 X-9.543 Y-1.449
G2 X-8.304 Y-0.08 I1.543 J-0.151
G1 X-0.304 Y1.52
G2 X0 Y1.55 I0.304 J-1.52
G3 X0.31 Y1.86 I0 J0.31
G1 Y2.17
G19 G3 Y2.48 Z-0.29 J0 K0.31
G0 Z5
X-0.31
G1 Z0.6 F200
Z-0.49
G2 Y2.17 Z-0.8 J-0.31 K0 F450
G1 Y1.86
G17 G3 X0 Y1.55 I0.31 J0
G2 X0.304 Y1.52 I0 J-1.55
G1 X8.304 Y-0.08
G2 X9.543 Y-1.449 I-0.304 J-1.52
G1 X11.543 Y-21.849
G2 X10 Y-23.55 I-1.543 J-0.151
G1 X-10
G2 X-11.543 Y-21.849 I0 J1.55
G1 X-9.543 Y-1.449
G2 X-8.304 Y-0.08 I1.543 J-0.151
G1 X-0.304 Y1.52
G2 X0 Y1.55 I0.304 J-1.52
G3 X0.31 Y1.86 I0 J0.31
G1 Y2.17
G19 G3 Y2.48 Z-0.49 J0 K0.31
G0 Z5
X-0.31
G1 Z0.4 F200
Z-0.69
G2 Y2.17 Z-1 J-0.31 K0 F450
G1 Y1.86
G17 G3 X0 Y1.55 I0.31 J0
G2 X0.304 Y1.52 I0 J-1.55
G1 X8.304 Y-0.08
G2 X9.543 Y-1.449 I-0.304 J-1.52
G1 X11.543 Y-21.849
G2 X10 Y-23.55 I-1.543 J-0.151
G1 X-10
G2 X-11.543 Y-21.849 I0 J1.55
G1 X-9.543 Y-1.449
G2 X-8.304 Y-0.08 I1.543 J-0.151
G1 X-0.304 Y1.52
G2 X0 Y1.55 I0.304 J-1.52
G3 X0.31 Y1.86 I0 J0.31
G1 Y2.17
G19 G3 Y2.48 Z-0.69 J0 K0.31
G0 Z5
X-0.31
G1 Z0.2 F200
Z-0.89
G2 Y2.17 Z-1.2 J-0.31 K0 F450
G1 Y1.86
G17 G3 X0 Y1.55 I0.31 J0
G2 X0.304 Y1.52 I0 J-1.55
G1 X8.304 Y-0.08
G2 X9.543 Y-1.449 I-0.304 J-1.52
G1 X11.543 Y-21.849
G2 X10 Y-23.55 I-1.543 J-0.151
G1 X-10
G2 X-11.543 Y-21.849 I0 J1.55
G1 X-9.543 Y-1.449
G2 X-8.304 Y-0.08 I1.543 J-0.151
G1 X-0.304 Y1.52
G2 X0 Y1.55 I0.304 J-1.52
G3 X0.31 Y1.86 I0 J0.31
G1 Y2.17
G19 G3 Y2.48 Z-0.89 J0 K0.31
G0 Z5
X-0.31
G1 Z0 F200
Z-1.09
G2 Y2.17 Z-1.4 J-0.31 K0 F450
G1 Y1.86
G17 G3 X0 Y1.55 I0.31 J0
G2 X0.304 Y1.52 I0 J-1.55
G1 X8.304 Y-0.08
G2 X9.543 Y-1.449 I-0.304 J-1.52
G1 X11.543 Y-21.849
G2 X10 Y-23.55 I-1.543 J-0.151
G1 X-10
G2 X-11.543 Y-21.849 I0 J1.55
G1 X-9.543 Y-1.449
G2 X-8.304 Y-0.08 I1.543 J-0.151
G1 X-0.304 Y1.52
G2 X0 Y1.55 I0.304 J-1.52
G3 X0.31 Y1.86 I0 J0.31
G1 Y2.17
G19 G3 Y2.48 Z-1.09 J0 K0.31
G0 Z5
X-0.31
G1 Z-0.2 F200
Z-1.29
G2 Y2.17 Z-1.6 J-0.31 K0 F450
G1 Y1.86
G17 G3 X0 Y1.55 I0.31 J0
G2 X0.304 Y1.52 I0 J-1.55
G1 X8.304 Y-0.08
G2 X9.543 Y-1.449 I-0.304 J-1.52
G1 X11.543 Y-21.849
G2 X10 Y-23.55 I-1.543 J-0.151
G1 X-10
G2 X-11.543 Y-21.849 I0 J1.55
G1 X-9.543 Y-1.449
G2 X-8.304 Y-0.08 I1.543 J-0.151
G1 X-0.304 Y1.52
G2 X0 Y1.55 I0.304 J-1.52
G3 X0.31 Y1.86 I0 J0.31
G1 Y2.17
G19 G3 Y2.48 Z-1.29 J0 K0.31
G0 Z5
X-0.31
G1 Z-0.4 F200
Z-1.49
G2 Y2.17 Z-1.8 J-0.31 K0 F450
G1 Y1.86
G17 G3 X0 Y1.55 I0.31 J0
G2 X0.304 Y1.52 I0 J-1.55
G1 X8.304 Y-0.08
G2 X9.543 Y-1.449 I-0.304 J-1.52
G1 X11.543 Y-21.849
G2 X10 Y-23.55 I-1.543 J-0.151
G1 X-10
G2 X-11.543 Y-21.849 I0 J1.55
G1 X-9.543 Y-1.449
G2 X-8.304 Y-0.08 I1.543 J-0.151
G1 X-0.304 Y1.52
G2 X0 Y1.55 I0.304 J-1.52
G3 X0.31 Y1.86 I0 J0.31
G1 Y2.17
G19 G3 Y2.48 Z-1.49 J0 K0.31
G0 Z5
X-0.31
G1 Z-0.6 F200
Z-1.69
G2 Y2.17 Z-2 J-0.31 K0 F450
G1 Y1.86
G17 G3 X0 Y1.55 I0.31 J0
G2 X0.304 Y1.52 I0 J-1.55
G1 X8.304 Y-0.08
G2 X9.543 Y-1.449 I-0.304 J-1.52
G1 X11.543 Y-21.849
G2 X10 Y-23.55 I-1.543 J-0.151
G1 X-10
G2 X-11.543 Y-21.849 I0 J1.55
G1 X-9.543 Y-1.449
G2 X-8.304 Y-0.08 I1.543 J-0.151
G1 X-0.304 Y1.52
G2 X0 Y1.55 I0.304 J-1.52
G3 X0.31 Y1.86 I0 J0.31
G1 Y2.17
G19 G3 Y2.48 Z-1.69 J0 K0.31
G0 Z5
X-0.31
G1 Z-0.8 F200
Z-1.89
G2 Y2.17 Z-2.2 J-0.31 K0 F450
G1 Y1.86
G17 G3 X0 Y1.55 I0.31 J0
G2 X0.304 Y1.52 I0 J-1.55
G1 X8.304 Y-0.08
G2 X9.543 Y-1.449 I-0.304 J-1.52
G1 X11.543 Y-21.849
G2 X10 Y-23.55 I-1.543 J-0.151
G1 X-10
G2 X-11.543 Y-21.849 I0 J1.55
G1 X-9.543 Y-1.449
G2 X-8.304 Y-0.08 I1.543 J-0.151
G1 X-0.304 Y1.52
G2 X0 Y1.55 I0.304 J-1.52
G3 X0.31 Y1.86 I0 J0.31
G1 Y2.17
G19 G3 Y2.48 Z-1.89 J0 K0.31
G0 Z5
X-0.31
G1 Z-1 F200
Z-2.09
G2 Y2.17 Z-2.4 J-0.31 K0 F450
G1 Y1.86
G17 G3 X0 Y1.55 I0.31 J0
G2 X0.304 Y1.52 I0 J-1.55
G1 X8.304 Y-0.08
G2 X9.543 Y-1.449 I-0.304 J-1.52
G1 X11.543 Y-21.849
G2 X10 Y-23.55 I-1.543 J-0.151
G1 X-10
G2 X-11.543 Y-21.849 I0 J1.55
G1 X-9.543 Y-1.449
G2 X-8.304 Y-0.08 I1.543 J-0.151
G1 X-0.304 Y1.52
G2 X0 Y1.55 I0.304 J-1.52
G3 X0.31 Y1.86 I0 J0.31
G1 Y2.17
G19 G3 Y2.48 Z-2.09 J0 K0.31
G0 Z5
X-0.31
G1 Z-1.2 F200
Z-2.29
G2 Y2.17 Z-2.6 J-0.31 K0 F450
G1 Y1.86
G17 G3 X0 Y1.55 I0.31 J0
G2 X0.304 Y1.52 I0 J-1.55
G1 X8.304 Y-0.08
G2 X9.543 Y-1.449 I-0.304 J-1.52
G1 X11.543 Y-21.849
G2 X10 Y-23.55 I-1.543 J-0.151
G1 X-10
G2 X-11.543 Y-21.849 I0 J1.55
G1 X-9.543 Y-1.449
G2 X-8.304 Y-0.08 I1.543 J-0.151
G1 X-0.304 Y1.52
G2 X0 Y1.55 I0.304 J-1.52
G3 X0.31 Y1.86 I0 J0.31
G1 Y2.17
G19 G3 Y2.48 Z-2.29 J0 K0.31
G0 Z5
X-0.31
G1 Z-1.4 F200
Z-2.49
G2 Y2.17 Z-2.8 J-0.31 K0 F450
G1 Y1.86
G17 G3 X0 Y1.55 I0.31 J0
G2 X0.304 Y1.52 I0 J-1.55
G1 X8.304 Y-0.08
G2 X9.543 Y-1.449 I-0.304 J-1.52
G1 X11.543 Y-21.849
G2 X10 Y-23.55 I-1.543 J-0.151
G1 X-10
G2 X-11.543 Y-21.849 I0 J1.55
G1 X-9.543 Y-1.449
G2 X-8.304 Y-0.08 I1.543 J-0.151
G1 X-0.304 Y1.52
G2 X0 Y1.55 I0.304 J-1.52
G3 X0.31 Y1.86 I0 J0.31
G1 Y2.17
G19 G3 Y2.48 Z-2.49 J0 K0.31
G0 Z5
X-0.31
G1 Z-1.6 F200
Z-2.69
G2 Y2.17 Z-3 J-0.31 K0 F450
G1 Y1.86
G17 G3 X0 Y1.55 I0.31 J0
G2 X0.304 Y1.52 I0 J-1.55
G1 X8.304 Y-0.08
G2 X9.543 Y-1.449 I-0.304 J-1.52
G1 X11.543 Y-21.849
G2 X10 Y-23.55 I-1.543 J-0.151
G1 X-10
G2 X-11.543 Y-21.849 I0 J1.55
G1 X-9.543 Y-1.449
G2 X-8.304 Y-0.08 I1.543 J-0.151
G1 X-0.304 Y1.52
G2 X0 Y1.55 I0.304 J-1.52
G3 X0.31 Y1.86 I0 J0.31
G1 Y2.17
G19 G3 Y2.48 Z-2.69 J0 K0.31
G0 Z15
G17
M9
M5
M30
